; generated by PrusaSlicer 2.2.0+win64 on 2020-10-11 at 16:57:37 UTC


;
;

;
;
; 

; external perimeters extrusion width = 0.45mm
; perimeters extrusion width = 0.45mm
; infill extrusion width = 0.45mm
; solid infill extrusion width = 0.45mm
; top infill extrusion width = 0.40mm
; first layer extrusion width = 0.42mm

M73 P0 R106
M201 X1250 Y1250 Z400 E5000 ; sets maximum accelerations, mm/sec^2
M203 X180 Y180 Z12 E80 ; sets maximum feedrates, mm/sec
M204 P1250 R1250 T1250 ; sets acceleration (P, T) and retract acceleration (R), mm/sec^2
M205 X8.00 Y8.00 Z2.00 E10.00 ; sets the jerk limits, mm/sec
M205 S0 T0 ; sets the minimum extruding and travel feed rate, mm/sec
M107
G90 ; use absolute coordinates
M83 ; extruder relative mode
M104 S170 ; set extruder temp for bed leveling
M140 S60 ; set bed temp
M109 R170 ; wait for bed leveling temp
M190 S60 ; wait for bed temp
G28 ; home all without mesh bed level
G29 ; mesh bed leveling 
M104 S215 ; set extruder temp
G92 E0.0
G1 Y-2.0 X179 F2400
G1 Z3 F720
M109 S215 ; wait for extruder temp

; intro line
G1 X170 F1000
G1 Z0.2 F720
G1 X110.0 E8.0 F900
M73 P0 R105
G1 X40.0 E10.0 F700
G92 E0.0

M221 S95 ; set flow
G21 ; set units to millimeters
G90 ; use absolute coordinates
M83 ; use relative distances for extrusion
M900 K0.2 ; Filament gcode LA 1.5
; ; Filament gcode LA 1.0
;BEFORE_LAYER_CHANGE
G92 E0.0
;0.2


G1 Z0.200 F9000.000
;AFTER_LAYER_CHANGE
;0.2
G1 E-3.20000 F4200.00000
G1 Z0.400 F9000.000
G1 X20.332 Y27.595
G1 Z0.200
G1 E3.20000 F2400.00000
M204 S800
G1 F1200.000
G1 X20.799 Y26.855 E0.02743
G1 X21.441 Y26.365 E0.02532
G1 X22.210 Y26.119 E0.02532
G1 X50.301 Y22.694 E0.88731
G1 X159.563 Y22.693 E3.42585
G1 X160.458 Y22.869 E0.02860
G1 X161.221 Y23.370 E0.02860
G1 X161.739 Y24.121 E0.02860
G1 X161.936 Y25.015 E0.02872
G1 X161.931 Y126.470 E3.18104
G1 X161.751 Y127.223 E0.02426
G1 X150.778 Y153.037 E0.87949
G1 X150.333 Y153.724 E0.02567
G1 X149.543 Y154.285 E0.03036
G1 X148.596 Y154.484 E0.03036
G1 X39.392 Y154.484 E3.42400
G1 X38.530 Y154.318 E0.02755
G1 X37.786 Y153.849 E0.02755
G1 X20.628 Y131.117 E0.89301
G1 X20.337 Y130.596 E0.01870
G1 X20.185 Y130.019 E0.01870
G1 X20.164 Y28.457 E3.18441
G1 X20.320 Y27.654 E0.02567
M204 S1250
G1 E-2.24000 F4200.00000
G1 F7200.000
G1 X20.799 Y26.855 E-0.51595
G1 X21.367 Y26.422 E-0.39605
G1 E-0.04800 F4200.00000
G1 Z0.400 F9000.000
G1 X133.176 Y130.321
G1 Z0.200
G1 E3.20000 F2400.00000
M204 S800
G1 F1200.000
G1 X158.302 Y127.249 E0.79367
G1 X148.399 Y150.545 E0.79367
G1 X133.212 Y130.369 E0.79178
M204 S1250
G1 X132.482 Y130.026 F9000.000
M204 S800
G1 F1200.000
G1 X158.904 Y126.796 E0.83462
G1 X148.491 Y151.293 E0.83462
G1 X132.518 Y130.074 E0.83274
M204 S1250
G1 X132.326 Y130.394 F9000.000
G1 E-2.24000 F4200.00000
G1 F7200.000
G1 X134.151 Y129.871 E-0.91200
G1 E-0.04800 F4200.00000
G1 Z0.400 F9000.000
G1 X157.897 Y127.914
G1 Z0.200
G1 E3.20000 F2400.00000
M204 S800
G1 F1200.000
G1 X157.602 Y127.620 E0.01314
G1 X157.124 Y127.678 E0.01523
G1 X157.607 Y128.161 E0.02158
G1 X157.447 Y128.538 E0.01294
G1 X156.645 Y127.737 E0.03581
G1 X156.166 Y127.795 E0.01523
G1 X157.286 Y128.915 E0.05003
G1 X157.126 Y129.292 E0.01294
G1 X155.688 Y127.854 E0.06425
G1 X155.209 Y127.912 E0.01523
G1 X156.966 Y129.669 E0.07848
G1 X156.806 Y130.046 E0.01294
G1 X154.730 Y127.971 E0.09270
G1 X154.252 Y128.029 E0.01523
G1 X156.645 Y130.423 E0.10693
G1 X156.485 Y130.800 E0.01294
G1 X153.773 Y128.088 E0.12115
G1 X153.294 Y128.146 E0.01523
G1 X156.325 Y131.177 E0.13538
G1 X156.165 Y131.554 E0.01294
G1 X152.816 Y128.205 E0.14960
G1 X152.337 Y128.264 E0.01523
G1 X156.004 Y131.931 E0.16383
G1 X155.844 Y132.308 E0.01294
G1 X151.858 Y128.322 E0.17805
G1 X151.380 Y128.381 E0.01523
G1 X155.684 Y132.685 E0.19227
G1 X155.524 Y133.062 E0.01294
G1 X150.901 Y128.439 E0.20650
G1 X150.422 Y128.498 E0.01523
G1 X155.363 Y133.439 E0.22072
G1 X155.203 Y133.816 E0.01294
G1 X149.943 Y128.556 E0.23495
G1 X149.465 Y128.615 E0.01523
G1 X155.043 Y134.193 E0.24917
G1 X154.883 Y134.570 E0.01294
G1 X148.986 Y128.673 E0.26340
G1 X148.507 Y128.732 E0.01523
G1 X154.723 Y134.947 E0.27762
G1 X154.562 Y135.324 E0.01294
G1 X148.029 Y128.790 E0.29185
G1 X147.550 Y128.849 E0.01523
G1 X154.402 Y135.701 E0.30607
G1 X154.242 Y136.078 E0.01294
G1 X147.071 Y128.907 E0.32029
G1 X146.593 Y128.966 E0.01523
G1 X154.082 Y136.455 E0.33452
G1 X153.921 Y136.832 E0.01294
G1 X146.114 Y129.024 E0.34874
G1 X145.635 Y129.083 E0.01523
G1 X153.761 Y137.209 E0.36297
G1 X153.601 Y137.586 E0.01294
G1 X145.157 Y129.141 E0.37719
G1 X144.678 Y129.200 E0.01523
G1 X153.441 Y137.963 E0.39142
G1 X153.280 Y138.339 E0.01294
G1 X144.199 Y129.258 E0.40564
G1 X143.721 Y129.317 E0.01523
G1 X153.120 Y138.716 E0.41987
G1 X152.960 Y139.093 E0.01294
G1 X143.242 Y129.375 E0.43409
G1 X142.763 Y129.434 E0.01523
G1 X152.800 Y139.470 E0.44831
G1 X152.639 Y139.847 E0.01294
G1 X142.285 Y129.493 E0.46254
G1 X141.806 Y129.551 E0.01523
G1 X152.479 Y140.224 E0.47676
G1 X152.319 Y140.601 E0.01294
G1 X141.327 Y129.610 E0.49099
G1 X140.849 Y129.668 E0.01523
G1 X152.159 Y140.978 E0.50521
G1 X151.998 Y141.355 E0.01294
G1 X140.370 Y129.727 E0.51944
G1 X139.891 Y129.785 E0.01523
G1 X151.838 Y141.732 E0.53366
M73 P1 R104
G1 X151.678 Y142.109 E0.01294
G1 X139.412 Y129.844 E0.54789
G1 X138.934 Y129.902 E0.01523
G1 X151.518 Y142.486 E0.56211
G1 X151.357 Y142.863 E0.01294
G1 X138.455 Y129.961 E0.57634
G1 X137.976 Y130.019 E0.01523
G1 X151.197 Y143.240 E0.59056
G1 X151.037 Y143.617 E0.01294
G1 X137.498 Y130.078 E0.60478
G1 X137.019 Y130.136 E0.01523
G1 X150.877 Y143.994 E0.61901
G1 X150.716 Y144.371 E0.01294
G1 X136.540 Y130.195 E0.63323
G1 X136.062 Y130.253 E0.01523
G1 X150.556 Y144.748 E0.64746
G1 X150.396 Y145.125 E0.01294
G1 X135.583 Y130.312 E0.66168
G1 X135.104 Y130.370 E0.01523
G1 X150.236 Y145.502 E0.67591
G1 X150.076 Y145.879 E0.01294
G1 X134.626 Y130.429 E0.69013
G1 X134.147 Y130.487 E0.01523
G1 X149.915 Y146.256 E0.70436
G1 X149.755 Y146.633 E0.01294
G1 X133.794 Y130.672 E0.71296
G1 X135.429 Y132.844 E0.08590
G1 X149.595 Y147.010 E0.63275
G1 X149.435 Y147.387 E0.01294
G1 X137.065 Y135.017 E0.55254
G1 X138.700 Y137.190 E0.08590
G1 X149.274 Y147.764 E0.47233
G1 X149.114 Y148.141 E0.01294
G1 X140.336 Y139.362 E0.39211
G1 X141.971 Y141.535 E0.08590
G1 X148.954 Y148.518 E0.31190
G1 X148.794 Y148.895 E0.01294
G1 X143.607 Y143.708 E0.23169
G1 X145.242 Y145.880 E0.08590
G1 X148.633 Y149.271 E0.15148
G1 X148.473 Y149.648 E0.01294
G1 X146.019 Y147.194 E0.10963
M204 S1250
G1 E-2.24000 F4200.00000
G1 F7200.000
G1 X147.182 Y148.358 E-0.91200
G1 E-0.04800 F4200.00000
G1 Z0.400 F9000.000
G1 X148.399 Y116.800
G1 Z0.200
G1 E3.20000 F2400.00000
M204 S800
G1 F1200.000
G1 X133.176 Y96.577 E0.79367
G1 X158.302 Y93.505 E0.79367
G1 X148.423 Y116.745 E0.79178
M204 S1250
G1 X148.491 Y117.549 F9000.000
M204 S800
G1 F1200.000
G1 X132.482 Y96.282 E0.83462
G1 X158.904 Y93.051 E0.83462
G1 X148.514 Y117.494 E0.83274
M204 S1250
G1 X148.888 Y117.501 F9000.000
G1 E-2.24000 F4200.00000
G1 F7200.000
G1 X147.522 Y116.181 E-0.91200
G1 E-0.04800 F4200.00000
G1 Z0.400 F9000.000
G1 X157.897 Y94.170
G1 Z0.200
G1 E3.20000 F2400.00000
M204 S800
G1 F1200.000
G1 X157.602 Y93.875 E0.01314
G1 X157.124 Y93.934 E0.01523
G1 X157.607 Y94.417 E0.02158
G1 X157.447 Y94.794 E0.01294
G1 X156.645 Y93.993 E0.03581
G1 X156.166 Y94.051 E0.01523
G1 X157.286 Y95.171 E0.05003
G1 X157.126 Y95.548 E0.01294
G1 X155.688 Y94.110 E0.06425
G1 X155.209 Y94.168 E0.01523
G1 X156.966 Y95.925 E0.07848
G1 X156.806 Y96.302 E0.01294
G1 X154.730 Y94.227 E0.09270
G1 X154.252 Y94.285 E0.01523
G1 X156.645 Y96.679 E0.10693
G1 X156.485 Y97.056 E0.01294
G1 X153.773 Y94.344 E0.12115
G1 X153.294 Y94.402 E0.01523
G1 X156.325 Y97.433 E0.13538
G1 X156.165 Y97.810 E0.01294
G1 X152.816 Y94.461 E0.14960
G1 X152.337 Y94.519 E0.01523
G1 X156.004 Y98.187 E0.16383
G1 X155.844 Y98.564 E0.01294
G1 X151.858 Y94.578 E0.17805
G1 X151.380 Y94.636 E0.01523
G1 X155.684 Y98.941 E0.19227
G1 X155.524 Y99.318 E0.01294
G1 X150.901 Y94.695 E0.20650
G1 X150.422 Y94.753 E0.01523
G1 X155.363 Y99.695 E0.22072
G1 X155.203 Y100.072 E0.01294
G1 X149.943 Y94.812 E0.23495
G1 X149.465 Y94.870 E0.01523
G1 X155.043 Y100.449 E0.24917
G1 X154.883 Y100.826 E0.01294
G1 X148.986 Y94.929 E0.26340
G1 X148.507 Y94.987 E0.01523
G1 X154.723 Y101.203 E0.27762
G1 X154.562 Y101.579 E0.01294
G1 X148.029 Y95.046 E0.29185
G1 X147.550 Y95.104 E0.01523
G1 X154.402 Y101.956 E0.30607
G1 X154.242 Y102.333 E0.01294
G1 X147.071 Y95.163 E0.32029
G1 X146.593 Y95.222 E0.01523
G1 X154.082 Y102.710 E0.33452
G1 X153.921 Y103.087 E0.01294
G1 X146.114 Y95.280 E0.34874
G1 X145.635 Y95.339 E0.01523
G1 X153.761 Y103.464 E0.36297
G1 X153.601 Y103.841 E0.01294
G1 X145.157 Y95.397 E0.37719
G1 X144.678 Y95.456 E0.01523
G1 X153.441 Y104.218 E0.39142
G1 X153.280 Y104.595 E0.01294
G1 X144.199 Y95.514 E0.40564
G1 X143.721 Y95.573 E0.01523
G1 X153.120 Y104.972 E0.41987
G1 X152.960 Y105.349 E0.01294
G1 X143.242 Y95.631 E0.43409
G1 X142.763 Y95.690 E0.01523
G1 X152.800 Y105.726 E0.44831
G1 X152.639 Y106.103 E0.01294
G1 X142.285 Y95.748 E0.46254
G1 X141.806 Y95.807 E0.01523
G1 X152.479 Y106.480 E0.47676
G1 X152.319 Y106.857 E0.01294
G1 X141.327 Y95.865 E0.49099
G1 X140.849 Y95.924 E0.01523
G1 X152.159 Y107.234 E0.50521
G1 X151.998 Y107.611 E0.01294
G1 X140.370 Y95.982 E0.51944
G1 X139.891 Y96.041 E0.01523
G1 X151.838 Y107.988 E0.53366
G1 X151.678 Y108.365 E0.01294
G1 X139.412 Y96.099 E0.54789
G1 X138.934 Y96.158 E0.01523
G1 X151.518 Y108.742 E0.56211
G1 X151.357 Y109.119 E0.01294
G1 X138.455 Y96.216 E0.57634
G1 X137.976 Y96.275 E0.01523
G1 X151.197 Y109.496 E0.59056
G1 X151.037 Y109.873 E0.01294
G1 X137.498 Y96.333 E0.60478
G1 X137.019 Y96.392 E0.01523
G1 X150.877 Y110.250 E0.61901
G1 X150.716 Y110.627 E0.01294
G1 X136.540 Y96.451 E0.63323
G1 X136.062 Y96.509 E0.01523
G1 X150.556 Y111.004 E0.64746
G1 X150.396 Y111.381 E0.01294
G1 X135.583 Y96.568 E0.66168
G1 X135.104 Y96.626 E0.01523
G1 X150.236 Y111.758 E0.67591
G1 X150.076 Y112.134 E0.01294
G1 X134.626 Y96.685 E0.69013
G1 X134.147 Y96.743 E0.01523
G1 X149.915 Y112.511 E0.70436
G1 X149.755 Y112.888 E0.01294
G1 X133.794 Y96.927 E0.71296
G1 X135.429 Y99.100 E0.08590
G1 X149.595 Y113.265 E0.63275
M73 P2 R103
G1 X149.435 Y113.642 E0.01294
G1 X137.065 Y101.273 E0.55254
G1 X138.700 Y103.445 E0.08590
G1 X149.274 Y114.019 E0.47233
G1 X149.114 Y114.396 E0.01294
G1 X140.336 Y105.618 E0.39211
G1 X141.971 Y107.791 E0.08590
G1 X148.954 Y114.773 E0.31190
G1 X148.794 Y115.150 E0.01294
G1 X143.607 Y109.963 E0.23169
G1 X145.242 Y112.136 E0.08590
G1 X148.633 Y115.527 E0.15148
G1 X148.473 Y115.904 E0.01294
G1 X146.019 Y113.450 E0.10963
M204 S1250
G1 E-2.24000 F4200.00000
G1 F7200.000
G1 X147.182 Y114.613 E-0.91200
G1 E-0.04800 F4200.00000
G1 Z0.400 F9000.000
G1 X148.399 Y83.056
G1 Z0.200
G1 E3.20000 F2400.00000
M204 S800
G1 F1200.000
G1 X133.176 Y62.833 E0.79367
G1 X158.302 Y59.761 E0.79367
G1 X148.423 Y83.001 E0.79178
M204 S1250
G1 X148.491 Y83.805 F9000.000
M204 S800
G1 F1200.000
G1 X132.482 Y62.538 E0.83462
G1 X158.904 Y59.307 E0.83462
G1 X148.514 Y83.750 E0.83274
M204 S1250
G1 X148.888 Y83.756 F9000.000
G1 E-2.24000 F4200.00000
G1 F7200.000
G1 X147.522 Y82.437 E-0.91200
G1 E-0.04800 F4200.00000
G1 Z0.400 F9000.000
G1 X157.897 Y60.425
G1 Z0.200
G1 E3.20000 F2400.00000
M204 S800
G1 F1200.000
G1 X157.602 Y60.131 E0.01314
G1 X157.124 Y60.190 E0.01523
G1 X157.607 Y60.673 E0.02158
G1 X157.447 Y61.050 E0.01294
G1 X156.645 Y60.248 E0.03581
G1 X156.166 Y60.307 E0.01523
G1 X157.286 Y61.427 E0.05003
G1 X157.126 Y61.804 E0.01294
G1 X155.688 Y60.365 E0.06425
G1 X155.209 Y60.424 E0.01523
G1 X156.966 Y62.181 E0.07848
G1 X156.806 Y62.558 E0.01294
G1 X154.730 Y60.482 E0.09270
G1 X154.252 Y60.541 E0.01523
G1 X156.645 Y62.935 E0.10693
G1 X156.485 Y63.312 E0.01294
G1 X153.773 Y60.599 E0.12115
G1 X153.294 Y60.658 E0.01523
G1 X156.325 Y63.689 E0.13538
G1 X156.165 Y64.066 E0.01294
G1 X152.816 Y60.716 E0.14960
G1 X152.337 Y60.775 E0.01523
G1 X156.004 Y64.442 E0.16383
G1 X155.844 Y64.819 E0.01294
G1 X151.858 Y60.833 E0.17805
G1 X151.380 Y60.892 E0.01523
G1 X155.684 Y65.196 E0.19227
G1 X155.524 Y65.573 E0.01294
G1 X150.901 Y60.951 E0.20650
G1 X150.422 Y61.009 E0.01523
G1 X155.363 Y65.950 E0.22072
G1 X155.203 Y66.327 E0.01294
G1 X149.943 Y61.068 E0.23495
G1 X149.465 Y61.126 E0.01523
G1 X155.043 Y66.704 E0.24917
G1 X154.883 Y67.081 E0.01294
G1 X148.986 Y61.185 E0.26340
G1 X148.507 Y61.243 E0.01523
G1 X154.723 Y67.458 E0.27762
G1 X154.562 Y67.835 E0.01294
G1 X148.029 Y61.302 E0.29185
G1 X147.550 Y61.360 E0.01523
G1 X154.402 Y68.212 E0.30607
G1 X154.242 Y68.589 E0.01294
G1 X147.071 Y61.419 E0.32029
G1 X146.593 Y61.477 E0.01523
G1 X154.082 Y68.966 E0.33452
G1 X153.921 Y69.343 E0.01294
G1 X146.114 Y61.536 E0.34874
G1 X145.635 Y61.594 E0.01523
G1 X153.761 Y69.720 E0.36297
G1 X153.601 Y70.097 E0.01294
G1 X145.157 Y61.653 E0.37719
G1 X144.678 Y61.711 E0.01523
G1 X153.441 Y70.474 E0.39142
G1 X153.280 Y70.851 E0.01294
G1 X144.199 Y61.770 E0.40564
G1 X143.721 Y61.828 E0.01523
G1 X153.120 Y71.228 E0.41987
G1 X152.960 Y71.605 E0.01294
G1 X143.242 Y61.887 E0.43409
G1 X142.763 Y61.945 E0.01523
G1 X152.800 Y71.982 E0.44831
G1 X152.639 Y72.359 E0.01294
G1 X142.285 Y62.004 E0.46254
G1 X141.806 Y62.062 E0.01523
G1 X152.479 Y72.736 E0.47676
G1 X152.319 Y73.113 E0.01294
G1 X141.327 Y62.121 E0.49099
G1 X140.849 Y62.179 E0.01523
G1 X152.159 Y73.490 E0.50521
G1 X151.998 Y73.867 E0.01294
G1 X140.370 Y62.238 E0.51944
G1 X139.891 Y62.297 E0.01523
G1 X151.838 Y74.244 E0.53366
G1 X151.678 Y74.621 E0.01294
G1 X139.412 Y62.355 E0.54789
G1 X138.934 Y62.414 E0.01523
G1 X151.518 Y74.998 E0.56211
G1 X151.357 Y75.374 E0.01294
G1 X138.455 Y62.472 E0.57634
G1 X137.976 Y62.531 E0.01523
G1 X151.197 Y75.751 E0.59056
G1 X151.037 Y76.128 E0.01294
G1 X137.498 Y62.589 E0.60478
G1 X137.019 Y62.648 E0.01523
G1 X150.877 Y76.505 E0.61901
G1 X150.716 Y76.882 E0.01294
G1 X136.540 Y62.706 E0.63323
G1 X136.062 Y62.765 E0.01523
G1 X150.556 Y77.259 E0.64746
G1 X150.396 Y77.636 E0.01294
G1 X135.583 Y62.823 E0.66168
G1 X135.104 Y62.882 E0.01523
G1 X150.236 Y78.013 E0.67591
G1 X150.076 Y78.390 E0.01294
G1 X134.626 Y62.940 E0.69013
G1 X134.147 Y62.999 E0.01523
G1 X149.915 Y78.767 E0.70436
G1 X149.755 Y79.144 E0.01294
G1 X133.794 Y63.183 E0.71296
G1 X135.429 Y65.356 E0.08590
G1 X149.595 Y79.521 E0.63275
G1 X149.435 Y79.898 E0.01294
G1 X137.065 Y67.528 E0.55254
G1 X138.700 Y69.701 E0.08590
G1 X149.274 Y80.275 E0.47233
G1 X149.114 Y80.652 E0.01294
G1 X140.336 Y71.874 E0.39211
G1 X141.971 Y74.046 E0.08590
G1 X148.954 Y81.029 E0.31190
G1 X148.794 Y81.406 E0.01294
G1 X143.607 Y76.219 E0.23169
G1 X145.242 Y78.392 E0.08590
G1 X148.633 Y81.783 E0.15148
G1 X148.473 Y82.160 E0.01294
G1 X146.019 Y79.705 E0.10963
M204 S1250
G1 E-2.24000 F4200.00000
G1 F7200.000
G1 X147.182 Y80.869 E-0.91200
G1 E-0.04800 F4200.00000
G1 Z0.400 F9000.000
G1 X148.399 Y49.312
G1 Z0.200
G1 E3.20000 F2400.00000
M204 S800
G1 F1200.000
G1 X133.176 Y29.088 E0.79367
G1 X158.302 Y26.016 E0.79367
G1 X148.423 Y49.257 E0.79178
M204 S1250
G1 X148.491 Y50.060 F9000.000
M204 S800
G1 F1200.000
G1 X132.482 Y28.793 E0.83462
G1 X158.904 Y25.563 E0.83462
G1 X148.514 Y50.005 E0.83274
M204 S1250
G1 X148.888 Y50.012 F9000.000
G1 E-2.24000 F4200.00000
G1 F7200.000
G1 X147.522 Y48.692 E-0.91200
G1 E-0.04800 F4200.00000
G1 Z0.400 F9000.000
G1 X157.897 Y26.681
G1 Z0.200
G1 E3.20000 F2400.00000
M204 S800
G1 F1200.000
G1 X157.602 Y26.387 E0.01314
G1 X157.124 Y26.445 E0.01523
G1 X157.607 Y26.929 E0.02158
G1 X157.447 Y27.306 E0.01294
G1 X156.645 Y26.504 E0.03581
G1 X156.166 Y26.562 E0.01523
G1 X157.286 Y27.682 E0.05003
G1 X157.126 Y28.059 E0.01294
G1 X155.688 Y26.621 E0.06425
G1 X155.209 Y26.679 E0.01523
G1 X156.966 Y28.436 E0.07848
G1 X156.806 Y28.813 E0.01294
G1 X154.730 Y26.738 E0.09270
G1 X154.252 Y26.797 E0.01523
G1 X156.645 Y29.190 E0.10693
G1 X156.485 Y29.567 E0.01294
G1 X153.773 Y26.855 E0.12115
G1 X153.294 Y26.914 E0.01523
G1 X156.325 Y29.944 E0.13538
M73 P2 R102
G1 X156.165 Y30.321 E0.01294
G1 X152.816 Y26.972 E0.14960
G1 X152.337 Y27.031 E0.01523
G1 X156.004 Y30.698 E0.16383
