; generated by PrusaSlicer 2.2.0+win64 on 2020-11-18 at 09:27:48 UTC


;
;

;
;
; 

; external perimeters extrusion width = 0.45mm
; perimeters extrusion width = 0.45mm
; infill extrusion width = 0.45mm
; solid infill extrusion width = 0.45mm
; top infill extrusion width = 0.40mm
; first layer extrusion width = 0.42mm

M73 P0 R122
M201 X1250 Y1250 Z400 E5000 ; sets maximum accelerations, mm/sec^2
M203 X180 Y180 Z12 E80 ; sets maximum feedrates, mm/sec
M204 P1250 R1250 T1250 ; sets acceleration (P, T) and retract acceleration (R), mm/sec^2
M205 X8.00 Y8.00 Z2.00 E10.00 ; sets the jerk limits, mm/sec
M205 S0 T0 ; sets the minimum extruding and travel feed rate, mm/sec
M107
G90 ; use absolute coordinates
M83 ; extruder relative mode
M104 S170 ; set extruder temp for bed leveling
M140 S60 ; set bed temp
M109 R170 ; wait for bed leveling temp
M190 S60 ; wait for bed temp
G28 ; home all without mesh bed level
G29 ; mesh bed leveling 
M104 S215 ; set extruder temp
G92 E0.0
G1 Y-2.0 X179 F2400
G1 Z3 F720
M109 S215 ; wait for extruder temp

; intro line
G1 X170 F1000
G1 Z0.2 F720
G1 X110.0 E8.0 F900
M73 P0 R121
G1 X40.0 E10.0 F700
G92 E0.0

M221 S95 ; set flow
G21 ; set units to millimeters
G90 ; use absolute coordinates
M83 ; use relative distances for extrusion
M900 K0.2 ; Filament gcode LA 1.5
; ; Filament gcode LA 1.0
;BEFORE_LAYER_CHANGE
G92 E0.0
;0.2


G1 Z0.200 F9000.000
;AFTER_LAYER_CHANGE
;0.2
G1 E-3.20000 F4200.00000
G1 Z0.400 F9000.000
G1 X65.820 Y48.817
G1 Z0.200
G1 E3.20000 F2400.00000
M204 S800
G1 F1200.000
G1 X66.453 Y48.365 E0.02437
G1 X67.194 Y48.143 E0.02426
G1 X81.175 Y48.123 E0.43838
G1 X81.737 Y48.191 E0.01775
G1 X82.271 Y48.392 E0.01787
G1 X109.374 Y62.828 E0.96283
G1 X110.287 Y63.343 E0.03287
G1 X111.224 Y64.035 E0.03652
G1 X112.069 Y64.836 E0.03650
G1 X112.741 Y65.649 E0.03308
G1 X113.506 Y66.873 E0.04525
G1 X113.947 Y67.837 E0.03325
G1 X114.302 Y68.950 E0.03663
G1 X120.443 Y95.262 E0.84716
G1 X120.538 Y96.036 E0.02445
G1 X120.504 Y96.791 E0.02370
G1 X118.787 Y105.335 E0.27327
G1 X118.495 Y106.033 E0.02371
G1 X118.103 Y106.659 E0.02315
G1 X117.613 Y107.217 E0.02328
G1 X117.047 Y107.681 E0.02296
G1 X110.358 Y112.171 E0.25261
G1 X79.161 Y131.611 E1.15251
G1 X78.664 Y131.801 E0.01668
G1 X78.134 Y131.876 E0.01680
G1 X70.293 Y131.857 E0.24585
G1 X69.398 Y131.550 E0.02966
G1 X65.997 Y129.341 E0.12716
G1 X65.653 Y128.996 E0.01526
G1 X65.385 Y128.586 E0.01538
G1 X65.207 Y128.129 E0.01538
G1 X65.126 Y127.649 E0.01526
G1 X65.142 Y50.192 E2.42859
G1 X65.367 Y49.448 E0.02437
G1 X65.785 Y48.866 E0.02249
M204 S1250
G1 E-2.24000 F4200.00000
G1 F7200.000
G1 X66.453 Y48.365 E-0.46237
G1 X67.194 Y48.143 E-0.42869
G1 X67.231 Y48.143 E-0.02093
G1 E-0.04800 F4200.00000
G1 Z0.400 F9000.000
G1 X72.548 Y51.711
G1 Z0.200
G1 E3.20000 F2400.00000
M204 S800
G1 F1200.000
G1 X76.122 Y51.711 E0.11207
G1 X76.122 Y126.285 E2.33822
G1 X72.548 Y126.285 E0.11207
G1 X72.548 Y51.771 E2.33634
M204 S1250
G1 X72.925 Y52.088 F9000.000
M204 S800
G1 F1200.000
G1 X75.745 Y52.088 E0.08842
G1 X75.745 Y125.908 E2.31457
G1 X72.925 Y125.908 E0.08842
G1 X72.925 Y52.148 E2.31269
M204 S1250
G1 X72.920 Y51.688 F9000.000
G1 E-2.24000 F4200.00000
G1 F7200.000
G1 X74.570 Y52.113 E-0.91200
G1 E-0.04800 F4200.00000
G1 Z0.400 F9000.000
G1 X76.710 Y126.711
G1 Z0.200
G1 E3.20000 F2400.00000
M204 S800
G1 F1200.000
G1 X76.710 Y128.713 E0.06277
G1 X71.960 Y128.713 E0.14892
G1 X71.960 Y126.711 E0.06277
G1 X68.713 Y126.711 E0.10181
G1 X68.713 Y51.287 E2.36486
G1 X79.957 Y51.287 E0.35254
G1 X79.957 Y126.711 E2.36486
G1 X76.770 Y126.711 E0.09993
M204 S1250
G1 X77.087 Y127.088 F9000.000
M204 S800
G1 F1200.000
G1 X77.087 Y129.090 E0.06277
G1 X71.583 Y129.090 E0.17257
G1 X71.583 Y127.088 E0.06277
G1 X68.336 Y127.088 E0.10181
G1 X68.336 Y50.910 E2.38851
G1 X80.334 Y50.910 E0.37619
G1 X80.334 Y127.088 E2.38851
G1 X77.147 Y127.088 E0.09993
M204 S1250
G1 X76.738 Y127.283 F9000.000
G1 E-2.24000 F4200.00000
G1 F7200.000
G1 X77.098 Y128.733 E-0.91200
G1 E-0.04800 F4200.00000
G1 Z0.400 F9000.000
G1 X74.274 Y128.600
G1 Z0.200
G1 E3.20000 F2400.00000
M204 S800
G1 F1200.000
G1 X68.996 Y123.321 E0.23523
G1 X68.996 Y123.857 E0.01689
G1 X71.567 Y126.428 E0.11457
G1 X71.031 Y126.428 E0.01689
G1 X68.996 Y124.393 E0.09068
G1 X68.996 Y124.929 E0.01689
G1 X70.495 Y126.428 E0.06679
G1 X69.959 Y126.428 E0.01689
G1 X68.996 Y125.465 E0.04291
G1 X68.996 Y126.001 E0.01689
G1 X69.592 Y126.598 E0.02658
M204 S1250
G1 E-2.24000 F4200.00000
G1 F7200.000
G1 X68.996 Y126.001 E-0.46751
G1 X68.996 Y125.465 E-0.29702
G1 X69.184 Y125.654 E-0.14748
G1 E-0.04800 F4200.00000
G1 Z0.400 F9000.000
G1 X72.073 Y128.007
G1 Z0.200
G1 E3.20000 F2400.00000
M204 S800
G1 F1200.000
G1 X72.497 Y128.430 E0.01887
G1 X73.033 Y128.430 E0.01689
G1 X72.243 Y127.641 E0.03519
G1 X72.243 Y127.105 E0.01689
G1 X73.738 Y128.600 E0.06664
M204 S1250
G1 E-2.24000 F4200.00000
G1 F7200.000
G1 X72.575 Y127.436 E-0.91200
G1 E-0.04800 F4200.00000
G1 Z0.400 F9000.000
G1 X79.844 Y52.166
G1 Z0.200
G1 E3.20000 F2400.00000
M204 S800
G1 F1200.000
G1 X79.247 Y51.570 E0.02659
G1 X78.711 Y51.570 E0.01689
G1 X79.674 Y52.533 E0.04291
G1 X79.674 Y53.069 E0.01689
G1 X78.175 Y51.570 E0.06680
G1 X77.639 Y51.570 E0.01689
G1 X79.674 Y53.605 E0.09068
G1 X79.674 Y54.141 E0.01689
G1 X77.103 Y51.570 E0.11457
G1 X76.567 Y51.570 E0.01689
G1 X79.674 Y54.677 E0.13846
G1 X79.674 Y55.213 E0.01689
G1 X76.405 Y51.943 E0.14570
G1 X76.405 Y52.479 E0.01689
G1 X79.674 Y55.749 E0.14570
G1 X79.674 Y56.285 E0.01689
G1 X76.405 Y53.015 E0.14570
G1 X76.405 Y53.551 E0.01689
G1 X79.674 Y56.821 E0.14570
G1 X79.674 Y57.356 E0.01689
G1 X76.405 Y54.087 E0.14570
G1 X76.405 Y54.623 E0.01689
G1 X79.674 Y57.892 E0.14570
G1 X79.674 Y58.428 E0.01689
G1 X76.405 Y55.159 E0.14570
G1 X76.405 Y55.695 E0.01689
G1 X79.674 Y58.964 E0.14570
G1 X79.674 Y59.500 E0.01689
G1 X76.405 Y56.231 E0.14570
M73 P0 R120
G1 X76.405 Y56.767 E0.01689
G1 X79.674 Y60.036 E0.14570
G1 X79.674 Y60.572 E0.01689
G1 X76.405 Y57.303 E0.14570
G1 X76.405 Y57.839 E0.01689
G1 X79.674 Y61.108 E0.14570
G1 X79.674 Y61.644 E0.01689
G1 X76.405 Y58.375 E0.14570
G1 X76.405 Y58.911 E0.01689
G1 X79.674 Y62.180 E0.14570
G1 X79.674 Y62.716 E0.01689
G1 X76.405 Y59.447 E0.14570
G1 X76.405 Y59.983 E0.01689
G1 X79.674 Y63.252 E0.14570
G1 X79.674 Y63.788 E0.01689
G1 X76.405 Y60.519 E0.14570
G1 X76.405 Y61.055 E0.01689
G1 X79.674 Y64.324 E0.14570
G1 X79.674 Y64.860 E0.01689
G1 X76.405 Y61.591 E0.14570
G1 X76.405 Y62.127 E0.01689
G1 X79.674 Y65.396 E0.14570
G1 X79.674 Y65.932 E0.01689
G1 X76.405 Y62.663 E0.14570
G1 X76.405 Y63.199 E0.01689
G1 X79.674 Y66.468 E0.14570
G1 X79.674 Y67.004 E0.01689
G1 X76.405 Y63.735 E0.14570
G1 X76.405 Y64.271 E0.01689
G1 X79.674 Y67.540 E0.14570
G1 X79.674 Y68.076 E0.01689
G1 X76.405 Y64.807 E0.14570
G1 X76.405 Y65.342 E0.01689
G1 X79.674 Y68.612 E0.14570
G1 X79.674 Y69.148 E0.01689
G1 X76.405 Y65.878 E0.14570
G1 X76.405 Y66.414 E0.01689
G1 X79.674 Y69.684 E0.14570
G1 X79.674 Y70.220 E0.01689
G1 X76.405 Y66.950 E0.14570
G1 X76.405 Y67.486 E0.01689
G1 X79.674 Y70.756 E0.14570
G1 X79.674 Y71.292 E0.01689
G1 X76.405 Y68.022 E0.14570
G1 X76.405 Y68.558 E0.01689
G1 X79.674 Y71.828 E0.14570
G1 X79.674 Y72.364 E0.01689
G1 X76.405 Y69.094 E0.14570
G1 X76.405 Y69.630 E0.01689
G1 X79.674 Y72.900 E0.14570
G1 X79.674 Y73.435 E0.01689
G1 X76.405 Y70.166 E0.14570
G1 X76.405 Y70.702 E0.01689
G1 X79.674 Y73.971 E0.14570
G1 X79.674 Y74.507 E0.01689
G1 X76.405 Y71.238 E0.14570
G1 X76.405 Y71.774 E0.01689
G1 X79.674 Y75.043 E0.14570
G1 X79.674 Y75.579 E0.01689
G1 X76.405 Y72.310 E0.14570
G1 X76.405 Y72.846 E0.01689
G1 X79.674 Y76.115 E0.14570
G1 X79.674 Y76.651 E0.01689
G1 X76.405 Y73.382 E0.14570
G1 X76.405 Y73.918 E0.01689
G1 X79.674 Y77.187 E0.14570
G1 X79.674 Y77.723 E0.01689
G1 X76.405 Y74.454 E0.14570
G1 X76.405 Y74.990 E0.01689
G1 X79.674 Y78.259 E0.14570
G1 X79.674 Y78.795 E0.01689
G1 X76.405 Y75.526 E0.14570
G1 X76.405 Y76.062 E0.01689
G1 X79.674 Y79.331 E0.14570
G1 X79.674 Y79.867 E0.01689
G1 X76.405 Y76.598 E0.14570
G1 X76.405 Y77.134 E0.01689
G1 X79.674 Y80.403 E0.14570
G1 X79.674 Y80.939 E0.01689
G1 X76.405 Y77.670 E0.14570
G1 X76.405 Y78.206 E0.01689
G1 X79.674 Y81.475 E0.14570
G1 X79.674 Y82.011 E0.01689
G1 X76.405 Y78.742 E0.14570
G1 X76.405 Y79.278 E0.01689
G1 X79.674 Y82.547 E0.14570
G1 X79.674 Y83.083 E0.01689
G1 X76.405 Y79.814 E0.14570
G1 X76.405 Y80.350 E0.01689
G1 X79.674 Y83.619 E0.14570
G1 X79.674 Y84.155 E0.01689
G1 X76.405 Y80.886 E0.14570
G1 X76.405 Y81.422 E0.01689
G1 X79.674 Y84.691 E0.14570
G1 X79.674 Y85.227 E0.01689
G1 X76.405 Y81.957 E0.14570
G1 X76.405 Y82.493 E0.01689
G1 X79.674 Y85.763 E0.14570
G1 X79.674 Y86.299 E0.01689
G1 X76.405 Y83.029 E0.14570
G1 X76.405 Y83.565 E0.01689
G1 X79.674 Y86.835 E0.14570
G1 X79.674 Y87.371 E0.01689
G1 X76.405 Y84.101 E0.14570
G1 X76.405 Y84.637 E0.01689
G1 X79.674 Y87.907 E0.14570
G1 X79.674 Y88.443 E0.01689
G1 X76.405 Y85.173 E0.14570
G1 X76.405 Y85.709 E0.01689
G1 X79.674 Y88.979 E0.14570
G1 X79.674 Y89.515 E0.01689
G1 X76.405 Y86.245 E0.14570
G1 X76.405 Y86.781 E0.01689
G1 X79.674 Y90.050 E0.14570
G1 X79.674 Y90.586 E0.01689
G1 X76.405 Y87.317 E0.14570
G1 X76.405 Y87.853 E0.01689
G1 X79.674 Y91.122 E0.14570
G1 X79.674 Y91.658 E0.01689
G1 X76.405 Y88.389 E0.14570
G1 X76.405 Y88.925 E0.01689
G1 X79.674 Y92.194 E0.14570
G1 X79.674 Y92.730 E0.01689
G1 X76.405 Y89.461 E0.14570
G1 X76.405 Y89.997 E0.01689
G1 X79.674 Y93.266 E0.14570
G1 X79.674 Y93.802 E0.01689
G1 X76.405 Y90.533 E0.14570
G1 X76.405 Y91.069 E0.01689
G1 X79.674 Y94.338 E0.14570
G1 X79.674 Y94.874 E0.01689
G1 X76.405 Y91.605 E0.14570
G1 X76.405 Y92.141 E0.01689
G1 X79.674 Y95.410 E0.14570
G1 X79.674 Y95.946 E0.01689
G1 X76.405 Y92.677 E0.14570
G1 X76.405 Y93.213 E0.01689
G1 X79.674 Y96.482 E0.14570
G1 X79.674 Y97.018 E0.01689
G1 X76.405 Y93.749 E0.14570
G1 X76.405 Y94.285 E0.01689
G1 X79.674 Y97.554 E0.14570
G1 X79.674 Y98.090 E0.01689
G1 X76.405 Y94.821 E0.14570
G1 X76.405 Y95.357 E0.01689
G1 X79.674 Y98.626 E0.14570
G1 X79.674 Y99.162 E0.01689
G1 X76.405 Y95.893 E0.14570
G1 X76.405 Y96.429 E0.01689
G1 X79.674 Y99.698 E0.14570
G1 X79.674 Y100.234 E0.01689
G1 X76.405 Y96.965 E0.14570
G1 X76.405 Y97.501 E0.01689
G1 X79.674 Y100.770 E0.14570
G1 X79.674 Y101.306 E0.01689
G1 X76.405 Y98.036 E0.14570
G1 X76.405 Y98.572 E0.01689
G1 X79.674 Y101.842 E0.14570
G1 X79.674 Y102.378 E0.01689
G1 X76.405 Y99.108 E0.14570
G1 X76.405 Y99.644 E0.01689
G1 X79.674 Y102.914 E0.14570
G1 X79.674 Y103.450 E0.01689
G1 X76.405 Y100.180 E0.14570
G1 X76.405 Y100.716 E0.01689
G1 X79.674 Y103.986 E0.14570
G1 X79.674 Y104.522 E0.01689
G1 X76.405 Y101.252 E0.14570
G1 X76.405 Y101.788 E0.01689
G1 X79.674 Y105.058 E0.14570
G1 X79.674 Y105.594 E0.01689
G1 X76.405 Y102.324 E0.14570
G1 X76.405 Y102.860 E0.01689
G1 X79.674 Y106.129 E0.14570
G1 X79.674 Y106.665 E0.01689
G1 X76.405 Y103.396 E0.14570
G1 X76.405 Y103.932 E0.01689
G1 X79.674 Y107.201 E0.14570
G1 X79.674 Y107.737 E0.01689
G1 X76.405 Y104.468 E0.14570
G1 X76.405 Y105.004 E0.01689
G1 X79.674 Y108.273 E0.14570
G1 X79.674 Y108.809 E0.01689
G1 X76.405 Y105.540 E0.14570
G1 X76.405 Y106.076 E0.01689
G1 X79.674 Y109.345 E0.14570
G1 X79.674 Y109.881 E0.01689
G1 X76.405 Y106.612 E0.14570
G1 X76.405 Y107.148 E0.01689
G1 X79.674 Y110.417 E0.14570
G1 X79.674 Y110.953 E0.01689
G1 X76.405 Y107.684 E0.14570
G1 X76.405 Y108.220 E0.01689
G1 X79.674 Y111.489 E0.14570
G1 X79.674 Y112.025 E0.01689
G1 X76.405 Y108.756 E0.14570
G1 X76.405 Y109.292 E0.01689
G1 X79.674 Y112.561 E0.14570
G1 X79.674 Y113.097 E0.01689
G1 X76.405 Y109.828 E0.14570
G1 X76.405 Y110.364 E0.01689
G1 X79.674 Y113.633 E0.14570
G1 X79.674 Y114.169 E0.01689
G1 X76.405 Y110.900 E0.14570
G1 X76.405 Y111.436 E0.01689
G1 X79.674 Y114.705 E0.14570
G1 X79.674 Y115.241 E0.01689
G1 X76.405 Y111.972 E0.14570
G1 X76.405 Y112.508 E0.01689
G1 X79.674 Y115.777 E0.14570
G1 X79.674 Y116.313 E0.01689
G1 X76.405 Y113.044 E0.14570
G1 X76.405 Y113.580 E0.01689
G1 X79.674 Y116.849 E0.14570
G1 X79.674 Y117.385 E0.01689
G1 X76.405 Y114.116 E0.14570
G1 X76.405 Y114.651 E0.01689
G1 X79.674 Y117.921 E0.14570
G1 X79.674 Y118.457 E0.01689
G1 X76.405 Y115.187 E0.14570
G1 X76.405 Y115.723 E0.01689
G1 X79.674 Y118.993 E0.14570
G1 X79.674 Y119.529 E0.01689
G1 X76.405 Y116.259 E0.14570
G1 X76.405 Y116.795 E0.01689
G1 X79.674 Y120.065 E0.14570
G1 X79.674 Y120.601 E0.01689
G1 X76.405 Y117.331 E0.14570
G1 X76.405 Y117.867 E0.01689
G1 X79.674 Y121.137 E0.14570
G1 X79.674 Y121.673 E0.01689
G1 X76.405 Y118.403 E0.14570
G1 X76.405 Y118.939 E0.01689
G1 X79.674 Y122.209 E0.14570
G1 X79.674 Y122.744 E0.01689
G1 X76.405 Y119.475 E0.14570
G1 X76.405 Y120.011 E0.01689
G1 X79.674 Y123.280 E0.14570
G1 X79.674 Y123.816 E0.01689
G1 X76.405 Y120.547 E0.14570
G1 X76.405 Y121.083 E0.01689
G1 X79.674 Y124.352 E0.14570
G1 X79.674 Y124.888 E0.01689
G1 X76.405 Y121.619 E0.14570
G1 X76.405 Y122.155 E0.01689
G1 X79.674 Y125.424 E0.14570
G1 X79.674 Y125.960 E0.01689
G1 X76.405 Y122.691 E0.14570
G1 X76.405 Y123.227 E0.01689
G1 X79.606 Y126.428 E0.14266
G1 X79.070 Y126.428 E0.01689
G1 X76.405 Y123.763 E0.11878
G1 X76.405 Y124.299 E0.01689
G1 X78.534 Y126.428 E0.09489
G1 X77.998 Y126.428 E0.01689
G1 X76.405 Y124.835 E0.07101
G1 X76.405 Y125.371 E0.01689
G1 X77.462 Y126.428 E0.04712
G1 X76.926 Y126.428 E0.01689
G1 X76.405 Y125.907 E0.02323
G1 X76.427 Y127.001 E0.03449
G1 X75.994 Y126.568 E0.01930
G1 X75.458 Y126.568 E0.01689
G1 X76.427 Y127.537 E0.04318
G1 X76.427 Y128.073 E0.01689
G1 X74.922 Y126.568 E0.06707
G1 X74.386 Y126.568 E0.01689
G1 X76.248 Y128.430 E0.08299
G1 X75.712 Y128.430 E0.01689
G1 X73.850 Y126.568 E0.08299
G1 X73.314 Y126.568 E0.01689
G1 X75.176 Y128.430 E0.08299
G1 X74.640 Y128.430 E0.01689
G1 X72.778 Y126.568 E0.08299
G1 X72.265 Y126.568 E0.01617
G1 X72.265 Y126.055 E0.01617
G1 X68.996 Y122.785 E0.14570
G1 X68.996 Y122.250 E0.01689
G1 X72.265 Y125.519 E0.14570
G1 X72.265 Y124.983 E0.01689
G1 X68.996 Y121.714 E0.14570
G1 X68.996 Y121.178 E0.01689
G1 X72.265 Y124.447 E0.14570
G1 X72.265 Y123.911 E0.01689
G1 X68.996 Y120.642 E0.14570
G1 X68.996 Y120.106 E0.01689
G1 X72.265 Y123.375 E0.14570
G1 X72.265 Y122.839 E0.01689
G1 X68.996 Y119.570 E0.14570
G1 X68.996 Y119.034 E0.01689
G1 X72.265 Y122.303 E0.14570
G1 X72.265 Y121.767 E0.01689
G1 X68.996 Y118.498 E0.14570
G1 X68.996 Y117.962 E0.01689
G1 X72.265 Y121.231 E0.14570
G1 X72.265 Y120.695 E0.01689
G1 X68.996 Y117.426 E0.14570
G1 X68.996 Y116.890 E0.01689
G1 X72.265 Y120.159 E0.14570
G1 X72.265 Y119.623 E0.01689
G1 X68.996 Y116.354 E0.14570
G1 X68.996 Y115.818 E0.01689
G1 X72.265 Y119.087 E0.14570
G1 X72.265 Y118.551 E0.01689
G1 X68.996 Y115.282 E0.14570
G1 X68.996 Y114.746 E0.01689
G1 X72.265 Y118.015 E0.14570
G1 X72.265 Y117.479 E0.01689
G1 X68.996 Y114.210 E0.14570
G1 X68.996 Y113.674 E0.01689
G1 X72.265 Y116.943 E0.14570
G1 X72.265 Y116.407 E0.01689
G1 X68.996 Y113.138 E0.14570
G1 X68.996 Y112.602 E0.01689
G1 X72.265 Y115.871 E0.14570
G1 X72.265 Y115.335 E0.01689
G1 X68.996 Y112.066 E0.14570
G1 X68.996 Y111.530 E0.01689
G1 X72.265 Y114.799 E0.14570
G1 X72.265 Y114.264 E0.01689
G1 X68.996 Y110.994 E0.14570
G1 X68.996 Y110.458 E0.01689
G1 X72.265 Y113.728 E0.14570
G1 X72.265 Y113.192 E0.01689
G1 X68.996 Y109.922 E0.14570
G1 X68.996 Y109.386 E0.01689
G1 X72.265 Y112.656 E0.14570
G1 X72.265 Y112.120 E0.01689
G1 X68.996 Y108.850 E0.14570
G1 X68.996 Y108.314 E0.01689
G1 X72.265 Y111.584 E0.14570
G1 X72.265 Y111.048 E0.01689
G1 X68.996 Y107.778 E0.14570
G1 X68.996 Y107.242 E0.01689
G1 X72.265 Y110.512 E0.14570
G1 X72.265 Y109.976 E0.01689
G1 X68.996 Y106.706 E0.14570
G1 X68.996 Y106.171 E0.01689
G1 X72.265 Y109.440 E0.14570
G1 X72.265 Y108.904 E0.01689
G1 X68.996 Y105.635 E0.14570
G1 X68.996 Y105.099 E0.01689
G1 X72.265 Y108.368 E0.14570
G1 X72.265 Y107.832 E0.01689
G1 X68.996 Y104.563 E0.14570
G1 X68.996 Y104.027 E0.01689
G1 X72.265 Y107.296 E0.14570
G1 X72.265 Y106.760 E0.01689
G1 X68.996 Y103.491 E0.14570
G1 X68.996 Y102.955 E0.01689
G1 X72.265 Y106.224 E0.14570
G1 X72.265 Y105.688 E0.01689
G1 X68.996 Y102.419 E0.14570
G1 X68.996 Y101.883 E0.01689
G1 X72.265 Y105.152 E0.14570
G1 X72.265 Y104.616 E0.01689
