; generated by PrusaSlicer 2.2.0+win64 on 2020-12-28 at 12:44:09 UTC


;
;

;
;
; 

; external perimeters extrusion width = 0.45mm
; perimeters extrusion width = 0.45mm
; infill extrusion width = 0.45mm
; solid infill extrusion width = 0.45mm
; top infill extrusion width = 0.40mm
; first layer extrusion width = 0.42mm

M73 P0 R27
M201 X1250 Y1250 Z400 E5000 ; sets maximum accelerations, mm/sec^2
M203 X180 Y180 Z12 E80 ; sets maximum feedrates, mm/sec
M204 P1250 R1250 T1250 ; sets acceleration (P, T) and retract acceleration (R), mm/sec^2
M205 X8.00 Y8.00 Z2.00 E10.00 ; sets the jerk limits, mm/sec
M205 S0 T0 ; sets the minimum extruding and travel feed rate, mm/sec
M107
G90 ; use absolute coordinates
M83 ; extruder relative mode
M104 S170 ; set extruder temp for bed leveling
M140 S60 ; set bed temp
M109 R170 ; wait for bed leveling temp
M190 S60 ; wait for bed temp
G28 ; home all without mesh bed level
G29 ; mesh bed leveling 
M104 S215 ; set extruder temp
G92 E0.0
G1 Y-2.0 X179 F2400
G1 Z3 F720
M109 S215 ; wait for extruder temp

; intro line
G1 X170 F1000
G1 Z0.2 F720
G1 X110.0 E8.0 F900
M73 P0 R27
G1 X40.0 E10.0 F700
G92 E0.0

M221 S95 ; set flow
G21 ; set units to millimeters
G90 ; use absolute coordinates
M83 ; use relative distances for extrusion
M900 K0.2 ; Filament gcode LA 1.5
; ; Filament gcode LA 1.0
;BEFORE_LAYER_CHANGE
G92 E0.0
;0.2


G1 Z0.200 F9000.000
;AFTER_LAYER_CHANGE
;0.2
G1 E-3.20000 F4200.00000
G1 Z0.400 F9000.000
G1 X77.514 Y77.520
G1 Z0.200
G1 E3.20000 F2400.00000
M204 S800
G1 F1200.000
G1 X78.743 Y76.401 E0.05213
G1 X80.331 Y75.229 E0.06187
G1 X81.765 Y74.384 E0.05217
G1 X83.236 Y73.693 E0.05098
G1 X84.779 Y73.136 E0.05143
G1 X86.387 Y72.720 E0.05209
G1 X88.338 Y72.424 E0.06187
G1 X90.002 Y72.346 E0.05221
G1 X91.657 Y72.424 E0.05195
G1 X93.606 Y72.718 E0.06180
G1 X95.214 Y73.133 E0.05209
G1 X96.757 Y73.690 E0.05142
G1 X98.237 Y74.385 E0.05126
G1 X99.664 Y75.226 E0.05196
G1 X101.254 Y76.398 E0.06191
G1 X102.480 Y77.514 E0.05199
G1 X103.599 Y78.743 E0.05213
G1 X104.771 Y80.331 E0.06187
G1 X105.616 Y81.765 E0.05217
G1 X106.307 Y83.236 E0.05098
G1 X106.864 Y84.779 E0.05143
G1 X107.280 Y86.387 E0.05209
G1 X107.576 Y88.338 E0.06187
G1 X107.654 Y89.998 E0.05208
G1 X107.576 Y91.657 E0.05208
G1 X107.283 Y93.602 E0.06167
G1 X106.867 Y95.214 E0.05222
G1 X106.310 Y96.757 E0.05142
G1 X105.615 Y98.237 E0.05126
G1 X104.774 Y99.664 E0.05196
G1 X103.602 Y101.254 E0.06191
G1 X102.486 Y102.480 E0.05199
G1 X101.257 Y103.599 E0.05213
G1 X99.669 Y104.771 E0.06187
G1 X98.235 Y105.616 E0.05217
G1 X96.764 Y106.307 E0.05098
G1 X95.221 Y106.864 E0.05143
G1 X93.613 Y107.280 E0.05209
G1 X91.662 Y107.576 E0.06187
G1 X90.002 Y107.654 E0.05208
G1 X88.343 Y107.576 E0.05208
G1 X86.398 Y107.283 E0.06167
G1 X84.786 Y106.867 E0.05222
G1 X83.243 Y106.310 E0.05142
G1 X81.763 Y105.615 E0.05126
G1 X80.336 Y104.774 E0.05196
G1 X78.746 Y103.602 E0.06191
G1 X77.520 Y102.486 E0.05199
G1 X76.401 Y101.257 E0.05213
G1 X75.229 Y99.669 E0.06187
G1 X74.384 Y98.235 E0.05217
G1 X73.693 Y96.764 E0.05098
G1 X73.136 Y95.221 E0.05143
G1 X72.720 Y93.613 E0.05209
G1 X72.424 Y91.662 E0.06187
G1 X72.346 Y89.999 E0.05219
G1 X72.424 Y88.343 E0.05197
G1 X72.718 Y86.394 E0.06180
G1 X73.133 Y84.786 E0.05209
G1 X73.690 Y83.243 E0.05142
G1 X74.385 Y81.763 E0.05126
G1 X75.226 Y80.336 E0.05196
G1 X76.398 Y78.746 E0.06191
G1 X77.473 Y77.564 E0.05011
M204 S1250
G1 X77.752 Y77.818 F9000.000
M204 S800
G1 F1200.000
G1 X78.981 Y76.693 E0.05222
G1 X80.541 Y75.543 E0.06078
G1 X81.939 Y74.719 E0.05089
G1 X83.379 Y74.042 E0.04987
G1 X84.892 Y73.495 E0.05046
G1 X86.461 Y73.089 E0.05080
G1 X88.377 Y72.799 E0.06078
G1 X90.000 Y72.723 E0.05092
G1 X91.618 Y72.799 E0.05081
G1 X93.528 Y73.087 E0.06056
G1 X95.105 Y73.494 E0.05106
G1 X96.611 Y74.038 E0.05019
G1 X98.059 Y74.718 E0.05015
G1 X99.455 Y75.540 E0.05080
G1 X101.016 Y76.691 E0.06081
G1 X102.215 Y77.782 E0.05083
G1 X103.307 Y78.981 E0.05083
G1 X104.457 Y80.541 E0.06078
G1 X105.281 Y81.939 E0.05089
G1 X105.958 Y83.379 E0.04987
G1 X106.505 Y84.892 E0.05046
G1 X106.911 Y86.461 E0.05080
G1 X107.201 Y88.377 E0.06078
G1 X107.277 Y89.996 E0.05080
G1 X107.201 Y91.618 E0.05093
G1 X106.913 Y93.528 E0.06056
G1 X106.506 Y95.105 E0.05106
G1 X105.962 Y96.611 E0.05019
G1 X105.282 Y98.059 E0.05015
G1 X104.460 Y99.455 E0.05080
G1 X103.309 Y101.016 E0.06081
G1 X102.221 Y102.213 E0.05071
G1 X101.019 Y103.307 E0.05095
G1 X99.459 Y104.457 E0.06078
G1 X98.061 Y105.281 E0.05089
G1 X96.621 Y105.958 E0.04987
G1 X95.108 Y106.505 E0.05046
G1 X93.539 Y106.911 E0.05080
G1 X91.623 Y107.201 E0.06078
G1 X90.004 Y107.277 E0.05080
G1 X88.382 Y107.201 E0.05093
G1 X86.472 Y106.913 E0.06056
G1 X84.895 Y106.506 E0.05106
G1 X83.389 Y105.962 E0.05019
G1 X81.941 Y105.282 E0.05015
G1 X80.545 Y104.460 E0.05080
G1 X78.984 Y103.309 E0.06082
G1 X77.785 Y102.218 E0.05083
G1 X76.693 Y101.019 E0.05083
G1 X75.543 Y99.459 E0.06078
G1 X74.719 Y98.061 E0.05089
G1 X74.042 Y96.621 E0.04987
G1 X73.495 Y95.108 E0.05046
G1 X73.089 Y93.539 E0.05080
G1 X72.799 Y91.623 E0.06078
G1 X72.723 Y90.001 E0.05091
G1 X72.799 Y88.382 E0.05082
G1 X73.087 Y86.472 E0.06056
G1 X73.494 Y84.895 E0.05106
G1 X74.038 Y83.389 E0.05019
G1 X74.718 Y81.941 E0.05015
G1 X75.540 Y80.545 E0.05080
G1 X76.691 Y78.984 E0.06082
G1 X77.712 Y77.862 E0.04756
M204 S1250
G1 E-2.24000 F4200.00000
G1 F7200.000
G1 X78.922 Y76.747 E-0.91200
G1 E-0.04800 F4200.00000
G1 Z0.400 F9000.000
G1 X87.519 Y87.619
G1 Z0.200
G1 E3.20000 F2400.00000
M204 S800
G1 F1200.000
G1 X87.794 Y87.363 E0.01180
G1 X88.101 Y87.133 E0.01200
G1 X88.580 Y86.869 E0.01716
G1 X88.938 Y86.730 E0.01203
G1 X89.309 Y86.632 E0.01204
G1 X89.859 Y86.565 E0.01737
G1 X90.234 Y86.570 E0.01178
G1 X90.607 Y86.616 E0.01178
G1 X90.972 Y86.702 E0.01175
G1 X91.327 Y86.828 E0.01181
G1 X91.820 Y87.082 E0.01739
G1 X92.133 Y87.303 E0.01201
G1 X92.419 Y87.556 E0.01197
G1 X92.778 Y87.974 E0.01726
G1 X92.985 Y88.295 E0.01198
G1 X93.157 Y88.638 E0.01203
G1 X93.334 Y89.157 E0.01721
G1 X93.406 Y89.532 E0.01196
G1 X93.437 Y89.914 E0.01202
G1 X93.406 Y90.468 E0.01739
G1 X93.334 Y90.837 E0.01181
G1 X93.224 Y91.195 E0.01174
G1 X93.074 Y91.540 E0.01179
G1 X92.884 Y91.873 E0.01202
G1 X92.545 Y92.312 E0.01740
G1 X92.277 Y92.576 E0.01177
G1 X91.983 Y92.809 E0.01177
G1 X91.664 Y93.009 E0.01179
G1 X91.325 Y93.173 E0.01179
G1 X90.800 Y93.344 E0.01735
G1 X90.422 Y93.412 E0.01202
G1 X90.047 Y93.438 E0.01179
G1 X89.672 Y93.422 E0.01177
G1 X89.301 Y93.366 E0.01177
G1 X88.768 Y93.210 E0.01740
G1 X88.419 Y93.053 E0.01201
G1 X88.094 Y92.862 E0.01182
G1 X87.659 Y92.518 E0.01739
G1 X87.393 Y92.242 E0.01201
G1 X87.161 Y91.939 E0.01197
G1 X86.887 Y91.461 E0.01726
G1 X86.745 Y91.107 E0.01197
G1 X86.644 Y90.745 E0.01177
G1 X86.582 Y90.375 E0.01177
G1 X86.562 Y89.993 E0.01198
G1 X86.607 Y89.445 E0.01726
G1 X86.690 Y89.072 E0.01197
G1 X86.813 Y88.709 E0.01201
G1 X87.061 Y88.216 E0.01731
G1 X87.275 Y87.903 E0.01188
G1 X87.480 Y87.665 E0.00986
M204 S1250
G1 X87.766 Y87.911 F9000.000
M204 S800
G1 F1200.000
G1 X88.037 Y87.652 E0.01173
G1 X88.306 Y87.451 E0.01055
G1 X88.740 Y87.211 E0.01554
G1 X89.054 Y87.089 E0.01057
G1 X89.380 Y87.003 E0.01058
G1 X89.879 Y86.942 E0.01575
G1 X90.208 Y86.947 E0.01034
G1 X90.541 Y86.988 E0.01049
G1 X90.865 Y87.064 E0.01046
G1 X91.177 Y87.175 E0.01036
G1 X91.624 Y87.406 E0.01577
G1 X91.899 Y87.600 E0.01055
G1 X92.150 Y87.822 E0.01052
G1 X92.475 Y88.200 E0.01564
G1 X92.657 Y88.482 E0.01053
G1 X92.808 Y88.783 E0.01057
G1 X92.968 Y89.254 E0.01559
G1 X93.032 Y89.583 E0.01051
G1 X93.059 Y89.919 E0.01056
G1 X93.031 Y90.421 E0.01577
G1 X92.968 Y90.745 E0.01036
G1 X92.870 Y91.064 E0.01046
G1 X92.736 Y91.371 E0.01050
G1 X92.569 Y91.663 E0.01055
G1 X92.262 Y92.062 E0.01578
G1 X92.027 Y92.293 E0.01033
G1 X91.765 Y92.500 E0.01048
G1 X91.481 Y92.678 E0.01050
G1 X91.184 Y92.822 E0.01035
G1 X90.707 Y92.978 E0.01573
G1 X90.376 Y93.037 E0.01056
G1 X90.042 Y93.060 E0.01049
G1 X89.708 Y93.046 E0.01048
G1 X89.382 Y92.997 E0.01033
G1 X88.899 Y92.856 E0.01578
G1 X88.592 Y92.717 E0.01055
G1 X88.307 Y92.550 E0.01037
G1 X87.913 Y92.238 E0.01576
G1 X87.680 Y91.996 E0.01055
G1 X87.475 Y91.730 E0.01052
G1 X87.228 Y91.297 E0.01564
G1 X87.103 Y90.985 E0.01052
G1 X87.012 Y90.664 E0.01048
G1 X86.958 Y90.334 E0.01048
G1 X86.939 Y89.999 E0.01053
G1 X86.980 Y89.501 E0.01564
G1 X87.053 Y89.174 E0.01052
G1 X87.162 Y88.855 E0.01055
G1 X87.386 Y88.408 E0.01569
G1 X87.574 Y88.134 E0.01044
G1 X87.727 Y87.956 E0.00734
M204 S1250
G1 X87.659 Y87.552 F9000.000
G1 E-2.24000 F4200.00000
G1 F7200.000
G1 X88.037 Y87.652 E-0.24044
G1 X88.306 Y87.451 E-0.18643
G1 X88.740 Y87.211 E-0.27466
G1 X89.054 Y87.089 E-0.18683
G1 X89.096 Y87.078 E-0.02364
G1 E-0.04800 F4200.00000
G1 Z0.400 F9000.000
G1 X79.559 Y80.510
G1 Z0.200
G1 E3.20000 F2400.00000
M204 S800
G1 F1200.000
G1 X80.254 Y79.793 E0.03131
G1 X80.736 Y79.354 E0.02044
G1 X81.237 Y78.937 E0.02044
G1 X81.755 Y78.546 E0.02034
G1 X82.571 Y78.001 E0.03076
G1 X83.133 Y77.671 E0.02044
G1 X83.709 Y77.367 E0.02044
G1 X84.300 Y77.090 E0.02044
G1 X84.902 Y76.840 E0.02044
G1 X85.515 Y76.619 E0.02044
G1 X86.138 Y76.426 E0.02044
G1 X86.769 Y76.262 E0.02044
G1 X87.407 Y76.128 E0.02044
G1 X88.050 Y76.023 E0.02044
G1 X88.698 Y75.947 E0.02044
G1 X89.345 Y75.903 E0.02034
G1 X90.326 Y75.891 E0.03076
G1 X90.977 Y75.921 E0.02044
G1 X91.626 Y75.981 E0.02044
G1 X92.272 Y76.071 E0.02044
G1 X92.910 Y76.191 E0.02034
G1 X93.865 Y76.427 E0.03087
G1 X94.485 Y76.619 E0.02034
G1 X95.098 Y76.840 E0.02044
G1 X95.700 Y77.090 E0.02044
G1 X96.291 Y77.367 E0.02044
G1 X96.864 Y77.669 E0.02034
G1 X97.707 Y78.178 E0.03087
G1 X98.242 Y78.544 E0.02033
G1 X98.763 Y78.937 E0.02044
G1 X99.264 Y79.354 E0.02044
G1 X99.746 Y79.793 E0.02044
G1 X100.207 Y80.254 E0.02044
G1 X100.646 Y80.736 E0.02044
G1 X101.063 Y81.237 E0.02044
G1 X101.454 Y81.755 E0.02034
G1 X101.999 Y82.571 E0.03076
G1 X102.329 Y83.133 E0.02044
G1 X102.633 Y83.709 E0.02044
G1 X102.910 Y84.300 E0.02044
G1 X103.160 Y84.902 E0.02044
G1 X103.381 Y85.515 E0.02044
G1 X103.574 Y86.138 E0.02044
G1 X103.738 Y86.769 E0.02044
G1 X103.872 Y87.407 E0.02044
G1 X103.977 Y88.047 E0.02034
G1 X104.079 Y89.023 E0.03076
G1 X104.109 Y89.674 E0.02044
G1 X104.109 Y90.326 E0.02044
G1 X104.079 Y90.977 E0.02044
G1 X104.019 Y91.626 E0.02044
G1 X103.929 Y92.272 E0.02044
G1 X103.809 Y92.910 E0.02034
G1 X103.573 Y93.865 E0.03087
G1 X103.381 Y94.485 E0.02034
G1 X103.160 Y95.098 E0.02044
G1 X102.910 Y95.700 E0.02044
G1 X102.633 Y96.291 E0.02044
G1 X102.331 Y96.864 E0.02034
G1 X101.822 Y97.707 E0.03087
G1 X101.456 Y98.242 E0.02033
G1 X101.063 Y98.763 E0.02044
G1 X100.646 Y99.264 E0.02044
G1 X100.207 Y99.746 E0.02044
G1 X99.746 Y100.207 E0.02044
G1 X99.264 Y100.646 E0.02044
G1 X98.763 Y101.063 E0.02044
G1 X98.242 Y101.456 E0.02044
G1 X97.705 Y101.824 E0.02044
G1 X97.150 Y102.167 E0.02044
G1 X96.581 Y102.485 E0.02044
G1 X96.000 Y102.774 E0.02033
G1 X95.095 Y103.161 E0.03087
G1 X94.485 Y103.381 E0.02034
G1 X93.862 Y103.574 E0.02044
G1 X93.231 Y103.738 E0.02044
G1 X92.593 Y103.872 E0.02044
G1 X91.953 Y103.977 E0.02034
G1 X90.977 Y104.079 E0.03076
G1 X90.326 Y104.109 E0.02044
G1 X89.674 Y104.109 E0.02044
G1 X89.023 Y104.079 E0.02044
G1 X88.374 Y104.019 E0.02044
G1 X87.728 Y103.929 E0.02044
G1 X87.090 Y103.809 E0.02034
G1 X86.138 Y103.574 E0.03076
G1 X85.515 Y103.381 E0.02044
G1 X84.902 Y103.160 E0.02044
G1 X84.303 Y102.912 E0.02034
G1 X83.416 Y102.483 E0.03087
G1 X82.850 Y102.167 E0.02034
G1 X82.295 Y101.824 E0.02044
G1 X81.758 Y101.456 E0.02044
G1 X81.237 Y101.063 E0.02044
G1 X80.736 Y100.646 E0.02044
G1 X80.254 Y100.207 E0.02044
G1 X79.793 Y99.746 E0.02044
G1 X79.354 Y99.264 E0.02044
G1 X78.937 Y98.763 E0.02044
G1 X78.544 Y98.242 E0.02044
G1 X78.176 Y97.705 E0.02044
G1 X77.833 Y97.150 E0.02044
G1 X77.515 Y96.581 E0.02044
G1 X77.226 Y96.000 E0.02033
G1 X76.839 Y95.095 E0.03087
G1 X76.619 Y94.485 E0.02034
G1 X76.426 Y93.862 E0.02044
G1 X76.262 Y93.231 E0.02044
G1 X76.128 Y92.593 E0.02044
G1 X76.023 Y91.953 E0.02034
G1 X75.921 Y90.977 E0.03076
G1 X75.891 Y90.326 E0.02044
G1 X75.891 Y89.674 E0.02044
G1 X75.921 Y89.023 E0.02044
G1 X75.981 Y88.374 E0.02044
G1 X76.071 Y87.728 E0.02044
G1 X76.191 Y87.090 E0.02034
G1 X76.426 Y86.138 E0.03076
G1 X76.619 Y85.515 E0.02044
G1 X76.840 Y84.902 E0.02044
G1 X77.088 Y84.303 E0.02034
G1 X77.517 Y83.416 E0.03087
G1 X77.833 Y82.850 E0.02034
G1 X78.176 Y82.295 E0.02044
G1 X78.544 Y81.758 E0.02044
G1 X78.937 Y81.237 E0.02044
G1 X79.519 Y80.555 E0.02812
M204 S1250
G1 X79.240 Y80.301 F9000.000
M204 S800
G1 F1200.000
G1 X79.993 Y79.520 E0.03401
G1 X80.488 Y79.069 E0.02099
G1 X81.003 Y78.642 E0.02099
G1 X81.536 Y78.239 E0.02095
G1 X82.370 Y77.682 E0.03145
G1 X82.949 Y77.341 E0.02106
G1 X83.541 Y77.029 E0.02099
G1 X84.147 Y76.745 E0.02099
G1 X84.766 Y76.489 E0.02099
G1 X85.395 Y76.261 E0.02099
G1 X86.035 Y76.063 E0.02099
G1 X86.683 Y75.895 E0.02099
G1 X87.337 Y75.757 E0.02099
G1 X87.998 Y75.649 E0.02099
G1 X88.663 Y75.572 E0.02099
G1 X89.330 Y75.526 E0.02095
G1 X90.332 Y75.514 E0.03145
G1 X91.003 Y75.545 E0.02106
G1 X91.670 Y75.607 E0.02099
G1 X92.333 Y75.699 E0.02099
G1 X92.990 Y75.822 E0.02095
G1 X93.967 Y76.064 E0.03155
G1 X94.605 Y76.261 E0.02095
G1 X95.234 Y76.489 E0.02099
G1 X95.853 Y76.745 E0.02099
G1 X96.459 Y77.029 E0.02099
G1 X97.050 Y77.341 E0.02095
G1 X97.912 Y77.861 E0.03155
G1 X98.463 Y78.238 E0.02095
G1 X98.997 Y78.642 E0.02099
G1 X99.512 Y79.069 E0.02099
G1 X100.007 Y79.520 E0.02099
G1 X100.480 Y79.993 E0.02099
G1 X100.931 Y80.488 E0.02099
G1 X101.358 Y81.003 E0.02099
G1 X101.761 Y81.536 E0.02095
G1 X102.318 Y82.370 E0.03145
G1 X102.659 Y82.949 E0.02106
G1 X102.971 Y83.541 E0.02099
G1 X103.255 Y84.147 E0.02099
G1 X103.511 Y84.766 E0.02099
G1 X103.739 Y85.395 E0.02099
G1 X103.937 Y86.035 E0.02099
G1 X104.105 Y86.683 E0.02099
G1 X104.243 Y87.337 E0.02099
G1 X104.351 Y87.997 E0.02095
G1 X104.455 Y88.994 E0.03145
G1 X104.486 Y89.665 E0.02106
G1 X104.486 Y90.335 E0.02099
G1 X104.455 Y91.003 E0.02099
G1 X104.393 Y91.670 E0.02099
G1 X104.301 Y92.333 E0.02099
G1 X104.178 Y92.990 E0.02095
G1 X103.936 Y93.967 E0.03155
G1 X103.739 Y94.605 E0.02095
G1 X103.511 Y95.234 E0.02099
G1 X103.255 Y95.853 E0.02099
G1 X102.971 Y96.459 E0.02099
G1 X102.659 Y97.050 E0.02095
G1 X102.139 Y97.912 E0.03155
G1 X101.762 Y98.463 E0.02095
G1 X101.358 Y98.997 E0.02099
G1 X100.931 Y99.512 E0.02099
G1 X100.480 Y100.007 E0.02099
G1 X100.007 Y100.480 E0.02099
G1 X99.512 Y100.931 E0.02099
G1 X98.997 Y101.358 E0.02099
G1 X98.463 Y101.762 E0.02099
G1 X97.910 Y102.140 E0.02099
G1 X97.341 Y102.492 E0.02099
G1 X96.757 Y102.818 E0.02099
G1 X96.158 Y103.116 E0.02095
G1 X95.233 Y103.512 E0.03155
G1 X94.605 Y103.739 E0.02095
G1 X93.965 Y103.937 E0.02099
G1 X93.317 Y104.105 E0.02099
G1 X92.663 Y104.243 E0.02099
G1 X92.003 Y104.351 E0.02095
G1 X91.006 Y104.455 E0.03145
G1 X90.335 Y104.486 E0.02106
G1 X89.665 Y104.486 E0.02099
G1 X88.997 Y104.455 E0.02099
G1 X88.330 Y104.393 E0.02099
G1 X87.667 Y104.301 E0.02099
G1 X87.010 Y104.178 E0.02095
G1 X86.037 Y103.937 E0.03145
G1 X85.395 Y103.739 E0.02106
G1 X84.766 Y103.511 E0.02099
G1 X84.148 Y103.256 E0.02095
G1 X83.242 Y102.818 E0.03155
G1 X82.659 Y102.492 E0.02095
G1 X82.090 Y102.140 E0.02099
G1 X81.537 Y101.762 E0.02099
G1 X81.003 Y101.358 E0.02099
G1 X80.488 Y100.931 E0.02099
G1 X79.993 Y100.480 E0.02099
G1 X79.520 Y100.007 E0.02099
G1 X79.069 Y99.512 E0.02099
G1 X78.642 Y98.997 E0.02099
G1 X78.238 Y98.463 E0.02099
G1 X77.860 Y97.910 E0.02099
G1 X77.508 Y97.341 E0.02099
G1 X77.182 Y96.757 E0.02099
G1 X76.884 Y96.158 E0.02095
G1 X76.488 Y95.233 E0.03155
G1 X76.261 Y94.605 E0.02095
G1 X76.063 Y93.965 E0.02099
G1 X75.895 Y93.317 E0.02099
G1 X75.757 Y92.663 E0.02099
G1 X75.649 Y92.003 E0.02095
G1 X75.545 Y91.006 E0.03145
G1 X75.514 Y90.335 E0.02106
G1 X75.514 Y89.665 E0.02099
G1 X75.545 Y88.997 E0.02099
G1 X75.607 Y88.330 E0.02099
G1 X75.699 Y87.667 E0.02099
G1 X75.822 Y87.010 E0.02095
G1 X76.063 Y86.037 E0.03145
G1 X76.261 Y85.395 E0.02106
G1 X76.489 Y84.766 E0.02099
G1 X76.744 Y84.148 E0.02095
G1 X77.182 Y83.242 E0.03155
G1 X77.508 Y82.659 E0.02095
G1 X77.860 Y82.090 E0.02099
G1 X78.238 Y81.537 E0.02099
G1 X78.642 Y81.003 E0.02099
