; generated by PrusaSlicer 2.2.0+win64 on 2020-12-28 at 13:31:50 UTC


;
;

;
;
; 

; external perimeters extrusion width = 0.45mm
; perimeters extrusion width = 0.45mm
; infill extrusion width = 0.45mm
; solid infill extrusion width = 0.45mm
; top infill extrusion width = 0.40mm
; first layer extrusion width = 0.42mm

M73 P0 R34
M201 X1250 Y1250 Z400 E5000 ; sets maximum accelerations, mm/sec^2
M203 X180 Y180 Z12 E80 ; sets maximum feedrates, mm/sec
M204 P1250 R1250 T1250 ; sets acceleration (P, T) and retract acceleration (R), mm/sec^2
M205 X8.00 Y8.00 Z2.00 E10.00 ; sets the jerk limits, mm/sec
M205 S0 T0 ; sets the minimum extruding and travel feed rate, mm/sec
M107
G90 ; use absolute coordinates
M83 ; extruder relative mode
M104 S170 ; set extruder temp for bed leveling
M140 S60 ; set bed temp
M109 R170 ; wait for bed leveling temp
M190 S60 ; wait for bed temp
G28 ; home all without mesh bed level
G29 ; mesh bed leveling 
M104 S215 ; set extruder temp
G92 E0.0
G1 Y-2.0 X179 F2400
G1 Z3 F720
M109 S215 ; wait for extruder temp

; intro line
G1 X170 F1000
G1 Z0.2 F720
G1 X110.0 E8.0 F900
M73 P0 R34
G1 X40.0 E10.0 F700
G92 E0.0

M221 S95 ; set flow
G21 ; set units to millimeters
G90 ; use absolute coordinates
M83 ; use relative distances for extrusion
M900 K0.2 ; Filament gcode LA 1.5
; ; Filament gcode LA 1.0
;BEFORE_LAYER_CHANGE
G92 E0.0
;0.2


G1 Z0.200 F9000.000
;AFTER_LAYER_CHANGE
;0.2
G1 E-3.20000 F4200.00000
G1 Z0.400 F9000.000
G1 X77.516 Y77.517
G1 Z0.200
G1 E3.20000 F2400.00000
M204 S800
G1 F1200.000
G1 X78.734 Y76.408 E0.05167
G1 X80.332 Y75.229 E0.06227
G1 X81.754 Y74.390 E0.05175
G1 X83.233 Y73.695 E0.05123
G1 X84.795 Y73.131 E0.05210
G1 X86.716 Y72.654 E0.06203
G1 X88.360 Y72.422 E0.05208
G1 X89.992 Y72.346 E0.05123
G1 X91.630 Y72.421 E0.05140
G1 X93.275 Y72.652 E0.05209
G1 X95.192 Y73.127 E0.06191
G1 X96.748 Y73.687 E0.05186
G1 X98.256 Y74.396 E0.05226
G1 X99.949 Y75.416 E0.06197
G1 X101.275 Y76.416 E0.05207
G1 X102.483 Y77.516 E0.05121
G1 X103.592 Y78.734 E0.05167
G1 X104.771 Y80.332 E0.06227
G1 X105.610 Y81.754 E0.05175
G1 X106.305 Y83.233 E0.05123
G1 X106.869 Y84.795 E0.05210
G1 X107.346 Y86.716 E0.06203
G1 X107.578 Y88.360 E0.05208
G1 X107.654 Y89.988 E0.05110
G1 X107.579 Y91.626 E0.05140
G1 X107.348 Y93.273 E0.05214
G1 X106.873 Y95.192 E0.06199
G1 X106.313 Y96.748 E0.05186
G1 X105.604 Y98.256 E0.05226
G1 X104.584 Y99.949 E0.06197
G1 X103.584 Y101.275 E0.05207
G1 X102.484 Y102.483 E0.05121
G1 X101.266 Y103.592 E0.05167
G1 X99.668 Y104.771 E0.06227
G1 X98.246 Y105.610 E0.05175
G1 X96.767 Y106.305 E0.05123
G1 X95.205 Y106.869 E0.05209
G1 X93.284 Y107.346 E0.06203
G1 X91.640 Y107.578 E0.05208
G1 X90.012 Y107.654 E0.05110
G1 X88.374 Y107.579 E0.05140
G1 X86.727 Y107.348 E0.05214
G1 X84.808 Y106.873 E0.06199
G1 X83.252 Y106.313 E0.05186
G1 X81.744 Y105.604 E0.05226
G1 X80.061 Y104.590 E0.06161
G1 X78.728 Y103.587 E0.05230
G1 X77.517 Y102.484 E0.05134
G1 X76.408 Y101.266 E0.05167
G1 X75.229 Y99.668 E0.06227
G1 X74.390 Y98.246 E0.05175
G1 X73.695 Y96.767 E0.05123
G1 X73.131 Y95.205 E0.05209
G1 X72.654 Y93.284 E0.06203
G1 X72.422 Y91.640 E0.05208
G1 X72.346 Y90.000 E0.05146
G1 X72.421 Y88.370 E0.05117
G1 X72.652 Y86.725 E0.05209
G1 X73.127 Y84.808 E0.06191
G1 X73.687 Y83.252 E0.05186
G1 X74.396 Y81.744 E0.05226
G1 X75.410 Y80.061 E0.06161
G1 X76.413 Y78.728 E0.05230
G1 X77.475 Y77.562 E0.04946
M204 S1250
G1 X77.754 Y77.815 F9000.000
M204 S800
G1 F1200.000
G1 X78.974 Y76.699 E0.05184
G1 X80.542 Y75.542 E0.06110
G1 X81.932 Y74.723 E0.05060
G1 X83.376 Y74.044 E0.05002
G1 X84.903 Y73.492 E0.05092
G1 X86.789 Y73.024 E0.06094
G1 X88.394 Y72.798 E0.05079
G1 X89.994 Y72.723 E0.05024
G1 X91.593 Y72.797 E0.05019
G1 X93.202 Y73.022 E0.05092
G1 X95.084 Y73.488 E0.06081
G1 X96.606 Y74.036 E0.05070
G1 X98.078 Y74.728 E0.05098
G1 X99.740 Y75.730 E0.06086
G1 X101.033 Y76.705 E0.05079
G1 X102.215 Y77.781 E0.05012
G1 X103.301 Y78.974 E0.05056
G1 X104.458 Y80.542 E0.06110
G1 X105.277 Y81.932 E0.05060
G1 X105.956 Y83.376 E0.05002
G1 X106.500 Y84.877 E0.05008
G1 X106.908 Y86.448 E0.05088
G1 X107.200 Y88.371 E0.06098
G1 X107.277 Y89.987 E0.05072
G1 X107.203 Y91.593 E0.05043
G1 X106.978 Y93.200 E0.05086
G1 X106.512 Y95.084 E0.06088
G1 X105.966 Y96.602 E0.05059
G1 X105.272 Y98.078 E0.05110
G1 X104.270 Y99.740 E0.06086
G1 X103.295 Y101.033 E0.05079
G1 X102.219 Y102.215 E0.05012
G1 X101.026 Y103.301 E0.05056
G1 X99.458 Y104.458 E0.06110
G1 X98.068 Y105.277 E0.05060
G1 X96.624 Y105.956 E0.05002
G1 X95.123 Y106.500 E0.05008
G1 X93.552 Y106.908 E0.05088
G1 X91.629 Y107.200 E0.06098
G1 X90.013 Y107.277 E0.05072
G1 X88.407 Y107.203 E0.05043
G1 X86.800 Y106.978 E0.05086
G1 X84.916 Y106.512 E0.06088
G1 X83.398 Y105.966 E0.05059
G1 X81.922 Y105.272 E0.05110
G1 X80.270 Y104.276 E0.06051
G1 X78.967 Y103.295 E0.05114
G1 X77.785 Y102.219 E0.05012
G1 X76.699 Y101.026 E0.05056
G1 X75.542 Y99.458 E0.06110
G1 X74.723 Y98.068 E0.05060
G1 X74.042 Y96.621 E0.05014
G1 X73.492 Y95.097 E0.05080
G1 X73.024 Y93.211 E0.06094
G1 X72.798 Y91.606 E0.05079
G1 X72.723 Y90.002 E0.05036
G1 X72.797 Y88.407 E0.05007
G1 X73.022 Y86.798 E0.05092
G1 X73.488 Y84.916 E0.06081
G1 X74.036 Y83.394 E0.05070
G1 X74.728 Y81.922 E0.05098
G1 X75.724 Y80.270 E0.06051
G1 X76.705 Y78.967 E0.05114
G1 X77.713 Y77.860 E0.04695
M204 S1250
G1 E-2.24000 F4200.00000
G1 F7200.000
G1 X78.924 Y76.745 E-0.91200
G1 E-0.04800 F4200.00000
G1 Z0.400 F9000.000
G1 X87.699 Y87.512
G1 Z0.200
G1 E3.20000 F2400.00000
M204 S800
G1 F1200.000
G1 X87.993 Y87.270 E0.01195
G1 X88.306 Y87.066 E0.01170
G1 X88.639 Y86.897 E0.01171
G1 X88.989 Y86.766 E0.01171
G1 X89.350 Y86.675 E0.01170
G1 X89.728 Y86.622 E0.01195
G1 X90.272 Y86.622 E0.01705
G1 X90.650 Y86.675 E0.01196
G1 X91.019 Y86.768 E0.01195
G1 X91.523 Y86.973 E0.01705
G1 X91.853 Y87.164 E0.01196
G1 X92.160 Y87.389 E0.01195
G1 X92.550 Y87.769 E0.01705
G1 X92.784 Y88.069 E0.01195
G1 X92.984 Y88.394 E0.01195
G1 X93.202 Y88.892 E0.01705
G1 X93.306 Y89.259 E0.01195
G1 X93.369 Y89.635 E0.01195
G1 X93.384 Y90.179 E0.01705
G1 X93.342 Y90.558 E0.01196
G1 X93.258 Y90.930 E0.01195
G1 X93.068 Y91.439 E0.01706
G1 X92.886 Y91.774 E0.01195
G1 X92.669 Y92.088 E0.01195
G1 X92.301 Y92.488 E0.01706
G1 X92.007 Y92.730 E0.01195
G1 X91.694 Y92.934 E0.01170
G1 X91.361 Y93.103 E0.01171
G1 X91.011 Y93.234 E0.01171
G1 X90.650 Y93.325 E0.01170
G1 X90.272 Y93.378 E0.01195
G1 X89.728 Y93.378 E0.01705
G1 X89.350 Y93.325 E0.01196
G1 X88.981 Y93.232 E0.01195
G1 X88.477 Y93.027 E0.01705
G1 X88.147 Y92.836 E0.01196
G1 X87.840 Y92.611 E0.01195
G1 X87.450 Y92.231 E0.01705
G1 X87.216 Y91.931 E0.01195
G1 X87.016 Y91.606 E0.01195
G1 X86.798 Y91.108 E0.01705
G1 X86.694 Y90.741 E0.01195
G1 X86.631 Y90.365 E0.01195
G1 X86.616 Y89.821 E0.01705
G1 X86.658 Y89.442 E0.01196
G1 X86.742 Y89.070 E0.01195
G1 X86.932 Y88.561 E0.01706
G1 X87.114 Y88.226 E0.01195
G1 X87.331 Y87.913 E0.01195
G1 X87.659 Y87.556 E0.01518
M204 S1250
G1 X87.936 Y87.812 F9000.000
M204 S800
G1 F1200.000
G1 X88.217 Y87.574 E0.01153
G1 X88.495 Y87.393 E0.01040
G1 X88.791 Y87.243 E0.01040
G1 X89.101 Y87.127 E0.01040
G1 X89.423 Y87.045 E0.01040
G1 X89.754 Y86.999 E0.01048
G1 X90.246 Y86.999 E0.01542
G1 X90.577 Y87.045 E0.01049
G1 X90.901 Y87.128 E0.01048
G1 X91.357 Y87.313 E0.01542
G1 X91.647 Y87.480 E0.01049
G1 X91.916 Y87.678 E0.01048
G1 X92.268 Y88.021 E0.01542
G1 X92.474 Y88.285 E0.01049
G1 X92.649 Y88.569 E0.01048
G1 X92.847 Y89.020 E0.01542
G1 X92.938 Y89.342 E0.01049
G1 X92.993 Y89.671 E0.01048
G1 X93.006 Y90.163 E0.01542
G1 X92.969 Y90.496 E0.01049
G1 X92.896 Y90.822 E0.01048
G1 X92.724 Y91.282 E0.01542
G1 X92.565 Y91.576 E0.01048
G1 X92.374 Y91.851 E0.01048
G1 X92.041 Y92.213 E0.01543
G1 X91.783 Y92.426 E0.01048
G1 X91.505 Y92.607 E0.01040
G1 X91.209 Y92.757 E0.01040
G1 X90.899 Y92.873 E0.01040
G1 X90.577 Y92.955 E0.01040
G1 X90.246 Y93.001 E0.01048
G1 X89.754 Y93.001 E0.01542
G1 X89.423 Y92.955 E0.01049
G1 X89.099 Y92.872 E0.01048
G1 X88.643 Y92.687 E0.01542
G1 X88.353 Y92.520 E0.01049
G1 X88.084 Y92.322 E0.01048
G1 X87.732 Y91.979 E0.01542
G1 X87.526 Y91.715 E0.01049
G1 X87.351 Y91.431 E0.01048
G1 X87.153 Y90.980 E0.01542
G1 X87.062 Y90.658 E0.01049
G1 X87.007 Y90.329 E0.01048
G1 X86.994 Y89.837 E0.01542
G1 X87.031 Y89.504 E0.01049
G1 X87.104 Y89.178 E0.01048
G1 X87.276 Y88.718 E0.01542
G1 X87.435 Y88.424 E0.01048
G1 X87.626 Y88.149 E0.01048
G1 X87.896 Y87.856 E0.01248
M204 S1250
G1 X87.849 Y87.454 F9000.000
G1 E-2.24000 F4200.00000
G1 F7200.000
G1 X88.217 Y87.574 E-0.23690
G1 X88.495 Y87.393 E-0.18377
G1 X88.791 Y87.243 E-0.18383
G1 X89.101 Y87.127 E-0.18385
G1 X89.318 Y87.072 E-0.12366
G1 E-0.04800 F4200.00000
G1 Z0.400 F9000.000
G1 X80.043 Y80.004
G1 Z0.200
G1 E3.20000 F2400.00000
M204 S800
G1 F1200.000
G1 X80.736 Y79.354 E0.02978
G1 X81.237 Y78.937 E0.02044
G1 X81.755 Y78.546 E0.02034
G1 X82.571 Y78.001 E0.03079
G1 X83.133 Y77.671 E0.02042
G1 X83.709 Y77.367 E0.02044
G1 X84.300 Y77.090 E0.02044
G1 X84.902 Y76.840 E0.02044
G1 X85.515 Y76.619 E0.02044
G1 X86.138 Y76.426 E0.02044
G1 X86.769 Y76.262 E0.02044
G1 X87.407 Y76.128 E0.02044
G1 X88.050 Y76.023 E0.02044
G1 X88.698 Y75.947 E0.02044
G1 X89.345 Y75.903 E0.02034
G1 X90.327 Y75.891 E0.03079
G1 X90.977 Y75.921 E0.02042
G1 X91.626 Y75.981 E0.02044
G1 X92.272 Y76.071 E0.02044
G1 X92.913 Y76.191 E0.02044
G1 X93.544 Y76.340 E0.02034
G1 X94.486 Y76.619 E0.03079
G1 X95.098 Y76.840 E0.02042
G1 X95.700 Y77.090 E0.02044
G1 X96.291 Y77.367 E0.02044
G1 X96.867 Y77.671 E0.02044
G1 X97.426 Y77.999 E0.02034
G1 X98.243 Y78.545 E0.03079
G1 X98.763 Y78.937 E0.02042
G1 X99.264 Y79.354 E0.02044
G1 X99.746 Y79.793 E0.02044
G1 X100.207 Y80.254 E0.02044
G1 X100.646 Y80.736 E0.02044
G1 X101.063 Y81.237 E0.02044
G1 X101.454 Y81.755 E0.02034
G1 X101.999 Y82.571 E0.03079
G1 X102.329 Y83.133 E0.02042
G1 X102.633 Y83.709 E0.02044
G1 X102.910 Y84.300 E0.02044
G1 X103.160 Y84.902 E0.02044
G1 X103.381 Y85.515 E0.02044
G1 X103.574 Y86.138 E0.02044
G1 X103.738 Y86.769 E0.02044
G1 X103.872 Y87.403 E0.02034
G1 X104.019 Y88.374 E0.03079
G1 X104.079 Y89.023 E0.02042
G1 X104.109 Y89.674 E0.02044
G1 X104.109 Y90.326 E0.02044
G1 X104.079 Y90.977 E0.02044
G1 X104.019 Y91.626 E0.02044
G1 X103.929 Y92.269 E0.02034
G1 X103.738 Y93.232 E0.03079
G1 X103.574 Y93.862 E0.02042
G1 X103.381 Y94.485 E0.02044
G1 X103.160 Y95.098 E0.02044
G1 X102.910 Y95.700 E0.02044
G1 X102.633 Y96.291 E0.02044
G1 X102.329 Y96.867 E0.02044
G1 X102.001 Y97.426 E0.02034
G1 X101.455 Y98.243 E0.03079
G1 X101.063 Y98.763 E0.02042
G1 X100.646 Y99.264 E0.02044
G1 X100.207 Y99.746 E0.02044
G1 X99.746 Y100.207 E0.02044
G1 X99.264 Y100.646 E0.02044
G1 X98.763 Y101.063 E0.02044
G1 X98.242 Y101.456 E0.02044
G1 X97.705 Y101.824 E0.02044
G1 X97.153 Y102.166 E0.02034
G1 X96.290 Y102.633 E0.03079
G1 X95.700 Y102.910 E0.02042
G1 X95.098 Y103.160 E0.02044
G1 X94.485 Y103.381 E0.02044
G1 X93.862 Y103.574 E0.02044
G1 X93.231 Y103.738 E0.02044
G1 X92.597 Y103.872 E0.02034
G1 X91.626 Y104.019 E0.03079
G1 X90.977 Y104.079 E0.02042
G1 X90.326 Y104.109 E0.02044
G1 X89.674 Y104.109 E0.02044
G1 X89.023 Y104.079 E0.02044
G1 X88.374 Y104.019 E0.02044
G1 X87.731 Y103.929 E0.02034
G1 X86.768 Y103.738 E0.03079
G1 X86.138 Y103.574 E0.02042
G1 X85.515 Y103.381 E0.02044
G1 X84.902 Y103.160 E0.02044
G1 X84.300 Y102.910 E0.02044
G1 X83.709 Y102.633 E0.02044
G1 X83.133 Y102.329 E0.02044
G1 X82.574 Y102.001 E0.02034
G1 X81.757 Y101.455 E0.03079
G1 X81.237 Y101.063 E0.02042
G1 X80.736 Y100.646 E0.02044
G1 X80.254 Y100.207 E0.02044
G1 X79.793 Y99.746 E0.02044
G1 X79.354 Y99.264 E0.02044
G1 X78.937 Y98.763 E0.02044
G1 X78.544 Y98.242 E0.02044
G1 X78.176 Y97.705 E0.02044
G1 X77.834 Y97.153 E0.02034
G1 X77.367 Y96.290 E0.03079
G1 X77.090 Y95.700 E0.02042
G1 X76.840 Y95.098 E0.02044
G1 X76.619 Y94.485 E0.02044
G1 X76.426 Y93.862 E0.02044
G1 X76.262 Y93.231 E0.02044
G1 X76.128 Y92.597 E0.02034
G1 X75.981 Y91.626 E0.03079
G1 X75.921 Y90.977 E0.02042
G1 X75.891 Y90.326 E0.02044
G1 X75.891 Y89.674 E0.02044
G1 X75.921 Y89.023 E0.02044
G1 X75.981 Y88.374 E0.02044
G1 X76.071 Y87.731 E0.02034
G1 X76.262 Y86.768 E0.03079
G1 X76.426 Y86.138 E0.02042
G1 X76.619 Y85.515 E0.02044
G1 X76.840 Y84.902 E0.02044
G1 X77.090 Y84.300 E0.02044
G1 X77.367 Y83.709 E0.02044
G1 X77.671 Y83.133 E0.02044
G1 X77.999 Y82.574 E0.02034
G1 X78.545 Y81.757 E0.03079
G1 X78.937 Y81.237 E0.02042
G1 X79.354 Y80.736 E0.02044
G1 X80.001 Y80.046 E0.02965
M204 S1250
G1 X79.734 Y79.779 F9000.000
M204 S800
G1 F1200.000
G1 X80.488 Y79.069 E0.03248
G1 X81.003 Y78.642 E0.02099
G1 X81.536 Y78.239 E0.02095
G1 X82.371 Y77.681 E0.03147
G1 X82.949 Y77.341 E0.02103
G1 X83.541 Y77.029 E0.02099
G1 X84.147 Y76.745 E0.02099
G1 X84.766 Y76.489 E0.02099
G1 X85.395 Y76.261 E0.02099
G1 X86.035 Y76.063 E0.02099
G1 X86.683 Y75.895 E0.02099
G1 X87.337 Y75.757 E0.02099
G1 X87.998 Y75.649 E0.02099
G1 X88.663 Y75.572 E0.02099
G1 X89.330 Y75.526 E0.02095
G1 X90.333 Y75.514 E0.03147
G1 X91.003 Y75.545 E0.02103
G1 X91.670 Y75.607 E0.02099
G1 X92.333 Y75.699 E0.02099
G1 X92.991 Y75.822 E0.02099
G1 X93.641 Y75.975 E0.02095
G1 X94.603 Y76.261 E0.03147
G1 X95.234 Y76.489 E0.02103
G1 X95.853 Y76.745 E0.02099
G1 X96.459 Y77.029 E0.02099
G1 X97.051 Y77.341 E0.02099
G1 X97.627 Y77.680 E0.02095
G1 X98.462 Y78.237 E0.03147
G1 X98.997 Y78.642 E0.02103
G1 X99.512 Y79.069 E0.02099
G1 X100.007 Y79.520 E0.02099
G1 X100.480 Y79.993 E0.02099
G1 X100.931 Y80.488 E0.02099
G1 X101.358 Y81.003 E0.02099
G1 X101.761 Y81.536 E0.02095
G1 X102.319 Y82.371 E0.03147
G1 X102.659 Y82.949 E0.02103
G1 X102.971 Y83.541 E0.02099
G1 X103.255 Y84.147 E0.02099
G1 X103.511 Y84.766 E0.02099
G1 X103.739 Y85.395 E0.02099
G1 X103.937 Y86.035 E0.02099
G1 X104.105 Y86.683 E0.02099
G1 X104.243 Y87.336 E0.02095
G1 X104.393 Y88.329 E0.03147
G1 X104.455 Y88.997 E0.02103
G1 X104.486 Y89.665 E0.02099
G1 X104.486 Y90.335 E0.02099
G1 X104.455 Y91.003 E0.02099
G1 X104.393 Y91.670 E0.02099
G1 X104.301 Y92.332 E0.02095
G1 X104.105 Y93.316 E0.03147
G1 X103.937 Y93.965 E0.02103
G1 X103.739 Y94.605 E0.02099
G1 X103.511 Y95.234 E0.02099
G1 X103.255 Y95.853 E0.02099
G1 X102.971 Y96.459 E0.02099
G1 X102.659 Y97.051 E0.02099
G1 X102.320 Y97.627 E0.02095
G1 X101.763 Y98.462 E0.03147
G1 X101.358 Y98.997 E0.02103
G1 X100.931 Y99.512 E0.02099
G1 X100.480 Y100.007 E0.02099
G1 X100.007 Y100.480 E0.02099
G1 X99.512 Y100.931 E0.02099
G1 X98.997 Y101.358 E0.02099
G1 X98.463 Y101.762 E0.02099
G1 X97.910 Y102.140 E0.02099
G1 X97.342 Y102.492 E0.02095
G1 X96.460 Y102.970 E0.03147
G1 X95.853 Y103.255 E0.02103
G1 X95.234 Y103.511 E0.02099
G1 X94.605 Y103.739 E0.02099
G1 X93.965 Y103.937 E0.02099
G1 X93.317 Y104.105 E0.02099
G1 X92.664 Y104.243 E0.02095
G1 X91.671 Y104.393 E0.03147
G1 X91.003 Y104.455 E0.02103
G1 X90.335 Y104.486 E0.02099
G1 X89.665 Y104.486 E0.02099
G1 X88.997 Y104.455 E0.02099
G1 X88.330 Y104.393 E0.02099
G1 X87.668 Y104.301 E0.02095
G1 X86.684 Y104.105 E0.03147
G1 X86.035 Y103.937 E0.02103
G1 X85.395 Y103.739 E0.02099
G1 X84.766 Y103.511 E0.02099
G1 X84.147 Y103.255 E0.02099
G1 X83.541 Y102.971 E0.02099
G1 X82.949 Y102.659 E0.02099
G1 X82.373 Y102.320 E0.02095
G1 X81.538 Y101.763 E0.03147
G1 X81.003 Y101.358 E0.02103
G1 X80.488 Y100.931 E0.02099
G1 X79.993 Y100.480 E0.02099
G1 X79.520 Y100.007 E0.02099
G1 X79.069 Y99.512 E0.02099
G1 X78.642 Y98.997 E0.02099
G1 X78.238 Y98.463 E0.02099
G1 X77.860 Y97.910 E0.02099
G1 X77.508 Y97.342 E0.02095
G1 X77.030 Y96.460 E0.03147
G1 X76.745 Y95.853 E0.02103
G1 X76.489 Y95.234 E0.02099
G1 X76.261 Y94.605 E0.02099
G1 X76.063 Y93.965 E0.02099
G1 X75.895 Y93.317 E0.02099
G1 X75.757 Y92.664 E0.02095
G1 X75.607 Y91.671 E0.03147
G1 X75.545 Y91.003 E0.02103
G1 X75.514 Y90.335 E0.02099
G1 X75.514 Y89.665 E0.02099
G1 X75.545 Y88.997 E0.02099
G1 X75.607 Y88.330 E0.02099
G1 X75.699 Y87.668 E0.02095
G1 X75.895 Y86.684 E0.03147
G1 X76.063 Y86.035 E0.02103
G1 X76.261 Y85.395 E0.02099
G1 X76.489 Y84.766 E0.02099
G1 X76.745 Y84.147 E0.02099
G1 X77.029 Y83.541 E0.02099
G1 X77.341 Y82.949 E0.02099
G1 X77.680 Y82.373 E0.02095
G1 X78.237 Y81.538 E0.03147
G1 X78.642 Y81.003 E0.02103
G1 X79.069 Y80.488 E0.02099
G1 X79.692 Y79.822 E0.02859
M204 S1250
