; generated by PrusaSlicer 2.2.0+win64 on 2020-12-24 at 16:14:19 UTC


;
;

;
;
; 

; external perimeters extrusion width = 0.45mm
; perimeters extrusion width = 0.45mm
; infill extrusion width = 0.45mm
; solid infill extrusion width = 0.45mm
; top infill extrusion width = 0.40mm
; first layer extrusion width = 0.42mm

M73 P0 R58
M201 X1250 Y1250 Z400 E5000 ; sets maximum accelerations, mm/sec^2
M203 X180 Y180 Z12 E80 ; sets maximum feedrates, mm/sec
M204 P1250 R1250 T1250 ; sets acceleration (P, T) and retract acceleration (R), mm/sec^2
M205 X8.00 Y8.00 Z2.00 E10.00 ; sets the jerk limits, mm/sec
M205 S0 T0 ; sets the minimum extruding and travel feed rate, mm/sec
M107
G90 ; use absolute coordinates
M83 ; extruder relative mode
M104 S170 ; set extruder temp for bed leveling
M140 S60 ; set bed temp
M109 R170 ; wait for bed leveling temp
M190 S60 ; wait for bed temp
G28 ; home all without mesh bed level
G29 ; mesh bed leveling 
M104 S215 ; set extruder temp
G92 E0.0
G1 Y-2.0 X179 F2400
G1 Z3 F720
M109 S215 ; wait for extruder temp

; intro line
G1 X170 F1000
G1 Z0.2 F720
G1 X110.0 E8.0 F900
M73 P0 R58
G1 X40.0 E10.0 F700
G92 E0.0

M221 S95 ; set flow
G21 ; set units to millimeters
G90 ; use absolute coordinates
M83 ; use relative distances for extrusion
M900 K0.2 ; Filament gcode LA 1.5
; ; Filament gcode LA 1.0
;BEFORE_LAYER_CHANGE
G92 E0.0
;0.2


G1 Z0.200 F9000.000
;AFTER_LAYER_CHANGE
;0.2
G1 E-3.20000 F4200.00000
G1 Z0.400 F9000.000
G1 X61.711 Y76.231
G1 Z0.200
G1 E3.20000 F2400.00000
M204 S800
G1 F1200.000
G1 X62.495 Y76.096 E0.02496
G1 X117.504 Y76.096 E1.72476
G1 X118.346 Y76.251 E0.02684
G1 X119.078 Y76.695 E0.02684
G1 X119.605 Y77.369 E0.02684
G1 X119.860 Y78.187 E0.02684
G1 X119.869 Y95.663 E0.54796
G1 X119.652 Y96.483 E0.02661
G1 X116.569 Y102.697 E0.21748
G1 X116.027 Y103.349 E0.02661
G1 X115.289 Y103.769 E0.02661
G1 X114.505 Y103.904 E0.02496
G1 X65.177 Y103.882 E1.54662
G1 X64.679 Y103.758 E0.01609
G1 X64.223 Y103.532 E0.01597
G1 X63.825 Y103.214 E0.01597
G1 X63.502 Y102.815 E0.01609
G1 X60.258 Y96.262 E0.22928
G1 X60.123 Y95.488 E0.02461
G1 X60.129 Y78.302 E0.53888
G1 X60.277 Y77.631 E0.02154
G1 X60.611 Y77.030 E0.02154
G1 X61.102 Y76.550 E0.02154
G1 X61.657 Y76.259 E0.01966
M204 S1250
G1 E-2.24000 F4200.00000
G1 F7200.000
G1 X62.495 Y76.096 E-0.47293
G1 X63.287 Y76.096 E-0.43907
G1 E-0.04800 F4200.00000
G1 Z0.400 F9000.000
G1 X63.287 Y79.260
G1 Z0.200
G1 E3.20000 F2400.00000
M204 S800
G1 F1200.000
G1 X73.713 Y79.260 E0.32689
G1 X73.713 Y79.686 E0.01335
G1 X63.713 Y79.686 E0.31354
G1 X63.713 Y94.260 E0.45696
G1 X116.287 Y94.260 E1.64843
G1 X116.287 Y79.686 E0.45696
G1 X106.287 Y79.686 E0.31354
G1 X106.287 Y79.260 E0.01335
G1 X116.713 Y79.260 E0.32689
G1 X116.713 Y94.687 E0.48372
G1 X115.483 Y94.691 E0.03856
G1 X114.952 Y94.720 E0.01668
G1 X114.000 Y94.824 E0.03003
G1 X113.048 Y94.720 E0.03003
G1 X112.518 Y94.691 E0.01666
G1 X111.502 Y94.686 E0.03186
G1 X67.990 Y94.686 E1.36426
G1 X66.959 Y94.719 E0.03237
G1 X66.000 Y94.824 E0.03023
G1 X65.048 Y94.720 E0.03003
G1 X64.517 Y94.691 E0.01668
G1 X63.287 Y94.687 E0.03856
G1 X63.287 Y79.320 E0.48184
M204 S1250
G1 X64.090 Y80.063 F9000.000
M204 S800
G1 F1200.000
G1 X64.090 Y93.883 E0.43332
G1 X115.910 Y93.883 E1.62478
G1 X115.910 Y80.063 E0.43332
G1 X105.910 Y80.063 E0.31354
G1 X105.910 Y78.883 E0.03700
G1 X117.090 Y78.883 E0.35054
G1 X117.090 Y95.063 E0.50733
G1 X115.494 Y95.068 E0.05004
G1 X114.983 Y95.096 E0.01605
G1 X114.189 Y95.183 E0.02505
G1 X114.176 Y101.136 E0.18664
G1 X113.824 Y101.136 E0.01104
G1 X113.811 Y101.047 E0.00281
G1 X113.811 Y95.183 E0.18385
G1 X113.017 Y95.096 E0.02505
G1 X112.506 Y95.068 E0.01604
G1 X111.501 Y95.063 E0.03153
G1 X67.997 Y95.063 E1.36404
G1 X66.985 Y95.096 E0.03173
G1 X66.189 Y95.183 E0.02513
G1 X66.189 Y101.047 E0.18385
G1 X66.176 Y101.136 E0.00281
G1 X65.824 Y101.136 E0.01104
G1 X65.811 Y95.183 E0.18664
G1 X65.017 Y95.096 E0.02505
G1 X64.506 Y95.068 E0.01605
G1 X62.910 Y95.063 E0.05004
G1 X62.910 Y78.883 E0.50733
G1 X74.090 Y78.883 E0.35054
G1 X74.090 Y80.063 E0.03700
G1 X64.150 Y80.063 E0.31166
M204 S1250
G1 X63.690 Y80.078 F9000.000
G1 E-2.24000 F4200.00000
G1 F7200.000
G1 X64.143 Y81.708 E-0.91200
G1 E-0.04800 F4200.00000
G1 Z0.400 F9000.000
G1 X64.524 Y94.475
G1 Z0.200
G1 E3.20000 F2400.00000
M204 S800
G1 F1200.000
G1 X65.068 Y94.490 E0.00380
M204 S1250
M204 S800
G1 X65.379 Y94.507 E0.00305
M204 S1250
M204 S800
G1 X65.689 Y94.524 E0.00393
M204 S1250
M204 S800
G1 X66.000 Y94.541 E0.00481
G1 X66.314 Y94.524 E0.00485
M204 S1250
M204 S800
G1 X66.944 Y94.490 E0.00435
G1 X67.972 Y94.473 E0.00709
M204 S1250
G1 E-2.24000 F4200.00000
G1 F7200.000
G1 X66.944 Y94.490 E-0.56989
G1 X66.327 Y94.523 E-0.34211
G1 E-0.04800 F4200.00000
G1 Z0.400 F9000.000
G1 X64.524 Y94.475
G1 Z0.200
G1 E3.20000 F2400.00000
M204 S800
G1 F1200.000
G1 X63.476 Y94.474 E0.00472
M204 S1250
G1 E-2.24000 F4200.00000
G1 F7200.000
G1 X64.524 Y94.475 E-0.58090
G1 E-0.37910 F4200.00000
G1 Z0.400 F9000.000
G1 X111.784 Y94.474
G1 Z0.200
G1 E3.20000 F2400.00000
M204 S800
G1 F1200.000
G1 X112.525 Y94.476 E0.00334
M204 S1250
M204 S800
G1 X113.068 Y94.490 E0.00380
M204 S1250
M204 S800
G1 X113.379 Y94.507 E0.00305
M204 S1250
M204 S800
G1 X114.000 Y94.541 E0.00786
G1 X114.621 Y94.507 E0.00786
M204 S1250
M204 S800
G1 X115.476 Y94.475 E0.00385
G1 X116.524 Y94.474 E0.00472
M204 S1250
M106 S255
;BEFORE_LAYER_CHANGE
G92 E0.0
;0.45


G1 Z0.450 F9000.000
;AFTER_LAYER_CHANGE
;0.45
G1 E-3.20000 F4200.00000
G1 Z0.650 F9000.000
G1 X116.027 Y103.349
G1 Z0.450
G1 E3.20000 F2400.00000
G1 X115.289 Y103.769 E0.03231
G1 X114.505 Y103.904 E0.03031
G1 X65.177 Y103.882 E1.87826
G1 X64.679 Y103.758 E0.01954
G1 X64.223 Y103.532 E0.01940
G1 X63.825 Y103.214 E0.01940
G1 X63.502 Y102.815 E0.01954
G1 X60.258 Y96.262 E0.27844
G1 X60.123 Y95.488 E0.02989
G1 X60.129 Y78.302 E0.65443
G1 X60.277 Y77.631 E0.02616
G1 X60.611 Y77.030 E0.02616
G1 X61.102 Y76.550 E0.02616
G1 X61.711 Y76.231 E0.02616
G1 X62.495 Y76.096 E0.03031
G1 X117.504 Y76.096 E2.09460
G1 X118.346 Y76.251 E0.03260
G1 X119.078 Y76.695 E0.03260
G1 X119.605 Y77.369 E0.03260
G1 X119.860 Y78.187 E0.03260
G1 X119.869 Y95.663 E0.66546
G1 X119.652 Y96.483 E0.03231
G1 X116.569 Y102.697 E0.26412
G1 X116.065 Y103.303 E0.03003
G1 E-2.24000 F4200.00000
G1 F7200.000
G1 X115.289 Y103.769 E-0.50156
G1 X114.559 Y103.895 E-0.41044
G1 E-0.04800 F4200.00000
G1 Z0.650 F9000.000
G1 X63.879 Y79.851
G1 Z0.450
G1 E3.20000 F2400.00000
M204 S800
G1 F2524
G1 X63.879 Y94.094 E0.58674
G1 X116.121 Y94.094 E2.15218
G1 X116.121 Y79.851 E0.58674
G1 X106.121 Y79.851 E0.41196
G1 X106.121 Y79.094 E0.03120
G1 X116.879 Y79.094 E0.44315
G1 X116.879 Y94.851 E0.64913
G1 X63.121 Y94.851 E2.21457
G1 X63.121 Y79.094 E0.64913
G1 X73.879 Y79.094 E0.44316
G1 X73.879 Y79.851 E0.03120
G1 X63.939 Y79.851 E0.40949
M204 S1250
G1 X64.275 Y80.248 F9000.000
M204 S800
G1 F2400.000
G1 X64.275 Y93.698 E0.55408
G1 X115.725 Y93.698 E2.11952
G1 X115.725 Y80.248 E0.55408
G1 X105.725 Y80.248 E0.41196
G1 X105.725 Y78.698 E0.06385
G1 X117.275 Y78.698 E0.47581
G1 X117.275 Y95.248 E0.68179
G1 X114.275 Y95.248 E0.12359
G1 X114.275 Y101.302 E0.24942
G1 X113.725 Y101.302 E0.02266
G1 X113.725 Y95.248 E0.24942
G1 X66.275 Y95.248 E1.95474
G1 X66.275 Y101.302 E0.24942
G1 X65.725 Y101.302 E0.02266
G1 X65.725 Y95.248 E0.24942
G1 X62.725 Y95.248 E0.12359
G1 X62.725 Y78.698 E0.68179
G1 X74.275 Y78.698 E0.47581
G1 X74.275 Y80.248 E0.06385
G1 X64.335 Y80.248 E0.40949
M204 S1250
G1 X63.876 Y80.268 F9000.000
G1 X63.500 Y79.653
G1 F2400.000
G1 X63.500 Y94.292 E0.54921
G1 X63.531 Y94.442 E0.00573
G1 X63.680 Y94.473 E0.00573
G1 X116.320 Y94.473 E1.97486
G1 X116.469 Y94.442 E0.00573
G1 X116.500 Y94.292 E0.00573
G1 X116.500 Y79.653 E0.54921
G1 X116.469 Y79.504 E0.00573
G1 X116.320 Y79.473 E0.00573
G1 X106.320 Y79.473 E0.37517
G1 E-2.24000 F4200.00000
M73 P2 R57
G1 F7200.000
G1 X107.965 Y79.473 E-0.91200
G1 E-0.04800 F4200.00000
G1 Z0.650 F9000.000
G1 X114.000 Y95.050
G1 Z0.450
G1 E3.20000 F2400.00000
G1 X114.000 Y101.104 E0.09669
G1 E-2.24000 F4200.00000
G1 F7200.000
G1 X114.000 Y99.458 E-0.91200
G1 E-0.04800 F4200.00000
G1 Z0.650 F9000.000
G1 X73.680 Y79.473
G1 Z0.450
G1 E3.20000 F2400.00000
G1 X63.680 Y79.473 E0.37517
G1 X63.531 Y79.504 E0.00573
G1 X63.500 Y79.653 E0.00573
G1 E-2.24000 F4200.00000
G1 F7200.000
G1 X63.531 Y79.504 E-0.08461
G1 X63.680 Y79.473 E-0.08461
G1 X65.021 Y79.473 E-0.74277
G1 E-0.04800 F4200.00000
G1 Z0.650 F9000.000
G1 X66.000 Y95.050
G1 Z0.450
G1 E3.20000 F2400.00000
G1 X66.000 Y101.104 E0.09669
;BEFORE_LAYER_CHANGE
G92 E0.0
;0.7


G1 Z0.700 F9000.000
;AFTER_LAYER_CHANGE
;0.7
G1 E-3.20000 F4200.00000
G1 Z0.900 F9000.000
G1 X65.177 Y103.882
G1 Z0.700
G1 E3.20000 F2400.00000
G1 X64.679 Y103.758 E0.01954
G1 X64.223 Y103.532 E0.01940
G1 X63.825 Y103.214 E0.01940
G1 X63.502 Y102.815 E0.01954
G1 X60.258 Y96.262 E0.27844
G1 X60.123 Y95.488 E0.02989
G1 X60.129 Y78.302 E0.65443
G1 X60.277 Y77.631 E0.02616
G1 X60.611 Y77.030 E0.02616
G1 X61.102 Y76.550 E0.02616
G1 X61.711 Y76.231 E0.02616
G1 X62.495 Y76.096 E0.03031
G1 X117.504 Y76.096 E2.09460
G1 X118.346 Y76.251 E0.03260
G1 X119.078 Y76.695 E0.03260
G1 X119.605 Y77.369 E0.03260
G1 X119.860 Y78.187 E0.03260
G1 X119.869 Y95.663 E0.66546
G1 X119.652 Y96.483 E0.03231
G1 X116.569 Y102.697 E0.26412
G1 X116.027 Y103.349 E0.03231
G1 X115.289 Y103.769 E0.03231
G1 X114.505 Y103.904 E0.03031
G1 X65.237 Y103.882 E1.87598
G1 E-2.24000 F4200.00000
G1 F7200.000
G1 X64.679 Y103.758 E-0.31677
G1 X64.223 Y103.532 E-0.28231
G1 X63.825 Y103.214 E-0.28231
G1 X63.790 Y103.171 E-0.03061
G1 E-0.04800 F4200.00000
G1 Z0.900 F9000.000
G1 X63.879 Y79.851
G1 Z0.700
G1 E3.20000 F2400.00000
M204 S800
G1 F2402
G1 X63.879 Y94.094 E0.58674
G1 X116.121 Y94.094 E2.15218
G1 X116.121 Y79.851 E0.58674
G1 X106.121 Y79.851 E0.41196
G1 X106.121 Y79.094 E0.03120
G1 X116.879 Y79.094 E0.44315
G1 X116.879 Y94.851 E0.64913
G1 X63.121 Y94.851 E2.21457
G1 X63.121 Y79.094 E0.64913
G1 X73.879 Y79.094 E0.44316
G1 X73.879 Y79.851 E0.03120
G1 X63.939 Y79.851 E0.40949
M204 S1250
G1 X64.275 Y80.248 F9000.000
M204 S800
G1 F2400.000
G1 X64.275 Y93.698 E0.55408
G1 X115.725 Y93.698 E2.11952
G1 X115.725 Y80.248 E0.55408
G1 X105.725 Y80.248 E0.41196
G1 X105.725 Y78.698 E0.06385
G1 X117.275 Y78.698 E0.47581
G1 X117.275 Y95.248 E0.68179
G1 X114.275 Y95.248 E0.12359
G1 X114.275 Y101.302 E0.24942
G1 X113.725 Y101.302 E0.02266
G1 X113.725 Y95.248 E0.24942
G1 X66.275 Y95.248 E1.95474
G1 X66.275 Y101.302 E0.24942
G1 X65.725 Y101.302 E0.02266
G1 X65.725 Y95.248 E0.24942
G1 X62.725 Y95.248 E0.12359
G1 X62.725 Y78.698 E0.68179
G1 X74.275 Y78.698 E0.47581
G1 X74.275 Y80.248 E0.06385
G1 X64.335 Y80.248 E0.40949
M204 S1250
G1 X63.876 Y80.268 F9000.000
G1 X63.500 Y79.653
G1 F2400.000
G1 X63.500 Y94.292 E0.54921
G1 X63.531 Y94.442 E0.00573
G1 X63.680 Y94.473 E0.00573
G1 X116.320 Y94.473 E1.97486
G1 X116.469 Y94.442 E0.00573
G1 X116.500 Y94.292 E0.00573
G1 X116.500 Y79.653 E0.54921
G1 X116.469 Y79.504 E0.00573
G1 X116.320 Y79.473 E0.00573
G1 X106.320 Y79.473 E0.37517
G1 E-2.24000 F4200.00000
G1 F7200.000
G1 X107.965 Y79.473 E-0.91200
G1 E-0.04800 F4200.00000
G1 Z0.900 F9000.000
G1 X114.000 Y95.050
G1 Z0.700
G1 E3.20000 F2400.00000
G1 X114.000 Y101.104 E0.09669
G1 E-2.24000 F4200.00000
G1 F7200.000
G1 X114.000 Y99.458 E-0.91200
G1 E-0.04800 F4200.00000
G1 Z0.900 F9000.000
G1 X73.680 Y79.473
G1 Z0.700
G1 E3.20000 F2400.00000
G1 X63.680 Y79.473 E0.37517
G1 X63.531 Y79.504 E0.00573
G1 X63.500 Y79.653 E0.00573
G1 E-2.24000 F4200.00000
G1 F7200.000
G1 X63.531 Y79.504 E-0.08461
G1 X63.680 Y79.473 E-0.08461
G1 X65.021 Y79.473 E-0.74277
G1 E-0.04800 F4200.00000
G1 Z0.900 F9000.000
G1 X66.000 Y95.050
G1 Z0.700
G1 E3.20000 F2400.00000
G1 X66.000 Y101.104 E0.09669
;BEFORE_LAYER_CHANGE
G92 E0.0
;0.95


G1 Z0.950 F9000.000
;AFTER_LAYER_CHANGE
;0.95
G1 E-3.20000 F4200.00000
G1 Z1.150 F9000.000
G1 X63.879 Y79.851
G1 Z0.950
G1 E3.20000 F2400.00000
M204 S800
G1 F1835
G1 X63.879 Y94.094 E0.58674
G1 X116.121 Y94.094 E2.15218
G1 X116.121 Y79.851 E0.58674
G1 X106.121 Y79.851 E0.41196
G1 X106.121 Y79.094 E0.03120
G1 X116.879 Y79.094 E0.44315
G1 X116.879 Y94.851 E0.64913
G1 X63.121 Y94.851 E2.21457
G1 X63.121 Y79.094 E0.64913
G1 X73.879 Y79.094 E0.44316
G1 X73.879 Y79.851 E0.03120
G1 X63.939 Y79.851 E0.40949
M204 S1250
G1 X64.275 Y80.248 F9000.000
M204 S800
G1 F1835
G1 X64.275 Y93.698 E0.55408
G1 X115.725 Y93.698 E2.11952
G1 X115.725 Y80.248 E0.55408
G1 X105.725 Y80.248 E0.41196
G1 X105.725 Y78.698 E0.06385
G1 X117.275 Y78.698 E0.47581
G1 X117.275 Y95.248 E0.68179
G1 X114.275 Y95.248 E0.12359
G1 X114.275 Y101.302 E0.24942
G1 X113.725 Y101.302 E0.02266
G1 X113.725 Y95.248 E0.24942
G1 X66.275 Y95.248 E1.95474
G1 X66.275 Y101.302 E0.24942
G1 X65.725 Y101.302 E0.02266
G1 X65.725 Y95.248 E0.24942
G1 X62.725 Y95.248 E0.12359
G1 X62.725 Y78.698 E0.68179
G1 X74.275 Y78.698 E0.47581
G1 X74.275 Y80.248 E0.06385
G1 X64.335 Y80.248 E0.40949
M204 S1250
G1 X63.876 Y80.268 F9000.000
G1 X63.500 Y79.653
G1 F1835
G1 X63.500 Y94.292 E0.54921
G1 X63.531 Y94.442 E0.00573
G1 X63.680 Y94.473 E0.00573
G1
G1 X116.320 Y94.473 E1.97486
G1 X116.469 Y94.442 E0.00573
G1 X116.500 Y94.292 E0.00573
G1
G1 X116.500 Y79.653 E0.54921
G1 X116.469 Y79.504 E0.00573
G1 X116.320 Y79.473 E0.00573
G1
G1 X106.320 Y79.473 E0.37517
G1 E-2.24000 F4200.00000
G1 F7200.000
G1 X107.965 Y79.473 E-0.91200
G1 E-0.04800 F4200.00000
G1 Z1.150 F9000.000
G1 X114.000 Y95.050
G1 Z0.950
G1 E3.20000 F2400.00000
G1 F1835
G1 X114.000 Y101.104 E0.09669
G1 E-2.24000 F4200.00000
G1 F7200.000
G1 X114.000 Y99.458 E-0.91200
G1 E-0.04800 F4200.00000
G1 Z1.150 F9000.000
G1 X73.680 Y79.473
G1 Z0.950
G1 E3.20000 F2400.00000
G1 F1835
G1 X63.680 Y79.473 E0.37517
G1 X63.531 Y79.504 E0.00573
G1 X63.500 Y79.653 E0.00573
G1 E-2.24000 F4200.00000
G1 F7200.000
G1 X63.531 Y79.504 E-0.08461
G1 X63.680 Y79.473 E-0.08461
G1 X65.021 Y79.473 E-0.74277
G1 E-0.04800 F4200.00000
G1 Z1.150 F9000.000
G1 X66.000 Y95.050
G1 Z0.950
G1 E3.20000 F2400.00000
G1 F1835
G1 X66.000 Y101.104 E0.09669
;BEFORE_LAYER_CHANGE
G92 E0.0
;1.2


G1 Z1.200 F9000.000
;AFTER_LAYER_CHANGE
;1.2
G1 E-3.20000 F4200.00000
G1 Z1.400 F9000.000
G1 X63.879 Y79.851
G1 Z1.200
G1 E3.20000 F2400.00000
M204 S800
G1 F1835
G1 X63.879 Y94.094 E0.58674
G1 X116.121 Y94.094 E2.15218
G1 X116.121 Y79.851 E0.58674
G1 X106.121 Y79.851 E0.41196
G1 X106.121 Y79.094 E0.03120
G1 X116.879 Y79.094 E0.44315
G1 X116.879 Y94.851 E0.64913
G1 X63.121 Y94.851 E2.21457
G1 X63.121 Y79.094 E0.64913
G1 X73.879 Y79.094 E0.44316
G1 X73.879 Y79.851 E0.03120
G1 X63.939 Y79.851 E0.40949
M204 S1250
G1 X64.275 Y80.248 F9000.000
M204 S800
G1 F1835
G1 X64.275 Y93.698 E0.55408
G1 X115.725 Y93.698 E2.11952
G1 X115.725 Y80.248 E0.55408
G1 X105.725 Y80.248 E0.41196
G1 X105.725 Y78.698 E0.06385
G1 X117.275 Y78.698 E0.47581
G1 X117.275 Y95.248 E0.68179
G1 X114.275 Y95.248 E0.12359
G1 X114.275 Y101.302 E0.24942
G1 X113.725 Y101.302 E0.02266
G1 X113.725 Y95.248 E0.24942
G1 X66.275 Y95.248 E1.95474
G1 X66.275 Y101.302 E0.24942
G1 X65.725 Y101.302 E0.02266
G1 X65.725 Y95.248 E0.24942
M73 P3 R56
G1 X62.725 Y95.248 E0.12359
G1 X62.725 Y78.698 E0.68179
G1 X74.275 Y78.698 E0.47581
G1 X74.275 Y80.248 E0.06385
G1 X64.335 Y80.248 E0.40949
M204 S1250
G1 X63.876 Y80.268 F9000.000
G1 X63.500 Y79.653
G1 F1835
G1 X63.500 Y94.292 E0.54921
G1 X63.531 Y94.442 E0.00573
G1 X63.680 Y94.473 E0.00573
G1
G1 X116.320 Y94.473 E1.97486
G1 X116.469 Y94.442 E0.00573
G1 X116.500 Y94.292 E0.00573
G1
G1 X116.500 Y79.653 E0.54921
G1 X116.469 Y79.504 E0.00573
G1 X116.320 Y79.473 E0.00573
G1
G1 X106.320 Y79.473 E0.37517
G1 E-2.24000 F4200.00000
G1 F7200.000
G1 X107.965 Y79.473 E-0.91200
G1 E-0.04800 F4200.00000
G1 Z1.400 F9000.000
G1 X114.000 Y95.050
G1 Z1.200
G1 E3.20000 F2400.00000
G1 F1835
G1 X114.000 Y101.104 E0.09669
G1 E-2.24000 F4200.00000
G1 F7200.000
G1 X114.000 Y99.458 E-0.91200
G1 E-0.04800 F4200.00000
G1 Z1.400 F9000.000
G1 X73.680 Y79.473
G1 Z1.200
G1 E3.20000 F2400.00000
G1 F1835
G1 X63.680 Y79.473 E0.37517
G1 X63.531 Y79.504 E0.00573
G1 X63.500 Y79.653 E0.00573
G1 E-2.24000 F4200.00000
G1 F7200.000
