; generated by PrusaSlicer 2.2.0+win64 on 2020-12-24 at 18:54:31 UTC


;
;

;
;
; 

; external perimeters extrusion width = 0.45mm
; perimeters extrusion width = 0.45mm
; infill extrusion width = 0.45mm
; solid infill extrusion width = 0.45mm
; top infill extrusion width = 0.40mm
; first layer extrusion width = 0.42mm

M73 P0 R57
M201 X1250 Y1250 Z400 E5000 ; sets maximum accelerations, mm/sec^2
M203 X180 Y180 Z12 E80 ; sets maximum feedrates, mm/sec
M204 P1250 R1250 T1250 ; sets acceleration (P, T) and retract acceleration (R), mm/sec^2
M205 X8.00 Y8.00 Z2.00 E10.00 ; sets the jerk limits, mm/sec
M205 S0 T0 ; sets the minimum extruding and travel feed rate, mm/sec
M107
G90 ; use absolute coordinates
M83 ; extruder relative mode
M104 S170 ; set extruder temp for bed leveling
M140 S60 ; set bed temp
M109 R170 ; wait for bed leveling temp
M190 S60 ; wait for bed temp
G28 ; home all without mesh bed level
G29 ; mesh bed leveling 
M104 S215 ; set extruder temp
G92 E0.0
G1 Y-2.0 X179 F2400
G1 Z3 F720
M109 S215 ; wait for extruder temp

; intro line
G1 X170 F1000
G1 Z0.2 F720
G1 X110.0 E8.0 F900
M73 P0 R57
G1 X40.0 E10.0 F700
G92 E0.0

M221 S95 ; set flow
G21 ; set units to millimeters
G90 ; use absolute coordinates
M83 ; use relative distances for extrusion
M900 K0.2 ; Filament gcode LA 1.5
; ; Filament gcode LA 1.0
;BEFORE_LAYER_CHANGE
G92 E0.0
;0.2


G1 Z0.200 F9000.000
;AFTER_LAYER_CHANGE
;0.2
G1 E-3.20000 F4200.00000
G1 Z0.400 F9000.000
G1 X62.112 Y78.302
G1 Z0.200
G1 E3.20000 F2400.00000
M204 S800
G1 F1200.000
G1 X63.179 Y77.798 E0.03699
G1 X64.491 Y77.594 E0.04164
G1 X115.503 Y77.594 E1.59945
G1 X116.252 Y77.659 E0.02355
G1 X116.870 Y77.814 E0.02000
G1 X117.565 Y78.112 E0.02371
G1 X118.127 Y78.471 E0.02091
G1 X118.690 Y78.974 E0.02367
G1 X119.160 Y79.571 E0.02381
G1 X119.480 Y80.151 E0.02077
G1 X119.734 Y80.861 E0.02366
G1 X119.876 Y81.944 E0.03423
G1 X119.876 Y94.001 E0.37806
G1 X119.818 Y94.496 E0.01562
G1 X119.659 Y94.964 E0.01550
G1 X116.571 Y101.192 E0.21796
G1 X115.991 Y101.877 E0.02813
G1 X115.202 Y102.296 E0.02802
G1 X114.504 Y102.402 E0.02213
G1 X65.173 Y102.380 E1.54674
G1 X64.679 Y102.256 E0.01597
G1 X64.219 Y102.028 E0.01609
G1 X63.819 Y101.707 E0.01609
G1 X63.499 Y101.310 E0.01597
G1 X60.229 Y94.673 E0.23200
G1 X60.122 Y93.979 E0.02201
G1 X60.122 Y81.959 E0.37686
G1 X60.193 Y81.189 E0.02426
G1 X60.544 Y80.098 E0.03594
G1 X61.175 Y79.125 E0.03637
G1 X62.067 Y78.342 E0.03721
M204 S1250
G1 E-2.24000 F4200.00000
G1 F7200.000
G1 X63.179 Y77.798 E-0.68573
G1 X63.582 Y77.735 E-0.22627
G1 E-0.04800 F4200.00000
G1 Z0.400 F9000.000
G1 X63.712 Y81.184
G1 Z0.200
G1 E3.20000 F2400.00000
M204 S800
G1 F1200.000
G1 X63.712 Y92.758 E0.36290
G1 X116.287 Y92.758 E1.64843
G1 X116.287 Y81.184 E0.36290
G1 X106.287 Y81.184 E0.31354
G1 X106.287 Y80.758 E0.01335
G1 X115.478 Y80.758 E0.28819
G1 X115.642 Y80.768 E0.00516
G1 X115.874 Y80.820 E0.00743
G1 X116.082 Y80.910 E0.00713
G1 X116.271 Y81.038 E0.00714
G1 X116.432 Y81.200 E0.00715
G1 X116.560 Y81.388 E0.00714
G1 X116.651 Y81.597 E0.00714
G1 X116.702 Y81.828 E0.00743
G1 X116.712 Y93.186 E0.35610
G1 X115.483 Y93.189 E0.03856
G1 X114.952 Y93.218 E0.01668
G1 X114.000 Y93.323 E0.03003
G1 X113.048 Y93.218 E0.03003
G1 X112.517 Y93.189 E0.01666
G1 X111.501 Y93.184 E0.03186
G1 X67.990 Y93.184 E1.36426
G1 X66.958 Y93.218 E0.03237
G1 X66.000 Y93.323 E0.03023
G1 X65.048 Y93.218 E0.03003
G1 X64.516 Y93.189 E0.01668
G1 X63.287 Y93.186 E0.03856
G1 X63.287 Y82.002 E0.35067
G1 X63.312 Y81.735 E0.00840
G1 X63.347 Y81.596 E0.00448
G1 X63.477 Y81.322 E0.00952
G1 X63.566 Y81.199 E0.00477
G1 X63.787 Y80.991 E0.00952
G1 X63.916 Y80.909 E0.00477
G1 X64.045 Y80.848 E0.00448
G1 X64.282 Y80.780 E0.00772
G1 X64.424 Y80.762 E0.00448
G1 X73.712 Y80.758 E0.29125
G1 X73.712 Y81.184 E0.01335
G1 X63.772 Y81.184 E0.31166
M204 S1250
G1 X64.090 Y81.561 F9000.000
M204 S800
G1 F1200.000
G1 X64.090 Y92.381 E0.33925
G1 X115.910 Y92.381 E1.62478
G1 X115.910 Y81.561 E0.33925
G1 X105.910 Y81.561 E0.31354
G1 X105.910 Y80.381 E0.03700
G1 X115.490 Y80.381 E0.30038
G1 X115.695 Y80.394 E0.00646
G1 X115.991 Y80.460 E0.00948
G1 X116.265 Y80.578 E0.00937
G1 X116.512 Y80.746 E0.00938
G1 X116.724 Y80.958 E0.00939
G1 X116.892 Y81.205 E0.00938
G1 X117.011 Y81.480 E0.00938
G1 X117.077 Y81.775 E0.00948
G1 X117.090 Y81.981 E0.00646
G1 X117.090 Y93.562 E0.36311
G1 X115.493 Y93.566 E0.05004
G1 X114.982 Y93.594 E0.01605
G1 X114.188 Y93.681 E0.02505
G1 X114.176 Y99.634 E0.18664
G1 X113.823 Y99.634 E0.01104
G1 X113.811 Y99.545 E0.00281
G1 X113.811 Y93.681 E0.18385
G1 X113.017 Y93.594 E0.02505
G1 X112.506 Y93.566 E0.01604
G1 X111.500 Y93.561 E0.03153
G1 X67.996 Y93.561 E1.36404
G1 X66.985 Y93.594 E0.03173
G1 X66.188 Y93.681 E0.02513
G1 X66.188 Y99.545 E0.18385
G1 X66.176 Y99.634 E0.00281
G1 X65.823 Y99.634 E0.01104
G1 X65.811 Y93.681 E0.18664
G1 X65.017 Y93.594 E0.02505
G1 X64.506 Y93.566 E0.01605
G1 X62.910 Y93.562 E0.05004
G1 X62.910 Y81.984 E0.36301
G1 X62.939 Y81.670 E0.00989
G1 X63.061 Y81.294 E0.01239
G1 X63.157 Y81.119 E0.00626
G1 X63.275 Y80.958 E0.00626
G1 X63.411 Y80.812 E0.00626
G1 X63.565 Y80.685 E0.00626
G1 X63.911 Y80.494 E0.01239
G1 X64.205 Y80.409 E0.00959
G1 X64.400 Y80.385 E0.00616
G1 X74.090 Y80.381 E0.30382
G1 X74.090 Y81.561 E0.03700
G1 X64.150 Y81.561 E0.31166
M204 S1250
G1 X63.690 Y81.577 F9000.000
G1 E-2.24000 F4200.00000
G1 F7200.000
G1 X64.140 Y83.207 E-0.91200
G1 E-0.04800 F4200.00000
G1 Z0.400 F9000.000
G1 X64.523 Y92.974
G1 Z0.200
G1 E3.20000 F2400.00000
M204 S800
G1 F1200.000
G1 X65.068 Y92.989 E0.00380
M204 S1250
M204 S800
G1 X65.378 Y93.006 E0.00305
M204 S1250
M204 S800
G1 X65.689 Y93.022 E0.00393
M204 S1250
M204 S800
G1 X66.000 Y93.039 E0.00481
G1 X66.313 Y93.022 E0.00485
M204 S1250
M204 S800
G1 X66.943 Y92.988 E0.00435
G1 X67.972 Y92.971 E0.00708
M204 S1250
G1 E-2.24000 F4200.00000
G1 F7200.000
G1 X66.943 Y92.988 E-0.56988
G1 X66.327 Y93.022 E-0.34212
G1 E-0.04800 F4200.00000
G1 Z0.400 F9000.000
G1 X64.523 Y92.974
G1 Z0.200
G1 E3.20000 F2400.00000
M204 S800
G1 F1200.000
G1 X63.475 Y92.972 E0.00472
M204 S1250
G1 E-2.24000 F4200.00000
G1 F7200.000
G1 X64.523 Y92.974 E-0.58090
G1 E-0.37910 F4200.00000
G1 Z0.400 F9000.000
G1 X111.784 Y92.972
G1 Z0.200
G1 E3.20000 F2400.00000
M204 S800
G1 F1200.000
G1 X112.524 Y92.974 E0.00334
M204 S1250
M204 S800
G1 X113.068 Y92.989 E0.00380
M204 S1250
M204 S800
G1 X113.378 Y93.006 E0.00305
M204 S1250
M204 S800
G1 X114.000 Y93.039 E0.00786
G1 X114.621 Y93.006 E0.00786
M204 S1250
M204 S800
G1 X115.476 Y92.974 E0.00385
G1 X116.524 Y92.972 E0.00472
M204 S1250
M106 S255
;BEFORE_LAYER_CHANGE
G92 E0.0
;0.45


G1 Z0.450 F9000.000
;AFTER_LAYER_CHANGE
;0.45
G1 E-3.20000 F4200.00000
G1 Z0.650 F9000.000
G1 X115.991 Y101.877
G1 Z0.450
G1 E3.20000 F2400.00000
G1 F2292
G1 X115.202 Y102.296 E0.03403
G1 X114.504 Y102.402 E0.02688
G1 X65.173 Y102.380 E1.87841
G1 X64.679 Y102.256 E0.01940
G1 X64.219 Y102.028 E0.01954
G1 X63.819 Y101.707 E0.01954
G1 X63.499 Y101.310 E0.01940
G1 X60.229 Y94.673 E0.28174
G1 X60.122 Y93.979 E0.02673
G1 X60.122 Y81.959 E0.45767
G1 X60.193 Y81.189 E0.02947
G1 X60.544 Y80.098 E0.04364
G1 X61.175 Y79.125 E0.04417
G1 X62.112 Y78.302 E0.04748
G1 X63.179 Y77.798 E0.04492
G1 X64.491 Y77.594 E0.05057
G1 X115.503 Y77.594 E1.94242
G1 X116.252 Y77.659 E0.02860
G1 X116.870 Y77.814 E0.02429
G1 X117.565 Y78.112 E0.02879
G1 X118.127 Y78.471 E0.02539
G1 X118.690 Y78.974 E0.02875
G1 X119.160 Y79.571 E0.02891
G1 X119.480 Y80.151 E0.02522
G1 X119.734 Y80.861 E0.02873
G1 X119.876 Y81.944 E0.04156
G1 X119.876 Y94.001 E0.45913
G1 X119.818 Y94.496 E0.01897
G1 X119.659 Y94.964 E0.01882
G1 X116.571 Y101.192 E0.26470
G1 X116.030 Y101.831 E0.03188
G1 E-2.24000 F4200.00000
G1 F7200.000
G1 X115.202 Y102.296 E-0.52623
G1 X114.514 Y102.401 E-0.38577
G1 E-0.04800 F4200.00000
G1 Z0.650 F9000.000
G1 X63.878 Y81.350
G1 Z0.450
G1 E3.20000 F2400.00000
M204 S800
G1 F2292
G1 X63.878 Y92.592 E0.46315
G1 X116.121 Y92.592 E2.15218
G1 X116.121 Y81.350 E0.46315
G1 X106.121 Y81.350 E0.41196
G1 X106.121 Y80.593 E0.03119
G1 X115.576 Y80.596 E0.38952
G1 X115.851 Y80.640 E0.01145
G1 X115.997 Y80.687 E0.00636
G1 X116.237 Y80.809 E0.01107
G1 X116.449 Y80.974 E0.01107
G1 X116.554 Y81.086 E0.00632
G1 X116.705 Y81.308 E0.01107
G1 X116.808 Y81.546 E0.01067
G1 X116.867 Y81.808 E0.01107
G1 X116.878 Y93.350 E0.47546
G1 X63.121 Y93.350 E2.21457
G1 X63.121 Y81.990 E0.46795
G1 X63.163 Y81.639 E0.01459
G1 X63.258 Y81.376 E0.01152
G1 X63.438 Y81.093 E0.01382
G1 X63.690 Y80.857 E0.01422
G1 X63.992 Y80.690 E0.01422
G1 X64.327 Y80.604 E0.01422
G1 X64.519 Y80.592 E0.00793
G1 X73.878 Y80.592 E0.38556
G1 X73.878 Y81.350 E0.03120
G1 X63.938 Y81.350 E0.40949
M204 S1250
G1 X64.275 Y81.746 F9000.000
M204 S800
G1 F2292
G1 X64.275 Y92.196 E0.43050
G1 X115.725 Y92.196 E2.11952
G1 X115.725 Y81.746 E0.43050
G1 X105.725 Y81.746 E0.41196
G1 X105.725 Y80.196 E0.06385
G1 X115.607 Y80.200 E0.40713
G1 X115.943 Y80.253 E0.01401
G1 X116.149 Y80.320 E0.00893
G1 X116.450 Y80.473 E0.01390
G1 X116.717 Y80.680 E0.01390
G1 X116.864 Y80.837 E0.00889
G1 X117.054 Y81.116 E0.01390
G1 X117.187 Y81.423 E0.01375
G1 X117.260 Y81.752 E0.01390
G1 X117.275 Y81.978 E0.00933
G1 X117.275 Y93.746 E0.48479
G1 X114.275 Y93.746 E0.12359
G1 X114.275 Y99.800 E0.24942
G1 X113.725 Y99.800 E0.02266
G1 X113.725 Y93.746 E0.24942
G1 X66.275 Y93.746 E1.95474
G1 X66.275 Y99.800 E0.24942
G1 X65.725 Y99.800 E0.02266
G1 X65.725 Y93.746 E0.24942
G1 X62.725 Y93.746 E0.12359
G1 X62.725 Y81.978 E0.48479
G1 X62.739 Y81.748 E0.00947
G1 X62.780 Y81.534 E0.00899
G1 X62.896 Y81.212 E0.01409
G1 X63.001 Y81.020 E0.00903
G1 X63.132 Y80.840 E0.00918
G1 X63.285 Y80.677 E0.00918
G1 X63.456 Y80.535 E0.00918
G1 X63.645 Y80.416 E0.00918
G1 X63.846 Y80.321 E0.00918
G1 X64.058 Y80.252 E0.00918
G1 X64.277 Y80.210 E0.00918
G1 X64.507 Y80.196 E0.00947
G1 X74.275 Y80.196 E0.40240
G1 X74.275 Y81.746 E0.06385
G1 X64.335 Y81.746 E0.40949
M204 S1250
G1 X63.875 Y81.766 F9000.000
G1 X64.247 Y80.988
G1 F2292
G1 X64.374 Y80.976 E0.00464
G1
G1 X64.531 Y80.971 E0.00590
G1
G1 X73.680 Y80.971 E0.34324
G1 E-2.24000 F4200.00000
G1 F7200.000
G1 X72.034 Y80.971 E-0.91200
G1 E-0.04800 F4200.00000
G1 Z0.650 F9000.000
G1 X64.247 Y80.988
G1 Z0.450
G1 E3.20000 F2400.00000
G1 F2292
G1 X63.746 Y81.067 E0.01724
G1 X63.608 Y81.202 F9000.000
G1 F2292
G1 X63.561 Y81.468 E0.00818
G1
G1 X63.515 Y81.735 E0.00929
G1
G1 X63.504 Y81.845 E0.00404
G1
G1 X63.500 Y92.790 E0.40053
G1 X63.531 Y92.940 E0.00559
G1 X63.680 Y92.971 E0.00559
G1 X116.319 Y92.971 E1.92624
G1 X116.469 Y92.940 E0.00559
G1 X116.500 Y92.790 E0.00559
G1 X116.500 Y82.002 E0.39477
G1 X116.428 Y81.253 E0.02756
G1 X116.244 Y81.066 F9000.000
G1 F2292
G1 X115.546 Y80.973 E0.02359
G1 X106.319 Y80.971 E0.30924
G1 E-2.24000 F4200.00000
G1 F7200.000
G1 X107.965 Y80.971 E-0.91200
G1 E-0.04800 F4200.00000
G1 Z0.650 F9000.000
G1 X114.000 Y93.548
G1 Z0.450
G1 E3.20000 F2400.00000
G1 F2292
G1 X114.000 Y99.602 E0.09669
G1 E-2.24000 F4200.00000
G1 F7200.000
G1 X114.000 Y97.956 E-0.91200
G1 E-0.04800 F4200.00000
G1 Z0.650 F9000.000
G1 X66.000 Y99.602
G1 Z0.450
G1 E3.20000 F2400.00000
M73 P2 R56
G1 F2292
G1 X66.000 Y93.548 E0.09669
;BEFORE_LAYER_CHANGE
G92 E0.0
;0.7


G1 Z0.700 F9000.000
;AFTER_LAYER_CHANGE
;0.7
G1 E-3.20000 F4200.00000
G1 Z0.900 F9000.000
G1 X60.229 Y94.673
G1 Z0.700
G1 E3.20000 F2400.00000
G1 F2282
G1 X60.122 Y93.979 E0.02673
G1 X60.122 Y81.959 E0.45767
G1 X60.193 Y81.189 E0.02947
G1 X60.544 Y80.098 E0.04364
G1 X61.175 Y79.125 E0.04417
G1 X62.112 Y78.302 E0.04748
G1 X63.179 Y77.798 E0.04492
G1 X64.491 Y77.594 E0.05057
G1 X115.503 Y77.594 E1.94242
G1 X116.252 Y77.659 E0.02860
G1 X116.870 Y77.814 E0.02429
G1 X117.565 Y78.112 E0.02879
G1 X118.127 Y78.471 E0.02539
G1 X118.690 Y78.974 E0.02875
G1 X119.160 Y79.571 E0.02891
G1 X119.480 Y80.151 E0.02522
G1 X119.734 Y80.861 E0.02873
G1 X119.876 Y81.944 E0.04156
G1 X119.876 Y94.001 E0.45913
G1 X119.818 Y94.496 E0.01897
G1 X119.659 Y94.964 E0.01882
G1 X116.571 Y101.192 E0.26470
G1 X115.991 Y101.877 E0.03417
G1 X115.202 Y102.296 E0.03403
G1 X114.504 Y102.402 E0.02688
G1 X65.173 Y102.380 E1.87841
G1 X64.679 Y102.256 E0.01940
G1 X64.219 Y102.028 E0.01954
G1 X63.819 Y101.707 E0.01954
G1 X63.499 Y101.310 E0.01940
G1 X60.255 Y94.727 E0.27946
G1 E-2.24000 F4200.00000
G1 F7200.000
G1 X60.122 Y93.979 E-0.42090
G1 X60.122 Y93.093 E-0.49110
G1 E-0.04800 F4200.00000
G1 Z0.900 F9000.000
G1 X63.121 Y93.350
G1 Z0.700
G1 E3.20000 F2400.00000
M204 S800
G1 F2282
G1 X63.133 Y81.798 E0.47586
G1 X63.164 Y81.638 E0.00672
G1 X63.258 Y81.376 E0.01148
G1 X63.438 Y81.093 E0.01382
G1 X63.690 Y80.857 E0.01422
G1 X63.836 Y80.764 E0.00713
G1 X64.157 Y80.637 E0.01422
G1 X64.519 Y80.592 E0.01503
G1 X73.878 Y80.592 E0.38556
G1 X73.878 Y81.350 E0.03120
G1 X63.878 Y81.350 E0.41196
G1 X63.878 Y92.592 E0.46315
G1 X116.121 Y92.592 E2.15218
G1 X116.121 Y81.350 E0.46315
G1 X106.121 Y81.350 E0.41196
G1 X106.121 Y80.593 E0.03119
G1 X115.586 Y80.596 E0.38992
G1 X115.748 Y80.617 E0.00673
G1 X116.006 Y80.692 E0.01107
G1 X116.237 Y80.809 E0.01067
G1 X116.449 Y80.974 E0.01107
G1 X116.554 Y81.086 E0.00632
G1 X116.705 Y81.308 E0.01107
G1 X116.808 Y81.546 E0.01067
G1 X116.867 Y81.808 E0.01107
G1 X116.878 Y93.350 E0.47546
G1 X63.181 Y93.350 E2.21210
M204 S1250
G1 E-2.24000 F4200.00000
G1 F7200.000
G1 X63.174 Y91.704 E-0.91200
G1 E-0.04800 F4200.00000
G1 Z0.900 F9000.000
G1 X64.275 Y81.746
G1 Z0.700
G1 E3.20000 F2400.00000
M204 S800
G1 F2282
G1 X64.275 Y92.196 E0.43050
G1 X115.725 Y92.196 E2.11952
G1 X115.725 Y81.746 E0.43050
G1 X105.725 Y81.746 E0.41196
G1 X105.725 Y80.196 E0.06385
G1 X115.611 Y80.200 E0.40728
G1 X115.829 Y80.227 E0.00904
G1 X116.153 Y80.322 E0.01390
G1 X116.450 Y80.473 E0.01376
G1 X116.717 Y80.680 E0.01390
G1 X116.864 Y80.837 E0.00889
G1 X117.054 Y81.116 E0.01390
G1 X117.187 Y81.423 E0.01375
G1 X117.260 Y81.752 E0.01390
G1 X117.275 Y81.978 E0.00933
G1 X117.275 Y93.746 E0.48479
G1 X114.275 Y93.746 E0.12359
G1 X114.275 Y99.800 E0.24942
G1 X113.725 Y99.800 E0.02266
G1 X113.725 Y93.746 E0.24942
G1 X66.275 Y93.746 E1.95474
G1 X66.275 Y99.800 E0.24942
G1 X65.725 Y99.800 E0.02266
G1 X65.725 Y93.746 E0.24942
G1 X62.725 Y93.746 E0.12359
G1 X62.725 Y81.978 E0.48479
G1 X62.739 Y81.749 E0.00947
G1 X62.780 Y81.533 E0.00903
G1 X62.896 Y81.212 E0.01405
G1 X63.001 Y81.020 E0.00903
G1 X63.132 Y80.840 E0.00918
G1 X63.285 Y80.677 E0.00918
G1 X63.456 Y80.535 E0.00918
G1 X63.645 Y80.416 E0.00918
G1 X63.846 Y80.321 E0.00918
G1 X64.058 Y80.252 E0.00918
G1 X64.277 Y80.210 E0.00918
G1 X64.507 Y80.196 E0.00947
G1 X74.275 Y80.196 E0.40240
G1 X74.275 Y81.746 E0.06385
G1 X64.335 Y81.746 E0.40949
M204 S1250
G1 X63.875 Y81.766 F9000.000
G1 X64.247 Y80.988
G1 F2282
G1 X64.374 Y80.976 E0.00464
G1
G1 X64.531 Y80.971 E0.00590
G1
G1 X73.680 Y80.971 E0.34324
G1 E-2.24000 F4200.00000
G1 F7200.000
G1 X72.034 Y80.971 E-0.91200
G1 E-0.04800 F4200.00000
G1 Z0.900 F9000.000
G1 X64.247 Y80.988
G1 Z0.700
G1 E3.20000 F2400.00000
G1 F2282
G1 X63.746 Y81.067 E0.01724
G1 X63.608 Y81.202 F9000.000
G1 F2282
G1 X63.561 Y81.468 E0.00817
G1
G1 X63.515 Y81.734 E0.00927
G1
G1 X63.504 Y81.845 E0.00407
G1
G1 X63.500 Y92.790 E0.40052
G1 X63.531 Y92.940 E0.00559
G1 X63.680 Y92.971 E0.00559
G1 X116.319 Y92.971 E1.92624
G1 X116.469 Y92.940 E0.00559
G1 X116.500 Y92.790 E0.00559
G1 X116.500 Y82.002 E0.39477
G1 X116.428 Y81.253 E0.02756
G1 X116.237 Y81.060 F9000.000
G1 F2282
G1 X115.562 Y80.973 E0.02218
G1 X106.319 Y80.971 E0.30126
G1 E-2.24000 F4200.00000
G1 F7200.000
G1 X107.965 Y80.971 E-0.91200
G1 E-0.04800 F4200.00000
G1 Z0.900 F9000.000
G1 X114.000 Y93.548
G1 Z0.700
G1 E3.20000 F2400.00000
G1 F2282
G1 X114.000 Y99.602 E0.09669
G1 E-2.24000 F4200.00000
G1 F7200.000
G1 X114.000 Y97.956 E-0.91200
G1 E-0.04800 F4200.00000
G1 Z0.900 F9000.000
G1 X66.000 Y99.602
G1 Z0.700
G1 E3.20000 F2400.00000
G1 F2282
G1 X66.000 Y93.548 E0.09669
;BEFORE_LAYER_CHANGE
G92 E0.0
;0.95


G1 Z0.950 F9000.000
;AFTER_LAYER_CHANGE
;0.95
G1 E-3.20000 F4200.00000
G1 Z1.150 F9000.000
G1 X63.878 Y81.350
G1 Z0.950
G1 E3.20000 F2400.00000
M204 S800
G1 F1718
G1 X63.878 Y92.592 E0.46315
G1 X116.121 Y92.592 E2.15218
