; generated by PrusaSlicer 2.3.0+win64 on 2021-06-27 at 12:39:19 UTC


;
;

;
;
; 

; external perimeters extrusion width = 0.45mm
; perimeters extrusion width = 0.45mm
; infill extrusion width = 0.45mm
; solid infill extrusion width = 0.45mm
; top infill extrusion width = 0.40mm
; first layer extrusion width = 0.42mm

M73 P0 R14
M201 X1250 Y1250 Z400 E5000 ; sets maximum accelerations, mm/sec^2
M203 X180 Y180 Z12 E80 ; sets maximum feedrates, mm/sec
M204 P1250 R1250 T1250 ; sets acceleration (P, T) and retract acceleration (R), mm/sec^2
M205 X8.00 Y8.00 Z2.00 E10.00 ; sets the jerk limits, mm/sec
M205 S0 T0 ; sets the minimum extruding and travel feed rate, mm/sec
M107
;TYPE:Custom
G90 ; use absolute coordinates
M83 ; extruder relative mode
M104 S170 ; set extruder temp for bed leveling
M140 S60 ; set bed temp
M109 R170 ; wait for bed leveling temp
M190 S60 ; wait for bed temp
G28 ; home all without mesh bed level
G29 ; mesh bed leveling 
M104 S215 ; set extruder temp
G92 E0.0
G1 Y-2.0 X179 F2400
G1 Z3 F720
M109 S215 ; wait for extruder temp

; intro line
G1 X170 F1000
G1 Z0.2 F720
G1 X110.0 E8.0 F900
M73 P1 R14
G1 X40.0 E10.0 F700
G92 E0.0

M221 S95 ; set flow
G21 ; set units to millimeters
G90 ; use absolute coordinates
M83 ; use relative distances for extrusion
M900 K0.2 ; Filament gcode LA 1.5
; ; Filament gcode LA 1.0
;LAYER_CHANGE
;Z:0.2
;HEIGHT:0.2
;BEFORE_LAYER_CHANGE
G92 E0.0
;0.2


G1 E-3.20000 F4200.000
G1 Z0.200 F9000.000
;AFTER_LAYER_CHANGE
;0.2
G1 Z0.400
G1 X110.870 Y67.441
G1 Z0.200
G1 E3.20000 F2400.000
M204 S800
;TYPE:Skirt
;WIDTH:0.42
G1 F1200.000
G1 X111.621 Y67.918 E0.02790
G1 X112.144 Y68.639 E0.02790
G1 X112.365 Y69.500 E0.02790
G1 X112.985 Y87.506 E0.56488
M73 P2 R14
G1 X112.365 Y100.495 E0.40773
G1 X112.142 Y101.364 E0.02813
G1 X111.652 Y102.052 E0.02649
G1 X101.334 Y112.069 E0.45087
G1 X100.713 Y112.497 E0.02367
G1 X100.217 Y112.668 E0.01645
G1 X99.692 Y112.727 E0.01656
G1 X89.643 Y112.727 E0.31510
G1 X89.149 Y112.664 E0.01562
G1 X88.678 Y112.500 E0.01562
G1 X88.050 Y112.069 E0.02390
G1 X77.715 Y102.034 E0.45166
G1 X67.390 Y91.282 E0.46739
G1 X67.115 Y90.681 E0.02071
G1 X67.015 Y90.028 E0.02071
G1 X67.016 Y79.950 E0.31598
G1 X67.078 Y79.456 E0.01562
G1 X67.242 Y78.986 E0.01562
G1 X67.669 Y78.363 E0.02367
G1 X77.704 Y67.977 E0.45284
G1 X78.194 Y67.597 E0.01941
G1 X78.764 Y67.357 E0.01941
G1 X79.385 Y67.273 E0.01965
G1 X109.996 Y67.273 E0.95978
G1 X110.811 Y67.430 E0.02602
M204 S1250
; printing object ArtexHolder01_TestPrint.stl id:0 copy 0
G1 E-2.24000 F4200.000
;WIPE_START
G1 F7200.000
G1 X111.621 Y67.918 E-0.52418
G1 X112.032 Y68.485 E-0.38782
;WIPE_END
G1 E-0.04800 F4200.000
G1 Z0.400 F9000.000
G1 X102.880 Y83.011
G1 Z0.200
G1 E3.20000 F2400.000
M204 S800
;TYPE:Perimeter
G1 F1200.000
G1 X103.409 Y83.300 E0.01891
G1 X103.783 Y83.560 E0.01429
G1 X104.110 Y83.836 E0.01341
G1 X104.409 Y84.140 E0.01337
G1 X104.681 Y84.469 E0.01337
G1 X104.926 Y84.826 E0.01358
G1 X105.221 Y85.378 E0.01964
G1 X105.384 Y85.786 E0.01377
G1 X105.544 Y86.368 E0.01891
G1 X105.617 Y86.818 E0.01429
G1 X105.645 Y87.245 E0.01341
G1 X105.636 Y87.678 E0.01358
G1 X105.552 Y88.299 E0.01964
G1 X105.447 Y88.719 E0.01358
G1 X105.307 Y89.122 E0.01337
G1 X105.132 Y89.511 E0.01337
G1 X104.919 Y89.888 E0.01358
G1 X104.553 Y90.397 E0.01964
G1 X104.263 Y90.718 E0.01358
G1 X103.950 Y91.007 E0.01337
G1 X103.612 Y91.268 E0.01337
G1 X103.247 Y91.501 E0.01358
G1 X102.685 Y91.777 E0.01964
M73 P3 R14
G1 X102.277 Y91.924 E0.01358
G1 X101.865 Y92.032 E0.01337
G1 X101.444 Y92.103 E0.01337
G1 X101.019 Y92.136 E0.01337
G1 X100.592 Y92.132 E0.01337
G1 X100.168 Y92.089 E0.01337
G1 X99.749 Y92.009 E0.01337
G1 X99.339 Y91.891 E0.01337
G1 X98.941 Y91.738 E0.01337
G1 X98.552 Y91.547 E0.01358
G1 X98.024 Y91.210 E0.01964
G1 X97.687 Y90.938 E0.01358
G1 X97.376 Y90.637 E0.01356
G1 X96.991 Y90.173 E0.01891
G1 X96.740 Y89.792 E0.01429
G1 X96.538 Y89.415 E0.01341
G1 X96.372 Y89.022 E0.01337
G1 X96.241 Y88.616 E0.01337
G1 X96.145 Y88.194 E0.01358
G1 X96.076 Y87.571 E0.01964
G1 X96.076 Y87.132 E0.01377
G1 X96.142 Y86.532 E0.01891
G1 X96.241 Y86.087 E0.01429
G1 X96.372 Y85.680 E0.01341
G1 X96.538 Y85.288 E0.01337
G1 X96.742 Y84.906 E0.01356
G1 X97.083 Y84.408 E0.01891
G1 X97.379 Y84.062 E0.01429
G1 X97.692 Y83.760 E0.01361
G1 X98.188 Y83.378 E0.01964
G1 X98.558 Y83.153 E0.01358
G1 X98.941 Y82.965 E0.01337
G1 X99.339 Y82.811 E0.01337
G1 X99.749 Y82.694 E0.01337
G1 X100.174 Y82.613 E0.01356
G1 X100.775 Y82.564 E0.01891
G1 X101.231 Y82.578 E0.01429
G1 X101.655 Y82.630 E0.01341
G1 X102.072 Y82.720 E0.01337
G1 X102.479 Y82.846 E0.01337
G1 X102.824 Y82.988 E0.01168
M204 S1250
G1 X102.681 Y83.337 F9000.000
M204 S800
;TYPE:External perimeter
G1 F1200.000
G1 X103.210 Y83.621 E0.01884
G1 X103.553 Y83.860 E0.01310
G1 X103.853 Y84.114 E0.01233
G1 X104.130 Y84.393 E0.01232
G1 X104.380 Y84.696 E0.01232
G1 X104.604 Y85.022 E0.01239
G1 X104.879 Y85.537 E0.01833
G1 X105.026 Y85.907 E0.01246
G1 X105.175 Y86.448 E0.01762
G1 X105.242 Y86.861 E0.01310
G1 X105.268 Y87.253 E0.01233
G1 X105.259 Y87.648 E0.01239
G1 X105.181 Y88.227 E0.01833
G1 X105.085 Y88.611 E0.01239
G1 X104.956 Y88.982 E0.01232
G1 X104.795 Y89.340 E0.01232
G1 X104.601 Y89.685 E0.01239
G1 X104.260 Y90.159 E0.01833
G1 X103.994 Y90.452 E0.01239
G1 X103.706 Y90.719 E0.01232
G1 X103.395 Y90.959 E0.01232
G1 X103.062 Y91.172 E0.01239
G1 X102.537 Y91.430 E0.01833
G1 X102.165 Y91.564 E0.01239
G1 X101.785 Y91.663 E0.01232
G1 X101.398 Y91.728 E0.01232
G1 X101.006 Y91.759 E0.01232
G1 X100.613 Y91.755 E0.01232
G1 X100.222 Y91.715 E0.01232
G1 X99.836 Y91.641 E0.01232
G1 X99.458 Y91.533 E0.01232
G1 X99.092 Y91.392 E0.01232
G1 X98.737 Y91.218 E0.01239
G1 X98.244 Y90.903 E0.01833
G1 X97.937 Y90.655 E0.01239
G1 X97.653 Y90.380 E0.01239
G1 X97.294 Y89.948 E0.01762
G1 X97.064 Y89.599 E0.01310
G1 X96.879 Y89.252 E0.01233
G1 X96.726 Y88.890 E0.01232
G1 X96.605 Y88.516 E0.01232
G1 X96.518 Y88.131 E0.01239
G1 X96.453 Y87.550 E0.01833
G1 X96.453 Y87.153 E0.01246
G1 X96.514 Y86.594 E0.01762
G1 X96.605 Y86.186 E0.01310
G1 X96.726 Y85.812 E0.01233
G1 X96.879 Y85.450 E0.01232
G1 X97.065 Y85.102 E0.01239
G1 X97.382 Y84.638 E0.01762
G1 X97.654 Y84.321 E0.01310
G1 X97.939 Y84.046 E0.01241
G1 X98.401 Y83.689 E0.01833
G1 X98.739 Y83.484 E0.01239
G1 X99.092 Y83.310 E0.01232
G1 X99.458 Y83.169 E0.01232
G1 X99.836 Y83.061 E0.01232
G1 X100.224 Y82.987 E0.01239
G1 X100.784 Y82.942 E0.01762
G1 X101.202 Y82.954 E0.01310
G1 X101.592 Y83.002 E0.01233
G1 X101.976 Y83.085 E0.01232
G1 X102.352 Y83.201 E0.01232
G1 X102.625 Y83.314 E0.00927
M204 S1250
G1 X103.010 Y83.109 F9000.000
G1 E-2.24000 F4200.000
;WIPE_START
G1 F7200.000
G1 X103.210 Y83.621 E-0.36611
G1 X103.553 Y83.860 E-0.23147
G1 X103.853 Y84.114 E-0.21797
G1 X103.976 Y84.237 E-0.09645
;WIPE_END
G1 E-0.04800 F4200.000
G1 Z0.400 F9000.000
G1 X98.905 Y99.563
G1 Z0.200
G1 E3.20000 F2400.000
M204 S800
;TYPE:Perimeter
G1 F1200.000
G1 X98.905 Y109.563 E0.31354
G1 X90.479 Y109.563 E0.26419
G1 X90.479 Y99.563 E0.31354
G1 X80.179 Y99.563 E0.32295
G1 X80.179 Y89.213 E0.32452
G1 X70.179 Y89.213 E0.31354
G1 X70.179 Y80.787 E0.26419
G1 X80.179 Y80.787 E0.31354
G1 X80.179 Y70.437 E0.32452
G1 X109.205 Y70.437 E0.91008
M73 P4 R13
G1 X109.205 Y84.068 E0.42739
G1 X109.492 Y84.947 E0.02899
G1 X109.667 Y85.695 E0.02409
G1 X109.776 Y86.456 E0.02410
G1 X109.820 Y87.227 E0.02423
G1 X109.813 Y87.736 E0.01594
G1 X109.777 Y88.239 E0.01583
G1 X109.667 Y89.008 E0.02434
G1 X109.492 Y89.756 E0.02409
G1 X109.205 Y90.635 E0.02899
G1 X109.205 Y99.563 E0.27994
G1 X98.965 Y99.563 E0.32107
M204 S1250
G1 X99.282 Y99.940 F9000.000
M204 S800
;TYPE:External perimeter
G1 F1200.000
G1 X99.282 Y109.940 E0.31354
G1 X90.102 Y109.940 E0.28783
G1 X90.102 Y99.940 E0.31354
G1 X79.802 Y99.940 E0.32295
G1 X79.802 Y89.590 E0.32452
G1 X69.802 Y89.590 E0.31354
G1 X69.802 Y80.410 E0.28783
G1 X79.802 Y80.410 E0.31354
G1 X79.802 Y70.060 E0.32452
G1 X109.582 Y70.060 E0.93373
M73 P5 R13
G1 X109.582 Y84.008 E0.43733
G1 X109.856 Y84.845 E0.02762
G1 X110.038 Y85.625 E0.02511
G1 X110.152 Y86.418 E0.02511
G1 X110.198 Y87.219 E0.02516
G1 X110.190 Y87.752 E0.01670
G1 X110.152 Y88.280 E0.01659
G1 X110.038 Y89.077 E0.02527
G1 X109.856 Y89.857 E0.02511
G1 X109.582 Y90.695 E0.02762
G1 X109.582 Y99.940 E0.28988
G1 X99.342 Y99.940 E0.32107
M204 S1250
G1 X98.894 Y100.037 F9000.000
G1 E-2.24000 F4200.000
;WIPE_START
G1 F7200.000
G1 X99.332 Y101.586 E-0.91200
;WIPE_END
G1 E-0.04800 F4200.000
G1 Z0.400 F9000.000
G1 X108.327 Y70.550
G1 Z0.200
G1 E3.20000 F2400.000
M204 S800
;TYPE:Solid infill
;WIDTH:0.421187
G1 F1200.000
G1 X108.922 Y71.145 E0.02647
G1 X108.922 Y71.680 E0.01683
G1 X107.962 Y70.720 E0.04272
G1 X107.427 Y70.720 E0.01683
G1 X108.922 Y72.215 E0.06651
G1 X108.922 Y72.750 E0.01683
G1 X106.892 Y70.720 E0.09031
G1 X106.357 Y70.720 E0.01683
G1 X108.922 Y73.285 E0.11410
G1 X108.922 Y73.820 E0.01683
G1 X105.822 Y70.720 E0.13790
G1 X105.287 Y70.720 E0.01683
G1 X108.922 Y74.355 E0.16169
G1 X108.922 Y74.890 E0.01683
G1 X104.752 Y70.720 E0.18549
G1 X104.217 Y70.720 E0.01683
G1 X108.922 Y75.425 E0.20929
G1 X108.922 Y75.960 E0.01683
G1 X103.682 Y70.720 E0.23308
G1 X103.148 Y70.720 E0.01683
G1 X108.922 Y76.495 E0.25688
G1 X108.922 Y77.030 E0.01683
G1 X102.613 Y70.720 E0.28067
G1 X102.078 Y70.720 E0.01683
G1 X108.922 Y77.565 E0.30447
G1 X108.922 Y78.100 E0.01683
G1 X101.543 Y70.720 E0.32826
G1 X101.008 Y70.720 E0.01683
G1 X108.922 Y78.635 E0.35206
G1 X108.922 Y79.170 E0.01683
G1 X100.473 Y70.720 E0.37585
G1 X99.938 Y70.720 E0.01683
G1 X108.922 Y79.704 E0.39965
M73 P6 R13
G1 X108.922 Y80.239 E0.01683
G1 X99.403 Y70.720 E0.42344
G1 X98.868 Y70.720 E0.01683
G1 X108.922 Y80.774 E0.44724
G1 X108.922 Y81.309 E0.01683
G1 X98.333 Y70.720 E0.47103
G1 X97.798 Y70.720 E0.01683
G1 X108.922 Y81.844 E0.49483
G1 X108.922 Y82.379 E0.01683
G1 X97.263 Y70.720 E0.51862
G1 X96.728 Y70.720 E0.01683
G1 X108.922 Y82.914 E0.54242
G1 X108.922 Y83.449 E0.01683
G1 X96.193 Y70.720 E0.56621
G1 X95.658 Y70.720 E0.01683
G1 X108.922 Y83.984 E0.59001
G1 X108.922 Y84.113 E0.00405
G1 X109.120 Y84.716 E0.01996
G1 X95.123 Y70.720 E0.62257
G1 X94.588 Y70.720 E0.01683
M73 P7 R13
G1 X109.319 Y85.451 E0.65526
G1 X109.388 Y85.747 E0.00957
G1 X109.440 Y86.107 E0.01142
G1 X94.053 Y70.720 E0.68442
G1 X93.518 Y70.720 E0.01683
G1 X109.507 Y86.709 E0.71121
G1 X109.537 Y87.273 E0.01778
G1 X92.983 Y70.720 E0.73631
G1 X92.449 Y70.720 E0.01683
G1 X109.525 Y87.797 E0.75959
G1 X109.484 Y88.290 E0.01558
G1 X91.914 Y70.720 E0.78155
G1 X91.379 Y70.720 E0.01683
G1 X109.417 Y88.758 E0.80236
G1 X109.330 Y89.206 E0.01436
M73 P8 R13
G1 X105.541 Y85.417 E0.16853
G1 X105.652 Y85.696 E0.00944
G1 X105.792 Y86.203 E0.01654
G1 X109.229 Y89.640 E0.15288
G1 X109.100 Y90.046 E0.01340
G1 X105.902 Y86.848 E0.14225
G1 X105.924 Y87.405 E0.01754
G1 X108.968 Y90.449 E0.13539
G1 X108.922 Y90.590 E0.00464
G1 X108.922 Y90.938 E0.01097
G1 X105.890 Y87.906 E0.13488
G1 X105.824 Y88.375 E0.01490
G1 X108.922 Y91.473 E0.13781
G1 X108.922 Y92.008 E0.01683
G1 X105.717 Y88.803 E0.14258
G1 X105.579 Y89.200 E0.01322
G1 X108.922 Y92.543 E0.14871
G1 X108.922 Y93.078 E0.01683
G1 X105.415 Y89.571 E0.15602
G1 X105.227 Y89.918 E0.01241
G1 X108.922 Y93.613 E0.16437
G1 X108.922 Y94.148 E0.01683
G1 X105.014 Y90.240 E0.17383
G1 X104.791 Y90.551 E0.01205
G1 X108.922 Y94.683 E0.18379
G1 X108.922 Y95.218 E0.01683
G1 X104.539 Y90.834 E0.19499
G1 X104.268 Y91.098 E0.01190
G1 X108.922 Y95.753 E0.20704
G1 X108.922 Y96.288 E0.01683
G1 X103.978 Y91.343 E0.21995
G1 X103.668 Y91.568 E0.01205
G1 X108.922 Y96.823 E0.23374
G1 X108.922 Y97.358 E0.01683
G1 X103.337 Y91.772 E0.24846
G1 X102.978 Y91.948 E0.01257
G1 X108.922 Y97.893 E0.26442
G1 X108.922 Y98.428 E0.01683
G1 X102.602 Y92.108 E0.28113
G1 X102.197 Y92.237 E0.01338
G1 X108.922 Y98.963 E0.29915
G1 X108.922 Y99.280 E0.00998
G1 X108.705 Y99.280 E0.00684
G1 X101.761 Y92.336 E0.30887
G1 X101.289 Y92.399 E0.01499
G1 X108.170 Y99.280 E0.30609
G1 X107.635 Y99.280 E0.01683
G1 X100.771 Y92.416 E0.30531
G1 X100.196 Y92.376 E0.01814
G1 X107.100 Y99.280 E0.30711
M73 P9 R13
G1 X106.565 Y99.280 E0.01683
G1 X99.272 Y91.987 E0.32442
M204 S1250
G1 E-2.24000 F4200.000
;WIPE_START
G1 F7200.000
G1 X100.435 Y93.150 E-0.91200
;WIPE_END
G1 E-0.04800 F4200.000
G1 Z0.400 F9000.000
G1 X103.157 Y83.033
G1 Z0.200
G1 E3.20000 F2400.000
M204 S800
G1 F1200.000
G1 X90.844 Y70.720 E0.54771
G1 X90.309 Y70.720 E0.01683
G1 X102.005 Y82.416 E0.52027
G1 X101.702 Y82.351 E0.00975
G1 X101.363 Y82.309 E0.01074
G1 X89.774 Y70.720 E0.51552
G1 X89.239 Y70.720 E0.01683
G1 X100.801 Y82.282 E0.51431
G1 X100.303 Y82.319 E0.01573
G1 X88.704 Y70.720 E0.51592
G1 X88.169 Y70.720 E0.01683
G1 X99.838 Y82.389 E0.51905
G1 X99.411 Y82.497 E0.01386
G1 X87.634 Y70.720 E0.52384
G1 X87.099 Y70.720 E0.01683
G1 X99.013 Y82.634 E0.52994
G1 X98.641 Y82.797 E0.01277
G1 X86.564 Y70.720 E0.53719
M73 P10 R13
G1 X86.029 Y70.720 E0.01683
G1 X98.292 Y82.983 E0.54548
G1 X97.966 Y83.191 E0.01218
G1 X85.494 Y70.720 E0.55475
G1 X84.959 Y70.720 E0.01683
G1 X97.664 Y83.425 E0.56512
G1 X97.376 Y83.672 E0.01193
G1 X84.424 Y70.720 E0.57612
G1 X83.889 Y70.720 E0.01683
G1 X97.111 Y83.941 E0.58810
G1 X96.864 Y84.229 E0.01193
G1 X83.354 Y70.720 E0.60091
G1 X82.819 Y70.720 E0.01683
G1 X96.646 Y84.546 E0.61501
G1 X96.439 Y84.874 E0.01220
G1 X82.284 Y70.720 E0.62960
M73 P11 R13
G1 X81.750 Y70.720 E0.01683
G1 X96.257 Y85.227 E0.64531
M73 P11 R12
G1 X96.099 Y85.605 E0.01286
G1 X81.215 Y70.720 E0.66209
G1 X80.680 Y70.720 E0.01683
G1 X95.969 Y86.009 E0.68008
G1 X95.871 Y86.446 E0.01409
G1 X80.462 Y71.037 E0.68541
G1 X80.462 Y71.572 E0.01683
G1 X95.814 Y86.924 E0.68287
G1 X95.793 Y87.116 E0.00608
G1 X95.793 Y87.438 E0.01011
G1 X80.462 Y72.107 E0.68193
G1 X80.462 Y72.642 E0.01683
G1 X95.842 Y88.022 E0.68409
G1 X95.866 Y88.241 E0.00694
G1 X95.966 Y88.681 E0.01419
G1 X80.462 Y73.177 E0.68962
M73 P12 R12
G1 X80.462 Y73.712 E0.01683
G1 X96.280 Y89.530 E0.70360
G1 X96.496 Y89.937 E0.01449
G1 X96.763 Y90.341 E0.01524
G1 X97.168 Y90.829 E0.01995
G1 X97.499 Y91.150 E0.01449
G1 X97.858 Y91.440 E0.01452
G1 X98.413 Y91.794 E0.02070
G1 X98.670 Y91.920 E0.00902
G1 X106.030 Y99.280 E0.32738
G1 X105.495 Y99.280 E0.01683
G1 X80.462 Y74.247 E1.11350
G1 X80.462 Y74.782 E0.01683
G1 X104.960 Y99.280 E1.08971
G1 X104.425 Y99.280 E0.01683
G1 X80.462 Y75.317 E1.06591
G1 X80.462 Y75.852 E0.01683
G1 X103.890 Y99.280 E1.04211
M73 P13 R12
G1 X103.355 Y99.280 E0.01683
G1 X80.462 Y76.387 E1.01832
G1 X80.462 Y76.922 E0.01683
G1 X102.820 Y99.280 E0.99452
G1 X102.286 Y99.280 E0.01683
G1 X80.462 Y77.457 E0.97073
G1 X80.462 Y77.992 E0.01683
G1 X101.751 Y99.280 E0.94693
G1 X101.216 Y99.280 E0.01683
G1 X80.462 Y78.527 E0.92314
M73 P14 R12
G1 X80.462 Y79.062 E0.01683
G1 X100.681 Y99.280 E0.89934
G1 X100.146 Y99.280 E0.01683
G1 X80.462 Y79.597 E0.87555
G1 X80.462 Y80.132 E0.01683
G1 X99.611 Y99.280 E0.85175
G1 X99.076 Y99.280 E0.01683
G1 X80.462 Y80.667 E0.82796
G1 X80.462 Y81.070 E0.01269
G1 X80.331 Y81.070 E0.00414
G1 X98.622 Y99.362 E0.81364
G1 X98.622 Y99.897 E0.01683
G1 X79.796 Y81.070 E0.83744
M73 P15 R12
G1 X79.261 Y81.070 E0.01683
G1 X98.622 Y100.432 E0.86124
G1 X98.622 Y100.967 E0.01683
G1 X78.726 Y81.070 E0.88503
G1 X78.191 Y81.070 E0.01683
G1 X98.622 Y101.502 E0.90883
G1 X98.622 Y102.036 E0.01683
G1 X77.656 Y81.070 E0.93262
G1 X77.121 Y81.070 E0.01683
G1 X98.622 Y102.571 E0.95642
G1 X98.622 Y103.106 E0.01683
G1 X76.586 Y81.070 E0.98021
M73 P16 R12
G1 X76.051 Y81.070 E0.01683
G1 X98.622 Y103.641 E1.00401
G1 X98.622 Y104.176 E0.01683
G1 X75.516 Y81.070 E1.02780
G1 X74.981 Y81.070 E0.01683
G1 X98.622 Y104.711 E1.05160
G1 X98.622 Y105.246 E0.01683
G1 X74.446 Y81.070 E1.07539
G1 X73.911 Y81.070 E0.01683
G1 X98.622 Y105.781 E1.09919
M73 P17 R12
G1 X98.622 Y106.316 E0.01683
G1 X73.376 Y81.070 E1.12298
G1 X72.841 Y81.070 E0.01683
G1 X98.622 Y106.851 E1.14678
G1 X98.622 Y107.386 E0.01683
G1 X72.306 Y81.070 E1.17057
G1 X71.771 Y81.070 E0.01683
G1 X79.632 Y88.930 E0.34963
G1 X79.097 Y88.930 E0.01683
G1 X71.236 Y81.070 E0.34963
G1 X70.702 Y81.070 E0.01683
G1 X78.562 Y88.930 E0.34963
M73 P18 R12
G1 X78.027 Y88.930 E0.01683
