; generated by PrusaSlicer 2.3.0+win64 on 2021-06-27 at 13:01:39 UTC


;
;

;
;
; 

; external perimeters extrusion width = 0.45mm
; perimeters extrusion width = 0.45mm
; infill extrusion width = 0.45mm
; solid infill extrusion width = 0.45mm
; top infill extrusion width = 0.40mm
; first layer extrusion width = 0.42mm

M73 P0 R28
M201 X1250 Y1250 Z400 E5000 ; sets maximum accelerations, mm/sec^2
M203 X180 Y180 Z12 E80 ; sets maximum feedrates, mm/sec
M204 P1250 R1250 T1250 ; sets acceleration (P, T) and retract acceleration (R), mm/sec^2
M205 X8.00 Y8.00 Z2.00 E10.00 ; sets the jerk limits, mm/sec
M205 S0 T0 ; sets the minimum extruding and travel feed rate, mm/sec
M107
;TYPE:Custom
G90 ; use absolute coordinates
M83 ; extruder relative mode
M104 S170 ; set extruder temp for bed leveling
M140 S60 ; set bed temp
M109 R170 ; wait for bed leveling temp
M190 S60 ; wait for bed temp
G28 ; home all without mesh bed level
G29 ; mesh bed leveling 
M104 S215 ; set extruder temp
G92 E0.0
G1 Y-2.0 X179 F2400
G1 Z3 F720
M109 S215 ; wait for extruder temp

; intro line
G1 X170 F1000
G1 Z0.2 F720
G1 X110.0 E8.0 F900
M73 P0 R27
G1 X40.0 E10.0 F700
G92 E0.0

M221 S95 ; set flow
G21 ; set units to millimeters
G90 ; use absolute coordinates
M83 ; use relative distances for extrusion
M900 K0.2 ; Filament gcode LA 1.5
; ; Filament gcode LA 1.0
;LAYER_CHANGE
;Z:0.2
;HEIGHT:0.2
;BEFORE_LAYER_CHANGE
G92 E0.0
;0.2


G1 E-3.20000 F4200.000
G1 Z0.200 F9000.000
;AFTER_LAYER_CHANGE
;0.2
G1 Z0.400
G1 X67.231 Y79.635
G1 Z0.200
G1 E3.20000 F2400.000
M204 S800
;TYPE:Skirt
;WIDTH:0.42
G1 F1200.000
G1 X76.012 Y67.571 E0.46784
M73 P1 R27
G1 X76.543 Y67.068 E0.02296
G1 X77.203 Y66.750 E0.02296
G1 X77.886 Y66.648 E0.02166
G1 X109.996 Y66.648 E1.00679
G1 X110.870 Y66.816 E0.02790
G1 X111.624 Y67.296 E0.02802
G1 X112.145 Y68.017 E0.02790
G1 X112.365 Y68.879 E0.02790
G1 X112.985 Y88.130 E0.60390
G1 X112.365 Y101.116 E0.40764
G1 X112.153 Y101.965 E0.02743
G1 X111.652 Y102.677 E0.02731
G1 X101.334 Y112.694 E0.45086
G1 X100.716 Y113.120 E0.02355
G1 X100.217 Y113.293 E0.01657
G1 X99.696 Y113.352 E0.01645
G1 X89.647 Y113.352 E0.31509
G1 X88.703 Y113.136 E0.03036
G1 X88.163 Y112.795 E0.02000
G1 X76.215 Y102.660 E0.49126
G1 X67.392 Y91.909 E0.43607
G1 X67.116 Y91.309 E0.02071
G1 X67.015 Y90.656 E0.02071
G1 X67.016 Y80.579 E0.31594
G1 X67.218 Y79.694 E0.02848
M204 S1250
; printing object ArtexHolder02.stl id:0 copy 0
G1 E-2.24000 F4200.000
;WIPE_START
G1 F7200.000
G1 X68.184 Y78.362 E-0.91200
;WIPE_END
G1 E-0.04800 F4200.000
G1 Z0.400 F9000.000
G1 X96.241 Y86.712
G1 Z0.200
G1 E3.20000 F2400.000
M204 S800
;TYPE:Perimeter
G1 F1200.000
G1 X96.372 Y86.305 E0.01341
G1 X96.538 Y85.913 E0.01337
G1 X96.742 Y85.531 E0.01356
G1 X97.083 Y85.033 E0.01891
G1 X97.379 Y84.687 E0.01429
G1 X97.692 Y84.385 E0.01361
G1 X98.188 Y84.003 E0.01964
G1 X98.558 Y83.778 E0.01358
G1 X98.941 Y83.590 E0.01337
G1 X99.339 Y83.436 E0.01337
G1 X99.749 Y83.319 E0.01337
G1 X100.174 Y83.238 E0.01356
G1 X100.775 Y83.189 E0.01891
G1 X101.231 Y83.203 E0.01429
G1 X101.655 Y83.255 E0.01341
G1 X102.072 Y83.345 E0.01337
G1 X102.479 Y83.471 E0.01337
G1 X102.880 Y83.636 E0.01356
G1 X103.409 Y83.925 E0.01891
G1 X103.783 Y84.185 E0.01429
G1 X104.110 Y84.461 E0.01341
G1 X104.409 Y84.765 E0.01337
G1 X104.681 Y85.094 E0.01337
G1 X104.926 Y85.451 E0.01358
G1 X105.221 Y86.003 E0.01964
G1 X105.384 Y86.411 E0.01377
G1 X105.544 Y86.993 E0.01891
G1 X105.617 Y87.443 E0.01429
G1 X105.645 Y87.870 E0.01341
G1 X105.636 Y88.303 E0.01358
G1 X105.552 Y88.924 E0.01964
G1 X105.447 Y89.344 E0.01358
G1 X105.307 Y89.747 E0.01337
G1 X105.132 Y90.136 E0.01337
G1 X104.919 Y90.513 E0.01358
G1 X104.553 Y91.022 E0.01964
G1 X104.263 Y91.343 E0.01358
G1 X103.950 Y91.632 E0.01337
G1 X103.612 Y91.893 E0.01337
G1 X103.247 Y92.126 E0.01358
G1 X102.685 Y92.402 E0.01964
G1 X102.277 Y92.549 E0.01358
G1 X101.865 Y92.657 E0.01337
G1 X101.444 Y92.728 E0.01337
G1 X101.019 Y92.761 E0.01337
G1 X100.592 Y92.757 E0.01337
G1 X100.168 Y92.714 E0.01337
G1 X99.749 Y92.634 E0.01337
G1 X99.339 Y92.516 E0.01337
G1 X98.941 Y92.363 E0.01337
G1 X98.552 Y92.172 E0.01358
G1 X98.024 Y91.835 E0.01964
G1 X97.687 Y91.563 E0.01358
G1 X97.376 Y91.262 E0.01356
G1 X96.991 Y90.798 E0.01891
G1 X96.740 Y90.417 E0.01429
G1 X96.538 Y90.040 E0.01341
G1 X96.372 Y89.647 E0.01337
G1 X96.241 Y89.241 E0.01337
G1 X96.145 Y88.819 E0.01358
G1 X96.076 Y88.196 E0.01964
G1 X96.076 Y87.757 E0.01377
G1 X96.142 Y87.157 E0.01891
G1 X96.228 Y86.771 E0.01241
M204 S1250
G1 X96.596 Y86.853 F9000.000
M204 S800
;TYPE:External perimeter
G1 F1200.000
G1 X96.726 Y86.437 E0.01366
G1 X96.879 Y86.075 E0.01232
G1 X97.065 Y85.727 E0.01239
G1 X97.382 Y85.263 E0.01762
G1 X97.654 Y84.946 E0.01310
G1 X97.939 Y84.671 E0.01241
G1 X98.401 Y84.314 E0.01833
G1 X98.739 Y84.109 E0.01239
G1 X99.092 Y83.935 E0.01232
G1 X99.458 Y83.794 E0.01232
G1 X99.836 Y83.686 E0.01232
G1 X100.224 Y83.612 E0.01239
G1 X100.784 Y83.567 E0.01762
G1 X101.202 Y83.579 E0.01310
G1 X101.592 Y83.627 E0.01233
G1 X101.976 Y83.710 E0.01232
G1 X102.352 Y83.826 E0.01232
G1 X102.717 Y83.977 E0.01239
G1 X103.210 Y84.246 E0.01762
G1 X103.553 Y84.485 E0.01310
G1 X103.853 Y84.739 E0.01233
G1 X104.130 Y85.018 E0.01232
G1 X104.380 Y85.321 E0.01232
G1 X104.604 Y85.647 E0.01239
G1 X104.879 Y86.162 E0.01833
G1 X105.026 Y86.532 E0.01246
G1 X105.175 Y87.073 E0.01762
G1 X105.242 Y87.486 E0.01310
G1 X105.268 Y87.878 E0.01233
G1 X105.259 Y88.273 E0.01239
G1 X105.181 Y88.852 E0.01833
G1 X105.085 Y89.236 E0.01239
G1 X104.956 Y89.607 E0.01232
G1 X104.795 Y89.965 E0.01232
G1 X104.601 Y90.310 E0.01239
G1 X104.260 Y90.784 E0.01833
G1 X103.994 Y91.077 E0.01239
G1 X103.706 Y91.344 E0.01232
G1 X103.395 Y91.584 E0.01232
G1 X103.062 Y91.797 E0.01239
G1 X102.537 Y92.055 E0.01833
G1 X102.165 Y92.189 E0.01239
G1 X101.785 Y92.288 E0.01232
G1 X101.398 Y92.353 E0.01232
G1 X101.006 Y92.384 E0.01232
G1 X100.613 Y92.380 E0.01232
G1 X100.222 Y92.340 E0.01232
G1 X99.836 Y92.266 E0.01232
G1 X99.458 Y92.158 E0.01232
G1 X99.092 Y92.017 E0.01232
G1 X98.737 Y91.843 E0.01239
G1 X98.244 Y91.528 E0.01833
G1 X97.937 Y91.280 E0.01239
G1 X97.653 Y91.005 E0.01239
G1 X97.294 Y90.573 E0.01762
G1 X97.064 Y90.224 E0.01310
G1 X96.879 Y89.877 E0.01233
G1 X96.726 Y89.515 E0.01232
G1 X96.605 Y89.141 E0.01232
G1 X96.518 Y88.756 E0.01239
G1 X96.453 Y88.175 E0.01833
G1 X96.453 Y87.778 E0.01246
G1 X96.514 Y87.219 E0.01762
G1 X96.583 Y86.911 E0.00988
M204 S1250
G1 X96.310 Y86.573 F9000.000
G1 E-2.24000 F4200.000
;WIPE_START
G1 F7200.000
G1 X96.726 Y86.437 E-0.27456
G1 X96.879 Y86.075 E-0.21775
G1 X97.065 Y85.727 E-0.21894
G1 X97.270 Y85.428 E-0.20075
;WIPE_END
G1 E-0.04800 F4200.000
G1 Z0.400 F9000.000
G1 X98.905 Y100.188
G1 Z0.200
G1 E3.20000 F2400.000
M204 S800
;TYPE:Perimeter
G1 F1200.000
G1 X98.905 Y110.188 E0.31354
G1 X90.479 Y110.188 E0.26419
G1 X90.479 Y100.188 E0.31354
G1 X78.679 Y100.188 E0.36998
G1 X78.679 Y89.838 E0.32452
G1 X70.179 Y89.838 E0.26651
G1 X70.179 Y81.412 E0.26419
G1 X78.679 Y81.412 E0.26651
G1 X78.679 Y69.812 E0.36371
G1 X109.205 Y69.812 E0.95712
M73 P2 R27
G1 X109.205 Y84.693 E0.46658
G1 X109.492 Y85.572 E0.02899
G1 X109.667 Y86.320 E0.02409
G1 X109.776 Y87.081 E0.02410
G1 X109.820 Y87.848 E0.02410
G1 X109.798 Y88.621 E0.02423
G1 X109.747 Y89.126 E0.01594
G1 X109.668 Y89.627 E0.01590
G1 X109.492 Y90.381 E0.02426
G1 X109.205 Y91.260 E0.02898
G1 X109.205 Y100.188 E0.27994
G1 X98.965 Y100.188 E0.32107
M204 S1250
G1 X99.282 Y100.565 F9000.000
M204 S800
;TYPE:External perimeter
G1 F1200.000
G1 X99.282 Y110.565 E0.31354
G1 X90.102 Y110.565 E0.28783
G1 X90.102 Y100.565 E0.31354
G1 X78.302 Y100.565 E0.36998
G1 X78.302 Y90.215 E0.32452
G1 X69.802 Y90.215 E0.26651
G1 X69.802 Y81.035 E0.28783
G1 X78.302 Y81.035 E0.26651
G1 X78.302 Y69.435 E0.36371
G1 X109.582 Y69.435 E0.98076
G1 X109.582 Y84.633 E0.47652
G1 X109.856 Y85.470 E0.02762
G1 X110.038 Y86.250 E0.02511
G1 X110.152 Y87.043 E0.02512
G1 X110.197 Y87.843 E0.02511
G1 X110.175 Y88.645 E0.02516
G1 X110.121 Y89.175 E0.01670
G1 X110.038 Y89.700 E0.01666
G1 X109.856 Y90.482 E0.02520
G1 X109.582 Y91.320 E0.02762
G1 X109.582 Y100.565 E0.28988
G1 X99.342 Y100.565 E0.32107
M204 S1250
G1 X98.894 Y100.662 F9000.000
G1 E-2.24000 F4200.000
;WIPE_START
G1 F7200.000
G1 X99.332 Y102.211 E-0.91200
;WIPE_END
G1 E-0.04800 F4200.000
G1 Z0.400 F9000.000
G1 X109.092 Y70.691
G1 Z0.200
G1 E3.20000 F2400.000
M204 S800
;TYPE:Solid infill
;WIDTH:0.421657
G1 F1200.000
G1 X108.496 Y70.095 E0.02655
G1 X107.960 Y70.095 E0.01687
G1 X108.922 Y71.057 E0.04285
G1 X108.922 Y71.593 E0.01687
G1 X107.425 Y70.095 E0.06670
G1 X106.889 Y70.095 E0.01687
G1 X108.922 Y72.128 E0.09055
G1 X108.922 Y72.664 E0.01687
G1 X106.354 Y70.095 E0.11441
G1 X105.818 Y70.095 E0.01687
G1 X108.922 Y73.199 E0.13826
G1 X108.922 Y73.735 E0.01687
G1 X105.282 Y70.095 E0.16212
G1 X104.747 Y70.095 E0.01687
G1 X108.922 Y74.271 E0.18597
G1 X108.922 Y74.806 E0.01687
G1 X104.211 Y70.095 E0.20983
G1 X103.676 Y70.095 E0.01687
G1 X108.922 Y75.342 E0.23368
G1 X108.922 Y75.877 E0.01687
G1 X103.140 Y70.095 E0.25754
G1 X102.604 Y70.095 E0.01687
G1 X108.922 Y76.413 E0.28139
G1 X108.922 Y76.949 E0.01687
G1 X102.069 Y70.095 E0.30524
G1 X101.533 Y70.095 E0.01687
G1 X108.922 Y77.484 E0.32910
G1 X108.922 Y78.020 E0.01687
M73 P3 R27
G1 X100.997 Y70.095 E0.35295
G1 X100.462 Y70.095 E0.01687
G1 X108.922 Y78.556 E0.37681
G1 X108.922 Y79.091 E0.01687
G1 X99.926 Y70.095 E0.40066
G1 X99.391 Y70.095 E0.01687
G1 X108.922 Y79.627 E0.42452
G1 X108.922 Y80.162 E0.01687
G1 X98.855 Y70.095 E0.44837
G1 X98.319 Y70.095 E0.01687
G1 X108.922 Y80.698 E0.47223
G1 X108.922 Y81.234 E0.01687
G1 X97.784 Y70.095 E0.49608
G1 X97.248 Y70.095 E0.01687
G1 X108.922 Y81.769 E0.51993
G1 X108.922 Y82.305 E0.01687
G1 X96.713 Y70.095 E0.54379
G1 X96.177 Y70.095 E0.01687
G1 X108.922 Y82.840 E0.56764
G1 X108.922 Y83.376 E0.01687
G1 X95.641 Y70.095 E0.59150
G1 X95.106 Y70.095 E0.01687
G1 X108.922 Y83.912 E0.61535
G1 X108.922 Y84.447 E0.01687
G1 X94.570 Y70.095 E0.63921
G1 X94.034 Y70.095 E0.01687
G1 X109.041 Y85.102 E0.66836
G1 X109.220 Y85.648 E0.01809
G1 X109.271 Y85.867 E0.00708
G1 X93.499 Y70.095 E0.70243
G1 X92.963 Y70.095 E0.01687
G1 X109.413 Y86.545 E0.73263
G1 X109.498 Y87.165 E0.01971
G1 X92.428 Y70.095 E0.76024
G1 X91.892 Y70.095 E0.01687
G1 X109.530 Y87.733 E0.78555
M73 P4 R27
G1 X109.525 Y88.264 E0.01671
G1 X91.356 Y70.095 E0.80918
G1 X90.821 Y70.095 E0.01687
G1 X109.499 Y88.773 E0.83184
M73 P4 R26
G1 X109.441 Y89.251 E0.01517
G1 X90.285 Y70.095 E0.85314
G1 X89.750 Y70.095 E0.01687
G1 X103.075 Y83.420 E0.59345
G1 X103.558 Y83.684 E0.01734
G1 X103.955 Y83.961 E0.01526
G1 X104.302 Y84.254 E0.01428
G1 X104.619 Y84.575 E0.01423
G1 X104.907 Y84.923 E0.01423
G1 X105.168 Y85.304 E0.01453
G1 X105.409 Y85.754 E0.01609
G1 X109.359 Y89.705 E0.17594
G1 X109.258 Y90.139 E0.01405
G1 X105.733 Y86.614 E0.15701
G1 X105.821 Y86.933 E0.01041
G1 X105.879 Y87.296 E0.01159
G1 X109.138 Y90.555 E0.14513
G1 X109.006 Y90.958 E0.01337
G1 X105.928 Y87.880 E0.13710
G1 X105.908 Y88.396 E0.01626
G1 X108.922 Y91.410 E0.13424
G1 X108.922 Y91.946 E0.01687
G1 X105.845 Y88.868 E0.13707
G1 X105.748 Y89.307 E0.01414
G1 X108.922 Y92.482 E0.14139
G1 X108.922 Y93.017 E0.01687
G1 X105.618 Y89.713 E0.14716
G1 X105.462 Y90.092 E0.01292
G1 X108.922 Y93.553 E0.15413
G1 X108.922 Y94.088 E0.01687
G1 X105.281 Y90.447 E0.16218
G1 X105.077 Y90.778 E0.01226
G1 X108.922 Y94.624 E0.17127
G1 X108.922 Y95.160 E0.01687
G1 X104.853 Y91.090 E0.18125
G1 X104.609 Y91.382 E0.01198
G1 X108.922 Y95.695 E0.19211
G1 X108.922 Y96.231 E0.01687
G1 X104.344 Y91.653 E0.20390
G1 X104.060 Y91.904 E0.01195
G1 X108.922 Y96.766 E0.21654
G1 X108.922 Y97.302 E0.01687
G1 X103.757 Y92.136 E0.23007
G1 X103.430 Y92.345 E0.01221
G1 X108.922 Y97.838 E0.24463
G1 X108.922 Y98.373 E0.01687
G1 X103.075 Y92.526 E0.26043
G1 X102.708 Y92.695 E0.01272
G1 X108.922 Y98.909 E0.27677
G1 X108.922 Y99.445 E0.01687
G1 X102.311 Y92.833 E0.29447
G1 X101.883 Y92.941 E0.01389
G1 X108.847 Y99.905 E0.31017
G1 X108.312 Y99.905 E0.01687
G1 X101.420 Y93.014 E0.30693
G1 X100.914 Y93.043 E0.01597
G1 X107.776 Y99.905 E0.30562
G1 X107.241 Y99.905 E0.01687
G1 X100.352 Y93.017 E0.30679
G1 X100.127 Y92.994 E0.00713
G1 X99.715 Y92.915 E0.01321
G1 X106.705 Y99.905 E0.31132
G1 X106.169 Y99.905 E0.01687
G1 X98.572 Y92.308 E0.33835
M204 S1250
G1 E-2.24000 F4200.000
;WIPE_START
G1 F7200.000
G1 X99.736 Y93.472 E-0.91200
;WIPE_END
G1 E-0.04800 F4200.000
G1 Z0.400 F9000.000
G1 X102.468 Y83.349
G1 Z0.200
G1 E3.20000 F2400.000
M204 S800
G1 F1200.000
G1 X89.214 Y70.095 E0.59031
M73 P5 R26
G1 X88.678 Y70.095 E0.01687
G1 X101.540 Y82.956 E0.57279
G1 X101.252 Y82.921 E0.00912
G1 X100.960 Y82.912 E0.00921
G1 X88.143 Y70.095 E0.57083
G1 X87.607 Y70.095 E0.01687
G1 X100.444 Y82.932 E0.57173
G1 X99.966 Y82.989 E0.01517
G1 X87.071 Y70.095 E0.57428
G1 X86.536 Y70.095 E0.01687
G1 X99.529 Y83.088 E0.57866
G1 X99.122 Y83.217 E0.01344
G1 X86.000 Y70.095 E0.58440
G1 X85.465 Y70.095 E0.01687
G1 X98.742 Y83.372 E0.59132
G1 X98.386 Y83.551 E0.01256
G1 X84.929 Y70.095 E0.59931
G1 X84.393 Y70.095 E0.01687
G1 X98.052 Y83.754 E0.60832
G1 X97.748 Y83.985 E0.01204
G1 X83.858 Y70.095 E0.61861
G1 X83.322 Y70.095 E0.01687
G1 X97.451 Y84.224 E0.62927
G1 X97.179 Y84.487 E0.01193
G1 X82.787 Y70.095 E0.64100
G1 X82.251 Y70.095 E0.01687
G1 X96.931 Y84.775 E0.65381
G1 X96.705 Y85.084 E0.01207
G1 X81.715 Y70.095 E0.66758
G1 X81.180 Y70.095 E0.01687
G1 X96.489 Y85.404 E0.68183
G1 X96.303 Y85.754 E0.01247
G1 X80.644 Y70.095 E0.69739
G1 X80.108 Y70.095 E0.01687
G1 X96.140 Y86.127 E0.71401
M73 P6 R26
G1 X96.004 Y86.526 E0.01328
G1 X79.573 Y70.095 E0.73178
G1 X79.037 Y70.095 E0.01687
G1 X95.897 Y86.955 E0.75088
G1 X95.828 Y87.421 E0.01486
G1 X78.962 Y70.555 E0.75115
G1 X78.962 Y71.091 E0.01687
G1 X95.793 Y87.922 E0.74958
G1 X95.793 Y88.212 E0.00914
G1 X95.824 Y88.488 E0.00876
G1 X78.962 Y71.627 E0.75096
G1 X78.962 Y72.162 E0.01687
G1 X95.925 Y89.125 E0.75545
G1 X95.968 Y89.316 E0.00617
G1 X96.178 Y89.913 E0.01994
G1 X78.962 Y72.698 E0.76672
G1 X78.962 Y73.234 E0.01687
G1 X105.634 Y99.905 E1.18786
G1 X105.098 Y99.905 E0.01687
G1 X78.962 Y73.769 E1.16401
G1 X78.962 Y74.305 E0.01687
G1 X104.563 Y99.905 E1.14015
G1 X104.027 Y99.905 E0.01687
G1 X78.962 Y74.840 E1.11630
M73 P7 R26
G1 X78.962 Y75.376 E0.01687
G1 X103.491 Y99.905 E1.09244
G1 X102.956 Y99.905 E0.01687
G1 X78.962 Y75.912 E1.06859
G1 X78.962 Y76.447 E0.01687
G1 X102.420 Y99.905 E1.04473
G1 X101.884 Y99.905 E0.01687
G1 X78.962 Y76.983 E1.02088
G1 X78.962 Y77.518 E0.01687
G1 X101.349 Y99.905 E0.99702
G1 X100.813 Y99.905 E0.01687
G1 X78.962 Y78.054 E0.97317
G1 X78.962 Y78.590 E0.01687
G1 X100.278 Y99.905 E0.94932
M73 P7 R25
G1 X99.742 Y99.905 E0.01687
G1 X78.962 Y79.125 E0.92546
G1 X78.962 Y79.661 E0.01687
G1 X99.206 Y99.905 E0.90161
G1 X98.671 Y99.905 E0.01687
G1 X78.962 Y80.197 E0.87775
G1 X78.962 Y80.732 E0.01687
G1 X98.622 Y100.392 E0.87560
M73 P8 R25
G1 X98.622 Y100.928 E0.01687
G1 X78.962 Y81.268 E0.87560
G1 X78.962 Y81.695 E0.01345
G1 X78.854 Y81.695 E0.00342
G1 X98.622 Y101.464 E0.88043
G1 X98.622 Y101.999 E0.01687
G1 X78.318 Y81.695 E0.90429
G1 X77.782 Y81.695 E0.01687
G1 X98.622 Y102.535 E0.92814
G1 X98.622 Y103.070 E0.01687
G1 X77.247 Y81.695 E0.95200
G1 X76.711 Y81.695 E0.01687
G1 X98.622 Y103.606 E0.97585
G1 X98.622 Y104.142 E0.01687
G1 X76.176 Y81.695 E0.99971
G1 X75.640 Y81.695 E0.01687
G1 X98.622 Y104.677 E1.02356
G1 X98.622 Y105.213 E0.01687
G1 X75.104 Y81.695 E1.04741
G1 X74.569 Y81.695 E0.01687
G1 X98.622 Y105.749 E1.07127
M73 P9 R25
G1 X98.622 Y106.284 E0.01687
G1 X74.033 Y81.695 E1.09512
G1 X73.498 Y81.695 E0.01687
G1 X98.622 Y106.820 E1.11898
G1 X98.622 Y107.355 E0.01687
G1 X72.962 Y81.695 E1.14283
G1 X72.426 Y81.695 E0.01687
G1 X98.622 Y107.891 E1.16669
G1 X98.622 Y108.427 E0.01687
G1 X90.762 Y100.566 E0.35007
G1 X90.762 Y101.102 E0.01687
G1 X98.622 Y108.962 E0.35007
G1 X98.622 Y109.498 E0.01687
G1 X90.762 Y101.638 E0.35007
G1 X90.762 Y102.173 E0.01687
G1 X98.494 Y109.905 E0.34435
G1 X97.958 Y109.905 E0.01687
G1 X90.762 Y102.709 E0.32050
G1 X90.762 Y103.244 E0.01687
G1 X97.423 Y109.905 E0.29664
