; generated by PrusaSlicer 2.3.0+win64 on 2021-06-26 at 18:06:31 UTC


;
;

;
;
; 

; external perimeters extrusion width = 0.45mm
; perimeters extrusion width = 0.45mm
; infill extrusion width = 0.45mm
; solid infill extrusion width = 0.45mm
; top infill extrusion width = 0.40mm
; first layer extrusion width = 0.42mm

M73 P0 R4
M201 X1250 Y1250 Z400 E5000 ; sets maximum accelerations, mm/sec^2
M203 X180 Y180 Z12 E80 ; sets maximum feedrates, mm/sec
M204 P1250 R1250 T1250 ; sets acceleration (P, T) and retract acceleration (R), mm/sec^2
M205 X8.00 Y8.00 Z2.00 E10.00 ; sets the jerk limits, mm/sec
M205 S0 T0 ; sets the minimum extruding and travel feed rate, mm/sec
M107
;TYPE:Custom
G90 ; use absolute coordinates
M83 ; extruder relative mode
M104 S170 ; set extruder temp for bed leveling
M140 S60 ; set bed temp
M109 R170 ; wait for bed leveling temp
M190 S60 ; wait for bed temp
G28 ; home all without mesh bed level
G29 ; mesh bed leveling 
M104 S215 ; set extruder temp
G92 E0.0
G1 Y-2.0 X179 F2400
M73 P1 R4
G1 Z3 F720
M109 S215 ; wait for extruder temp

; intro line
G1 X170 F1000
G1 Z0.2 F720
M73 P2 R4
G1 X110.0 E8.0 F900
M73 P3 R4
G1 X40.0 E10.0 F700
G92 E0.0

M221 S95 ; set flow
G21 ; set units to millimeters
G90 ; use absolute coordinates
M83 ; use relative distances for extrusion
M900 K0.2 ; Filament gcode LA 1.5
; ; Filament gcode LA 1.0
;LAYER_CHANGE
;Z:0.2
;HEIGHT:0.2
;BEFORE_LAYER_CHANGE
G92 E0.0
;0.2


M73 P5 R4
G1 E-3.20000 F4200.000
G1 Z0.200 F9000.000
;AFTER_LAYER_CHANGE
;0.2
G1 Z0.400
G1 X84.140 Y86.642
M73 P6 R4
G1 Z0.200
G1 E3.20000 F2400.000
M204 S800
;TYPE:Skirt
;WIDTH:0.42
G1 F1200.000
G1 X84.614 Y85.923 E0.02701
G1 X85.206 Y85.242 E0.02829
G1 X85.876 Y84.650 E0.02803
G1 X86.626 Y84.149 E0.02829
G1 X87.432 Y83.753 E0.02816
G1 X88.284 Y83.467 E0.02816
G1 X89.166 Y83.297 E0.02816
G1 X90.046 Y83.246 E0.02765
G1 X91.255 Y83.364 E0.03808
G1 X92.373 Y83.677 E0.03641
G1 X93.296 Y84.105 E0.03188
G1 X94.279 Y84.775 E0.03731
G1 X103.878 Y94.329 E0.42465
G1 X104.840 Y95.608 E0.05015
G1 X105.412 Y96.881 E0.04376
G1 X105.695 Y98.112 E0.03962
G1 X105.731 Y99.544 E0.04491
G1 X105.513 Y100.788 E0.03962
G1 X105.067 Y101.966 E0.03948
G1 X104.305 Y103.180 E0.04492
G1 X103.434 Y104.094 E0.03962
G1 X102.278 Y104.905 E0.04427
G1 X101.435 Y105.300 E0.02919
G1 X100.573 Y105.568 E0.02829
G1 X99.679 Y105.720 E0.02842
G1 X98.782 Y105.751 E0.02816
G1 X97.880 Y105.661 E0.02842
G1 X96.998 Y105.451 E0.02842
M73 P7 R4
G1 X96.156 Y105.127 E0.02829
G1 X95.365 Y104.693 E0.02829
G1 X94.229 Y103.781 E0.04568
G1 X85.196 Y94.748 E0.40052
G1 X84.607 Y94.067 E0.02826
G1 X84.115 Y93.315 E0.02816
G1 X83.726 Y92.501 E0.02829
G1 X83.450 Y91.651 E0.02803
G1 X83.289 Y90.763 E0.02829
G1 X83.246 Y89.903 E0.02701
G1 X83.324 Y88.975 E0.02919
G1 X83.510 Y88.130 E0.02713
G1 X84.116 Y86.697 E0.04878
M204 S1250
G1 E-2.24000 F4200.000
;WIPE_START
G1 F7200.000
G1 X84.614 Y85.923 E-0.51006
G1 X85.090 Y85.376 E-0.40194
;WIPE_END
G1 E-0.04800 F4200.000
G1 Z0.400 F9000.000
G1 X83.826 Y88.404
G1 Z0.200
G1 E3.20000 F2400.000
M204 S800
G1 F1200.000
G1 X84.080 Y87.627 E0.02564
G1 X84.463 Y86.837 E0.02754
G1 X84.913 Y86.154 E0.02564
G1 X85.471 Y85.510 E0.02671
G1 X86.107 Y84.949 E0.02659
G1 X86.815 Y84.475 E0.02671
G1 X87.576 Y84.101 E0.02659
G1 X88.380 Y83.832 E0.02659
G1 X89.217 Y83.671 E0.02671
G1 X90.048 Y83.623 E0.02611
G1 X91.185 Y83.734 E0.03583
G1 X92.245 Y84.032 E0.03452
G1 X93.110 Y84.434 E0.02990
G1 X94.043 Y85.069 E0.03538
G1 X103.606 Y94.591 E0.42315
M73 P8 R4
G1 X104.490 Y95.757 E0.04588
G1 X105.052 Y96.993 E0.04256
G1 X105.319 Y98.143 E0.03702
G1 X105.368 Y99.326 E0.03714
G1 X105.162 Y100.641 E0.04173
G1 X104.754 Y101.749 E0.03702
G1 X104.144 Y102.768 E0.03723
G1 X103.252 Y103.752 E0.04163
G1 X102.281 Y104.468 E0.03785
G1 X101.540 Y104.849 E0.02611
G1 X100.705 Y105.145 E0.02778
G1 X99.690 Y105.339 E0.03238
G1 X98.836 Y105.375 E0.02683
G1 X97.950 Y105.290 E0.02790
G1 X97.121 Y105.094 E0.02671
G1 X96.318 Y104.786 E0.02695
G1 X95.574 Y104.379 E0.02659
G1 X94.492 Y103.511 E0.04351
G1 X85.466 Y94.485 E0.40020
G1 X84.912 Y93.845 E0.02654
G1 X84.462 Y93.163 E0.02564
G1 X84.079 Y92.368 E0.02766
G1 X83.818 Y91.565 E0.02647
G1 X83.663 Y90.720 E0.02695
G1 X83.623 Y89.911 E0.02540
G1 X83.818 Y88.464 E0.04578
M204 S1250
; printing object AvoLedMount91.stl id:0 copy 1
G1 E-2.24000 F4200.000
;WIPE_START
G1 F7200.000
G1 X84.080 Y87.627 E-0.48584
G1 X84.415 Y86.935 E-0.42616
;WIPE_END
G1 E-0.04800 F4200.000
G1 Z0.400 F9000.000
G1 X96.327 Y97.313
G1 Z0.200
G1 E3.20000 F2400.000
M204 S800
;TYPE:External perimeter
M73 P9 R4
G1 F1200.000
G1 X96.525 Y97.034 E0.01073
G1 X96.752 Y96.778 E0.01073
G1 X97.133 Y96.450 E0.01577
G1 X97.419 Y96.263 E0.01073
G1 X97.722 Y96.109 E0.01064
G1 X98.039 Y95.989 E0.01064
G1 X98.367 Y95.903 E0.01064
G1 X98.703 Y95.854 E0.01064
G1 X99.037 Y95.840 E0.01048
G1 X99.545 Y95.887 E0.01602
G1 X99.879 Y95.964 E0.01073
G1 X100.199 Y96.076 E0.01064
G1 X100.506 Y96.222 E0.01064
G1 X100.790 Y96.396 E0.01048
G1 X101.187 Y96.719 E0.01602
G1 X101.420 Y96.969 E0.01073
G1 X101.624 Y97.240 E0.01064
G1 X101.798 Y97.531 E0.01064
G1 X101.939 Y97.840 E0.01064
G1 X102.047 Y98.162 E0.01064
G1 X102.120 Y98.496 E0.01073
G1 X102.160 Y98.997 E0.01577
G1 X102.142 Y99.339 E0.01073
G1 X102.087 Y99.674 E0.01064
G1 X101.997 Y100.001 E0.01064
G1 X101.872 Y100.319 E0.01073
G1 X101.626 Y100.758 E0.01577
G1 X101.420 Y101.031 E0.01073
G1 X101.187 Y101.281 E0.01073
G1 X100.797 Y101.599 E0.01577
G1 X100.506 Y101.778 E0.01073
G1 X100.199 Y101.924 E0.01064
G1 X99.879 Y102.036 E0.01064
G1 X99.546 Y102.113 E0.01073
G1 X99.045 Y102.160 E0.01577
G1 X98.703 Y102.146 E0.01073
G1 X98.365 Y102.096 E0.01073
G1 X97.881 Y101.956 E0.01577
G1 X97.569 Y101.818 E0.01073
G1 X97.275 Y101.648 E0.01064
G1 X97.001 Y101.448 E0.01064
G1 X96.750 Y101.220 E0.01064
G1 X96.525 Y100.966 E0.01064
G1 X96.327 Y100.687 E0.01073
G1 X96.093 Y100.241 E0.01577
G1 X95.976 Y99.920 E0.01073
G1 X95.895 Y99.591 E0.01064
G1 X95.850 Y99.256 E0.01059
G1 X95.839 Y99.000 E0.00802
G1 X95.850 Y98.744 E0.00802
G1 X95.895 Y98.409 E0.01059
G1 X95.976 Y98.080 E0.01064
G1 X96.093 Y97.759 E0.01073
G1 X96.299 Y97.366 E0.01389
M204 S1250
G1 X96.165 Y97.012 F9000.000
G1 X95.940 Y97.133
M204 S800
G1 F1200.000
G1 X96.117 Y96.861 E0.01017
G1 X96.338 Y96.592 E0.01092
G1 X96.562 Y96.365 E0.01001
G1 X96.806 Y96.158 E0.01003
G1 X97.066 Y95.975 E0.00996
G1 X97.463 Y95.756 E0.01422
G1 X97.785 Y95.622 E0.01092
G1 X98.090 Y95.527 E0.01001
G1 X98.402 Y95.460 E0.01003
G1 X98.718 Y95.421 E0.00996
G1 X99.171 Y95.415 E0.01422
G1 X99.518 Y95.448 E0.01092
G1 X99.832 Y95.508 E0.01001
G1 X100.139 Y95.596 E0.01003
G1 X100.435 Y95.710 E0.00995
G1 X100.865 Y95.933 E0.01518
G1 X101.129 Y96.110 E0.00995
G1 X101.378 Y96.311 E0.01003
G1 X101.608 Y96.533 E0.01003
G1 X101.817 Y96.775 E0.01003
G1 X102.002 Y97.033 E0.00995
G1 X102.240 Y97.455 E0.01518
G1 X102.364 Y97.747 E0.00995
G1 X102.461 Y98.049 E0.00995
G1 X102.557 Y98.524 E0.01518
G1 X102.586 Y98.840 E0.00995
G1 X102.586 Y99.160 E0.01003
G1 X102.557 Y99.478 E0.01003
G1 X102.501 Y99.793 E0.01003
G1 X102.417 Y100.100 E0.00996
G1 X102.250 Y100.522 E0.01422
G1 X102.088 Y100.830 E0.01092
G1 X101.913 Y101.097 E0.01001
G1 X101.715 Y101.348 E0.01003
G1 X101.495 Y101.580 E0.01003
G1 X101.255 Y101.792 E0.01003
G1 X100.998 Y101.982 E0.01003
G1 X100.727 Y102.147 E0.00995
G1 X100.287 Y102.351 E0.01518
G1 X99.989 Y102.451 E0.00988
G1 X99.515 Y102.552 E0.01518
G1 X99.199 Y102.584 E0.00995
G1 X98.880 Y102.588 E0.01003
G1 X98.563 Y102.563 E0.00996
G1 X98.117 Y102.479 E0.01422
G1 X97.784 Y102.378 E0.01092
G1 X97.488 Y102.256 E0.01001
G1 X97.205 Y102.109 E0.01003
G1 X96.935 Y101.937 E0.01003
G1 X96.683 Y101.743 E0.00996
G1 X96.356 Y101.428 E0.01422
G1 X96.133 Y101.161 E0.01092
G1 X95.952 Y100.898 E0.01001
G1 X95.796 Y100.619 E0.01003
G1 X95.664 Y100.327 E0.01003
G1 X95.560 Y100.027 E0.00996
G1 X95.458 Y99.585 E0.01422
G1 X95.418 Y99.239 E0.01092
G1 X95.411 Y98.922 E0.00994
G1 X95.454 Y98.440 E0.01518
G1 X95.517 Y98.129 E0.00995
G1 X95.608 Y97.822 E0.01003
G1 X95.727 Y97.525 E0.01003
G1 X95.908 Y97.184 E0.01212
M204 S1250
G1 X96.265 Y97.137 F9000.000
G1 X96.127 Y97.236
M204 S800
;TYPE:Gap fill
;WIDTH:0.103365
G1 F1200.000
G1 X95.924 Y97.614 E0.00216
G1 X95.762 Y97.967 E0.00195
M204 S1250
G1 X95.892 Y97.686 F9000.000
M204 S800
;WIDTH:0.0991782
G1 F1200.000
G1 X95.774 Y98.011 E0.00162
M204 S1250
G1 X95.768 Y98.032 F9000.000
M204 S800
;WIDTH:0.0995297
G1 F1200.000
G1 X95.689 Y98.354 E0.00156
M204 S1250
G1 X95.685 Y98.370 F9000.000
M204 S800
;WIDTH:0.0984401
G1 F1200.000
G1 X95.653 Y98.609 E0.00111
M204 S1250
G1 X95.633 Y98.832 F9000.000
M204 S800
;WIDTH:0.0968887
G1 F1200.000
G1 X95.626 Y99.012 E0.00081
M204 S1250
G1 X95.626 Y99.021 F9000.000
M204 S800
;WIDTH:0.0964856
G1 F1200.000
G1 X95.664 Y99.620 E0.00267
M204 S1250
G1 X95.684 Y99.617 F9000.000
M204 S800
;WIDTH:0.0973738
G1 F1200.000
G1 X95.605 Y99.022 E0.00272
M204 S1250
G1 X95.732 Y99.823 F9000.000
M204 S800
;WIDTH:0.0933204
G1 F1200.000
G1 X95.865 Y100.247 E0.00186
G1 X95.889 Y100.307 E0.00027
G1 X95.922 Y100.321 E0.00015
M204 S1250
G1 X95.899 Y100.330 F9000.000
M204 S800
;WIDTH:0.0981535
G1 F1200.000
G1 X96.135 Y100.784 E0.00235
G1 X96.358 Y101.099 E0.00177
M204 S1250
G1 X96.386 Y101.130 F9000.000
M204 S800
;WIDTH:0.0982689
G1 F1200.000
G1 X96.575 Y101.343 E0.00131
M204 S1250
M73 P10 R4
G1 E-2.24000 F4200.000
;WIPE_START
G1 F7200.000
G1 X96.386 Y101.130 E-0.15788
;WIPE_END
G1 E-0.80212 F4200.000
G1 Z0.400 F9000.000
G1 X98.061 Y102.265
G1 Z0.200
G1 E3.20000 F2400.000
M204 S800
;WIDTH:0.0989869
G1 F1200.000
G1 X97.476 Y102.010 E0.00298
M204 S1250
G1 X97.458 Y102.000 F9000.000
M204 S800
;WIDTH:0.0995495
G1 F1200.000
G1 X97.172 Y101.835 E0.00155
M204 S1250
G1 X97.155 Y101.824 F9000.000
M204 S800
;WIDTH:0.0989857
G1 F1200.000
G1 X96.695 Y101.486 E0.00266
M204 S1250
G1 X96.709 Y101.471 F9000.000
M204 S800
;WIDTH:0.0969618
G1 F1200.000
G1 X97.141 Y101.844 E0.00257
M204 S1250
G1 X97.498 Y102.049 F9000.000
M204 S800
;WIDTH:0.102264
G1 F1200.000
G1 X97.856 Y102.174 E0.00187
G1 X98.285 Y102.294 E0.00220
M204 S1250
G1 X98.442 Y102.323 F9000.000
M204 S800
;WIDTH:0.0981982
G1 F1200.000
G1 X98.686 Y102.359 E0.00113
M204 S1250
G1 X98.699 Y102.360 F9000.000
M204 S800
;WIDTH:0.09947
G1 F1200.000
G1 X99.032 Y102.373 E0.00157
M204 S1250
G1 X99.053 Y102.373 F9000.000
M204 S800
;WIDTH:0.100534
G1 F1200.000
G1 X99.567 Y102.324 E0.00247
M204 S1250
G1 X99.818 Y102.269 F9000.000
M204 S800
;WIDTH:0.0977635
G1 F1200.000
G1 X100.273 Y102.123 E0.00218
M204 S1250
G1 E-2.24000 F4200.000
;WIPE_START
G1 F7200.000
G1 X99.818 Y102.269 E-0.26457
;WIPE_END
G1 E-0.69543 F4200.000
G1 Z0.400 F9000.000
G1 X101.820 Y100.894
G1 Z0.200
G1 E3.20000 F2400.000
M204 S800
;WIDTH:0.0970038
G1 F1200.000
G1 X101.334 Y101.437 E0.00327
G1 X100.717 Y101.932 E0.00356
M204 S1250
G1 X100.587 Y101.978 F9000.000
M204 S800
;WIDTH:0.0968522
G1 F1200.000
G1 X101.218 Y101.574 E0.00336
M204 S1250
G1 X101.406 Y101.400 F9000.000
M204 S800
;WIDTH:0.0988359
G1 F1200.000
G1 X101.800 Y100.880 E0.00303
M204 S1250
G1 X101.808 Y100.869 F9000.000
M204 S800
;WIDTH:0.0953967
G1 F1200.000
G1 X102.072 Y100.395 E0.00237
M204 S1250
G1 X102.195 Y100.082 F9000.000
M204 S800
;WIDTH:0.0982824
G1 F1200.000
G1 X102.296 Y99.721 E0.00173
G1 X102.354 Y99.356 E0.00170
M204 S1250
G1 X102.355 Y99.347 F9000.000
M204 S800
;WIDTH:0.0994072
G1 F1200.000
G1 X102.373 Y99.012 E0.00158
M204 S1250
G1 X102.373 Y98.991 F9000.000
M204 S800
;WIDTH:0.102678
G1 F1200.000
G1 X102.331 Y98.474 E0.00258
M204 S1250
G1 X102.275 Y98.205 F9000.000
M204 S800
;WIDTH:0.0944
G1 F1200.000
G1 X102.161 Y97.823 E0.00171
G1 X102.023 Y97.457 E0.00167
M204 S1250
G1 X102.002 Y97.467 F9000.000
M204 S800
;WIDTH:0.0989832
G1 F1200.000
G1 X102.257 Y98.032 E0.00289
M204 S1250
G1 X101.602 Y96.815 F9000.000
M204 S800
;WIDTH:0.0961243
G1 F1200.000
G1 X101.890 Y97.269 E0.00238
M204 S1250
G1 X101.905 Y97.261 F9000.000
M204 S800
;WIDTH:0.0985784
G1 F1200.000
G1 X101.583 Y96.830 E0.00249
M204 S1250
G1 X101.573 Y96.819 F9000.000
M204 S800
;WIDTH:0.0994928
G1 F1200.000
G1 X101.346 Y96.577 E0.00156
M204 S1250
G1 X101.331 Y96.562 F9000.000
M204 S800
;WIDTH:0.102422
G1 F1200.000
G1 X100.909 Y96.219 E0.00269
M204 S1250
G1 X100.898 Y96.212 F9000.000
M204 S800
;WIDTH:0.0992233
G1 F1200.000
G1 X100.660 Y96.067 E0.00131
M204 S1250
G1 X100.475 Y95.971 F9000.000
M204 S800
;WIDTH:0.0975867
G1 F1200.000
G1 X100.271 Y95.875 E0.00102
M204 S1250
G1 X100.269 Y95.875 F9000.000
M204 S800
;WIDTH:0.0992832
G1 F1200.000
G1 X99.947 Y95.763 E0.00160
M204 S1250
G1 X99.925 Y95.756 F9000.000
M204 S800
;WIDTH:0.0994929
G1 F1200.000
G1 X99.601 Y95.681 E0.00156
M204 S1250
G1 X99.586 Y95.677 F9000.000
M204 S800
;WIDTH:0.100502
G1 F1200.000
G1 X99.063 Y95.629 E0.00251
M204 S1250
G1 X98.323 Y95.670 F9000.000
M204 S800
;WIDTH:0.0967948
G1 F1200.000
G1 X98.887 Y95.632 E0.00253
M204 S1250
G1 X98.886 Y95.613 F9000.000
M204 S800
;WIDTH:0.0989134
G1 F1200.000
G1 X98.328 Y95.694 E0.00263
M204 S1250
G1 X98.309 Y95.698 F9000.000
M204 S800
;WIDTH:0.0995487
G1 F1200.000
G1 X97.989 Y95.782 E0.00155
M204 S1250
G1 X97.969 Y95.788 F9000.000
M204 S800
;WIDTH:0.0989809
G1 F1200.000
G1 X97.676 Y95.899 E0.00146
M204 S1250
G1 X97.631 Y95.917 F9000.000
M204 S800
;WIDTH:0.097456
G1 F1200.000
G1 X97.429 Y96.019 E0.00103
M204 S1250
G1 X97.273 Y96.105 F9000.000
M204 S800
;WIDTH:0.0992618
G1 F1200.000
G1 X97.021 Y96.268 E0.00140
M204 S1250
G1 X97.011 Y96.274 F9000.000
M204 S800
;WIDTH:0.0998983
G1 F1200.000
G1 X96.605 Y96.624 E0.00254
M204 S1250
G1 X96.591 Y96.639 F9000.000
M204 S800
;WIDTH:0.0993067
G1 F1200.000
G1 X96.385 Y96.870 E0.00145
M204 S1250
G1 X96.350 Y96.913 F9000.000
M204 S800
;WIDTH:0.098027
G1 F1200.000
G1 X96.214 Y97.104 E0.00107
M204 S1250
; stop printing object AvoLedMount91.stl id:0 copy 1
; printing object AvoLedMount91.stl id:0 copy 0
G1 E-2.24000 F4200.000
;WIPE_START
G1 F7200.000
G1 X96.350 Y96.913 E-0.12987
;WIPE_END
G1 E-0.83013 F4200.000
G1 Z0.400 F9000.000
G1 X92.187 Y92.281
G1 Z0.200
G1 E3.20000 F2400.000
M204 S800
;TYPE:External perimeter
;WIDTH:0.42
G1 F1200.000
G1 X91.797 Y92.599 E0.01577
G1 X91.506 Y92.778 E0.01073
G1 X91.199 Y92.924 E0.01064
G1 X90.879 Y93.036 E0.01064
G1 X90.546 Y93.113 E0.01073
G1 X90.045 Y93.160 E0.01577
G1 X89.703 Y93.146 E0.01073
G1 X89.365 Y93.096 E0.01073
G1 X88.881 Y92.956 E0.01577
M73 P11 R4
G1 X88.569 Y92.818 E0.01073
G1 X88.275 Y92.648 E0.01064
G1 X88.001 Y92.448 E0.01064
G1 X87.750 Y92.220 E0.01064
G1 X87.525 Y91.966 E0.01064
G1 X87.327 Y91.687 E0.01073
G1 X87.093 Y91.241 E0.01577
G1 X86.976 Y90.920 E0.01073
G1 X86.895 Y90.591 E0.01064
G1 X86.850 Y90.256 E0.01059
G1 X86.839 Y90.000 E0.00802
G1 X86.850 Y89.744 E0.00802
G1 X86.895 Y89.409 E0.01059
G1 X86.976 Y89.080 E0.01064
G1 X87.093 Y88.759 E0.01073
G1 X87.327 Y88.313 E0.01577
G1 X87.525 Y88.034 E0.01073
G1 X87.752 Y87.778 E0.01073
G1 X88.133 Y87.450 E0.01577
G1 X88.419 Y87.263 E0.01073
G1 X88.722 Y87.109 E0.01064
G1 X89.039 Y86.989 E0.01064
G1 X89.367 Y86.903 E0.01064
G1 X89.703 Y86.854 E0.01064
G1 X90.037 Y86.840 E0.01048
G1 X90.545 Y86.887 E0.01602
G1 X90.879 Y86.964 E0.01073
G1 X91.199 Y87.076 E0.01064
G1 X91.506 Y87.222 E0.01064
G1 X91.790 Y87.396 E0.01048
G1 X92.187 Y87.719 E0.01602
G1 X92.420 Y87.969 E0.01073
G1 X92.624 Y88.240 E0.01064
G1 X92.798 Y88.531 E0.01064
G1 X92.939 Y88.840 E0.01064
G1 X93.047 Y89.162 E0.01064
G1 X93.120 Y89.496 E0.01073
G1 X93.160 Y89.997 E0.01577
G1 X93.142 Y90.339 E0.01073
G1 X93.087 Y90.674 E0.01064
G1 X92.997 Y91.001 E0.01064
G1 X92.872 Y91.319 E0.01073
G1 X92.626 Y91.758 E0.01577
G1 X92.420 Y92.031 E0.01073
G1 X92.228 Y92.238 E0.00885
M204 S1250
G1 X92.276 Y92.671 F9000.000
G1 X92.540 Y92.533
M204 S800
G1 F1200.000
G1 X92.255 Y92.792 E0.01207
G1 X91.998 Y92.982 E0.01003
G1 X91.727 Y93.147 E0.00995
G1 X91.287 Y93.351 E0.01518
G1 X90.989 Y93.451 E0.00988
G1 X90.515 Y93.552 E0.01518
G1 X90.199 Y93.584 E0.00995
G1 X89.880 Y93.588 E0.01003
G1 X89.563 Y93.563 E0.00996
G1 X89.117 Y93.479 E0.01422
G1 X88.784 Y93.378 E0.01092
G1 X88.488 Y93.256 E0.01001
G1 X88.205 Y93.109 E0.01003
