; generated by PrusaSlicer 2.3.0+win64 on 2021-06-27 at 12:22:41 UTC


;
;

;
;
; 

; external perimeters extrusion width = 0.45mm
; perimeters extrusion width = 0.45mm
; infill extrusion width = 0.45mm
; solid infill extrusion width = 0.45mm
; top infill extrusion width = 0.40mm
; first layer extrusion width = 0.42mm

M73 P0 R4
M201 X1250 Y1250 Z400 E5000 ; sets maximum accelerations, mm/sec^2
M203 X180 Y180 Z12 E80 ; sets maximum feedrates, mm/sec
M204 P1250 R1250 T1250 ; sets acceleration (P, T) and retract acceleration (R), mm/sec^2
M205 X8.00 Y8.00 Z2.00 E10.00 ; sets the jerk limits, mm/sec
M205 S0 T0 ; sets the minimum extruding and travel feed rate, mm/sec
M107
;TYPE:Custom
G90 ; use absolute coordinates
M83 ; extruder relative mode
M104 S170 ; set extruder temp for bed leveling
M140 S60 ; set bed temp
M109 R170 ; wait for bed leveling temp
M190 S60 ; wait for bed temp
G28 ; home all without mesh bed level
G29 ; mesh bed leveling 
M104 S215 ; set extruder temp
G92 E0.0
G1 Y-2.0 X179 F2400
M73 P1 R4
G1 Z3 F720
M109 S215 ; wait for extruder temp

; intro line
M73 P2 R4
G1 X170 F1000
G1 Z0.2 F720
G1 X110.0 E8.0 F900
M73 P4 R4
G1 X40.0 E10.0 F700
G92 E0.0

M221 S95 ; set flow
G21 ; set units to millimeters
G90 ; use absolute coordinates
M83 ; use relative distances for extrusion
M900 K0.2 ; Filament gcode LA 1.5
; ; Filament gcode LA 1.0
;LAYER_CHANGE
;Z:0.2
;HEIGHT:0.2
;BEFORE_LAYER_CHANGE
G92 E0.0
;0.2


M73 P6 R4
G1 E-3.20000 F4200.000
G1 Z0.200 F9000.000
;AFTER_LAYER_CHANGE
;0.2
G1 Z0.400
G1 X84.697 Y84.684
M73 P7 R4
G1 Z0.200
G1 E3.20000 F2400.000
M204 S800
;TYPE:Skirt
;WIDTH:0.42
G1 F1041
G1 X85.906 Y83.706 E0.04873
G1 X87.150 Y83.053 E0.04407
G1 X88.491 Y82.645 E0.04393
G1 X90.047 Y82.492 E0.04903
G1 X91.464 Y82.636 E0.04465
G1 X92.944 Y83.094 E0.04859
M73 P7 R3
G1 X94.180 Y83.763 E0.04407
G1 X95.269 Y84.652 E0.04407
G1 X96.250 Y85.840 E0.04830
G1 X96.918 Y87.082 E0.04422
G1 X97.375 Y88.597 E0.04960
G1 X97.508 Y90.000 E0.04422
G1 X97.375 Y91.404 E0.04422
G1 X96.919 Y92.915 E0.04946
G1 X96.252 Y94.157 E0.04422
G1 X95.268 Y95.349 E0.04845
G1 X94.179 Y96.237 E0.04407
G1 X92.943 Y96.907 E0.04407
G1 X91.462 Y97.364 E0.04859
M73 P8 R3
G1 X90.041 Y97.508 E0.04480
G1 X88.485 Y97.354 E0.04902
G1 X87.136 Y96.941 E0.04422
G1 X85.746 Y96.187 E0.04960
G1 X84.667 Y95.286 E0.04407
G1 X83.770 Y94.191 E0.04436
G1 X83.030 Y92.793 E0.04960
G1 X82.631 Y91.441 E0.04422
G1 X82.492 Y89.911 E0.04816
G1 X82.642 Y88.504 E0.04436
G1 X83.050 Y87.159 E0.04407
G1 X83.781 Y85.792 E0.04860
G1 X84.659 Y84.730 E0.04320
M204 S1250
G1 X84.948 Y84.970 F9000.000
M204 S800
G1 F1041
G1 X86.115 Y84.020 E0.04716
G1 X87.293 Y83.402 E0.04171
G1 X88.566 Y83.015 E0.04171
G1 X90.049 Y82.869 E0.04672
G1 X91.389 Y83.006 E0.04226
G1 X92.800 Y83.442 E0.04630
G1 X93.970 Y84.076 E0.04171
G1 X95.001 Y84.917 E0.04171
G1 X95.938 Y86.053 E0.04617
G1 X96.570 Y87.228 E0.04185
G1 X97.005 Y88.671 E0.04726
G1 X97.131 Y90.000 E0.04185
G1 X97.005 Y91.329 E0.04185
G1 X96.570 Y92.772 E0.04726
M73 P9 R3
G1 X95.938 Y93.948 E0.04185
G1 X95.001 Y95.083 E0.04617
G1 X93.970 Y95.924 E0.04171
G1 X92.796 Y96.560 E0.04185
G1 X91.389 Y96.994 E0.04617
G1 X90.044 Y97.131 E0.04240
G1 X88.561 Y96.984 E0.04672
G1 X87.285 Y96.594 E0.04185
G1 X86.104 Y95.973 E0.04184
G1 X84.935 Y95.020 E0.04727
G1 X84.084 Y93.981 E0.04212
G1 X83.380 Y92.653 E0.04712
G1 X83.001 Y91.369 E0.04199
G1 X82.869 Y89.911 E0.04590
G1 X83.011 Y88.579 E0.04199
G1 X83.399 Y87.302 E0.04185
G1 X84.096 Y86.000 E0.04631
G1 X84.910 Y85.016 E0.04005
M204 S1250
G1 X85.199 Y85.255 F9000.000
M204 S800
G1 F1041
G1 X86.321 Y84.336 E0.04546
G1 X87.432 Y83.753 E0.03936
G1 X88.633 Y83.386 E0.03936
G1 X90.046 Y83.246 E0.04453
G1 X91.315 Y83.376 E0.04000
G1 X92.653 Y83.789 E0.04389
G1 X93.760 Y84.389 E0.03949
G1 X94.736 Y85.185 E0.03949
G1 X95.624 Y86.262 E0.04376
G1 X96.223 Y87.375 E0.03962
G1 X96.635 Y88.742 E0.04478
M73 P10 R3
G1 X96.754 Y90.000 E0.03962
G1 X96.635 Y91.258 E0.03961
G1 X96.222 Y92.626 E0.04480
G1 X95.624 Y93.739 E0.03962
G1 X94.733 Y94.818 E0.04389
G1 X93.760 Y95.611 E0.03936
G1 X92.652 Y96.211 E0.03949
G1 X91.311 Y96.625 E0.04402
G1 X90.042 Y96.754 E0.04000
G1 X88.633 Y96.614 E0.04440
G1 X87.428 Y96.246 E0.03949
G1 X86.166 Y95.560 E0.04504
G1 X85.200 Y94.752 E0.03949
G1 X84.399 Y93.775 E0.03962
G1 X83.729 Y92.509 E0.04491
G1 X83.372 Y91.301 E0.03949
G1 X83.246 Y89.911 E0.04376
G1 X83.381 Y88.655 E0.03962
G1 X83.746 Y87.449 E0.03949
G1 X84.408 Y86.211 E0.04402
G1 X85.161 Y85.301 E0.03703
M204 S1250
G1 X85.450 Y85.540 F9000.000
M204 S800
G1 F1041
G1 X85.493 Y85.489 E0.00209
G1 X86.530 Y84.650 E0.04184
G1 X87.579 Y84.100 E0.03714
G1 X88.709 Y83.755 E0.03702
G1 X90.048 Y83.623 E0.04220
G1 X91.238 Y83.745 E0.03750
G1 X92.509 Y84.138 E0.04172
G1 X93.550 Y84.703 E0.03714
G1 X94.468 Y85.451 E0.03714
G1 X95.313 Y86.474 E0.04161
M73 P11 R3
G1 X95.874 Y87.518 E0.03714
G1 X96.266 Y88.817 E0.04256
G1 X96.377 Y90.000 E0.03726
G1 X96.266 Y91.183 E0.03723
G1 X95.873 Y92.483 E0.04258
G1 X95.313 Y93.526 E0.03714
G1 X94.468 Y94.549 E0.04161
G1 X93.550 Y95.298 E0.03714
G1 X92.508 Y95.862 E0.03714
G1 X91.237 Y96.256 E0.04173
G1 X90.044 Y96.377 E0.03761
G1 X88.704 Y96.244 E0.04220
G1 X87.572 Y95.897 E0.03714
G1 X86.376 Y95.247 E0.04268
G1 X85.468 Y94.487 E0.03714
G1 X84.714 Y93.568 E0.03726
G1 X84.079 Y92.368 E0.04256
G1 X83.742 Y91.229 E0.03726
G1 X83.623 Y89.911 E0.04149
G1 X83.750 Y88.729 E0.03726
G1 X84.093 Y87.596 E0.03714
G1 X84.721 Y86.422 E0.04173
G1 X85.412 Y85.586 E0.03400
M204 S1250
; printing object AvoLedMount2.stl id:0 copy 0
G1 E-2.24000 F4200.000
;WIPE_START
G1 F7200.000
G1 X85.493 Y85.489 E-0.07014
G1 X86.530 Y84.650 E-0.73953
G1 X86.694 Y84.564 E-0.10233
;WIPE_END
G1 E-0.04800 F4200.000
G1 Z0.400 F9000.000
G1 X88.018 Y87.934
G1 Z0.200
G1 E3.20000 F2400.000
M204 S800
;TYPE:External perimeter
G1 F1041
G1 X88.386 Y87.636 E0.01486
G1 X88.661 Y87.470 E0.01007
G1 X88.953 Y87.336 E0.01007
G1 X89.404 Y87.200 E0.01477
G1 X89.721 Y87.151 E0.01006
G1 X90.034 Y87.138 E0.00981
G1 X90.511 Y87.184 E0.01502
G1 X90.823 Y87.259 E0.01007
G1 X91.122 Y87.367 E0.00997
M73 P12 R3
G1 X91.407 Y87.508 E0.00997
G1 X91.671 Y87.677 E0.00981
G1 X92.035 Y87.988 E0.01502
G1 X92.248 Y88.229 E0.01007
G1 X92.432 Y88.492 E0.01007
G1 X92.648 Y88.914 E0.01486
G1 X92.791 Y89.366 E0.01486
G1 X92.844 Y89.682 E0.01007
G1 X92.862 Y90.000 E0.00997
G1 X92.844 Y90.318 E0.00997
G1 X92.791 Y90.634 E0.01007
G1 X92.648 Y91.086 E0.01486
G1 X92.432 Y91.508 E0.01486
G1 X92.248 Y91.771 E0.01007
G1 X92.037 Y92.010 E0.00997
G1 X91.802 Y92.223 E0.00997
G1 X91.548 Y92.407 E0.00981
G1 X91.125 Y92.632 E0.01502
G1 X90.823 Y92.741 E0.01007
G1 X90.511 Y92.816 E0.01007
G1 X90.039 Y92.862 E0.01486
G1 X89.566 Y92.829 E0.01486
G1 X89.252 Y92.763 E0.01007
G1 X88.950 Y92.663 E0.00997
G1 X88.661 Y92.530 E0.00997
G1 X88.386 Y92.364 E0.01007
G1 X88.020 Y92.068 E0.01477
G1 X87.801 Y91.833 E0.01006
G1 X87.614 Y91.582 E0.00981
G1 X87.384 Y91.162 E0.01502
G1 X87.270 Y90.862 E0.01007
G1 X87.190 Y90.549 E0.01011
G1 X87.137 Y90.000 E0.01730
G1 X87.190 Y89.451 E0.01730
G1 X87.270 Y89.138 E0.01011
G1 X87.383 Y88.841 E0.00997
G1 X87.527 Y88.557 E0.00997
G1 X87.704 Y88.290 E0.01007
G1 X87.978 Y87.979 E0.01298
M204 S1250
G1 X87.926 Y87.545 F9000.000
G1 X87.461 Y87.467
M204 S800
G1 F1041
G1 X87.806 Y87.158 E0.01454
G1 X88.066 Y86.975 E0.00996
G1 X88.463 Y86.756 E0.01422
G1 X88.785 Y86.622 E0.01092
G1 X89.090 Y86.527 E0.01001
G1 X89.402 Y86.460 E0.01003
G1 X89.718 Y86.421 E0.00996
G1 X90.171 Y86.415 E0.01422
G1 X90.518 Y86.448 E0.01092
G1 X90.832 Y86.508 E0.01001
G1 X91.139 Y86.596 E0.01003
G1 X91.435 Y86.710 E0.00995
G1 X91.865 Y86.933 E0.01518
G1 X92.129 Y87.110 E0.00995
G1 X92.378 Y87.311 E0.01003
G1 X92.608 Y87.533 E0.01003
G1 X92.817 Y87.775 E0.01003
G1 X93.002 Y88.033 E0.00995
G1 X93.240 Y88.455 E0.01518
G1 X93.364 Y88.747 E0.00995
G1 X93.461 Y89.049 E0.00995
G1 X93.557 Y89.524 E0.01518
G1 X93.586 Y89.840 E0.00995
G1 X93.586 Y90.160 E0.01003
G1 X93.557 Y90.478 E0.01003
G1 X93.501 Y90.793 E0.01003
G1 X93.417 Y91.100 E0.00996
G1 X93.250 Y91.522 E0.01422
G1 X93.088 Y91.830 E0.01092
G1 X92.913 Y92.097 E0.01001
G1 X92.715 Y92.348 E0.01003
G1 X92.495 Y92.580 E0.01003
G1 X92.255 Y92.792 E0.01003
G1 X91.998 Y92.982 E0.01003
G1 X91.727 Y93.147 E0.00995
G1 X91.287 Y93.351 E0.01518
G1 X90.989 Y93.451 E0.00988
G1 X90.515 Y93.552 E0.01518
G1 X90.199 Y93.584 E0.00995
G1 X89.880 Y93.588 E0.01003
G1 X89.563 Y93.563 E0.00996
G1 X89.117 Y93.479 E0.01422
G1 X88.784 Y93.378 E0.01092
G1 X88.488 Y93.256 E0.01001
G1 X88.205 Y93.109 E0.01003
G1 X87.935 Y92.937 E0.01003
G1 X87.683 Y92.743 E0.00996
G1 X87.356 Y92.428 E0.01422
G1 X87.133 Y92.161 E0.01092
G1 X86.952 Y91.898 E0.01001
G1 X86.796 Y91.619 E0.01003
G1 X86.664 Y91.327 E0.01003
G1 X86.560 Y91.027 E0.00996
G1 X86.458 Y90.585 E0.01422
G1 X86.418 Y90.239 E0.01092
G1 X86.411 Y89.922 E0.00994
G1 X86.454 Y89.440 E0.01518
G1 X86.517 Y89.129 E0.00995
G1 X86.608 Y88.822 E0.01003
G1 X86.727 Y88.525 E0.01003
G1 X86.870 Y88.242 E0.00996
G1 X87.117 Y87.861 E0.01422
G1 X87.418 Y87.510 E0.01452
M204 S1250
G1 X87.848 Y87.568 F9000.000
G1 X87.685 Y87.759
M204 S800
;TYPE:Gap fill
;WIDTH:0.390362
G1 F1041
G1 X87.810 Y87.633 E0.00513
G1 X88.188 Y87.332 E0.01395
M73 P13 R3
G1 X88.501 Y87.147 E0.01051
G1 X88.814 Y87.002 E0.00996
G1 X89.183 Y86.883 E0.01120
G1 X89.463 Y86.821 E0.00830
G1 X89.743 Y86.786 E0.00814
G1 X90.032 Y86.777 E0.00835
G1 X90.583 Y86.829 E0.01599
G1 X90.937 Y86.915 E0.01053
G1 X91.274 Y87.037 E0.01036
G1 X91.593 Y87.199 E0.01034
G1 X91.878 Y87.378 E0.00972
G1 X92.281 Y87.721 E0.01529
G1 X92.531 Y88.001 E0.01084
G1 X92.694 Y88.230 E0.00812
G1 X92.988 Y88.790 E0.01828
G1 X93.143 Y89.293 E0.01521
G1 X93.203 Y89.633 E0.00996
G1 X93.224 Y89.990 E0.01035
G1 X93.203 Y90.367 E0.01091
G1 X93.146 Y90.713 E0.01011
G1 X92.976 Y91.236 E0.01590
G1 X92.736 Y91.706 E0.01522
G1 X92.538 Y91.988 E0.00996
G1 X92.302 Y92.257 E0.01035
G1 X92.027 Y92.509 E0.01078
G1 X91.795 Y92.679 E0.00830
G1 X91.260 Y92.966 E0.01752
G1 X90.918 Y93.091 E0.01053
G1 X90.583 Y93.169 E0.00996
G1 X90.059 Y93.224 E0.01522
G1 X89.505 Y93.185 E0.01605
G1 X89.167 Y93.115 E0.00996
G1 X88.827 Y93.004 E0.01035
G1 X88.483 Y92.846 E0.01091
G1 X88.188 Y92.668 E0.00996
G1 X87.766 Y92.323 E0.01575
G1 X87.530 Y92.072 E0.00995
G1 X87.316 Y91.788 E0.01027
G1 X87.050 Y91.303 E0.01599
G1 X86.921 Y90.962 E0.01053
G1 X86.837 Y90.624 E0.01004
G1 X86.775 Y90.017 E0.01765
G1 X86.836 Y89.375 E0.01862
G1 X86.928 Y89.020 E0.01060
G1 X87.047 Y88.703 E0.00980
G1 X87.210 Y88.383 E0.01036
G1 X87.411 Y88.076 E0.01061
G1 X87.644 Y87.803 E0.01037
M204 S1250
; stop printing object AvoLedMount2.stl id:0 copy 0
M106 S84.15
;LAYER_CHANGE
;Z:0.3
;HEIGHT:0.1
;BEFORE_LAYER_CHANGE
G92 E0.0
;0.3


G1 E-2.24000 F4200.000
;WIPE_START
G1 F7200.000
G1 X87.810 Y87.633 E-0.13161
G1 X88.188 Y87.332 E-0.26767
G1 X88.501 Y87.147 E-0.20158
G1 X88.814 Y87.002 E-0.19101
G1 X89.020 Y86.935 E-0.12013
;WIPE_END
G1 E-0.04800 F4200.000
G1 Z0.400 F9000.000
;AFTER_LAYER_CHANGE
;0.3
M104 S210 ; set temperature
G1 X88.491 Y82.645
G1 Z0.300
G1 E3.20000 F2400.000
;TYPE:Skirt
;WIDTH:0.42
G1 F988
G1 X90.047 Y82.492 E0.02591
G1 X91.464 Y82.636 E0.02360
G1 X92.944 Y83.094 E0.02568
G1 X94.180 Y83.763 E0.02329
G1 X95.269 Y84.652 E0.02329
G1 X96.250 Y85.840 E0.02553
G1 X96.918 Y87.082 E0.02337
G1 X97.375 Y88.597 E0.02621
G1 X97.508 Y90.000 E0.02337
M73 P14 R3
G1 X97.375 Y91.404 E0.02337
G1 X96.919 Y92.915 E0.02614
G1 X96.252 Y94.157 E0.02337
G1 X95.268 Y95.349 E0.02560
G1 X94.179 Y96.237 E0.02329
G1 X92.943 Y96.907 E0.02329
G1 X91.462 Y97.364 E0.02568
G1 X90.041 Y97.508 E0.02367
G1 X88.485 Y97.354 E0.02591
G1 X87.136 Y96.941 E0.02337
G1 X85.746 Y96.187 E0.02621
G1 X84.667 Y95.286 E0.02329
G1 X83.770 Y94.191 E0.02344
G1 X83.030 Y92.793 E0.02621
G1 X82.631 Y91.441 E0.02337
G1 X82.492 Y89.911 E0.02545
G1 X82.642 Y88.504 E0.02344
G1 X83.050 Y87.159 E0.02329
G1 X83.781 Y85.792 E0.02568
G1 X84.697 Y84.684 E0.02383
G1 X85.906 Y83.706 E0.02575
G1 X87.150 Y83.053 E0.02329
G1 X88.433 Y82.663 E0.02222
G1 X88.543 Y83.022 F9000.000
G1 F988
G1 X90.049 Y82.869 E0.02508
G1 X91.389 Y83.006 E0.02233
M73 P15 R3
G1 X92.800 Y83.442 E0.02447
G1 X93.970 Y84.076 E0.02204
G1 X95.001 Y84.917 E0.02204
G1 X95.938 Y86.053 E0.02440
G1 X96.570 Y87.228 E0.02212
G1 X97.005 Y88.671 E0.02497
G1 X97.131 Y90.000 E0.02211
G1 X97.005 Y91.329 E0.02212
G1 X96.570 Y92.772 E0.02498
G1 X95.938 Y93.948 E0.02211
G1 X95.001 Y95.083 E0.02440
G1 X93.970 Y95.924 E0.02204
G1 X92.796 Y96.560 E0.02212
G1 X91.389 Y96.994 E0.02440
G1 X90.044 Y97.131 E0.02240
G1 X88.561 Y96.984 E0.02469
G1 X87.285 Y96.594 E0.02212
G1 X86.104 Y95.973 E0.02211
G1 X84.935 Y95.020 E0.02498
G1 X84.084 Y93.981 E0.02226
G1 X83.380 Y92.653 E0.02490
G1 X83.001 Y91.369 E0.02219
G1 X82.869 Y89.911 E0.02425
G1 X83.011 Y88.579 E0.02219
G1 X83.399 Y87.302 E0.02211
G1 X84.096 Y86.000 E0.02447
G1 X84.963 Y84.951 E0.02255
M73 P16 R3
G1 X86.115 Y84.020 E0.02454
G1 X87.293 Y83.402 E0.02204
G1 X88.485 Y83.039 E0.02065
G1 X88.595 Y83.398 F9000.000
G1 F988
G1 X90.046 Y83.246 E0.02418
G1 X91.315 Y83.376 E0.02114
G1 X92.653 Y83.789 E0.02319
G1 X93.760 Y84.389 E0.02087
G1 X94.736 Y85.185 E0.02087
G1 X95.624 Y86.262 E0.02313
G1 X96.223 Y87.375 E0.02094
G1 X96.635 Y88.742 E0.02367
G1 X96.754 Y90.000 E0.02094
G1 X96.635 Y91.258 E0.02093
G1 X96.222 Y92.626 E0.02367
G1 X95.624 Y93.739 E0.02094
G1 X94.733 Y94.818 E0.02319
G1 X93.760 Y95.611 E0.02080
G1 X92.652 Y96.211 E0.02087
G1 X91.311 Y96.625 E0.02326
G1 X90.042 Y96.754 E0.02114
G1 X88.633 Y96.614 E0.02346
G1 X87.428 Y96.246 E0.02087
G1 X86.166 Y95.560 E0.02380
G1 X85.200 Y94.752 E0.02087
G1 X84.399 Y93.775 E0.02094
G1 X83.729 Y92.509 E0.02373
G1 X83.372 Y91.301 E0.02087
M73 P17 R3
G1 X83.246 Y89.911 E0.02313
G1 X83.381 Y88.655 E0.02094
G1 X83.746 Y87.449 E0.02087
G1 X84.408 Y86.211 E0.02326
G1 X85.226 Y85.222 E0.02127
G1 X86.321 Y84.336 E0.02333
G1 X87.432 Y83.753 E0.02080
G1 X88.537 Y83.415 E0.01914
G1 X88.647 Y83.774 F9000.000
G1 F988
G1 X90.048 Y83.623 E0.02335
G1 X91.238 Y83.745 E0.01982
G1 X92.509 Y84.138 E0.02205
G1 X93.550 Y84.703 E0.01963
G1 X94.468 Y85.451 E0.01963
G1 X95.313 Y86.474 E0.02199
G1 X95.874 Y87.518 E0.01963
G1 X96.266 Y88.817 E0.02249
G1 X96.377 Y90.000 E0.01969
G1 X96.266 Y91.183 E0.01968
G1 X95.873 Y92.483 E0.02250
G1 X95.313 Y93.526 E0.01963
G1 X94.468 Y94.549 E0.02199
G1 X93.550 Y95.298 E0.01963
G1 X92.508 Y95.862 E0.01963
G1 X91.237 Y96.256 E0.02205
G1 X90.044 Y96.377 E0.01988
G1 X88.704 Y96.244 E0.02230
G1 X87.572 Y95.897 E0.01963
G1 X86.376 Y95.247 E0.02255
G1 X85.468 Y94.487 E0.01963
M73 P18 R3
G1 X84.714 Y93.568 E0.01969
G1 X84.079 Y92.368 E0.02249
G1 X83.742 Y91.229 E0.01969
G1 X83.623 Y89.911 E0.02192
G1 X83.750 Y88.729 E0.01969
G1 X84.093 Y87.596 E0.01963
G1 X84.721 Y86.422 E0.02205
G1 X85.493 Y85.489 E0.02007
G1 X86.530 Y84.650 E0.02211
G1 X87.579 Y84.100 E0.01963
G1 X88.589 Y83.792 E0.01750
; printing object AvoLedMount2.stl id:0 copy 0
G1 E-2.24000 F4200.000
;WIPE_START
G1 F7200.000
G1 X90.048 Y83.623 E-0.81370
G1 X90.225 Y83.641 E-0.09830
;WIPE_END
G1 E-0.04800 F4200.000
G1 Z0.500 F9000.000
G1 X89.442 Y87.379
G1 Z0.300
G1 E3.20000 F2400.000
M204 S800
;TYPE:External perimeter
;WIDTH:0.45
G1 F988
G1 X89.739 Y87.333 E0.00536
G1 X90.034 Y87.320 E0.00525
G1 X90.478 Y87.363 E0.00795
G1 X90.771 Y87.434 E0.00537
G1 X91.051 Y87.535 E0.00531
G1 X91.318 Y87.667 E0.00531
G1 X91.566 Y87.826 E0.00525
G1 X91.905 Y88.116 E0.00795
G1 X92.104 Y88.342 E0.00536
G1 X92.274 Y88.583 E0.00525
G1 X92.479 Y88.983 E0.00801
G1 X92.613 Y89.406 E0.00790
G1 X92.663 Y89.703 E0.00536
G1 X92.679 Y90.000 E0.00531
G1 X92.663 Y90.297 E0.00531
G1 X92.614 Y90.588 E0.00525
G1 X92.479 Y91.017 E0.00801
G1 X92.277 Y91.412 E0.00790
G1 X92.105 Y91.658 E0.00536
G1 X91.907 Y91.882 E0.00531
G1 X91.687 Y92.082 E0.00531
G1 X91.448 Y92.255 E0.00525
G1 X91.051 Y92.465 E0.00801
G1 X90.630 Y92.605 E0.00790
G1 X90.334 Y92.659 E0.00536
G1 X90.034 Y92.680 E0.00536
G1 X89.594 Y92.649 E0.00784
G1 X89.300 Y92.587 E0.00536
G1 X89.017 Y92.493 E0.00531
G1 X88.747 Y92.369 E0.00531
G1 X88.494 Y92.217 E0.00525
