; generated by PrusaSlicer 2.3.0+win64 on 2021-06-27 at 13:35:13 UTC


;
;

;
;
; 

; external perimeters extrusion width = 0.45mm
; perimeters extrusion width = 0.45mm
; infill extrusion width = 0.45mm
; solid infill extrusion width = 0.45mm
; top infill extrusion width = 0.40mm
; first layer extrusion width = 0.42mm

M73 P0 R83
M201 X1250 Y1250 Z400 E5000 ; sets maximum accelerations, mm/sec^2
M203 X180 Y180 Z12 E80 ; sets maximum feedrates, mm/sec
M204 P1250 R1250 T1250 ; sets acceleration (P, T) and retract acceleration (R), mm/sec^2
M205 X8.00 Y8.00 Z2.00 E10.00 ; sets the jerk limits, mm/sec
M205 S0 T0 ; sets the minimum extruding and travel feed rate, mm/sec
M107
;TYPE:Custom
G90 ; use absolute coordinates
M83 ; extruder relative mode
M104 S170 ; set extruder temp for bed leveling
M140 S60 ; set bed temp
M109 R170 ; wait for bed leveling temp
M190 S60 ; wait for bed temp
G28 ; home all without mesh bed level
G29 ; mesh bed leveling 
M104 S215 ; set extruder temp
G92 E0.0
G1 Y-2.0 X179 F2400
G1 Z3 F720
M109 S215 ; wait for extruder temp

; intro line
M73 P0 R82
G1 X170 F1000
G1 Z0.2 F720
G1 X110.0 E8.0 F900
G1 X40.0 E10.0 F700
G92 E0.0

M221 S95 ; set flow
G21 ; set units to millimeters
G90 ; use absolute coordinates
M83 ; use relative distances for extrusion
M900 K0.2 ; Filament gcode LA 1.5
; ; Filament gcode LA 1.0
;LAYER_CHANGE
;Z:0.2
;HEIGHT:0.2
;BEFORE_LAYER_CHANGE
G92 E0.0
;0.2


G1 E-3.20000 F4200.000
G1 Z0.200 F9000.000
;AFTER_LAYER_CHANGE
;0.2
G1 Z0.400
G1 X53.292 Y53.347
G1 Z0.200
G1 E3.20000 F2400.000
M204 S800
;TYPE:Skirt
;WIDTH:0.42
G1 F1200.000
G1 X54.062 Y52.816 E0.02931
G1 X54.976 Y52.623 E0.02931
G1 X125.004 Y52.623 E2.19567
G1 X125.899 Y52.799 E0.02860
G1 X126.662 Y53.300 E0.02860
G1 X127.179 Y54.051 E0.02860
G1 X127.376 Y54.946 E0.02872
G1 X127.377 Y125.023 E2.19722
G1 X127.199 Y125.902 E0.02813
G1 X126.708 Y126.653 E0.02813
G1 X125.928 Y127.188 E0.02966
G1 X125.000 Y127.377 E0.02969
G1 X54.977 Y127.377 E2.19552
G1 X54.098 Y127.199 E0.02813
G1 X53.347 Y126.708 E0.02813
G1 X52.812 Y125.928 E0.02966
G1 X52.623 Y125.000 E0.02969
G1 X52.623 Y54.977 E2.19552
G1 X52.801 Y54.098 E0.02813
G1 X53.259 Y53.397 E0.02625
M204 S1250
; printing object AvoSpeakerMount01.stl id:0 copy 0
G1 E-2.24000 F4200.000
;WIPE_START
G1 F7200.000
G1 X54.062 Y52.816 E-0.54890
G1 X54.703 Y52.681 E-0.36310
;WIPE_END
G1 E-0.04800 F4200.000
G1 Z0.400 F9000.000
G1 X64.213 Y64.213
G1 Z0.200
G1 E3.20000 F2400.000
M204 S800
;TYPE:Perimeter
G1 F1200.000
G1 X115.787 Y64.213 E1.61707
G1 X115.787 Y115.787 E1.61707
G1 X64.213 Y115.787 E1.61707
G1 X64.213 Y64.273 E1.61519
M204 S1250
G1 X64.590 Y64.590 F9000.000
M204 S800
;TYPE:External perimeter
G1 F1200.000
G1 X115.410 Y64.590 E1.59343
G1 X115.410 Y115.410 E1.59343
G1 X64.590 Y115.410 E1.59343
M73 P1 R82
G1 X64.590 Y64.650 E1.59154
M204 S1250
G1 X64.486 Y64.204 F9000.000
G1 E-2.24000 F4200.000
;WIPE_START
G1 F7200.000
G1 X66.236 Y64.648 E-0.91200
;WIPE_END
G1 E-0.04800 F4200.000
G1 Z0.400 F9000.000
G1 X55.787 Y55.787
G1 Z0.200
G1 E3.20000 F2400.000
M204 S800
;TYPE:Perimeter
G1 F1200.000
G1 X124.213 Y55.787 E2.14544
G1 X124.213 Y124.213 E2.14544
G1 X55.787 Y124.213 E2.14544
G1 X55.787 Y55.847 E2.14356
M204 S1250
M73 P1 R81
G1 X55.410 Y55.410 F9000.000
M204 S800
;TYPE:External perimeter
G1 F1200.000
G1 X124.590 Y55.410 E2.16909
G1 X124.590 Y124.590 E2.16909
G1 X55.410 Y124.590 E2.16909
G1 X55.410 Y55.470 E2.16721
M204 S1250
G1 X55.796 Y55.514 F9000.000
G1 E-2.24000 F4200.000
;WIPE_START
G1 F7200.000
G1 X57.056 Y55.469 E-0.91200
;WIPE_END
G1 E-0.04800 F4200.000
G1 Z0.400 F9000.000
G1 X123.335 Y55.900
G1 Z0.200
G1 E3.20000 F2400.000
M204 S800
;TYPE:Solid infill
;WIDTH:0.421359
G1 F1200.000
G1 X123.930 Y56.496 E0.02650
G1 X123.930 Y57.031 E0.01684
G1 X122.969 Y56.070 E0.04276
G1 X122.434 Y56.070 E0.01684
G1 X123.930 Y57.566 E0.06658
G1 X123.930 Y58.101 E0.01684
G1 X121.899 Y56.070 E0.09040
G1 X121.364 Y56.070 E0.01684
G1 X123.930 Y58.636 E0.11422
G1 X123.930 Y59.172 E0.01684
G1 X120.828 Y56.070 E0.13803
G1 X120.293 Y56.070 E0.01684
G1 X123.930 Y59.707 E0.16185
G1 X123.930 Y60.242 E0.01684
G1 X119.758 Y56.070 E0.18567
G1 X119.223 Y56.070 E0.01684
G1 X123.930 Y60.777 E0.20948
G1 X123.930 Y61.312 E0.01684
G1 X118.688 Y56.070 E0.23330
G1 X118.152 Y56.070 E0.01684
G1 X123.930 Y61.848 E0.25712
G1 X123.930 Y62.383 E0.01684
G1 X117.617 Y56.070 E0.28093
G1 X117.082 Y56.070 E0.01684
G1 X123.930 Y62.918 E0.30475
G1 X123.930 Y63.453 E0.01684
G1 X116.547 Y56.070 E0.32857
G1 X116.012 Y56.070 E0.01684
G1 X123.930 Y63.988 E0.35239
G1 X123.930 Y64.524 E0.01684
G1 X115.476 Y56.070 E0.37620
G1 X114.941 Y56.070 E0.01684
G1 X123.930 Y65.059 E0.40002
G1 X123.930 Y65.594 E0.01684
G1 X114.406 Y56.070 E0.42384
G1 X113.871 Y56.070 E0.01684
G1 X123.930 Y66.129 E0.44765
G1 X123.930 Y66.664 E0.01684
G1 X113.336 Y56.070 E0.47147
G1 X112.800 Y56.070 E0.01684
G1 X123.930 Y67.200 E0.49529
G1 X123.930 Y67.735 E0.01684
G1 X112.265 Y56.070 E0.51910
G1 X111.730 Y56.070 E0.01684
G1 X123.930 Y68.270 E0.54292
G1 X123.930 Y68.805 E0.01684
G1 X111.195 Y56.070 E0.56674
G1 X110.660 Y56.070 E0.01684
G1 X123.930 Y69.340 E0.59055
G1 X123.930 Y69.875 E0.01684
G1 X110.124 Y56.070 E0.61437
G1 X109.589 Y56.070 E0.01684
G1 X123.930 Y70.411 E0.63819
G1 X123.930 Y70.946 E0.01684
G1 X109.054 Y56.070 E0.66201
G1 X108.519 Y56.070 E0.01684
G1 X123.930 Y71.481 E0.68582
G1 X123.930 Y72.016 E0.01684
G1 X107.984 Y56.070 E0.70964
M73 P2 R81
G1 X107.449 Y56.070 E0.01684
G1 X115.309 Y63.930 E0.34979
G1 X114.774 Y63.930 E0.01684
G1 X106.913 Y56.070 E0.34979
G1 X106.378 Y56.070 E0.01684
G1 X114.238 Y63.930 E0.34979
G1 X113.703 Y63.930 E0.01684
G1 X105.843 Y56.070 E0.34979
G1 X105.308 Y56.070 E0.01684
G1 X113.168 Y63.930 E0.34979
G1 X112.633 Y63.930 E0.01684
G1 X104.773 Y56.070 E0.34979
G1 X104.237 Y56.070 E0.01684
G1 X112.098 Y63.930 E0.34979
G1 X111.562 Y63.930 E0.01684
G1 X103.702 Y56.070 E0.34979
G1 X103.167 Y56.070 E0.01684
G1 X111.027 Y63.930 E0.34979
G1 X110.492 Y63.930 E0.01684
G1 X102.632 Y56.070 E0.34979
G1 X102.097 Y56.070 E0.01684
G1 X109.957 Y63.930 E0.34979
G1 X109.422 Y63.930 E0.01684
G1 X101.561 Y56.070 E0.34979
G1 X101.026 Y56.070 E0.01684
G1 X108.886 Y63.930 E0.34979
G1 X108.351 Y63.930 E0.01684
G1 X100.491 Y56.070 E0.34979
G1 X99.956 Y56.070 E0.01684
G1 X107.816 Y63.930 E0.34979
G1 X107.281 Y63.930 E0.01684
G1 X99.421 Y56.070 E0.34979
G1 X98.885 Y56.070 E0.01684
G1 X106.746 Y63.930 E0.34979
G1 X106.210 Y63.930 E0.01684
G1 X98.350 Y56.070 E0.34979
G1 X97.815 Y56.070 E0.01684
G1 X105.675 Y63.930 E0.34979
G1 X105.140 Y63.930 E0.01684
G1 X97.280 Y56.070 E0.34979
G1 X96.745 Y56.070 E0.01684
G1 X104.605 Y63.930 E0.34979
G1 X104.070 Y63.930 E0.01684
G1 X96.209 Y56.070 E0.34979
G1 X95.674 Y56.070 E0.01684
G1 X103.535 Y63.930 E0.34979
G1 X102.999 Y63.930 E0.01684
G1 X95.139 Y56.070 E0.34979
G1 X94.604 Y56.070 E0.01684
G1 X102.464 Y63.930 E0.34979
G1 X101.929 Y63.930 E0.01684
G1 X94.069 Y56.070 E0.34979
G1 X93.533 Y56.070 E0.01684
G1 X101.394 Y63.930 E0.34979
G1 X100.859 Y63.930 E0.01684
G1 X92.998 Y56.070 E0.34979
G1 X92.463 Y56.070 E0.01684
G1 X100.323 Y63.930 E0.34979
G1 X99.788 Y63.930 E0.01684
G1 X91.928 Y56.070 E0.34979
G1 X91.393 Y56.070 E0.01684
G1 X99.253 Y63.930 E0.34979
G1 X98.718 Y63.930 E0.01684
G1 X90.858 Y56.070 E0.34979
G1 X90.322 Y56.070 E0.01684
G1 X98.183 Y63.930 E0.34979
G1 X97.647 Y63.930 E0.01684
G1 X89.787 Y56.070 E0.34979
G1 X89.252 Y56.070 E0.01684
G1 X97.112 Y63.930 E0.34979
G1 X96.577 Y63.930 E0.01684
G1 X88.717 Y56.070 E0.34979
G1 X88.182 Y56.070 E0.01684
G1 X96.042 Y63.930 E0.34979
G1 X95.507 Y63.930 E0.01684
G1 X87.646 Y56.070 E0.34979
G1 X87.111 Y56.070 E0.01684
G1 X94.971 Y63.930 E0.34979
G1 X94.436 Y63.930 E0.01684
G1 X86.576 Y56.070 E0.34979
G1 X86.041 Y56.070 E0.01684
G1 X93.901 Y63.930 E0.34979
G1 X93.366 Y63.930 E0.01684
G1 X85.506 Y56.070 E0.34979
G1 X84.970 Y56.070 E0.01684
M73 P2 R80
G1 X92.831 Y63.930 E0.34979
G1 X92.295 Y63.930 E0.01684
G1 X84.435 Y56.070 E0.34979
G1 X83.900 Y56.070 E0.01684
G1 X91.760 Y63.930 E0.34979
G1 X91.225 Y63.930 E0.01684
G1 X83.365 Y56.070 E0.34979
G1 X82.830 Y56.070 E0.01684
G1 X90.690 Y63.930 E0.34979
G1 X90.155 Y63.930 E0.01684
G1 X82.294 Y56.070 E0.34979
G1 X81.759 Y56.070 E0.01684
G1 X89.619 Y63.930 E0.34979
G1 X89.084 Y63.930 E0.01684
G1 X81.224 Y56.070 E0.34979
G1 X80.689 Y56.070 E0.01684
G1 X88.549 Y63.930 E0.34979
G1 X88.014 Y63.930 E0.01684
G1 X80.154 Y56.070 E0.34979
G1 X79.618 Y56.070 E0.01684
G1 X87.479 Y63.930 E0.34979
G1 X86.944 Y63.930 E0.01684
G1 X79.083 Y56.070 E0.34979
G1 X78.548 Y56.070 E0.01684
G1 X86.408 Y63.930 E0.34979
G1 X85.873 Y63.930 E0.01684
G1 X78.013 Y56.070 E0.34979
G1 X77.478 Y56.070 E0.01684
G1 X85.338 Y63.930 E0.34979
G1 X84.803 Y63.930 E0.01684
G1 X76.942 Y56.070 E0.34979
G1 X76.407 Y56.070 E0.01684
G1 X84.268 Y63.930 E0.34979
G1 X83.732 Y63.930 E0.01684
G1 X75.872 Y56.070 E0.34979
G1 X75.337 Y56.070 E0.01684
G1 X83.197 Y63.930 E0.34979
G1 X82.662 Y63.930 E0.01684
G1 X74.802 Y56.070 E0.34979
G1 X74.267 Y56.070 E0.01684
G1 X82.127 Y63.930 E0.34979
G1 X81.592 Y63.930 E0.01684
G1 X73.731 Y56.070 E0.34979
G1 X73.196 Y56.070 E0.01684
G1 X81.056 Y63.930 E0.34979
G1 X80.521 Y63.930 E0.01684
G1 X72.661 Y56.070 E0.34979
G1 X72.126 Y56.070 E0.01684
G1 X79.986 Y63.930 E0.34979
G1 X79.451 Y63.930 E0.01684
G1 X71.591 Y56.070 E0.34979
G1 X71.055 Y56.070 E0.01684
G1 X78.916 Y63.930 E0.34979
G1 X78.380 Y63.930 E0.01684
G1 X70.520 Y56.070 E0.34979
G1 X69.985 Y56.070 E0.01684
G1 X77.845 Y63.930 E0.34979
G1 X77.310 Y63.930 E0.01684
G1 X69.450 Y56.070 E0.34979
G1 X68.915 Y56.070 E0.01684
G1 X76.775 Y63.930 E0.34979
G1 X76.240 Y63.930 E0.01684
G1 X68.379 Y56.070 E0.34979
G1 X67.844 Y56.070 E0.01684
G1 X75.704 Y63.930 E0.34979
G1 X75.169 Y63.930 E0.01684
G1 X67.309 Y56.070 E0.34979
G1 X66.774 Y56.070 E0.01684
G1 X74.634 Y63.930 E0.34979
G1 X74.099 Y63.930 E0.01684
G1 X66.239 Y56.070 E0.34979
G1 X65.703 Y56.070 E0.01684
G1 X73.564 Y63.930 E0.34979
G1 X73.028 Y63.930 E0.01684
G1 X65.168 Y56.070 E0.34979
G1 X64.633 Y56.070 E0.01684
G1 X72.493 Y63.930 E0.34979
G1 X71.958 Y63.930 E0.01684
G1 X64.098 Y56.070 E0.34979
G1 X63.563 Y56.070 E0.01684
G1 X71.423 Y63.930 E0.34979
M73 P3 R80
G1 X70.888 Y63.930 E0.01684
G1 X63.027 Y56.070 E0.34979
G1 X62.492 Y56.070 E0.01684
G1 X70.353 Y63.930 E0.34979
G1 X69.817 Y63.930 E0.01684
G1 X61.957 Y56.070 E0.34979
G1 X61.422 Y56.070 E0.01684
G1 X69.282 Y63.930 E0.34979
G1 X68.747 Y63.930 E0.01684
G1 X60.887 Y56.070 E0.34979
G1 X60.351 Y56.070 E0.01684
G1 X68.212 Y63.930 E0.34979
G1 X67.677 Y63.930 E0.01684
G1 X59.816 Y56.070 E0.34979
G1 X59.281 Y56.070 E0.01684
G1 X67.141 Y63.930 E0.34979
G1 X66.606 Y63.930 E0.01684
G1 X58.746 Y56.070 E0.34979
G1 X58.211 Y56.070 E0.01684
G1 X66.071 Y63.930 E0.34979
G1 X65.536 Y63.930 E0.01684
G1 X57.676 Y56.070 E0.34979
G1 X57.140 Y56.070 E0.01684
G1 X65.001 Y63.930 E0.34979
G1 X64.465 Y63.930 E0.01684
G1 X56.605 Y56.070 E0.34979
G1 X56.070 Y56.070 E0.01684
G1 X63.930 Y63.930 E0.34979
G1 X63.930 Y64.465 E0.01684
G1 X56.070 Y56.605 E0.34979
G1 X56.070 Y57.140 E0.01684
G1 X63.930 Y65.000 E0.34979
G1 X63.930 Y65.536 E0.01684
G1 X56.070 Y57.675 E0.34979
G1 X56.070 Y58.211 E0.01684
G1 X63.930 Y66.071 E0.34979
G1 X63.930 Y66.606 E0.01684
G1 X56.070 Y58.746 E0.34979
G1 X56.070 Y59.281 E0.01684
G1 X63.930 Y67.141 E0.34979
G1 X63.930 Y67.676 E0.01684
G1 X56.070 Y59.816 E0.34979
G1 X56.070 Y60.351 E0.01684
G1 X63.930 Y68.212 E0.34979
G1 X63.930 Y68.747 E0.01684
G1 X56.070 Y60.887 E0.34979
G1 X56.070 Y61.422 E0.01684
G1 X63.930 Y69.282 E0.34979
G1 X63.930 Y69.817 E0.01684
G1 X56.070 Y61.957 E0.34979
G1 X56.070 Y62.492 E0.01684
G1 X63.930 Y70.352 E0.34979
G1 X63.930 Y70.888 E0.01684
G1 X56.070 Y63.027 E0.34979
G1 X56.070 Y63.563 E0.01684
G1 X63.930 Y71.423 E0.34979
G1 X63.930 Y71.958 E0.01684
G1 X56.070 Y64.098 E0.34979
G1 X56.070 Y64.633 E0.01684
G1 X63.930 Y72.493 E0.34979
G1 X63.930 Y73.028 E0.01684
G1 X56.070 Y65.168 E0.34979
G1 X56.070 Y65.703 E0.01684
G1 X63.930 Y73.564 E0.34979
G1 X63.930 Y74.099 E0.01684
G1 X56.070 Y66.238 E0.34979
G1 X56.070 Y66.774 E0.01684
G1 X63.930 Y74.634 E0.34979
G1 X63.930 Y75.169 E0.01684
G1 X56.070 Y67.309 E0.34979
G1 X56.070 Y67.844 E0.01684
G1 X63.930 Y75.704 E0.34979
G1 X63.930 Y76.239 E0.01684
G1 X56.070 Y68.379 E0.34979
G1 X56.070 Y68.914 E0.01684
G1 X63.930 Y76.775 E0.34979
G1 X63.930 Y77.310 E0.01684
G1 X56.070 Y69.450 E0.34979
G1 X56.070 Y69.985 E0.01684
G1 X63.930 Y77.845 E0.34979
G1 X63.930 Y78.380 E0.01684
G1 X56.070 Y70.520 E0.34979
G1 X56.070 Y71.055 E0.01684
G1 X63.930 Y78.915 E0.34979
G1 X63.930 Y79.451 E0.01684
G1 X56.070 Y71.590 E0.34979
G1 X56.070 Y72.126 E0.01684
G1 X63.930 Y79.986 E0.34979
G1 X63.930 Y80.521 E0.01684
G1 X56.070 Y72.661 E0.34979
G1 X56.070 Y73.196 E0.01684
G1 X63.930 Y81.056 E0.34979
G1 X63.930 Y81.591 E0.01684
G1 X56.070 Y73.731 E0.34979
G1 X56.070 Y74.266 E0.01684
G1 X63.930 Y82.127 E0.34979
G1 X63.930 Y82.662 E0.01684
G1 X56.070 Y74.802 E0.34979
G1 X56.070 Y75.337 E0.01684
G1 X63.930 Y83.197 E0.34979
G1 X63.930 Y83.732 E0.01684
G1 X56.070 Y75.872 E0.34979
G1 X56.070 Y76.407 E0.01684
G1 X63.930 Y84.267 E0.34979
G1 X63.930 Y84.803 E0.01684
G1 X56.070 Y76.942 E0.34979
G1 X56.070 Y77.478 E0.01684
G1 X63.930 Y85.338 E0.34979
G1 X63.930 Y85.873 E0.01684
G1 X56.070 Y78.013 E0.34979
G1 X56.070 Y78.548 E0.01684
G1 X63.930 Y86.408 E0.34979
G1 X63.930 Y86.943 E0.01684
G1 X56.070 Y79.083 E0.34979
G1 X56.070 Y79.618 E0.01684
G1 X63.930 Y87.479 E0.34979
G1 X63.930 Y88.014 E0.01684
G1 X56.070 Y80.154 E0.34979
G1 X56.070 Y80.689 E0.01684
G1 X63.930 Y88.549 E0.34979
M73 P3 R79
G1 X63.930 Y89.084 E0.01684
G1 X56.070 Y81.224 E0.34979
G1 X56.070 Y81.759 E0.01684
G1 X63.930 Y89.619 E0.34979
G1 X63.930 Y90.155 E0.01684
G1 X56.070 Y82.294 E0.34979
G1 X56.070 Y82.829 E0.01684
G1 X63.930 Y90.690 E0.34979
G1 X63.930 Y91.225 E0.01684
G1 X56.070 Y83.365 E0.34979
G1 X56.070 Y83.900 E0.01684
G1 X63.930 Y91.760 E0.34979
G1 X63.930 Y92.295 E0.01684
G1 X56.070 Y84.435 E0.34979
G1 X56.070 Y84.970 E0.01684
G1 X63.930 Y92.830 E0.34979
G1 X63.930 Y93.366 E0.01684
G1 X56.070 Y85.505 E0.34979
G1 X56.070 Y86.041 E0.01684
G1 X63.930 Y93.901 E0.34979
G1 X63.930 Y94.436 E0.01684
G1 X56.070 Y86.576 E0.34979
G1 X56.070 Y87.111 E0.01684
G1 X63.930 Y94.971 E0.34979
G1 X63.930 Y95.506 E0.01684
G1 X56.070 Y87.646 E0.34979
G1 X56.070 Y88.181 E0.01684
G1 X63.930 Y96.042 E0.34979
G1 X63.930 Y96.577 E0.01684
G1 X56.070 Y88.717 E0.34979
G1 X56.070 Y89.252 E0.01684
G1 X63.930 Y97.112 E0.34979
G1 X63.930 Y97.647 E0.01684
G1 X56.070 Y89.787 E0.34979
G1 X56.070 Y90.322 E0.01684
G1 X63.930 Y98.182 E0.34979
G1 X63.930 Y98.718 E0.01684
G1 X56.070 Y90.857 E0.34979
G1 X56.070 Y91.393 E0.01684
G1 X63.930 Y99.253 E0.34979
G1 X63.930 Y99.788 E0.01684
G1 X56.070 Y91.928 E0.34979
G1 X56.070 Y92.463 E0.01684
G1 X63.930 Y100.323 E0.34979
G1 X63.930 Y100.858 E0.01684
G1 X56.070 Y92.998 E0.34979
M73 P4 R79
G1 X56.070 Y93.533 E0.01684
G1 X63.930 Y101.394 E0.34979
G1 X63.930 Y101.929 E0.01684
G1 X56.070 Y94.069 E0.34979
G1 X56.070 Y94.604 E0.01684
G1 X63.930 Y102.464 E0.34979
G1 X63.930 Y102.999 E0.01684
G1 X56.070 Y95.139 E0.34979
G1 X56.070 Y95.674 E0.01684
G1 X63.930 Y103.534 E0.34979
G1 X63.930 Y104.070 E0.01684
G1 X56.070 Y96.209 E0.34979
G1 X56.070 Y96.745 E0.01684
G1 X63.930 Y104.605 E0.34979
G1 X63.930 Y105.140 E0.01684
G1 X56.070 Y97.280 E0.34979
G1 X56.070 Y97.815 E0.01684
G1 X63.930 Y105.675 E0.34979
G1 X63.930 Y106.210 E0.01684
G1 X56.070 Y98.350 E0.34979
G1 X56.070 Y98.885 E0.01684
G1 X63.930 Y106.746 E0.34979
G1 X63.930 Y107.281 E0.01684
G1 X56.070 Y99.420 E0.34979
G1 X56.070 Y99.956 E0.01684
G1 X63.930 Y107.816 E0.34979
G1 X63.930 Y108.351 E0.01684
G1 X56.070 Y100.491 E0.34979
G1 X56.070 Y101.026 E0.01684
G1 X63.930 Y108.886 E0.34979
G1 X63.930 Y109.421 E0.01684
G1 X56.070 Y101.561 E0.34979
G1 X56.070 Y102.096 E0.01684
G1 X63.930 Y109.957 E0.34979
G1 X63.930 Y110.492 E0.01684
G1 X56.070 Y102.632 E0.34979
G1 X56.070 Y103.167 E0.01684
G1 X63.930 Y111.027 E0.34979
G1 X63.930 Y111.562 E0.01684
G1 X56.070 Y103.702 E0.34979
G1 X56.070 Y104.237 E0.01684
G1 X63.930 Y112.097 E0.34979
