; generated by PrusaSlicer 2.2.0+win64 on 2020-10-03 at 18:09:17 UTC


;
;

;
;
; 

; external perimeters extrusion width = 0.45mm
; perimeters extrusion width = 0.45mm
; infill extrusion width = 0.45mm
; solid infill extrusion width = 0.45mm
; top infill extrusion width = 0.40mm
; first layer extrusion width = 0.42mm

M73 P0 R39
M201 X1250 Y1250 Z400 E5000 ; sets maximum accelerations, mm/sec^2
M203 X180 Y180 Z12 E80 ; sets maximum feedrates, mm/sec
M204 P1250 R1250 T1250 ; sets acceleration (P, T) and retract acceleration (R), mm/sec^2
M205 X8.00 Y8.00 Z2.00 E10.00 ; sets the jerk limits, mm/sec
M205 S0 T0 ; sets the minimum extruding and travel feed rate, mm/sec
M107
G90 ; use absolute coordinates
M83 ; extruder relative mode
M104 S170 ; set extruder temp for bed leveling
M140 S60 ; set bed temp
M109 R170 ; wait for bed leveling temp
M190 S60 ; wait for bed temp
G28 ; home all without mesh bed level
G29 ; mesh bed leveling 
M104 S215 ; set extruder temp
G92 E0.0
G1 Y-2.0 X179 F2400
G1 Z3 F720
M109 S215 ; wait for extruder temp

; intro line
G1 X170 F1000
G1 Z0.2 F720
G1 X110.0 E8.0 F900
M73 P0 R39
G1 X40.0 E10.0 F700
G92 E0.0

M221 S95 ; set flow
G21 ; set units to millimeters
G90 ; use absolute coordinates
M83 ; use relative distances for extrusion
M900 K0.2 ; Filament gcode LA 1.5
; ; Filament gcode LA 1.0
;BEFORE_LAYER_CHANGE
G92 E0.0
;0.2


G1 Z0.200 F9000.000
;AFTER_LAYER_CHANGE
;0.2
G1 E-3.20000 F4200.00000
G1 Z0.400 F9000.000
G1 X68.166 Y68.167
G1 Z0.200
G1 E3.20000 F2400.00000
M204 S800
G1 F1200.000
G1 X70.461 Y66.091 E0.09703
G1 X72.948 Y64.259 E0.09686
G1 X75.610 Y62.681 E0.09703
G1 X78.389 Y61.389 E0.09609
G1 X80.865 Y60.505 E0.08244
G1 X83.864 Y59.739 E0.09703
G1 X86.909 Y59.278 E0.09656
G1 X89.998 Y59.123 E0.09698
G1 X93.084 Y59.277 E0.09689
G1 X96.125 Y59.737 E0.09643
G1 X99.124 Y60.502 E0.09703
G1 X101.596 Y61.383 E0.08229
G1 X104.384 Y62.678 E0.09638
G1 X107.046 Y64.255 E0.09703
G1 X109.533 Y66.087 E0.09685
G1 X111.833 Y68.166 E0.09721
G1 X113.909 Y70.461 E0.09703
G1 X115.741 Y72.948 E0.09686
G1 X117.319 Y75.610 E0.09703
G1 X118.611 Y78.389 E0.09609
G1 X119.495 Y80.865 E0.08244
G1 X120.261 Y83.864 E0.09703
G1 X120.722 Y86.909 E0.09656
G1 X120.877 Y89.994 E0.09686
G1 X120.723 Y93.084 E0.09701
G1 X120.263 Y96.125 E0.09643
G1 X119.498 Y99.124 E0.09703
G1 X118.617 Y101.596 E0.08229
G1 X117.322 Y104.384 E0.09638
G1 X115.745 Y107.046 E0.09703
G1 X113.913 Y109.533 E0.09685
G1 X111.834 Y111.833 E0.09721
G1 X109.539 Y113.909 E0.09703
G1 X107.063 Y115.734 E0.09643
G1 X104.507 Y117.256 E0.09330
G1 X102.036 Y118.435 E0.08584
G1 X99.149 Y119.491 E0.09638
G1 X96.156 Y120.257 E0.09686
G1 X93.091 Y120.722 E0.09719
G1 X90.006 Y120.877 E0.09686
G1 X86.916 Y120.723 E0.09701
G1 X83.875 Y120.263 E0.09643
G1 X80.876 Y119.498 E0.09703
G1 X78.404 Y118.617 E0.08229
G1 X75.616 Y117.322 E0.09638
G1 X72.954 Y115.745 E0.09703
G1 X70.467 Y113.913 E0.09685
G1 X68.167 Y111.834 E0.09721
G1 X66.091 Y109.539 E0.09703
G1 X64.259 Y107.052 E0.09686
G1 X62.681 Y104.390 E0.09703
G1 X61.389 Y101.611 E0.09609
G1 X60.505 Y99.135 E0.08244
G1 X59.739 Y96.136 E0.09703
G1 X59.278 Y93.091 E0.09656
G1 X59.123 Y90.001 E0.09703
G1 X59.277 Y86.916 E0.09685
G1 X59.737 Y83.875 E0.09643
G1 X60.502 Y80.876 E0.09703
G1 X61.383 Y78.404 E0.08229
G1 X62.678 Y75.616 E0.09638
G1 X64.255 Y72.954 E0.09703
G1 X66.087 Y70.467 E0.09685
G1 X68.126 Y68.212 E0.09533
M204 S1250
G1 E-2.24000 F4200.00000
G1 F7200.000
G1 X69.344 Y67.105 E-0.91200
G1 E-0.04800 F4200.00000
G1 Z0.400 F9000.000
G1 X70.386 Y70.434
G1 Z0.200
G1 E3.20000 F2400.00000
M204 S800
G1 F1200.000
G1 X70.734 Y70.079 E0.01559
G1 X71.757 Y69.139 E0.04356
G1 X72.825 Y68.251 E0.04356
G1 X73.934 Y67.419 E0.04347
G1 X74.698 Y66.895 E0.02905
G1 X75.877 Y66.156 E0.04363
G1 X77.090 Y65.478 E0.04356
G1 X78.335 Y64.862 E0.04356
G1 X79.609 Y64.309 E0.04356
G1 X80.910 Y63.821 E0.04356
G1 X82.233 Y63.398 E0.04356
G1 X83.576 Y63.042 E0.04356
G1 X84.935 Y62.754 E0.04356
G1 X86.306 Y62.535 E0.04356
G1 X87.687 Y62.384 E0.04356
G1 X89.074 Y62.303 E0.04356
G1 X90.460 Y62.291 E0.04347
G1 X91.386 Y62.322 E0.02905
G1 X92.774 Y62.426 E0.04363
G1 X94.152 Y62.600 E0.04356
G1 X95.520 Y62.843 E0.04356
G1 X96.874 Y63.153 E0.04356
G1 X98.211 Y63.532 E0.04356
G1 X99.527 Y63.976 E0.04356
G1 X100.819 Y64.486 E0.04356
G1 X102.084 Y65.060 E0.04356
G1 X103.318 Y65.697 E0.04356
G1 X104.519 Y66.395 E0.04356
G1 X105.684 Y67.152 E0.04356
G1 X106.809 Y67.967 E0.04356
G1 X107.892 Y68.837 E0.04356
G1 X108.930 Y69.760 E0.04356
G1 X109.921 Y70.734 E0.04356
G1 X110.861 Y71.757 E0.04356
G1 X111.749 Y72.825 E0.04356
G1 X112.582 Y73.936 E0.04356
G1 X113.359 Y75.088 E0.04356
G1 X114.077 Y76.278 E0.04356
G1 X114.734 Y77.501 E0.04356
G1 X115.329 Y78.756 E0.04356
G1 X115.860 Y80.037 E0.04347
G1 X116.179 Y80.907 E0.02905
G1 X116.602 Y82.233 E0.04363
G1 X116.958 Y83.576 E0.04356
G1 X117.246 Y84.935 E0.04356
G1 X117.465 Y86.306 E0.04356
G1 X117.616 Y87.687 E0.04356
G1 X117.697 Y89.074 E0.04356
G1 X117.709 Y90.463 E0.04356
G1 X117.651 Y91.851 E0.04356
G1 X117.524 Y93.232 E0.04347
G1 X117.400 Y94.150 E0.02905
G1 X117.157 Y95.520 E0.04363
G1 X116.847 Y96.874 E0.04356
G1 X116.468 Y98.211 E0.04356
G1 X116.024 Y99.527 E0.04356
G1 X115.514 Y100.819 E0.04356
G1 X114.940 Y102.084 E0.04356
G1 X114.303 Y103.318 E0.04356
G1 X113.605 Y104.519 E0.04356
G1 X112.848 Y105.684 E0.04356
G1 X112.033 Y106.809 E0.04356
G1 X111.163 Y107.892 E0.04356
G1 X110.240 Y108.930 E0.04356
G1 X109.266 Y109.921 E0.04356
G1 X108.243 Y110.861 E0.04356
G1 X107.175 Y111.749 E0.04356
G1 X106.064 Y112.582 E0.04356
G1 X104.912 Y113.359 E0.04356
G1 X103.722 Y114.077 E0.04356
G1 X102.499 Y114.734 E0.04356
G1 X101.244 Y115.329 E0.04356
G1 X99.960 Y115.861 E0.04356
G1 X98.652 Y116.328 E0.04356
G1 X97.319 Y116.729 E0.04363
G1 X96.427 Y116.957 E0.02888
G1 X95.065 Y117.246 E0.04363
G1 X93.694 Y117.465 E0.04356
G1 X92.313 Y117.616 E0.04356
G1 X90.926 Y117.697 E0.04356
G1 X89.537 Y117.709 E0.04356
G1 X88.149 Y117.651 E0.04356
G1 X86.768 Y117.524 E0.04347
G1 X85.850 Y117.400 E0.02905
G1 X84.480 Y117.157 E0.04363
G1 X83.126 Y116.847 E0.04356
G1 X81.789 Y116.468 E0.04356
G1 X80.473 Y116.024 E0.04356
G1 X79.181 Y115.514 E0.04356
G1 X77.916 Y114.940 E0.04356
G1 X76.682 Y114.303 E0.04356
G1 X75.481 Y113.605 E0.04356
G1 X74.316 Y112.848 E0.04356
G1 X73.191 Y112.033 E0.04356
G1 X72.108 Y111.163 E0.04356
G1 X71.070 Y110.240 E0.04356
G1 X70.079 Y109.266 E0.04356
G1 X69.139 Y108.243 E0.04356
G1 X68.251 Y107.175 E0.04356
G1 X67.418 Y106.064 E0.04356
G1 X66.641 Y104.912 E0.04356
G1 X65.923 Y103.722 E0.04356
G1 X65.266 Y102.499 E0.04356
G1 X64.671 Y101.244 E0.04356
G1 X64.140 Y99.963 E0.04347
G1 X63.821 Y99.093 E0.02905
G1 X63.398 Y97.767 E0.04363
G1 X63.042 Y96.424 E0.04356
G1 X62.754 Y95.065 E0.04356
G1 X62.535 Y93.694 E0.04356
G1 X62.384 Y92.313 E0.04356
G1 X62.303 Y90.926 E0.04356
G1 X62.291 Y89.537 E0.04356
G1 X62.349 Y88.149 E0.04356
G1 X62.476 Y86.768 E0.04347
G1 X62.600 Y85.850 E0.02905
G1 X62.843 Y84.480 E0.04363
G1 X63.153 Y83.126 E0.04356
G1 X63.532 Y81.789 E0.04356
G1 X63.976 Y80.473 E0.04356
G1 X64.486 Y79.181 E0.04356
G1 X65.060 Y77.916 E0.04356
G1 X65.697 Y76.682 E0.04356
G1 X66.395 Y75.481 E0.04356
G1 X67.152 Y74.316 E0.04356
G1 X67.967 Y73.191 E0.04356
G1 X68.837 Y72.108 E0.04356
G1 X69.760 Y71.070 E0.04356
G1 X70.344 Y70.477 E0.02608
M204 S1250
G1 X70.075 Y70.212 F9000.000
M204 S800
G1 F1200.000
G1 X70.472 Y69.808 E0.01777
G1 X71.508 Y68.855 E0.04415
G1 X72.591 Y67.955 E0.04415
G1 X73.714 Y67.113 E0.04401
G1 X74.491 Y66.580 E0.02954
G1 X75.685 Y65.831 E0.04418
G1 X76.914 Y65.144 E0.04415
G1 X78.176 Y64.520 E0.04415
G1 X79.468 Y63.959 E0.04415
G1 X80.786 Y63.464 E0.04415
G1 X82.127 Y63.036 E0.04415
G1 X83.488 Y62.675 E0.04415
G1 X84.866 Y62.383 E0.04415
G1 X86.256 Y62.161 E0.04415
G1 X87.656 Y62.008 E0.04415
G1 X89.061 Y61.926 E0.04415
G1 X90.465 Y61.914 E0.04401
G1 X91.407 Y61.945 E0.02954
G1 X92.812 Y62.051 E0.04418
G1 X94.209 Y62.227 E0.04415
G1 X95.595 Y62.473 E0.04415
G1 X96.968 Y62.788 E0.04415
G1 X98.322 Y63.171 E0.04415
G1 X99.656 Y63.622 E0.04415
G1 X100.966 Y64.139 E0.04415
G1 X102.248 Y64.721 E0.04415
G1 X103.500 Y65.367 E0.04415
G1 X104.717 Y66.074 E0.04415
G1 X105.897 Y66.841 E0.04415
G1 X107.038 Y67.667 E0.04415
G1 X108.136 Y68.549 E0.04415
G1 X109.188 Y69.485 E0.04415
G1 X110.192 Y70.472 E0.04415
G1 X111.145 Y71.508 E0.04415
G1 X112.045 Y72.591 E0.04415
G1 X112.890 Y73.718 E0.04415
G1 X113.677 Y74.885 E0.04415
G1 X114.404 Y76.091 E0.04415
G1 X115.071 Y77.331 E0.04415
G1 X115.674 Y78.603 E0.04415
G1 X116.211 Y79.900 E0.04401
G1 X116.535 Y80.785 E0.02954
G1 X116.964 Y82.127 E0.04418
G1 X117.325 Y83.488 E0.04415
G1 X117.617 Y84.866 E0.04415
G1 X117.839 Y86.256 E0.04415
G1 X117.992 Y87.656 E0.04415
G1 X118.074 Y89.061 E0.04415
G1 X118.086 Y90.469 E0.04415
G1 X118.027 Y91.876 E0.04415
G1 X117.898 Y93.274 E0.04401
G1 X117.773 Y94.208 E0.02954
G1 X117.527 Y95.595 E0.04418
G1 X117.212 Y96.968 E0.04415
G1 X116.829 Y98.322 E0.04415
G1 X116.378 Y99.656 E0.04415
G1 X115.861 Y100.966 E0.04415
G1 X115.279 Y102.248 E0.04415
G1 X114.633 Y103.500 E0.04415
G1 X113.926 Y104.717 E0.04415
G1 X113.159 Y105.897 E0.04415
G1 X112.333 Y107.038 E0.04415
G1 X111.451 Y108.136 E0.04415
G1 X110.515 Y109.188 E0.04415
G1 X109.528 Y110.192 E0.04415
G1 X108.492 Y111.145 E0.04415
G1 X107.409 Y112.045 E0.04415
G1 X106.282 Y112.890 E0.04415
G1 X105.115 Y113.677 E0.04415
G1 X103.909 Y114.404 E0.04415
G1 X102.669 Y115.071 E0.04415
G1 X101.397 Y115.674 E0.04415
G1 X100.096 Y116.213 E0.04415
G1 X98.770 Y116.686 E0.04415
G1 X97.420 Y117.092 E0.04418
G1 X96.513 Y117.325 E0.02938
G1 X95.134 Y117.617 E0.04418
G1 X93.744 Y117.839 E0.04415
G1 X92.344 Y117.992 E0.04415
G1 X90.939 Y118.074 E0.04415
G1 X89.531 Y118.086 E0.04415
G1 X88.124 Y118.027 E0.04415
G1 X86.726 Y117.898 E0.04401
G1 X85.792 Y117.773 E0.02954
G1 X84.405 Y117.527 E0.04418
G1 X83.032 Y117.212 E0.04415
G1 X81.678 Y116.829 E0.04415
G1 X80.344 Y116.378 E0.04415
G1 X79.034 Y115.861 E0.04415
G1 X77.752 Y115.279 E0.04415
G1 X76.500 Y114.633 E0.04415
G1 X75.283 Y113.926 E0.04415
G1 X74.103 Y113.159 E0.04415
G1 X72.962 Y112.333 E0.04415
G1 X71.864 Y111.451 E0.04415
G1 X70.812 Y110.515 E0.04415
G1 X69.808 Y109.528 E0.04415
G1 X68.855 Y108.492 E0.04415
G1 X67.955 Y107.409 E0.04415
G1 X67.110 Y106.282 E0.04415
G1 X66.323 Y105.115 E0.04415
G1 X65.596 Y103.909 E0.04415
G1 X64.929 Y102.669 E0.04415
G1 X64.326 Y101.397 E0.04415
G1 X63.789 Y100.100 E0.04401
G1 X63.465 Y99.215 E0.02954
G1 X63.036 Y97.873 E0.04418
G1 X62.675 Y96.512 E0.04415
G1 X62.383 Y95.134 E0.04415
G1 X62.161 Y93.744 E0.04415
G1 X62.008 Y92.344 E0.04415
G1 X61.926 Y90.939 E0.04415
G1 X61.914 Y89.531 E0.04415
G1 X61.973 Y88.124 E0.04415
G1 X62.102 Y86.726 E0.04401
G1 X62.227 Y85.792 E0.02954
G1 X62.473 Y84.405 E0.04418
G1 X62.788 Y83.032 E0.04415
G1 X63.171 Y81.678 E0.04415
G1 X63.622 Y80.344 E0.04415
G1 X64.139 Y79.034 E0.04415
G1 X64.721 Y77.752 E0.04415
G1 X65.367 Y76.500 E0.04415
G1 X66.074 Y75.283 E0.04415
G1 X66.841 Y74.103 E0.04415
G1 X67.667 Y72.962 E0.04415
G1 X68.549 Y71.864 E0.04415
G1 X69.485 Y70.812 E0.04415
G1 X70.033 Y70.255 E0.02450
M204 S1250
G1 X70.463 Y70.309 F9000.000
G1 E-2.24000 F4200.00000
G1 F7200.000
G1 X70.472 Y69.808 E-0.34733
G1 X71.222 Y69.119 E-0.56467
G1 E-0.04800 F4200.00000
G1 Z0.400 F9000.000
G1 X111.560 Y72.774
G1 Z0.200
G1 E3.20000 F2400.00000
M204 S800
G1 F1200.000
G1 X108.737 Y69.967 E0.12523
G1 X107.709 Y69.053 E0.04325
G1 X106.638 Y68.192 E0.04325
G1 X105.931 Y67.680 E0.02746
G1 X112.354 Y74.103 E0.28572
G1 X113.120 Y75.240 E0.04314
G1 X113.371 Y75.655 E0.01525
G1 X104.325 Y66.609 E0.40241
G1 X103.066 Y65.885 E0.04568
G1 X114.101 Y76.921 E0.49089
G1 X114.482 Y77.629 E0.02528
G1 X114.669 Y78.023 E0.01373
G1 X101.961 Y65.315 E0.56528
G1 X100.981 Y64.871 E0.03384
G1 X115.134 Y79.023 E0.62956
G1 X115.512 Y79.937 E0.03110
G1 X100.070 Y64.495 E0.68690
G1 X99.207 Y64.167 E0.02904
G1 X115.837 Y80.796 E0.73972
G1 X116.102 Y81.596 E0.02651
G1 X98.399 Y63.894 E0.78745
G1 X97.632 Y63.662 E0.02520
G1 X116.348 Y82.377 E0.83251
G1 X116.540 Y83.105 E0.02368
G1 X96.886 Y63.451 E0.87427
G1 X96.186 Y63.286 E0.02262
G1 X116.720 Y83.820 E0.91342
G1 X116.864 Y84.499 E0.02183
G1 X95.492 Y63.126 E0.95070
G1 X94.840 Y63.009 E0.02084
G1 X116.996 Y85.166 E0.98559
G1 X117.098 Y85.803 E0.02029
G1 X94.190 Y62.894 E1.01905
G1 X93.573 Y62.812 E0.01957
G1 X117.195 Y86.434 E1.05077
G1 X117.260 Y87.035 E0.01900
G1 X92.961 Y62.735 E1.08091
G1 X92.371 Y62.680 E0.01865
G1 X117.326 Y87.635 E1.11009
G1 X117.363 Y88.207 E0.01804
G1 X91.792 Y62.636 E1.13748
G1 X91.220 Y62.599 E0.01802
G1 X117.396 Y88.776 E1.16440
M73 P3 R38
G1 X117.417 Y89.331 E0.01747
G1 X90.667 Y62.581 E1.18991
G1 X90.128 Y62.577 E0.01696
G1 X117.421 Y89.870 E1.21409
G1 X117.426 Y90.410 E0.01697
G1 X89.597 Y62.581 E1.23789
G1 X89.067 Y62.586 E0.01666
G1 X117.406 Y90.925 E1.26060
G1 X117.385 Y91.439 E0.01617
G1 X88.562 Y62.616 E1.28213
G1 X88.057 Y62.646 E0.01592
G1 X117.358 Y91.947 E1.30341
G1 X117.313 Y92.437 E0.01547
G1 X87.559 Y62.682 E1.32356
G1 X87.076 Y62.735 E0.01526
G1 X117.268 Y92.927 E1.34301
G1 X117.215 Y93.408 E0.01525
G1 X86.594 Y62.788 E1.36210
G1 X86.122 Y62.850 E0.01498
G1 X117.151 Y93.880 E1.38028
G1 X117.079 Y94.343 E0.01473
G1 X85.661 Y62.924 E1.39758
G1 X85.199 Y62.998 E0.01469
G1 X116.998 Y94.797 E1.41451
G1 X116.918 Y95.251 E0.01452
G1 X84.749 Y63.083 E1.43097
G1 X84.307 Y63.176 E0.01419
G1 X116.827 Y95.696 E1.44656
G1 X116.727 Y96.131 E0.01404
G1 X83.866 Y63.270 E1.46175
G1 X83.434 Y63.372 E0.01398
G1 X116.627 Y96.566 E1.47654
G1 X116.519 Y96.993 E0.01385
G1 X83.011 Y63.484 E1.49055
G1 X82.588 Y63.596 E0.01376
G1 X116.401 Y97.410 E1.50411
G1 X116.283 Y97.827 E0.01363
G1 X82.171 Y63.715 E1.51741
G1 X81.766 Y63.844 E0.01339
G1 X116.160 Y98.239 E1.52998
G1 X116.025 Y98.639 E0.01328
G1 X81.360 Y63.974 E1.54201
G1 X80.957 Y64.105 E0.01335
G1 X115.890 Y99.039 E1.55395
G1 X115.755 Y99.438 E0.01327
G1 X80.568 Y64.251 E1.56522
G1 X80.179 Y64.397 E0.01307
G1 X115.603 Y99.822 E1.57579
G1 X115.452 Y100.205 E0.01297
G1 X79.790 Y64.543 E1.58635
G1 X79.414 Y64.702 E0.01284
G1 X115.300 Y100.589 E1.59635
G1 X115.138 Y100.962 E0.01279
G1 X79.041 Y64.864 E1.60573
M73 P5 R37
G1 X78.668 Y65.026 E0.01279
G1 X114.971 Y101.330 E1.61489
G1 X114.804 Y101.697 E0.01271
G1 X78.301 Y65.194 E1.62377
G1 X77.943 Y65.371 E0.01256
G1 X114.633 Y102.061 E1.63207
G1 X114.451 Y102.414 E0.01249
G1 X77.585 Y65.548 E1.63989
G1 X77.227 Y65.726 E0.01256
G1 X114.269 Y102.767 E1.64771
G1 X114.087 Y103.120 E0.01249
G1 X76.884 Y65.917 E1.65489
G1 X76.541 Y66.109 E0.01237
G1 X113.893 Y103.461 E1.66152
G1 X113.696 Y103.799 E0.01231
G1 X76.198 Y66.301 E1.66804
G1 X75.861 Y66.499 E0.01229
G1 X113.500 Y104.138 E1.67425
G1 X113.299 Y104.471 E0.01226
G1 X75.533 Y66.706 E1.67994
G1 X75.204 Y66.912 E0.01221
G1 X113.088 Y104.796 E1.68519
G1 X112.877 Y105.120 E0.01216
G1 X74.875 Y67.118 E1.69045
G1 X74.557 Y67.335 E0.01211
G1 X112.666 Y105.444 E1.69521
G1 X112.445 Y105.758 E0.01207
G1 X74.240 Y67.553 E1.69948
G1 X73.929 Y67.777 E0.01205
G1 X112.220 Y106.068 E1.70331
G1 X111.996 Y106.378 E0.01205
G1 X73.623 Y68.006 E1.70692
G1 X73.318 Y68.235 E0.01202
G1 X111.769 Y106.686 E1.71042
G1 X111.530 Y106.983 E0.01197
G1 X73.012 Y68.465 E1.71342
G1 X72.719 Y68.707 E0.01195
G1 X111.292 Y107.280 E1.71584
G1 X111.054 Y107.576 E0.01197
G1 X72.427 Y68.950 E1.71823
G1 X72.135 Y69.192 E0.01195
G1 X110.808 Y107.866 E1.72029
G1 X110.556 Y108.149 E0.01192
G1 X71.847 Y69.440 E1.72188
G1 X71.569 Y69.696 E0.01191
G1 X110.304 Y108.432 E1.72308
M73 P8 R36
G1 X110.053 Y108.715 E0.01192
G1 X71.290 Y69.953 E1.72427
G1 X71.011 Y70.209 E0.01191
G1 X109.788 Y108.986 E1.72491
G1 X109.523 Y109.256 E0.01190
G1 X70.742 Y70.475 E1.72509
G1 X70.477 Y70.744 E0.01190
G1 X109.258 Y109.525 E1.72509
G1 X108.989 Y109.791 E0.01190
G1 X70.212 Y71.014 E1.72491
G1 X69.948 Y71.285 E0.01190
G1 X108.710 Y110.047 E1.72427
G1 X108.431 Y110.304 E0.01191
G1 X69.696 Y71.568 E1.72308
G1 X69.444 Y71.851 E0.01192
G1 X108.153 Y110.560 E1.72188
G1 X107.865 Y110.807 E0.01193
G1 X69.192 Y72.134 E1.72029
