; generated by PrusaSlicer 2.2.0+win64 on 2020-10-12 at 11:51:34 UTC


;
;

;
;
; 

; external perimeters extrusion width = 0.45mm
; perimeters extrusion width = 0.45mm
; infill extrusion width = 0.45mm
; solid infill extrusion width = 0.45mm
; top infill extrusion width = 0.40mm
; first layer extrusion width = 0.42mm

M73 P0 R49
M201 X1250 Y1250 Z400 E5000 ; sets maximum accelerations, mm/sec^2
M203 X180 Y180 Z12 E80 ; sets maximum feedrates, mm/sec
M204 P1250 R1250 T1250 ; sets acceleration (P, T) and retract acceleration (R), mm/sec^2
M205 X8.00 Y8.00 Z2.00 E10.00 ; sets the jerk limits, mm/sec
M205 S0 T0 ; sets the minimum extruding and travel feed rate, mm/sec
M107
G90 ; use absolute coordinates
M83 ; extruder relative mode
M104 S170 ; set extruder temp for bed leveling
M140 S60 ; set bed temp
M109 R170 ; wait for bed leveling temp
M190 S60 ; wait for bed temp
G28 ; home all without mesh bed level
G29 ; mesh bed leveling 
M104 S215 ; set extruder temp
G92 E0.0
G1 Y-2.0 X179 F2400
G1 Z3 F720
M109 S215 ; wait for extruder temp

; intro line
G1 X170 F1000
G1 Z0.2 F720
G1 X110.0 E8.0 F900
M73 P0 R48
G1 X40.0 E10.0 F700
G92 E0.0

M221 S95 ; set flow
G21 ; set units to millimeters
G90 ; use absolute coordinates
M83 ; use relative distances for extrusion
M900 K0.2 ; Filament gcode LA 1.5
; ; Filament gcode LA 1.0
;BEFORE_LAYER_CHANGE
G92 E0.0
;0.2


G1 Z0.200 F9000.000
;AFTER_LAYER_CHANGE
;0.2
G1 E-3.20000 F4200.00000
G1 Z0.400 F9000.000
G1 X60.614 Y81.026
G1 Z0.200
G1 E3.20000 F2400.00000
M204 S800
G1 F1200.000
G1 X61.298 Y80.725 E0.02343
G1 X61.897 Y80.648 E0.01894
G1 X118.104 Y80.648 E1.76233
G1 X118.610 Y80.703 E0.01597
G1 X119.090 Y80.864 E0.01585
G1 X119.528 Y81.124 E0.01597
G1 X119.897 Y81.469 E0.01585
G1 X126.009 Y89.558 E0.31788
G1 X126.332 Y90.156 E0.02130
G1 X126.477 Y90.935 E0.02484
G1 X126.449 Y97.339 E0.20080
G1 X126.271 Y97.944 E0.01977
G1 X125.940 Y98.480 E0.01977
G1 X125.479 Y98.911 E0.01977
G1 X124.922 Y99.206 E0.01977
G1 X124.105 Y99.352 E0.02602
G1 X55.847 Y99.351 E2.14019
G1 X55.097 Y99.212 E0.02390
G1 X54.427 Y98.841 E0.02402
G1 X53.910 Y98.276 E0.02402
G1 X53.601 Y97.579 E0.02390
G1 X53.523 Y97.003 E0.01823
G1 X53.523 Y90.933 E0.19031
G1 X53.737 Y89.989 E0.03036
G1 X53.995 Y89.554 E0.01585
G1 X60.059 Y81.521 E0.31557
G1 X60.569 Y81.066 E0.02143
M204 S1250
G1 E-2.24000 F4200.00000
G1 F7200.000
G1 X61.298 Y80.725 E-0.44584
G1 X61.897 Y80.648 E-0.33471
G1 X62.134 Y80.648 E-0.13144
G1 E-0.04800 F4200.00000
G1 Z0.400 F9000.000
G1 X62.687 Y83.812
G1 Z0.200
G1 E3.20000 F2400.00000
M204 S800
G1 F1200.000
G1 X117.313 Y83.812 E1.71275
G1 X117.313 Y91.762 E0.24927
G1 X123.319 Y91.762 E0.18832
G1 X123.343 Y92.298 E0.01684
G1 X122.648 Y92.222 E0.02193
G1 X122.117 Y92.193 E0.01669
G1 X118.313 Y92.187 E0.11926
G1 X118.313 Y95.763 E0.11213
G1 X122.117 Y95.757 E0.11926
G1 X122.648 Y95.728 E0.01669
G1 X123.343 Y95.652 E0.02193
G1 X123.319 Y96.188 E0.01684
G1 X56.681 Y96.188 E2.08940
G1 X56.657 Y95.652 E0.01684
G1 X57.352 Y95.728 E0.02193
G1 X57.883 Y95.757 E0.01669
G1 X61.687 Y95.763 E0.11926
G1 X61.687 Y92.188 E0.11210
G1 X57.882 Y92.193 E0.11929
G1 X57.352 Y92.222 E0.01666
G1 X56.657 Y92.298 E0.02193
G1 X56.681 Y91.762 E0.01684
G1 X62.687 Y91.762 E0.18832
G1 X62.687 Y83.872 E0.24739
M204 S1250
G1 E-2.24000 F4200.00000
G1 F7200.000
G1 X64.333 Y83.870 E-0.91200
G1 E-0.04800 F4200.00000
G1 Z0.400 F9000.000
G1 X118.690 Y92.565
G1 Z0.200
G1 E3.20000 F2400.00000
M204 S800
G1 F1200.000
G1 X122.106 Y92.570 E0.10710
G1 X122.617 Y92.598 E0.01605
G1 X123.411 Y92.685 E0.02505
G1 X123.411 Y95.265 E0.08088
G1 X122.617 Y95.352 E0.02505
G1 X122.106 Y95.380 E0.01605
G1 X118.690 Y95.385 E0.10710
G1 X118.690 Y92.625 E0.08656
M204 S1250
G1 X118.575 Y92.182 F9000.000
G1 E-2.24000 F4200.00000
G1 F7200.000
G1 X120.336 Y92.598 E-0.91200
G1 E-0.04800 F4200.00000
G1 Z0.400 F9000.000
G1 X61.310 Y92.625
G1 Z0.200
G1 E3.20000 F2400.00000
M204 S800
G1 F1200.000
G1 X61.310 Y95.385 E0.08656
G1 X57.894 Y95.380 E0.10710
G1 X57.383 Y95.352 E0.01605
G1 X56.589 Y95.265 E0.02505
G1 X56.589 Y92.685 E0.08088
G1 X57.383 Y92.598 E0.02505
G1 X57.894 Y92.570 E0.01604
G1 X61.310 Y92.565 E0.10710
M204 S1250
G1 X61.710 Y92.626 F9000.000
G1 E-2.24000 F4200.00000
G1 F7200.000
G1 X61.310 Y94.211 E-0.91200
G1 E-0.04800 F4200.00000
G1 Z0.400 F9000.000
G1 X117.690 Y91.385
G1 Z0.200
G1 E3.20000 F2400.00000
M204 S800
G1 F1200.000
G1 X123.692 Y91.385 E0.18820
G1 X123.698 Y91.905 E0.01632
G1 X123.726 Y92.379 E0.01487
G1 X123.783 Y92.836 E0.01443
G1 X123.789 Y93.284 E0.01405
G1 X123.783 Y95.115 E0.05744
G1 X123.726 Y95.571 E0.01440
G1 X123.692 Y96.565 E0.03118
G1 X56.308 Y96.565 E2.11281
G1 X56.302 Y96.045 E0.01632
G1 X56.274 Y95.571 E0.01487
G1 X56.217 Y95.114 E0.01443
G1 X56.211 Y94.666 E0.01405
G1 X56.217 Y92.835 E0.05744
G1 X56.274 Y92.379 E0.01440
G1 X56.308 Y91.385 E0.03118
G1 X62.310 Y91.385 E0.18820
G1 X62.310 Y83.435 E0.24927
G1 X117.690 Y83.435 E1.73640
G1 X117.690 Y91.325 E0.24739
M204 S1250
G1 X117.873 Y91.741 F9000.000
G1 X117.200 Y91.661
M204 S800
G1 F1200.000
G1 X109.634 Y84.095 E0.33729
G1 X110.170 Y84.095 E0.01690
G1 X117.030 Y90.955 E0.30582
G1 X117.030 Y90.419 E0.01690
G1 X110.706 Y84.095 E0.28192
G1 X111.242 Y84.095 E0.01690
G1 X117.030 Y89.883 E0.25803
G1 X117.030 Y89.347 E0.01690
G1 X111.778 Y84.095 E0.23413
G1 X112.314 Y84.095 E0.01690
G1 X117.030 Y88.811 E0.21023
G1 X117.030 Y88.275 E0.01690
G1 X112.850 Y84.095 E0.18633
G1 X113.386 Y84.095 E0.01690
G1 X117.030 Y87.739 E0.16243
G1 X117.030 Y87.203 E0.01690
G1 X113.922 Y84.095 E0.13853
G1 X114.459 Y84.095 E0.01690
G1 X117.030 Y86.666 E0.11464
G1 X117.030 Y86.130 E0.01690
G1 X114.995 Y84.095 E0.09074
G1 X115.531 Y84.095 E0.01690
G1 X117.030 Y85.594 E0.06684
G1 X117.030 Y85.058 E0.01690
G1 X116.067 Y84.095 E0.04294
G1 X116.603 Y84.095 E0.01690
G1 X117.200 Y84.692 E0.02661
M204 S1250
G1 E-2.24000 F4200.00000
G1 F7200.000
G1 X116.603 Y84.095 E-0.46775
G1 X116.067 Y84.095 E-0.29709
G1 X116.255 Y84.283 E-0.14716
G1 E-0.04800 F4200.00000
G1 Z0.400 F9000.000
G1 X119.846 Y95.974
G1 Z0.200
G1 E3.20000 F2400.00000
M204 S800
G1 F1200.000
G1 X122.123 Y95.972 E0.01026
M204 S1250
M204 S800
G1 X122.668 Y95.957 E0.00381
M204 S1250
M204 S800
G1 X123.138 Y95.932 E0.00502
M204 S1250
G1 E-2.24000 F4200.00000
G1 F7200.000
G1 X122.668 Y95.957 E-0.26072
G1 E-0.69928 F4200.00000
G1 Z0.400 F9000.000
G1 X123.138 Y92.018
G1 Z0.200
G1 E3.20000 F2400.00000
M204 S800
G1 F1200.000
G1 X122.668 Y91.993 E0.00502
M204 S1250
M204 S800
G1 X122.123 Y91.978 E0.00381
M204 S1250
M204 S800
G1 X119.854 Y91.976 E0.01022
M204 S1250
G1 E-2.24000 F4200.00000
G1 F7200.000
G1 X121.500 Y91.977 E-0.91200
G1 E-0.04800 F4200.00000
G1 Z0.400 F9000.000
G1 X117.414 Y91.875
G1 Z0.200
G1 E3.20000 F2400.00000
M204 S800
G1 F1200.000
G1 X118.200 Y92.661 E0.03504
M204 S1250
G1 X118.200 Y93.197 F9000.000
M204 S800
G1 F1200.000
G1 X109.097 Y84.095 E0.40576
G1 X108.561 Y84.095 E0.01690
G1 X118.030 Y93.564 E0.42210
G1 X118.030 Y94.100 E0.01690
G1 X108.025 Y84.095 E0.44599
G1 X107.489 Y84.095 E0.01690
G1 X118.030 Y94.636 E0.46989
G1 X118.030 Y95.172 E0.01690
G1 X106.953 Y84.095 E0.49379
G1 X106.417 Y84.095 E0.01690
G1 X118.030 Y95.708 E0.51769
G1 X118.030 Y95.905 E0.00621
G1 X117.691 Y95.905 E0.01069
G1 X105.881 Y84.095 E0.52647
G1 X105.345 Y84.095 E0.01690
G1 X117.155 Y95.905 E0.52647
G1 X116.619 Y95.905 E0.01690
G1 X104.809 Y84.095 E0.52647
G1 X104.272 Y84.095 E0.01690
G1 X116.083 Y95.905 E0.52647
G1 X115.547 Y95.905 E0.01690
G1 X103.736 Y84.095 E0.52647
G1 X103.200 Y84.095 E0.01690
G1 X115.011 Y95.905 E0.52647
G1 X114.474 Y95.905 E0.01690
G1 X102.664 Y84.095 E0.52647
G1 X102.128 Y84.095 E0.01690
G1 X113.938 Y95.905 E0.52647
G1 X113.402 Y95.905 E0.01690
G1 X101.592 Y84.095 E0.52647
G1 X101.056 Y84.095 E0.01690
G1 X112.866 Y95.905 E0.52647
G1 X112.330 Y95.905 E0.01690
G1 X100.520 Y84.095 E0.52647
G1 X99.984 Y84.095 E0.01690
G1 X111.794 Y95.905 E0.52647
G1 X111.258 Y95.905 E0.01690
G1 X99.447 Y84.095 E0.52647
G1 X98.911 Y84.095 E0.01690
G1 X110.722 Y95.905 E0.52647
M73 P2 R47
G1 X110.186 Y95.905 E0.01690
G1 X98.375 Y84.095 E0.52647
G1 X97.839 Y84.095 E0.01690
G1 X109.649 Y95.905 E0.52647
G1 X109.113 Y95.905 E0.01690
G1 X97.303 Y84.095 E0.52647
G1 X96.767 Y84.095 E0.01690
G1 X108.577 Y95.905 E0.52647
G1 X108.041 Y95.905 E0.01690
G1 X96.231 Y84.095 E0.52647
G1 X95.695 Y84.095 E0.01690
G1 X107.505 Y95.905 E0.52647
G1 X106.969 Y95.905 E0.01690
G1 X95.159 Y84.095 E0.52647
G1 X94.623 Y84.095 E0.01690
G1 X106.433 Y95.905 E0.52647
G1 X105.897 Y95.905 E0.01690
G1 X94.086 Y84.095 E0.52647
G1 X93.550 Y84.095 E0.01690
G1 X105.361 Y95.905 E0.52647
G1 X104.824 Y95.905 E0.01690
G1 X93.014 Y84.095 E0.52647
G1 X92.478 Y84.095 E0.01690
G1 X104.288 Y95.905 E0.52647
G1 X103.752 Y95.905 E0.01690
G1 X91.942 Y84.095 E0.52647
G1 X91.406 Y84.095 E0.01690
G1 X103.216 Y95.905 E0.52647
G1 X102.680 Y95.905 E0.01690
G1 X90.870 Y84.095 E0.52647
G1 X90.334 Y84.095 E0.01690
G1 X102.144 Y95.905 E0.52647
G1 X101.608 Y95.905 E0.01690
G1 X89.798 Y84.095 E0.52647
G1 X89.261 Y84.095 E0.01690
G1 X101.072 Y95.905 E0.52647
G1 X100.536 Y95.905 E0.01690
G1 X88.725 Y84.095 E0.52647
G1 X88.189 Y84.095 E0.01690
G1 X99.999 Y95.905 E0.52647
G1 X99.463 Y95.905 E0.01690
G1 X87.653 Y84.095 E0.52647
G1 X87.117 Y84.095 E0.01690
G1 X98.927 Y95.905 E0.52647
G1 X98.391 Y95.905 E0.01690
G1 X86.581 Y84.095 E0.52647
G1 X86.045 Y84.095 E0.01690
G1 X97.855 Y95.905 E0.52647
G1 X97.319 Y95.905 E0.01690
G1 X85.509 Y84.095 E0.52647
G1 X84.973 Y84.095 E0.01690
G1 X96.783 Y95.905 E0.52647
G1 X96.247 Y95.905 E0.01690
G1 X84.436 Y84.095 E0.52647
G1 X83.900 Y84.095 E0.01690
G1 X95.711 Y95.905 E0.52647
G1 X95.175 Y95.905 E0.01690
G1 X83.364 Y84.095 E0.52647
G1 X82.828 Y84.095 E0.01690
G1 X94.638 Y95.905 E0.52647
G1 X94.102 Y95.905 E0.01690
G1 X82.292 Y84.095 E0.52647
G1 X81.756 Y84.095 E0.01690
G1 X93.566 Y95.905 E0.52647
G1 X93.030 Y95.905 E0.01690
G1 X81.220 Y84.095 E0.52647
G1 X80.684 Y84.095 E0.01690
G1 X92.494 Y95.905 E0.52647
G1 X91.958 Y95.905 E0.01690
G1 X80.148 Y84.095 E0.52647
G1 X79.611 Y84.095 E0.01690
G1 X91.422 Y95.905 E0.52647
G1 X90.886 Y95.905 E0.01690
G1 X79.075 Y84.095 E0.52647
G1 X78.539 Y84.095 E0.01690
G1 X90.350 Y95.905 E0.52647
G1 X89.813 Y95.905 E0.01690
G1 X78.003 Y84.095 E0.52647
G1 X77.467 Y84.095 E0.01690
G1 X89.277 Y95.905 E0.52647
G1 X88.741 Y95.905 E0.01690
G1 X76.931 Y84.095 E0.52647
G1 X76.395 Y84.095 E0.01690
G1 X88.205 Y95.905 E0.52647
G1 X87.669 Y95.905 E0.01690
G1 X75.859 Y84.095 E0.52647
G1 X75.323 Y84.095 E0.01690
G1 X87.133 Y95.905 E0.52647
G1 X86.597 Y95.905 E0.01690
G1 X74.786 Y84.095 E0.52647
G1 X74.250 Y84.095 E0.01690
G1 X86.061 Y95.905 E0.52647
G1 X85.525 Y95.905 E0.01690
G1 X73.714 Y84.095 E0.52647
G1 X73.178 Y84.095 E0.01690
G1 X84.988 Y95.905 E0.52647
G1 X84.452 Y95.905 E0.01690
G1 X72.642 Y84.095 E0.52647
G1 X72.106 Y84.095 E0.01690
G1 X83.916 Y95.905 E0.52647
G1 X83.380 Y95.905 E0.01690
G1 X71.570 Y84.095 E0.52647
G1 X71.034 Y84.095 E0.01690
G1 X82.844 Y95.905 E0.52647
G1 X82.308 Y95.905 E0.01690
G1 X70.498 Y84.095 E0.52647
G1 X69.962 Y84.095 E0.01690
G1 X81.772 Y95.905 E0.52647
G1 X81.236 Y95.905 E0.01690
G1 X69.425 Y84.095 E0.52647
G1 X68.889 Y84.095 E0.01690
G1 X80.700 Y95.905 E0.52647
G1 X80.163 Y95.905 E0.01690
G1 X68.353 Y84.095 E0.52647
G1 X67.817 Y84.095 E0.01690
G1 X79.627 Y95.905 E0.52647
G1 X79.091 Y95.905 E0.01690
G1 X67.281 Y84.095 E0.52647
G1 X66.745 Y84.095 E0.01690
G1 X78.555 Y95.905 E0.52647
G1 X78.019 Y95.905 E0.01690
G1 X66.209 Y84.095 E0.52647
G1 X65.673 Y84.095 E0.01690
G1 X77.483 Y95.905 E0.52647
G1 X76.947 Y95.905 E0.01690
G1 X65.137 Y84.095 E0.52647
G1 X64.600 Y84.095 E0.01690
G1 X76.411 Y95.905 E0.52647
G1 X75.875 Y95.905 E0.01690
G1 X64.064 Y84.095 E0.52647
G1 X63.528 Y84.095 E0.01690
G1 X75.338 Y95.905 E0.52647
G1 X74.802 Y95.905 E0.01690
G1 X62.992 Y84.095 E0.52647
G1 X62.970 Y84.095 E0.00070
G1 X62.970 Y84.609 E0.01620
G1 X74.266 Y95.905 E0.50357
G1 X73.730 Y95.905 E0.01690
G1 X62.970 Y85.145 E0.47967
M73 P4 R46
G1 X62.970 Y85.681 E0.01690
G1 X73.194 Y95.905 E0.45577
G1 X72.658 Y95.905 E0.01690
G1 X62.970 Y86.217 E0.43187
G1 X62.970 Y86.753 E0.01690
G1 X72.122 Y95.905 E0.40797
G1 X71.586 Y95.905 E0.01690
G1 X62.970 Y87.289 E0.38407
G1 X62.970 Y87.825 E0.01690
G1 X71.050 Y95.905 E0.36018
G1 X70.514 Y95.905 E0.01690
G1 X62.970 Y88.362 E0.33628
G1 X62.970 Y88.898 E0.01690
G1 X69.977 Y95.905 E0.31238
G1 X69.441 Y95.905 E0.01690
G1 X62.970 Y89.434 E0.28848
G1 X62.970 Y89.970 E0.01690
G1 X68.905 Y95.905 E0.26458
G1 X68.369 Y95.905 E0.01690
G1 X62.970 Y90.506 E0.24068
G1 X62.970 Y91.042 E0.01690
G1 X67.833 Y95.905 E0.21678
G1 X67.297 Y95.905 E0.01690
G1 X62.970 Y91.578 E0.19289
G1 X62.970 Y92.045 E0.01471
G1 X62.900 Y92.045 E0.00219
G1 X66.761 Y95.905 E0.17208
G1 X66.225 Y95.905 E0.01690
G1 X62.364 Y92.045 E0.17208
G1 X61.970 Y92.045 E0.01244
G1 X61.970 Y92.186 E0.00446
G1 X65.689 Y95.905 E0.16577
G1 X65.152 Y95.905 E0.01690
G1 X61.970 Y92.723 E0.14187
G1 X61.970 Y93.259 E0.01690
G1 X64.616 Y95.905 E0.11797
G1 X64.080 Y95.905 E0.01690
G1 X61.970 Y93.795 E0.09407
G1 X61.970 Y94.331 E0.01690
G1 X63.544 Y95.905 E0.07018
G1 X63.008 Y95.905 E0.01690
G1 X61.970 Y94.867 E0.04628
G1 X61.970 Y95.403 E0.01690
G1 X62.642 Y96.075 E0.02994
M204 S1250
G1 E-2.24000 F4200.00000
G1 F7200.000
G1 X61.970 Y95.403 E-0.52641
G1 X61.970 Y94.867 E-0.29709
G1 X62.083 Y94.980 E-0.08849
G1 E-0.04800 F4200.00000
G1 Z0.400 F9000.000
G1 X60.154 Y95.974
G1 Z0.200
G1 E3.20000 F2400.00000
M204 S800
G1 F1200.000
G1 X57.878 Y95.972 E0.01025
G1 X56.862 Y95.932 E0.00458
M204 S1250
G1 E-2.24000 F4200.00000
G1 F7200.000
G1 X57.878 Y95.972 E-0.56342
G1 X58.507 Y95.973 E-0.34858
G1 E-0.04800 F4200.00000
G1 Z0.400 F9000.000
G1 X56.862 Y92.018
G1 Z0.200
G1 E3.20000 F2400.00000
M204 S800
G1 F1200.000
G1 X57.875 Y91.978 E0.00457
G1 X58.618 Y91.976 E0.00335
M204 S1250
M106 S255
;BEFORE_LAYER_CHANGE
G92 E0.0
;0.4


G1 Z0.400 F9000.000
;AFTER_LAYER_CHANGE
;0.4
G1 E-3.20000 F4200.00000
G1 Z0.600 F9000.000
G1 X53.737 Y89.989
G1 Z0.400
G1 E3.20000 F2400.00000
G1 X53.995 Y89.554 E0.01585
G1 X60.059 Y81.521 E0.31557
G1 X60.614 Y81.026 E0.02331
G1 X61.298 Y80.725 E0.02343
G1 X61.897 Y80.648 E0.01894
G1 X118.104 Y80.648 E1.76233
G1 X118.610 Y80.703 E0.01597
G1 X119.090 Y80.864 E0.01585
G1 X119.528 Y81.124 E0.01597
G1 X119.897 Y81.469 E0.01585
G1 X126.009 Y89.558 E0.31788
G1 X126.332 Y90.156 E0.02130
G1 X126.477 Y90.935 E0.02484
G1 X126.449 Y97.339 E0.20080
G1 X126.271 Y97.944 E0.01977
G1 X125.940 Y98.480 E0.01977
G1 X125.479 Y98.911 E0.01977
G1 X124.922 Y99.206 E0.01977
G1 X124.105 Y99.352 E0.02602
G1 X55.847 Y99.351 E2.14019
G1 X55.097 Y99.212 E0.02390
G1 X54.427 Y98.841 E0.02402
G1 X53.910 Y98.276 E0.02402
G1 X53.601 Y97.579 E0.02390
G1 X53.523 Y97.003 E0.01823
G1 X53.523 Y90.933 E0.19031
G1 X53.724 Y90.047 E0.02848
G1 E-2.24000 F4200.00000
G1 F7200.000
G1 X53.995 Y89.554 E-0.31202
G1 X54.647 Y88.690 E-0.59998
G1 E-0.04800 F4200.00000
G1 Z0.600 F9000.000
G1 X56.532 Y91.607
G1 Z0.400
G1 E3.20000 F2400.00000
M204 S800
G1 X62.532 Y91.607 E0.20309
G1 X62.532 Y83.657 E0.26910
G1 X117.468 Y83.657 E1.85951
G1 X117.468 Y91.607 E0.26910
G1 X123.468 Y91.607 E0.20309
G1 X123.468 Y92.343 E0.02491
G1 X118.468 Y92.343 E0.16924
G1 X118.468 Y95.607 E0.11049
G1 X123.468 Y95.607 E0.16924
G1 X123.468 Y96.343 E0.02491
G1 X56.532 Y96.343 E2.26570
G1 X56.532 Y95.607 E0.02491
G1 X61.532 Y95.607 E0.16924
G1 X61.532 Y92.343 E0.11049
G1 X56.532 Y92.343 E0.16924
G1 X56.532 Y91.667 E0.02288
M204 S1250
G1 E-2.24000 F4200.00000
G1 F7200.000
G1 X58.178 Y91.651 E-0.91200
G1 E-0.04800 F4200.00000
G1 Z0.600 F9000.000
G1 X118.875 Y92.750
G1 Z0.400
G1 E3.20000 F2400.00000
M204 S800
G1 F1500.000
G1 X123.325 Y92.750 E0.15063
G1 X123.325 Y95.200 E0.08293
G1 X118.875 Y95.200 E0.15063
G1 X118.875 Y92.810 E0.08090
M204 S1250
G1 X118.736 Y92.375 F9000.000
G1 E-2.24000 F4200.00000
G1 F7200.000
G1 X120.521 Y92.788 E-0.91200
G1 E-0.04800 F4200.00000
G1 Z0.600 F9000.000
G1 X61.125 Y92.810
G1 Z0.400
G1 E3.20000 F2400.00000
M204 S800
G1 F1500.000
G1 X61.125 Y95.200 E0.08090
G1 X56.675 Y95.200 E0.15063
G1 X56.675 Y92.750 E0.08293
