; generated by PrusaSlicer 2.3.0+win64 on 2021-08-21 at 18:02:57 UTC


;
;

;
;
; 

; external perimeters extrusion width = 0.45mm
; perimeters extrusion width = 0.45mm
; infill extrusion width = 0.45mm
; solid infill extrusion width = 0.45mm
; top infill extrusion width = 0.40mm
; first layer extrusion width = 0.42mm

M73 P0 R14
M201 X1250 Y1250 Z400 E5000 ; sets maximum accelerations, mm/sec^2
M203 X180 Y180 Z12 E80 ; sets maximum feedrates, mm/sec
M204 P1250 R1250 T1250 ; sets acceleration (P, T) and retract acceleration (R), mm/sec^2
M205 X8.00 Y8.00 Z2.00 E10.00 ; sets the jerk limits, mm/sec
M205 S0 T0 ; sets the minimum extruding and travel feed rate, mm/sec
M107
;TYPE:Custom
G90 ; use absolute coordinates
M83 ; extruder relative mode
M104 S170 ; set extruder temp for bed leveling
M140 S60 ; set bed temp
M109 R170 ; wait for bed leveling temp
M190 S60 ; wait for bed temp
G28 ; home all without mesh bed level
G29 ; mesh bed leveling 
M104 S215 ; set extruder temp
G92 E0.0
G1 Y-2.0 X179 F2400
G1 Z3 F720
M109 S215 ; wait for extruder temp

; intro line
G1 X170 F1000
G1 Z0.2 F720
G1 X110.0 E8.0 F900
M73 P1 R13
G1 X40.0 E10.0 F700
G92 E0.0

M221 S95 ; set flow
G21 ; set units to millimeters
G90 ; use absolute coordinates
M83 ; use relative distances for extrusion
M900 K0.2 ; Filament gcode LA 1.5
; ; Filament gcode LA 1.0
;LAYER_CHANGE
;Z:0.2
;HEIGHT:0.2
;BEFORE_LAYER_CHANGE
G92 E0.0
;0.2


G1 E-3.20000 F4200.000
G1 Z0.200 F9000.000
;AFTER_LAYER_CHANGE
;0.2
G1 Z0.400
G1 X50.457 Y75.259
G1 Z0.200
G1 E3.20000 F2400.000
M204 S800
;TYPE:Skirt
;WIDTH:0.42
M73 P2 R13
G1 F1200.000
G1 X51.245 Y75.123 E0.02508
G1 X128.754 Y75.123 E2.43023
G1 X129.649 Y75.299 E0.02860
G1 X130.412 Y75.800 E0.02860
G1 X130.928 Y76.548 E0.02849
G1 X131.126 Y77.438 E0.02860
G1 X131.123 Y102.637 E0.79010
G1 X130.982 Y103.317 E0.02178
G1 X130.651 Y103.928 E0.02178
G1 X130.157 Y104.416 E0.02178
G1 X129.543 Y104.741 E0.02178
G1 X128.755 Y104.877 E0.02508
G1 X51.208 Y104.877 E2.43143
M73 P3 R13
G1 X50.501 Y104.756 E0.02249
G1 X49.859 Y104.428 E0.02260
G1 X49.348 Y103.925 E0.02249
G1 X49.009 Y103.293 E0.02249
G1 X48.873 Y102.513 E0.02484
G1 X48.876 Y77.378 E0.78807
G1 X49.014 Y76.694 E0.02190
G1 X49.345 Y76.079 E0.02190
G1 X49.840 Y75.586 E0.02190
G1 X50.404 Y75.287 E0.02001
M204 S1250
; printing object Battery02.stl id:0 copy 0
G1 E-2.24000 F4200.000
;WIPE_START
G1 F7200.000
G1 X51.245 Y75.123 E-0.47498
G1 X52.034 Y75.123 E-0.43702
;WIPE_END
G1 E-0.04800 F4200.000
G1 Z0.400 F9000.000
G1 X65.713 Y81.213
G1 Z0.200
G1 E3.20000 F2400.000
M204 S800
;TYPE:Perimeter
G1 F1200.000
G1 X114.287 Y81.213 E1.52301
G1 X114.287 Y98.787 E0.55103
G1 X65.713 Y98.787 E1.52301
M73 P4 R13
G1 X65.713 Y81.273 E0.54914
M204 S1250
G1 X66.090 Y81.590 F9000.000
M204 S800
;TYPE:External perimeter
G1 F1200.000
G1 X113.910 Y81.590 E1.49936
G1 X113.910 Y98.410 E0.52738
G1 X66.090 Y98.410 E1.49936
G1 X66.090 Y81.650 E0.52550
M204 S1250
M73 P5 R13
G1 X65.930 Y81.223 F9000.000
G1 E-2.24000 F4200.000
;WIPE_START
G1 F7200.000
G1 X67.736 Y81.648 E-0.91200
;WIPE_END
G1 E-0.04800 F4200.000
G1 Z0.400 F9000.000
G1 X63.096 Y82.461
G1 Z0.200
G1 E3.20000 F2400.000
M204 S800
;TYPE:Perimeter
G1 F1200.000
G1 X62.950 Y82.934 E0.01552
G1 X62.786 Y83.252 E0.01122
G1 X62.485 Y83.645 E0.01552
G1 X62.101 Y83.973 E0.01584
G1 X61.656 Y84.213 E0.01584
G1 X61.181 Y84.350 E0.01552
G1 X60.825 Y84.388 E0.01122
G1 X60.331 Y84.353 E0.01552
G1 X59.856 Y84.215 E0.01552
G1 X59.535 Y84.057 E0.01122
G1 X59.137 Y83.763 E0.01552
G1 X58.802 Y83.385 E0.01584
G1 X58.555 Y82.944 E0.01584
G1 X58.408 Y82.471 E0.01552
G1 X58.364 Y82.116 E0.01122
G1 X58.390 Y81.632 E0.01519
G1 X58.471 Y81.284 E0.01122
G1 X58.667 Y80.829 E0.01552
G1 X58.959 Y80.417 E0.01584
G1 X59.332 Y80.076 E0.01584
G1 X59.768 Y79.821 E0.01584
G1 X60.247 Y79.663 E0.01581
G1 X60.719 Y79.611 E0.01488
G1 X61.095 Y79.635 E0.01183
G1 X61.577 Y79.757 E0.01558
G1 X62.030 Y79.981 E0.01584
G1 X62.426 Y80.295 E0.01584
G1 X62.747 Y80.685 E0.01584
G1 X62.979 Y81.134 E0.01584
G1 X63.109 Y81.612 E0.01552
G1 X63.140 Y81.968 E0.01122
G1 X63.102 Y82.401 E0.01364
M204 S1250
G1 X62.726 Y82.368 F9000.000
M204 S800
;TYPE:External perimeter
G1 F1200.000
G1 X62.600 Y82.791 E0.01383
G1 X62.466 Y83.049 E0.00913
G1 X62.210 Y83.384 E0.01321
G1 X61.887 Y83.660 E0.01333
G1 X61.512 Y83.862 E0.01333
G1 X61.108 Y83.979 E0.01321
G1 X60.818 Y84.010 E0.00913
G1 X60.398 Y83.980 E0.01321
G1 X59.993 Y83.863 E0.01321
G1 X59.732 Y83.734 E0.00913
G1 X59.393 Y83.484 E0.01321
G1 X59.111 Y83.165 E0.01333
G1 X58.903 Y82.794 E0.01333
G1 X58.778 Y82.392 E0.01321
G1 X58.743 Y82.103 E0.00913
G1 X58.765 Y81.686 E0.01310
G1 X58.831 Y81.402 E0.00913
G1 X58.997 Y81.015 E0.01321
G1 X59.244 Y80.668 E0.01333
G1 X59.557 Y80.381 E0.01333
G1 X59.924 Y80.166 E0.01333
G1 X60.328 Y80.034 E0.01332
G1 X60.728 Y79.990 E0.01262
G1 X61.037 Y80.009 E0.00971
G1 X61.446 Y80.113 E0.01324
G1 X61.827 Y80.301 E0.01333
G1 X62.160 Y80.565 E0.01333
G1 X62.431 Y80.894 E0.01333
G1 X62.626 Y81.271 E0.01333
G1 X62.736 Y81.678 E0.01321
G1 X62.762 Y81.968 E0.00913
G1 X62.731 Y82.308 E0.01071
M204 S1250
G1 X63.026 Y82.633 F9000.000
G1 E-2.24000 F4200.000
;WIPE_START
G1 F7200.000
G1 X62.600 Y82.791 E-0.27700
G1 X62.466 Y83.049 E-0.16133
G1 X62.210 Y83.384 E-0.23355
G1 X61.887 Y83.660 E-0.23562
G1 X61.879 Y83.664 E-0.00450
;WIPE_END
G1 E-0.04800 F4200.000
G1 Z0.400 F9000.000
G1 X61.095 Y95.635
G1 Z0.200
G1 E3.20000 F2400.000
M204 S800
;TYPE:Perimeter
G1 F1200.000
G1 X61.577 Y95.757 E0.01558
G1 X62.030 Y95.981 E0.01584
G1 X62.426 Y96.295 E0.01584
G1 X62.747 Y96.685 E0.01584
G1 X62.979 Y97.134 E0.01584
G1 X63.109 Y97.612 E0.01552
G1 X63.140 Y97.968 E0.01122
G1 X63.096 Y98.461 E0.01552
G1 X62.950 Y98.934 E0.01552
G1 X62.786 Y99.252 E0.01122
G1 X62.485 Y99.645 E0.01552
G1 X62.109 Y99.966 E0.01552
G1 X61.800 Y100.147 E0.01122
G1 X61.336 Y100.318 E0.01552
G1 X60.835 Y100.389 E0.01584
G1 X60.331 Y100.353 E0.01584
G1 X59.856 Y100.215 E0.01552
G1 X59.535 Y100.057 E0.01122
G1 X59.137 Y99.763 E0.01552
G1 X58.803 Y99.385 E0.01581
G1 X58.569 Y98.973 E0.01488
G1 X58.442 Y98.617 E0.01183
G1 X58.364 Y98.127 E0.01558
G1 X58.390 Y97.632 E0.01552
G1 X58.471 Y97.284 E0.01122
G1 X58.667 Y96.829 E0.01552
G1 X58.959 Y96.417 E0.01584
G1 X59.332 Y96.076 E0.01584
G1 X59.768 Y95.821 E0.01584
G1 X60.247 Y95.663 E0.01581
G1 X60.719 Y95.611 E0.01488
G1 X61.035 Y95.632 E0.00994
M204 S1250
G1 X61.446 Y96.113 F9000.000
M204 S800
;TYPE:External perimeter
G1 F1200.000
G1 X61.827 Y96.301 E0.01333
G1 X62.160 Y96.565 E0.01333
G1 X62.431 Y96.894 E0.01333
G1 X62.626 Y97.271 E0.01333
G1 X62.736 Y97.678 E0.01321
G1 X62.762 Y97.968 E0.00913
G1 X62.724 Y98.388 E0.01321
G1 X62.600 Y98.791 E0.01321
G1 X62.466 Y99.049 E0.00913
G1 X62.210 Y99.384 E0.01321
G1 X61.889 Y99.657 E0.01321
G1 X61.638 Y99.805 E0.00913
G1 X61.243 Y99.950 E0.01321
G1 X60.822 Y100.010 E0.01333
G1 X60.398 Y99.980 E0.01333
G1 X59.993 Y99.863 E0.01321
G1 X59.732 Y99.734 E0.00913
G1 X59.393 Y99.484 E0.01321
G1 X59.111 Y99.165 E0.01332
G1 X58.913 Y98.815 E0.01262
G1 X58.809 Y98.523 E0.00971
G1 X58.742 Y98.106 E0.01324
G1 X58.765 Y97.686 E0.01321
G1 X58.831 Y97.402 E0.00913
G1 X58.997 Y97.015 E0.01321
G1 X59.244 Y96.668 E0.01333
G1 X59.557 Y96.381 E0.01333
G1 X59.924 Y96.166 E0.01333
G1 X60.328 Y96.034 E0.01332
G1 X60.728 Y95.990 E0.01262
G1 X61.037 Y96.009 E0.00971
G1 X61.388 Y96.098 E0.01136
M204 S1250
G1 X61.756 Y95.860 F9000.000
G1 E-2.24000 F4200.000
;WIPE_START
G1 F7200.000
G1 X61.827 Y96.301 E-0.26822
G1 X62.160 Y96.565 E-0.23562
G1 X62.431 Y96.894 E-0.23562
G1 X62.573 Y97.170 E-0.17253
;WIPE_END
G1 E-0.04800 F4200.000
G1 Z0.400 F9000.000
G1 X116.093 Y98.127
G1 Z0.200
G1 E3.20000 F2400.000
M204 S800
;TYPE:Perimeter
G1 F1200.000
G1 X116.120 Y97.622 E0.01584
G1 X116.249 Y97.144 E0.01552
G1 X116.402 Y96.821 E0.01122
G1 X116.689 Y96.417 E0.01552
G1 X117.062 Y96.076 E0.01584
G1 X117.498 Y95.821 E0.01584
G1 X117.977 Y95.663 E0.01581
G1 X118.448 Y95.611 E0.01488
G1 X118.825 Y95.635 E0.01183
G1 X119.307 Y95.757 E0.01558
G1 X119.760 Y95.981 E0.01584
G1 X120.156 Y96.295 E0.01584
G1 X120.477 Y96.685 E0.01584
G1 X120.708 Y97.134 E0.01584
G1 X120.838 Y97.612 E0.01552
G1 X120.869 Y97.958 E0.01089
G1 X120.850 Y98.305 E0.01089
G1 X120.738 Y98.787 E0.01552
G1 X120.522 Y99.244 E0.01584
G1 X120.221 Y99.637 E0.01552
G1 X119.957 Y99.878 E0.01122
G1 X119.539 Y100.143 E0.01552
G1 X119.065 Y100.318 E0.01584
G1 X118.565 Y100.389 E0.01584
G1 X118.071 Y100.354 E0.01552
G1 X117.724 Y100.267 E0.01122
G1 X117.273 Y100.063 E0.01552
G1 X116.866 Y99.763 E0.01584
G1 X116.532 Y99.385 E0.01581
G1 X116.298 Y98.973 E0.01488
G1 X116.172 Y98.617 E0.01183
G1 X116.103 Y98.186 E0.01370
M204 S1250
G1 X116.475 Y98.126 F9000.000
M204 S800
;TYPE:External perimeter
G1 F1200.000
G1 X116.494 Y97.682 E0.01394
G1 X116.605 Y97.275 E0.01321
G1 X116.729 Y97.012 E0.00913
G1 X116.973 Y96.668 E0.01321
G1 X117.287 Y96.381 E0.01333
G1 X117.654 Y96.166 E0.01333
G1 X118.057 Y96.034 E0.01332
G1 X118.457 Y95.990 E0.01262
G1 X118.766 Y96.009 E0.00971
G1 X119.176 Y96.113 E0.01324
G1 X119.557 Y96.301 E0.01333
G1 X119.890 Y96.565 E0.01333
G1 X120.160 Y96.894 E0.01333
G1 X120.355 Y97.271 E0.01333
G1 X120.465 Y97.678 E0.01321
G1 X120.491 Y97.965 E0.00901
G1 X120.475 Y98.251 E0.00901
G1 X120.380 Y98.662 E0.01321
G1 X120.198 Y99.046 E0.01333
G1 X119.942 Y99.381 E0.01321
G1 X119.727 Y99.578 E0.00913
G1 X119.371 Y99.803 E0.01321
G1 X118.972 Y99.950 E0.01333
G1 X118.551 Y100.010 E0.01333
G1 X118.131 Y99.980 E0.01321
G1 X117.849 Y99.909 E0.00913
G1 X117.464 Y99.736 E0.01321
G1 X117.122 Y99.484 E0.01333
G1 X116.841 Y99.165 E0.01332
G1 X116.643 Y98.815 E0.01262
G1 X116.539 Y98.523 E0.00971
G1 X116.484 Y98.185 E0.01073
M204 S1250
G1 X116.119 Y97.944 F9000.000
G1 E-2.24000 F4200.000
;WIPE_START
G1 F7200.000
G1 X116.494 Y97.682 E-0.27908
G1 X116.605 Y97.275 E-0.23355
G1 X116.729 Y97.012 E-0.16133
G1 X116.973 Y96.668 E-0.23355
G1 X116.979 Y96.663 E-0.00450
;WIPE_END
G1 E-0.04800 F4200.000
G1 Z0.400 F9000.000
G1 X117.734 Y84.271
G1 Z0.200
G1 E3.20000 F2400.000
M204 S800
;TYPE:Perimeter
G1 F1200.000
G1 X117.273 Y84.063 E0.01584
G1 X116.866 Y83.763 E0.01584
G1 X116.532 Y83.385 E0.01584
G1 X116.289 Y82.953 E0.01552
G1 X116.171 Y82.615 E0.01122
G1 X116.093 Y82.127 E0.01552
G1 X116.120 Y81.622 E0.01584
G1 X116.249 Y81.144 E0.01552
G1 X116.402 Y80.821 E0.01122
G1 X116.689 Y80.417 E0.01552
G1 X117.062 Y80.076 E0.01584
G1 X117.498 Y79.821 E0.01584
G1 X117.977 Y79.663 E0.01581
G1 X118.448 Y79.611 E0.01488
G1 X118.825 Y79.635 E0.01183
G1 X119.307 Y79.757 E0.01558
G1 X119.760 Y79.981 E0.01584
G1 X120.156 Y80.295 E0.01584
G1 X120.477 Y80.685 E0.01584
G1 X120.708 Y81.134 E0.01584
G1 X120.838 Y81.612 E0.01552
G1 X120.869 Y81.958 E0.01089
G1 X120.850 Y82.305 E0.01089
G1 X120.738 Y82.787 E0.01552
G1 X120.522 Y83.244 E0.01584
G1 X120.221 Y83.637 E0.01552
G1 X119.957 Y83.878 E0.01122
G1 X119.539 Y84.143 E0.01552
G1 X119.065 Y84.318 E0.01584
G1 X118.575 Y84.388 E0.01552
G1 X118.217 Y84.375 E0.01122
G1 X117.792 Y84.284 E0.01364
M204 S1250
G1 X117.871 Y83.915 F9000.000
M204 S800
;TYPE:External perimeter
G1 F1200.000
G1 X117.464 Y83.736 E0.01394
G1 X117.122 Y83.484 E0.01333
G1 X116.841 Y83.165 E0.01333
G1 X116.634 Y82.797 E0.01321
G1 X116.538 Y82.523 E0.00913
G1 X116.472 Y82.106 E0.01321
G1 X116.494 Y81.682 E0.01333
G1 X116.605 Y81.275 E0.01321
G1 X116.729 Y81.012 E0.00913
G1 X116.973 Y80.668 E0.01321
G1 X117.287 Y80.381 E0.01333
G1 X117.654 Y80.166 E0.01333
G1 X118.057 Y80.034 E0.01332
G1 X118.457 Y79.990 E0.01262
G1 X118.766 Y80.009 E0.00971
G1 X119.176 Y80.113 E0.01324
G1 X119.557 Y80.301 E0.01333
G1 X119.890 Y80.565 E0.01333
G1 X120.160 Y80.894 E0.01333
G1 X120.355 Y81.271 E0.01333
G1 X120.465 Y81.678 E0.01321
G1 X120.491 Y81.965 E0.00901
G1 X120.475 Y82.251 E0.00901
G1 X120.380 Y82.662 E0.01321
G1 X120.198 Y83.046 E0.01333
G1 X119.942 Y83.381 E0.01321
G1 X119.727 Y83.578 E0.00913
G1 X119.371 Y83.803 E0.01321
G1 X118.972 Y83.950 E0.01333
G1 X118.555 Y84.010 E0.01321
G1 X118.264 Y83.999 E0.00913
G1 X117.930 Y83.927 E0.01071
M204 S1250
M73 P6 R13
G1 X117.572 Y84.180 F9000.000
G1 E-2.24000 F4200.000
;WIPE_START
G1 F7200.000
G1 X117.464 Y83.736 E-0.27908
G1 X117.122 Y83.484 E-0.23562
G1 X116.841 Y83.165 E-0.23562
G1 X116.698 Y82.911 E-0.16168
;WIPE_END
G1 E-0.04800 F4200.000
G1 Z0.400 F9000.000
G1 X122.963 Y85.713
G1 Z0.200
G1 E3.20000 F2400.000
M204 S800
;TYPE:Perimeter
G1 F1200.000
G1 X122.963 Y94.287 E0.26884
G1 X127.963 Y94.287 E0.15677
G1 X127.963 Y101.713 E0.23283
G1 X52.037 Y101.713 E2.38060
G1 X52.037 Y78.287 E0.73450
G1 X127.963 Y78.287 E2.38060
M73 P7 R13
G1 X127.963 Y85.713 E0.23283
G1 X123.023 Y85.713 E0.15489
M204 S1250
G1 X123.340 Y86.090 F9000.000
M204 S800
;TYPE:External perimeter
G1 F1200.000
G1 X123.340 Y93.910 E0.24519
G1 X128.340 Y93.910 E0.15677
G1 X128.340 Y102.090 E0.25648
G1 X51.660 Y102.090 E2.40425
G1 X51.660 Y77.910 E0.75815
M73 P8 R13
G1 X128.340 Y77.910 E2.40425
M73 P8 R12
G1 X128.340 Y86.090 E0.25648
G1 X123.400 Y86.090 E0.15489
M204 S1250
G1 X122.963 Y86.224 F9000.000
G1 E-2.24000 F4200.000
;WIPE_START
G1 F7200.000
G1 X123.387 Y87.736 E-0.91200
;WIPE_END
G1 E-0.04800 F4200.000
G1 Z0.400 F9000.000
G1 X127.850 Y79.165
G1 Z0.200
G1 E3.20000 F2400.000
M204 S800
;TYPE:Solid infill
;WIDTH:0.42122
G1 F1200.000
G1 X127.255 Y78.570 E0.02648
G1 X126.720 Y78.570 E0.01683
G1 X127.680 Y79.530 E0.04273
G1 X127.680 Y80.065 E0.01683
G1 X126.185 Y78.570 E0.06653
G1 X125.650 Y78.570 E0.01683
G1 X127.680 Y80.600 E0.09033
G1 X127.680 Y81.135 E0.01683
G1 X125.115 Y78.570 E0.11413
G1 X124.580 Y78.570 E0.01683
G1 X127.680 Y81.670 E0.13793
G1 X127.680 Y82.205 E0.01683
G1 X124.045 Y78.570 E0.16172
G1 X123.510 Y78.570 E0.01683
G1 X127.680 Y82.740 E0.18552
G1 X127.680 Y83.275 E0.01683
G1 X122.975 Y78.570 E0.20932
G1 X122.440 Y78.570 E0.01683
G1 X127.680 Y83.810 E0.23312
M73 P9 R12
G1 X127.680 Y84.345 E0.01683
G1 X121.905 Y78.570 E0.25692
G1 X121.370 Y78.570 E0.01683
G1 X127.680 Y84.880 E0.28072
G1 X127.680 Y85.415 E0.01683
G1 X120.835 Y78.570 E0.30452
G1 X120.300 Y78.570 E0.01683
G1 X127.160 Y85.430 E0.30518
G1 X126.625 Y85.430 E0.01683
G1 X119.765 Y78.570 E0.30518
G1 X119.230 Y78.570 E0.01683
G1 X126.090 Y85.430 E0.30518
G1 X125.555 Y85.430 E0.01683
G1 X118.695 Y78.570 E0.30518
G1 X118.160 Y78.570 E0.01683
G1 X118.970 Y79.380 E0.03605
G1 X118.869 Y79.355 E0.00329
G1 X118.388 Y79.333 E0.01513
G1 X117.625 Y78.570 E0.03397
G1 X117.090 Y78.570 E0.01683
G1 X117.908 Y79.388 E0.03640
G1 X117.505 Y79.521 E0.01333
G1 X116.555 Y78.570 E0.04229
G1 X116.020 Y78.570 E0.01683
G1 X117.148 Y79.698 E0.05018
G1 X116.893 Y79.847 E0.00929
G1 X116.824 Y79.910 E0.00291
G1 X115.485 Y78.570 E0.05960
G1 X114.950 Y78.570 E0.01683
G1 X116.545 Y80.165 E0.07097
G1 X116.476 Y80.229 E0.00296
G1 X116.309 Y80.464 E0.00907
G1 X114.415 Y78.570 E0.08426
G1 X113.880 Y78.570 E0.01683
G1 X116.103 Y80.793 E0.09889
G1 X115.983 Y81.046 E0.00881
G1 X115.948 Y81.174 E0.00415
G1 X113.345 Y78.570 E0.11583
G1 X112.810 Y78.570 E0.01683
G1 X115.838 Y81.598 E0.13471
G1 X115.811 Y82.106 E0.01600
G1 X112.105 Y78.400 E0.16486
M204 S1250
G1 E-2.24000 F4200.000
;WIPE_START
G1 F7200.000
G1 X113.269 Y79.564 E-0.91200
;WIPE_END
G1 E-0.04800 F4200.000
G1 Z0.400 F9000.000
G1 X120.863 Y81.274
G1 Z0.200
G1 E3.20000 F2400.000
M204 S800
G1 F1200.000
G1 X125.020 Y85.430 E0.18490
G1 X124.485 Y85.430 E0.01683
G1 X121.145 Y82.090 E0.14859
G1 X121.131 Y82.345 E0.00803
G1 X121.081 Y82.561 E0.00698
G1 X123.950 Y85.430 E0.12764
G1 X123.415 Y85.430 E0.01683
G1 X120.961 Y82.976 E0.10917
G1 X120.789 Y83.339 E0.01264
G1 X122.880 Y85.430 E0.09300
G1 X122.680 Y85.430 E0.00629
G1 X122.680 Y85.765 E0.01054
G1 X120.566 Y83.651 E0.09404
G1 X120.431 Y83.828 E0.00702
G1 X120.314 Y83.935 E0.00495
G1 X122.680 Y86.300 E0.10524
G1 X122.680 Y86.835 E0.01683
G1 X120.019 Y84.174 E0.11839
G1 X119.691 Y84.382 E0.01220
G1 X122.680 Y87.370 E0.13296
G1 X122.680 Y87.905 E0.01683
G1 X119.305 Y84.531 E0.15012
M73 P10 R12
G1 X119.135 Y84.594 E0.00573
G1 X118.871 Y84.631 E0.00837
G1 X122.680 Y88.440 E0.16945
G1 X122.680 Y88.975 E0.01683
G1 X118.189 Y84.485 E0.19977
M204 S1250
