; generated by PrusaSlicer 2.3.0+win64 on 2021-08-21 at 19:03:44 UTC


;
;

;
;
; 

; external perimeters extrusion width = 0.45mm
; perimeters extrusion width = 0.45mm
; infill extrusion width = 0.45mm
; solid infill extrusion width = 0.45mm
; top infill extrusion width = 0.40mm
; first layer extrusion width = 0.42mm

M73 P0 R32
M201 X1250 Y1250 Z400 E5000 ; sets maximum accelerations, mm/sec^2
M203 X180 Y180 Z12 E80 ; sets maximum feedrates, mm/sec
M204 P1250 R1250 T1250 ; sets acceleration (P, T) and retract acceleration (R), mm/sec^2
M205 X8.00 Y8.00 Z2.00 E10.00 ; sets the jerk limits, mm/sec
M205 S0 T0 ; sets the minimum extruding and travel feed rate, mm/sec
M107
;TYPE:Custom
G90 ; use absolute coordinates
M83 ; extruder relative mode
M104 S170 ; set extruder temp for bed leveling
M140 S60 ; set bed temp
M109 R170 ; wait for bed leveling temp
M190 S60 ; wait for bed temp
G28 ; home all without mesh bed level
G29 ; mesh bed leveling 
M104 S215 ; set extruder temp
G92 E0.0
G1 Y-2.0 X179 F2400
M73 P0 R31
G1 Z3 F720
M109 S215 ; wait for extruder temp

; intro line
G1 X170 F1000
G1 Z0.2 F720
G1 X110.0 E8.0 F900
G1 X40.0 E10.0 F700
G92 E0.0

M221 S95 ; set flow
G21 ; set units to millimeters
G90 ; use absolute coordinates
M83 ; use relative distances for extrusion
M900 K0.2 ; Filament gcode LA 1.5
; ; Filament gcode LA 1.0
;LAYER_CHANGE
;Z:0.2
;HEIGHT:0.2
;BEFORE_LAYER_CHANGE
G92 E0.0
;0.2


G1 E-3.20000 F4200.000
G1 Z0.200 F9000.000
;AFTER_LAYER_CHANGE
;0.2
G1 Z0.400
G1 X50.700 Y71.848
G1 Z0.200
G1 E3.20000 F2400.000
M204 S800
;TYPE:Skirt
;WIDTH:0.42
G1 F1200.000
G1 X51.249 Y71.494 E0.02048
G1 X51.735 Y71.329 E0.01609
G1 X52.241 Y71.273 E0.01597
G1 X127.754 Y71.273 E2.36764
M73 P1 R31
G1 X128.645 Y71.448 E0.02849
G1 X129.409 Y71.947 E0.02860
G1 X129.928 Y72.698 E0.02860
G1 X130.126 Y73.584 E0.02849
G1 X130.125 Y106.411 E1.02926
G1 X130.011 Y107.050 E0.02036
G1 X129.728 Y107.634 E0.02036
G1 X129.297 Y108.120 E0.02036
G1 X128.751 Y108.472 E0.02036
G1 X128.265 Y108.636 E0.01609
G1 X127.755 Y108.693 E0.01609
G1 X52.216 Y108.693 E2.36848
G1 X51.559 Y108.590 E0.02083
G1 X50.957 Y108.310 E0.02083
G1 X50.455 Y107.874 E0.02083
G1 X50.094 Y107.317 E0.02083
G1 X49.931 Y106.838 E0.01585
G1 X49.873 Y106.332 E0.01597
G1 X49.874 Y73.574 E1.02711
G1 X49.985 Y72.930 E0.02048
G1 X50.266 Y72.341 E0.02048
G1 X50.660 Y71.893 E0.01871
M204 S1250
; printing object Battery04.stl id:0 copy 0
G1 E-2.24000 F4200.000
;WIPE_START
G1 F7200.000
G1 X51.249 Y71.494 E-0.39401
G1 X51.735 Y71.329 E-0.28441
G1 X52.154 Y71.283 E-0.23359
;WIPE_END
G1 E-0.04800 F4200.000
G1 Z0.400 F9000.000
G1 X65.713 Y75.848
G1 Z0.200
G1 E3.20000 F2400.000
M204 S800
;TYPE:Perimeter
G1 F1200.000
G1 X114.287 Y75.848 E1.52301
G1 X114.287 Y103.422 E0.86457
G1 X65.713 Y103.422 E1.52301
G1 X65.713 Y75.908 E0.86269
M204 S1250
G1 X66.090 Y76.225 F9000.000
M204 S800
;TYPE:External perimeter
G1 F1200.000
G1 X113.910 Y76.225 E1.49936
M73 P2 R31
G1 X113.910 Y103.045 E0.84092
G1 X66.090 Y103.045 E1.49936
G1 X66.090 Y76.285 E0.83904
M204 S1250
G1 X65.952 Y75.850 F9000.000
G1 E-2.24000 F4200.000
;WIPE_START
G1 F7200.000
G1 X67.736 Y76.283 E-0.91200
;WIPE_END
G1 E-0.04800 F4200.000
G1 Z0.400 F9000.000
G1 X62.979 Y76.768
G1 Z0.200
G1 E3.20000 F2400.000
M204 S800
;TYPE:Perimeter
G1 F1200.000
G1 X63.109 Y77.246 E0.01552
G1 X63.140 Y77.602 E0.01122
G1 X63.096 Y78.095 E0.01552
G1 X62.950 Y78.568 E0.01552
G1 X62.786 Y78.886 E0.01122
G1 X62.485 Y79.279 E0.01552
G1 X62.101 Y79.607 E0.01584
G1 X61.656 Y79.846 E0.01584
G1 X61.181 Y79.984 E0.01552
G1 X60.825 Y80.022 E0.01122
G1 X60.331 Y79.987 E0.01552
G1 X59.847 Y79.847 E0.01581
G1 X59.428 Y79.623 E0.01488
G1 X59.131 Y79.391 E0.01183
G1 X58.803 Y79.019 E0.01555
G1 X58.569 Y78.606 E0.01488
G1 X58.442 Y78.251 E0.01183
G1 X58.364 Y77.760 E0.01558
G1 X58.390 Y77.266 E0.01552
G1 X58.471 Y76.918 E0.01122
G1 X58.667 Y76.463 E0.01552
G1 X58.959 Y76.051 E0.01584
G1 X59.332 Y75.710 E0.01584
G1 X59.768 Y75.455 E0.01584
G1 X60.247 Y75.297 E0.01581
G1 X60.719 Y75.245 E0.01488
G1 X61.095 Y75.269 E0.01183
G1 X61.577 Y75.391 E0.01558
G1 X62.030 Y75.614 E0.01584
G1 X62.426 Y75.929 E0.01584
G1 X62.747 Y76.319 E0.01584
G1 X62.952 Y76.715 E0.01396
M204 S1250
G1 X62.616 Y76.888 F9000.000
M204 S800
;TYPE:External perimeter
G1 F1200.000
G1 X62.736 Y77.312 E0.01383
G1 X62.762 Y77.602 E0.00913
G1 X62.724 Y78.022 E0.01321
G1 X62.600 Y78.424 E0.01321
G1 X62.466 Y78.683 E0.00913
G1 X62.210 Y79.018 E0.01321
G1 X61.887 Y79.294 E0.01333
G1 X61.512 Y79.495 E0.01333
G1 X61.108 Y79.613 E0.01321
G1 X60.818 Y79.644 E0.00913
G1 X60.398 Y79.614 E0.01321
G1 X59.990 Y79.495 E0.01332
G1 X59.635 Y79.306 E0.01262
G1 X59.391 Y79.115 E0.00971
G1 X59.111 Y78.799 E0.01323
G1 X58.913 Y78.449 E0.01262
G1 X58.809 Y78.157 E0.00971
G1 X58.742 Y77.740 E0.01324
G1 X58.765 Y77.319 E0.01321
G1 X58.831 Y77.036 E0.00913
G1 X58.997 Y76.649 E0.01321
G1 X59.244 Y76.302 E0.01333
G1 X59.557 Y76.015 E0.01333
G1 X59.924 Y75.800 E0.01333
G1 X60.328 Y75.668 E0.01332
G1 X60.728 Y75.624 E0.01262
G1 X61.037 Y75.643 E0.00971
G1 X61.446 Y75.746 E0.01324
G1 X61.827 Y75.935 E0.01333
G1 X62.160 Y76.199 E0.01333
G1 X62.431 Y76.527 E0.01333
G1 X62.589 Y76.834 E0.01083
M204 S1250
G1 X63.012 Y76.946 F9000.000
G1 E-2.24000 F4200.000
;WIPE_START
G1 F7200.000
G1 X62.736 Y77.312 E-0.27700
G1 X62.762 Y77.602 E-0.16133
G1 X62.724 Y78.022 E-0.23355
G1 X62.600 Y78.424 E-0.23355
G1 X62.594 Y78.435 E-0.00657
;WIPE_END
G1 E-0.04800 F4200.000
G1 Z0.400 F9000.000
G1 X61.095 Y99.271
G1 Z0.200
G1 E3.20000 F2400.000
M204 S800
;TYPE:Perimeter
G1 F1200.000
G1 X61.577 Y99.393 E0.01558
G1 X62.030 Y99.617 E0.01584
G1 X62.426 Y99.931 E0.01584
G1 X62.747 Y100.321 E0.01584
G1 X62.979 Y100.770 E0.01584
G1 X63.109 Y101.248 E0.01552
G1 X63.140 Y101.604 E0.01122
G1 X63.096 Y102.097 E0.01552
G1 X62.950 Y102.570 E0.01552
G1 X62.786 Y102.888 E0.01122
G1 X62.485 Y103.281 E0.01552
G1 X62.101 Y103.609 E0.01584
G1 X61.665 Y103.844 E0.01552
G1 X61.325 Y103.955 E0.01122
G1 X60.835 Y104.025 E0.01552
G1 X60.331 Y103.989 E0.01584
G1 X59.846 Y103.849 E0.01584
G1 X59.410 Y103.614 E0.01552
G1 X59.130 Y103.391 E0.01122
G1 X58.803 Y103.021 E0.01548
G1 X58.569 Y102.609 E0.01488
G1 X58.442 Y102.253 E0.01183
G1 X58.364 Y101.763 E0.01558
G1 X58.390 Y101.268 E0.01552
G1 X58.471 Y100.920 E0.01122
G1 X58.667 Y100.465 E0.01552
G1 X58.959 Y100.053 E0.01584
G1 X59.332 Y99.712 E0.01584
G1 X59.768 Y99.457 E0.01584
G1 X60.247 Y99.299 E0.01581
G1 X60.719 Y99.247 E0.01488
G1 X61.035 Y99.268 E0.00994
M204 S1250
G1 X61.446 Y99.749 F9000.000
M204 S800
;TYPE:External perimeter
G1 F1200.000
G1 X61.827 Y99.937 E0.01333
G1 X62.160 Y100.201 E0.01333
G1 X62.431 Y100.530 E0.01333
G1 X62.626 Y100.908 E0.01333
G1 X62.736 Y101.314 E0.01321
G1 X62.762 Y101.604 E0.00913
G1 X62.724 Y102.024 E0.01321
G1 X62.600 Y102.427 E0.01321
G1 X62.466 Y102.685 E0.00913
G1 X62.210 Y103.020 E0.01321
G1 X61.887 Y103.296 E0.01333
G1 X61.516 Y103.496 E0.01321
G1 X61.239 Y103.587 E0.00913
G1 X60.822 Y103.646 E0.01321
G1 X60.398 Y103.616 E0.01333
G1 X59.989 Y103.498 E0.01333
G1 X59.618 Y103.298 E0.01321
G1 X59.390 Y103.117 E0.00913
G1 X59.111 Y102.801 E0.01320
G1 X58.913 Y102.451 E0.01262
G1 X58.809 Y102.159 E0.00971
G1 X58.742 Y101.743 E0.01324
G1 X58.765 Y101.322 E0.01321
G1 X58.831 Y101.038 E0.00913
G1 X58.997 Y100.651 E0.01321
G1 X59.244 Y100.304 E0.01333
G1 X59.557 Y100.017 E0.01333
G1 X59.924 Y99.803 E0.01333
G1 X60.328 Y99.670 E0.01332
G1 X60.728 Y99.626 E0.01262
G1 X61.037 Y99.646 E0.00971
G1 X61.388 Y99.734 E0.01136
M204 S1250
G1 X61.756 Y99.496 F9000.000
G1 E-2.24000 F4200.000
;WIPE_START
G1 F7200.000
G1 X61.827 Y99.937 E-0.26822
G1 X62.160 Y100.201 E-0.23562
G1 X62.431 Y100.530 E-0.23562
G1 X62.573 Y100.806 E-0.17253
;WIPE_END
G1 E-0.04800 F4200.000
G1 Z0.400 F9000.000
G1 X119.364 Y101.763
G1 Z0.200
G1 E3.20000 F2400.000
M204 S800
;TYPE:Perimeter
G1 F1200.000
G1 X119.390 Y101.268 E0.01552
G1 X119.471 Y100.920 E0.01122
G1 X119.667 Y100.465 E0.01552
G1 X119.959 Y100.053 E0.01584
G1 X120.332 Y99.712 E0.01584
G1 X120.768 Y99.457 E0.01584
G1 X121.247 Y99.299 E0.01581
G1 X121.719 Y99.247 E0.01488
G1 X122.095 Y99.271 E0.01183
G1 X122.577 Y99.393 E0.01558
G1 X123.030 Y99.617 E0.01584
G1 X123.426 Y99.931 E0.01584
G1 X123.741 Y100.313 E0.01552
G1 X123.916 Y100.625 E0.01122
G1 X124.079 Y101.092 E0.01552
G1 X124.141 Y101.594 E0.01584
G1 X124.097 Y102.096 E0.01581
G1 X123.958 Y102.550 E0.01488
G1 X123.787 Y102.886 E0.01183
G1 X123.486 Y103.280 E0.01555
G1 X123.126 Y103.589 E0.01488
G1 X122.802 Y103.782 E0.01183
G1 X122.336 Y103.954 E0.01558
G1 X121.835 Y104.025 E0.01584
G1 X121.331 Y103.989 E0.01584
G1 X120.846 Y103.849 E0.01584
G1 X120.410 Y103.614 E0.01552
G1 X120.130 Y103.391 E0.01122
G1 X119.803 Y103.021 E0.01548
G1 X119.569 Y102.609 E0.01488
G1 X119.442 Y102.253 E0.01183
G1 X119.373 Y101.822 E0.01370
M204 S1250
G1 X119.745 Y101.762 F9000.000
M204 S800
;TYPE:External perimeter
G1 F1200.000
G1 X119.765 Y101.322 E0.01383
G1 X119.831 Y101.038 E0.00913
G1 X119.997 Y100.651 E0.01321
G1 X120.244 Y100.304 E0.01333
G1 X120.557 Y100.017 E0.01333
G1 X120.924 Y99.803 E0.01333
G1 X121.328 Y99.670 E0.01332
G1 X121.728 Y99.626 E0.01262
G1 X122.037 Y99.646 E0.00971
G1 X122.446 Y99.749 E0.01324
G1 X122.827 Y99.937 E0.01333
G1 X123.160 Y100.201 E0.01333
G1 X123.428 Y100.527 E0.01321
G1 X123.571 Y100.781 E0.00913
G1 X123.709 Y101.179 E0.01321
G1 X123.762 Y101.601 E0.01333
G1 X123.724 Y102.024 E0.01332
G1 X123.607 Y102.409 E0.01262
G1 X123.467 Y102.685 E0.00971
G1 X123.210 Y103.020 E0.01323
G1 X122.905 Y103.282 E0.01262
G1 X122.639 Y103.440 E0.00971
G1 X122.243 Y103.586 E0.01324
G1 X121.822 Y103.646 E0.01333
G1 X121.398 Y103.616 E0.01333
G1 X120.989 Y103.498 E0.01333
G1 X120.618 Y103.298 E0.01321
G1 X120.390 Y103.117 E0.00913
G1 X120.111 Y102.801 E0.01320
G1 X119.913 Y102.451 E0.01262
G1 X119.809 Y102.159 E0.00971
G1 X119.755 Y101.821 E0.01073
M204 S1250
G1 X119.389 Y101.580 F9000.000
G1 E-2.24000 F4200.000
;WIPE_START
G1 F7200.000
G1 X119.765 Y101.322 E-0.27701
G1 X119.831 Y101.038 E-0.16133
G1 X119.997 Y100.651 E-0.23355
G1 X120.244 Y100.304 E-0.23562
G1 X120.250 Y100.299 E-0.00450
;WIPE_END
G1 E-0.04800 F4200.000
G1 Z0.400 F9000.000
G1 X121.331 Y79.987
G1 Z0.200
G1 E3.20000 F2400.000
M204 S800
;TYPE:Perimeter
G1 F1200.000
G1 X120.847 Y79.847 E0.01581
G1 X120.428 Y79.623 E0.01488
G1 X120.131 Y79.391 E0.01183
G1 X119.803 Y79.019 E0.01555
G1 X119.569 Y78.606 E0.01488
G1 X119.442 Y78.251 E0.01183
G1 X119.364 Y77.760 E0.01558
G1 X119.390 Y77.266 E0.01552
G1 X119.471 Y76.918 E0.01122
G1 X119.667 Y76.463 E0.01552
G1 X119.959 Y76.051 E0.01584
G1 X120.332 Y75.710 E0.01584
G1 X120.768 Y75.455 E0.01584
G1 X121.247 Y75.297 E0.01581
G1 X121.719 Y75.245 E0.01488
G1 X122.095 Y75.269 E0.01183
G1 X122.577 Y75.391 E0.01558
G1 X123.030 Y75.614 E0.01584
G1 X123.426 Y75.929 E0.01584
G1 X123.741 Y76.311 E0.01552
G1 X123.916 Y76.623 E0.01122
G1 X124.079 Y77.090 E0.01552
G1 X124.141 Y77.592 E0.01584
G1 X124.097 Y78.085 E0.01552
G1 X124.004 Y78.430 E0.01122
G1 X123.792 Y78.877 E0.01552
G1 X123.492 Y79.270 E0.01552
G1 X123.228 Y79.512 E0.01122
G1 X122.810 Y79.777 E0.01552
G1 X122.336 Y79.952 E0.01584
G1 X121.835 Y80.023 E0.01584
G1 X121.391 Y79.991 E0.01396
M204 S1250
G1 X121.418 Y79.615 F9000.000
M204 S800
;TYPE:External perimeter
G1 F1200.000
G1 X120.990 Y79.495 E0.01393
G1 X120.635 Y79.306 E0.01262
G1 X120.391 Y79.115 E0.00971
G1 X120.111 Y78.799 E0.01323
G1 X119.913 Y78.449 E0.01262
G1 X119.809 Y78.157 E0.00971
G1 X119.742 Y77.740 E0.01324
G1 X119.765 Y77.319 E0.01321
G1 X119.831 Y77.036 E0.00913
G1 X119.997 Y76.649 E0.01321
G1 X120.244 Y76.302 E0.01333
G1 X120.557 Y76.015 E0.01333
G1 X120.924 Y75.800 E0.01333
G1 X121.328 Y75.668 E0.01332
G1 X121.728 Y75.624 E0.01262
G1 X122.037 Y75.643 E0.00971
G1 X122.446 Y75.746 E0.01324
G1 X122.827 Y75.935 E0.01333
G1 X123.160 Y76.199 E0.01333
G1 X123.428 Y76.525 E0.01321
G1 X123.571 Y76.778 E0.00913
G1 X123.709 Y77.176 E0.01321
G1 X123.762 Y77.598 E0.01333
G1 X123.725 Y78.018 E0.01321
G1 X123.649 Y78.299 E0.00913
G1 X123.469 Y78.680 E0.01321
G1 X123.212 Y79.015 E0.01321
G1 X122.998 Y79.211 E0.00913
G1 X122.642 Y79.437 E0.01321
G1 X122.243 Y79.584 E0.01333
G1 X121.822 Y79.644 E0.01333
G1 X121.477 Y79.619 E0.01083
M204 S1250
G1 X121.162 Y79.923 F9000.000
G1 E-2.24000 F4200.000
;WIPE_START
G1 F7200.000
G1 X120.990 Y79.495 E-0.27887
G1 X120.635 Y79.306 E-0.22299
G1 X120.391 Y79.115 E-0.17165
G1 X120.111 Y78.799 E-0.23376
G1 X120.107 Y78.792 E-0.00473
;WIPE_END
G1 E-0.04800 F4200.000
G1 Z0.400 F9000.000
G1 X122.963 Y81.848
G1 Z0.200
G1 E3.20000 F2400.000
M204 S800
;TYPE:Perimeter
G1 F1200.000
G1 X122.963 Y97.422 E0.48832
G1 X126.963 Y97.422 E0.12542
G1 X126.963 Y105.478 E0.25258
G1 X53.037 Y105.478 E2.31789
M73 P3 R31
G1 X53.037 Y74.469 E0.97226
G1 X126.963 Y74.469 E2.31789
G1 X126.963 Y81.848 E0.23136
G1 X123.023 Y81.848 E0.12354
M204 S1250
G1 X123.340 Y82.225 F9000.000
M204 S800
;TYPE:External perimeter
G1 F1200.000
G1 X123.340 Y97.045 E0.46467
G1 X127.340 Y97.045 E0.12542
M73 P3 R30
G1 X127.340 Y105.855 E0.27623
G1 X52.660 Y105.855 E2.34154
G1 X52.660 Y74.092 E0.99590
G1 X127.340 Y74.092 E2.34154
G1 X127.340 Y82.225 E0.25501
G1 X123.400 Y82.225 E0.12354
M204 S1250
G1 X122.967 Y82.370 F9000.000
G1 E-2.24000 F4200.000
;WIPE_START
G1 F7200.000
G1 X123.393 Y83.871 E-0.91200
;WIPE_END
G1 E-0.04800 F4200.000
G1 Z0.400 F9000.000
G1 X122.511 Y74.915
G1 Z0.200
G1 E3.20000 F2400.000
M204 S800
;TYPE:Gap fill
;WIDTH:0.500238
G1 F1200.000
G1 X122.177 Y74.873 E0.01279
M204 S1250
M204 S800
;WIDTH:0.473983
G1 X121.727 Y74.857 E0.01614
M204 S1250
M204 S800
;WIDTH:0.442574
G1 X121.001 Y74.895 E0.02418
M204 S1250
G1 E-2.24000 F4200.000
;WIPE_START
G1 F7200.000
G1 X121.727 Y74.857 E-0.40319
;WIPE_END
G1 E-0.55681 F4200.000
G1 Z0.400 F9000.000
G1 X126.850 Y75.345
G1 Z0.200
G1 E3.20000 F2400.000
M204 S800
;TYPE:Solid infill
;WIDTH:0.42013
G1 F1200.000
G1 X126.257 Y74.752 E0.02630
G1 X125.723 Y74.752 E0.01673
G1 X126.680 Y75.708 E0.04243
G1 X126.680 Y76.242 E0.01673
G1 X125.190 Y74.752 E0.06610
G1 X124.657 Y74.752 E0.01673
G1 X126.680 Y76.775 E0.08976
G1 X126.680 Y77.309 E0.01673
M73 P4 R30
G1 X124.123 Y74.752 E0.11342
G1 X123.590 Y74.752 E0.01673
G1 X126.680 Y77.842 E0.13708
G1 X126.680 Y78.376 E0.01673
G1 X123.056 Y74.752 E0.16075
G1 X122.816 Y74.752 E0.00752
G1 X122.784 Y75.013 E0.00826
G1 X126.680 Y78.909 E0.17282
G1 X126.680 Y79.443 E0.01673
G1 X124.369 Y77.131 E0.10252
G1 X124.425 Y77.587 E0.01439
G1 X124.414 Y77.710 E0.00390
G1 X126.680 Y79.976 E0.10050
G1 X126.680 Y80.510 E0.01673
G1 X124.362 Y78.191 E0.10285
G1 X124.236 Y78.599 E0.01340
G1 X126.680 Y81.043 E0.10839
G1 X126.680 Y81.565 E0.01637
G1 X124.065 Y78.962 E0.11573
G1 X123.845 Y79.274 E0.01201
G1 X126.135 Y81.565 E0.10160
G1 X125.602 Y81.565 E0.01673
G1 X123.596 Y79.559 E0.08899
G1 X123.400 Y79.738 E0.00831
G1 X123.303 Y79.799 E0.00362
G1 X125.068 Y81.565 E0.07832
G1 X124.535 Y81.565 E0.01673
G1 X122.976 Y80.006 E0.06914
G1 X122.594 Y80.158 E0.01289
G1 X124.001 Y81.565 E0.06242
G1 X123.468 Y81.565 E0.01673
G1 X122.165 Y80.262 E0.05782
G1 X121.845 Y80.307 E0.01012
G1 X121.664 Y80.294 E0.00571
G1 X123.104 Y81.735 E0.06390
M204 S1250
G1 E-2.24000 F4200.000
;WIPE_START
G1 F7200.000
G1 X121.941 Y80.571 E-0.91200
;WIPE_END
G1 E-0.04800 F4200.000
G1 Z0.400 F9000.000
G1 X120.908 Y75.271
G1 Z0.200
G1 E3.20000 F2400.000
M204 S800
G1 F1200.000
G1 X120.389 Y74.752 E0.02302
G1 X119.855 Y74.752 E0.01673
G1 X120.429 Y75.325 E0.02544
G1 X120.163 Y75.481 E0.00966
G1 X120.105 Y75.535 E0.00249
G1 X119.322 Y74.752 E0.03472
G1 X118.789 Y74.752 E0.01673
G1 X119.826 Y75.789 E0.04603
G1 X119.746 Y75.863 E0.00340
G1 X119.588 Y76.085 E0.00855
G1 X118.255 Y74.752 E0.05914
G1 X117.722 Y74.752 E0.01673
G1 X119.381 Y76.411 E0.07361
G1 X119.221 Y76.784 E0.01274
G1 X117.188 Y74.752 E0.09016
G1 X116.655 Y74.752 E0.01673
G1 X119.113 Y77.210 E0.10902
G1 X119.083 Y77.713 E0.01583
G1 X116.121 Y74.752 E0.13137
G1 X115.588 Y74.752 E0.01673
G1 X119.173 Y78.336 E0.15901
G1 X119.311 Y78.724 E0.01292
G1 X119.571 Y79.184 E0.01658
G1 X119.936 Y79.598 E0.01730
G1 X120.273 Y79.861 E0.01342
