; generated by PrusaSlicer 2.3.0+win64 on 2021-08-21 at 18:27:19 UTC


;
;

;
;
; 

; external perimeters extrusion width = 0.45mm
; perimeters extrusion width = 0.45mm
; infill extrusion width = 0.45mm
; solid infill extrusion width = 0.45mm
; top infill extrusion width = 0.40mm
; first layer extrusion width = 0.42mm

M73 P0 R13
M201 X1250 Y1250 Z400 E5000 ; sets maximum accelerations, mm/sec^2
M203 X180 Y180 Z12 E80 ; sets maximum feedrates, mm/sec
M204 P1250 R1250 T1250 ; sets acceleration (P, T) and retract acceleration (R), mm/sec^2
M205 X8.00 Y8.00 Z2.00 E10.00 ; sets the jerk limits, mm/sec
M205 S0 T0 ; sets the minimum extruding and travel feed rate, mm/sec
M107
;TYPE:Custom
G90 ; use absolute coordinates
M83 ; extruder relative mode
M104 S170 ; set extruder temp for bed leveling
M140 S60 ; set bed temp
M109 R170 ; wait for bed leveling temp
M190 S60 ; wait for bed temp
G28 ; home all without mesh bed level
G29 ; mesh bed leveling 
M104 S215 ; set extruder temp
G92 E0.0
G1 Y-2.0 X179 F2400
G1 Z3 F720
M109 S215 ; wait for extruder temp

; intro line
G1 X170 F1000
G1 Z0.2 F720
G1 X110.0 E8.0 F900
M73 P1 R13
G1 X40.0 E10.0 F700
G92 E0.0

M221 S95 ; set flow
G21 ; set units to millimeters
G90 ; use absolute coordinates
M83 ; use relative distances for extrusion
M900 K0.2 ; Filament gcode LA 1.5
; ; Filament gcode LA 1.0
;LAYER_CHANGE
;Z:0.2
;HEIGHT:0.2
;BEFORE_LAYER_CHANGE
G92 E0.0
;0.2


G1 E-3.20000 F4200.000
G1 Z0.200 F9000.000
;AFTER_LAYER_CHANGE
;0.2
G1 Z0.400
G1 X50.712 Y72.188
M73 P2 R13
G1 Z0.200
G1 E3.20000 F2400.000
M204 S800
;TYPE:Skirt
;WIDTH:0.42
G1 F1200.000
G1 X51.266 Y71.836 E0.02060
G1 X51.742 Y71.678 E0.01574
G1 X52.245 Y71.623 E0.01585
G1 X127.754 Y71.623 E2.36752
G1 X128.645 Y71.798 E0.02849
G1 X129.409 Y72.297 E0.02860
G1 X129.928 Y73.048 E0.02860
G1 X130.126 Y73.934 E0.02849
G1 X130.125 Y106.095 E1.00839
G1 X130.010 Y106.738 E0.02048
G1 X129.721 Y107.328 E0.02060
G1 X129.286 Y107.815 E0.02048
G1 X128.734 Y108.164 E0.02048
G1 X128.258 Y108.322 E0.01574
G1 X127.755 Y108.377 E0.01585
G1 X52.216 Y108.377 E2.36848
M73 P3 R13
G1 X51.552 Y108.272 E0.02107
G1 X50.947 Y107.988 E0.02095
G1 X50.445 Y107.547 E0.02095
G1 X50.086 Y106.984 E0.02095
G1 X49.929 Y106.511 E0.01562
G1 X49.873 Y106.016 E0.01562
G1 X49.874 Y73.920 E1.00636
G1 X49.988 Y73.269 E0.02071
G1 X50.274 Y72.678 E0.02060
G1 X50.672 Y72.233 E0.01871
M204 S1250
; printing object Battery03.stl id:0 copy 0
G1 E-2.24000 F4200.000
;WIPE_START
G1 F7200.000
G1 X51.266 Y71.836 E-0.39609
G1 X51.742 Y71.678 E-0.27811
G1 X52.169 Y71.631 E-0.23780
;WIPE_END
G1 E-0.04800 F4200.000
G1 Z0.400 F9000.000
G1 X65.713 Y76.213
G1 Z0.200
G1 E3.20000 F2400.000
M204 S800
;TYPE:Perimeter
G1 F1200.000
G1 X114.287 Y76.213 E1.52301
G1 X114.287 Y103.787 E0.86457
G1 X65.713 Y103.787 E1.52301
M73 P4 R13
G1 X65.713 Y76.273 E0.86269
M204 S1250
G1 X66.090 Y76.590 F9000.000
M204 S800
;TYPE:External perimeter
G1 F1200.000
G1 X113.910 Y76.590 E1.49936
G1 X113.910 Y103.410 E0.84092
G1 X66.090 Y103.410 E1.49936
M73 P5 R13
G1 X66.090 Y76.650 E0.83904
M204 S1250
G1 X65.952 Y76.215 F9000.000
G1 E-2.24000 F4200.000
;WIPE_START
G1 F7200.000
G1 X67.736 Y76.648 E-0.91200
;WIPE_END
G1 E-0.04800 F4200.000
G1 Z0.400 F9000.000
G1 X62.426 Y80.295
G1 Z0.200
G1 E3.20000 F2400.000
M204 S800
;TYPE:Perimeter
G1 F1200.000
G1 X62.747 Y80.685 E0.01584
G1 X62.979 Y81.134 E0.01584
G1 X63.109 Y81.612 E0.01552
G1 X63.140 Y81.968 E0.01122
G1 X63.096 Y82.461 E0.01552
G1 X62.950 Y82.934 E0.01552
G1 X62.786 Y83.252 E0.01122
G1 X62.485 Y83.645 E0.01552
G1 X62.101 Y83.973 E0.01584
G1 X61.656 Y84.213 E0.01584
G1 X61.181 Y84.350 E0.01552
G1 X60.825 Y84.388 E0.01122
G1 X60.331 Y84.353 E0.01552
G1 X59.856 Y84.215 E0.01552
G1 X59.535 Y84.057 E0.01122
G1 X59.137 Y83.763 E0.01552
G1 X58.802 Y83.385 E0.01584
G1 X58.555 Y82.944 E0.01584
G1 X58.408 Y82.471 E0.01552
G1 X58.364 Y82.116 E0.01122
G1 X58.390 Y81.632 E0.01519
G1 X58.471 Y81.284 E0.01122
G1 X58.667 Y80.829 E0.01552
G1 X58.959 Y80.417 E0.01584
G1 X59.332 Y80.076 E0.01584
G1 X59.768 Y79.821 E0.01584
G1 X60.247 Y79.663 E0.01581
G1 X60.719 Y79.611 E0.01488
G1 X61.095 Y79.635 E0.01183
G1 X61.577 Y79.757 E0.01558
G1 X62.030 Y79.981 E0.01584
G1 X62.379 Y80.258 E0.01396
M204 S1250
G1 X62.145 Y80.553 F9000.000
M204 S800
;TYPE:External perimeter
G1 F1200.000
G1 X62.431 Y80.894 E0.01394
G1 X62.626 Y81.271 E0.01333
G1 X62.736 Y81.678 E0.01321
G1 X62.762 Y81.968 E0.00913
G1 X62.724 Y82.388 E0.01321
G1 X62.600 Y82.791 E0.01321
G1 X62.466 Y83.049 E0.00913
G1 X62.210 Y83.384 E0.01321
G1 X61.887 Y83.660 E0.01333
G1 X61.512 Y83.862 E0.01333
G1 X61.108 Y83.979 E0.01321
G1 X60.818 Y84.010 E0.00913
G1 X60.398 Y83.980 E0.01321
G1 X59.993 Y83.863 E0.01321
G1 X59.732 Y83.734 E0.00913
G1 X59.393 Y83.484 E0.01321
G1 X59.111 Y83.165 E0.01333
G1 X58.903 Y82.794 E0.01333
G1 X58.778 Y82.392 E0.01321
G1 X58.743 Y82.103 E0.00913
G1 X58.765 Y81.686 E0.01310
G1 X58.831 Y81.402 E0.00913
G1 X58.997 Y81.015 E0.01321
G1 X59.244 Y80.668 E0.01333
G1 X59.557 Y80.381 E0.01333
G1 X59.924 Y80.166 E0.01333
G1 X60.328 Y80.034 E0.01332
G1 X60.728 Y79.990 E0.01262
G1 X61.037 Y80.009 E0.00971
G1 X61.446 Y80.113 E0.01324
G1 X61.827 Y80.301 E0.01333
G1 X62.098 Y80.516 E0.01083
M204 S1250
G1 X62.530 Y80.443 F9000.000
G1 E-2.24000 F4200.000
;WIPE_START
G1 F7200.000
G1 X62.431 Y80.894 E-0.27907
G1 X62.626 Y81.271 E-0.23562
G1 X62.736 Y81.678 E-0.23355
G1 X62.762 Y81.968 E-0.16133
G1 X62.761 Y81.973 E-0.00242
;WIPE_END
G1 E-0.04800 F4200.000
G1 Z0.400 F9000.000
G1 X61.095 Y95.635
G1 Z0.200
G1 E3.20000 F2400.000
M204 S800
;TYPE:Perimeter
G1 F1200.000
G1 X61.577 Y95.757 E0.01558
G1 X62.030 Y95.981 E0.01584
G1 X62.426 Y96.295 E0.01584
G1 X62.747 Y96.685 E0.01584
G1 X62.979 Y97.134 E0.01584
G1 X63.109 Y97.612 E0.01552
G1 X63.140 Y97.968 E0.01122
G1 X63.096 Y98.461 E0.01552
G1 X62.950 Y98.934 E0.01552
G1 X62.786 Y99.252 E0.01122
G1 X62.485 Y99.645 E0.01552
G1 X62.109 Y99.966 E0.01552
G1 X61.800 Y100.147 E0.01122
G1 X61.336 Y100.318 E0.01552
G1 X60.835 Y100.389 E0.01584
G1 X60.331 Y100.353 E0.01584
G1 X59.856 Y100.215 E0.01552
G1 X59.535 Y100.057 E0.01122
G1 X59.137 Y99.763 E0.01552
G1 X58.803 Y99.385 E0.01581
G1 X58.569 Y98.973 E0.01488
G1 X58.442 Y98.617 E0.01183
G1 X58.364 Y98.127 E0.01558
G1 X58.390 Y97.632 E0.01552
G1 X58.471 Y97.284 E0.01122
G1 X58.667 Y96.829 E0.01552
G1 X58.959 Y96.417 E0.01584
G1 X59.332 Y96.076 E0.01584
G1 X59.768 Y95.821 E0.01584
G1 X60.247 Y95.663 E0.01581
G1 X60.719 Y95.611 E0.01488
G1 X61.035 Y95.632 E0.00994
M204 S1250
G1 X61.446 Y96.113 F9000.000
M204 S800
;TYPE:External perimeter
G1 F1200.000
G1 X61.827 Y96.301 E0.01333
G1 X62.160 Y96.565 E0.01333
G1 X62.431 Y96.894 E0.01333
G1 X62.626 Y97.271 E0.01333
G1 X62.736 Y97.678 E0.01321
G1 X62.762 Y97.968 E0.00913
G1 X62.724 Y98.388 E0.01321
G1 X62.600 Y98.791 E0.01321
G1 X62.466 Y99.049 E0.00913
G1 X62.210 Y99.384 E0.01321
G1 X61.889 Y99.657 E0.01321
G1 X61.638 Y99.805 E0.00913
G1 X61.243 Y99.950 E0.01321
G1 X60.822 Y100.010 E0.01333
G1 X60.398 Y99.980 E0.01333
G1 X59.993 Y99.863 E0.01321
G1 X59.732 Y99.734 E0.00913
G1 X59.393 Y99.484 E0.01321
G1 X59.111 Y99.165 E0.01332
G1 X58.913 Y98.815 E0.01262
G1 X58.809 Y98.523 E0.00971
G1 X58.742 Y98.106 E0.01324
G1 X58.765 Y97.686 E0.01321
G1 X58.831 Y97.402 E0.00913
G1 X58.997 Y97.015 E0.01321
G1 X59.244 Y96.668 E0.01333
G1 X59.557 Y96.381 E0.01333
G1 X59.924 Y96.166 E0.01333
G1 X60.328 Y96.034 E0.01332
G1 X60.728 Y95.990 E0.01262
G1 X61.037 Y96.009 E0.00971
G1 X61.388 Y96.098 E0.01136
M204 S1250
G1 X61.756 Y95.860 F9000.000
G1 E-2.24000 F4200.000
;WIPE_START
G1 F7200.000
G1 X61.827 Y96.301 E-0.26822
G1 X62.160 Y96.565 E-0.23562
G1 X62.431 Y96.894 E-0.23562
G1 X62.573 Y97.170 E-0.17253
;WIPE_END
G1 E-0.04800 F4200.000
G1 Z0.400 F9000.000
G1 X116.093 Y98.127
G1 Z0.200
G1 E3.20000 F2400.000
M204 S800
;TYPE:Perimeter
G1 F1200.000
G1 X116.120 Y97.622 E0.01584
G1 X116.249 Y97.144 E0.01552
G1 X116.402 Y96.821 E0.01122
G1 X116.689 Y96.417 E0.01552
G1 X117.062 Y96.076 E0.01584
G1 X117.498 Y95.821 E0.01584
G1 X117.977 Y95.663 E0.01581
G1 X118.448 Y95.611 E0.01488
M73 P6 R13
G1 X118.825 Y95.635 E0.01183
G1 X119.307 Y95.757 E0.01558
G1 X119.760 Y95.981 E0.01584
G1 X120.156 Y96.295 E0.01584
G1 X120.477 Y96.685 E0.01584
G1 X120.708 Y97.134 E0.01584
G1 X120.838 Y97.612 E0.01552
G1 X120.869 Y97.958 E0.01089
G1 X120.850 Y98.305 E0.01089
G1 X120.738 Y98.787 E0.01552
G1 X120.522 Y99.244 E0.01584
G1 X120.221 Y99.637 E0.01552
G1 X119.957 Y99.878 E0.01122
G1 X119.539 Y100.143 E0.01552
G1 X119.065 Y100.318 E0.01584
G1 X118.565 Y100.389 E0.01584
G1 X118.071 Y100.354 E0.01552
G1 X117.724 Y100.267 E0.01122
G1 X117.273 Y100.063 E0.01552
G1 X116.866 Y99.763 E0.01584
G1 X116.532 Y99.385 E0.01581
G1 X116.298 Y98.973 E0.01488
G1 X116.172 Y98.617 E0.01183
G1 X116.103 Y98.186 E0.01370
M204 S1250
G1 X116.475 Y98.126 F9000.000
M204 S800
;TYPE:External perimeter
G1 F1200.000
G1 X116.494 Y97.682 E0.01394
G1 X116.605 Y97.275 E0.01321
G1 X116.729 Y97.012 E0.00913
G1 X116.973 Y96.668 E0.01321
G1 X117.287 Y96.381 E0.01333
G1 X117.654 Y96.166 E0.01333
G1 X118.057 Y96.034 E0.01332
G1 X118.457 Y95.990 E0.01262
G1 X118.766 Y96.009 E0.00971
G1 X119.176 Y96.113 E0.01324
G1 X119.557 Y96.301 E0.01333
G1 X119.890 Y96.565 E0.01333
G1 X120.160 Y96.894 E0.01333
G1 X120.355 Y97.271 E0.01333
G1 X120.465 Y97.678 E0.01321
G1 X120.491 Y97.965 E0.00901
G1 X120.475 Y98.251 E0.00901
G1 X120.380 Y98.662 E0.01321
G1 X120.198 Y99.046 E0.01333
G1 X119.942 Y99.381 E0.01321
G1 X119.727 Y99.578 E0.00913
G1 X119.371 Y99.803 E0.01321
G1 X118.972 Y99.950 E0.01333
G1 X118.551 Y100.010 E0.01333
G1 X118.131 Y99.980 E0.01321
G1 X117.849 Y99.909 E0.00913
G1 X117.464 Y99.736 E0.01321
G1 X117.122 Y99.484 E0.01333
G1 X116.841 Y99.165 E0.01332
G1 X116.643 Y98.815 E0.01262
G1 X116.539 Y98.523 E0.00971
G1 X116.484 Y98.185 E0.01073
M204 S1250
G1 X116.119 Y97.944 F9000.000
G1 E-2.24000 F4200.000
;WIPE_START
G1 F7200.000
G1 X116.494 Y97.682 E-0.27908
G1 X116.605 Y97.275 E-0.23355
G1 X116.729 Y97.012 E-0.16133
G1 X116.973 Y96.668 E-0.23355
G1 X116.979 Y96.663 E-0.00450
;WIPE_END
G1 E-0.04800 F4200.000
G1 Z0.400 F9000.000
G1 X117.734 Y84.271
G1 Z0.200
G1 E3.20000 F2400.000
M204 S800
;TYPE:Perimeter
G1 F1200.000
G1 X117.273 Y84.063 E0.01584
G1 X116.866 Y83.763 E0.01584
G1 X116.532 Y83.385 E0.01584
G1 X116.289 Y82.953 E0.01552
G1 X116.171 Y82.615 E0.01122
G1 X116.093 Y82.127 E0.01552
G1 X116.120 Y81.622 E0.01584
G1 X116.249 Y81.144 E0.01552
G1 X116.402 Y80.821 E0.01122
G1 X116.689 Y80.417 E0.01552
G1 X117.062 Y80.076 E0.01584
G1 X117.498 Y79.821 E0.01584
G1 X117.977 Y79.663 E0.01581
G1 X118.448 Y79.611 E0.01488
G1 X118.825 Y79.635 E0.01183
G1 X119.307 Y79.757 E0.01558
G1 X119.760 Y79.981 E0.01584
G1 X120.156 Y80.295 E0.01584
G1 X120.477 Y80.685 E0.01584
G1 X120.708 Y81.134 E0.01584
G1 X120.838 Y81.612 E0.01552
G1 X120.869 Y81.958 E0.01089
G1 X120.850 Y82.305 E0.01089
G1 X120.738 Y82.787 E0.01552
G1 X120.522 Y83.244 E0.01584
G1 X120.221 Y83.637 E0.01552
G1 X119.957 Y83.878 E0.01122
G1 X119.539 Y84.143 E0.01552
G1 X119.065 Y84.318 E0.01584
G1 X118.575 Y84.388 E0.01552
G1 X118.217 Y84.375 E0.01122
G1 X117.792 Y84.284 E0.01364
M204 S1250
G1 X117.871 Y83.915 F9000.000
M204 S800
;TYPE:External perimeter
G1 F1200.000
G1 X117.464 Y83.736 E0.01394
G1 X117.122 Y83.484 E0.01333
G1 X116.841 Y83.165 E0.01333
G1 X116.634 Y82.797 E0.01321
G1 X116.538 Y82.523 E0.00913
G1 X116.472 Y82.106 E0.01321
G1 X116.494 Y81.682 E0.01333
G1 X116.605 Y81.275 E0.01321
G1 X116.729 Y81.012 E0.00913
G1 X116.973 Y80.668 E0.01321
G1 X117.287 Y80.381 E0.01333
G1 X117.654 Y80.166 E0.01333
G1 X118.057 Y80.034 E0.01332
G1 X118.457 Y79.990 E0.01262
G1 X118.766 Y80.009 E0.00971
G1 X119.176 Y80.113 E0.01324
G1 X119.557 Y80.301 E0.01333
G1 X119.890 Y80.565 E0.01333
G1 X120.160 Y80.894 E0.01333
G1 X120.355 Y81.271 E0.01333
G1 X120.465 Y81.678 E0.01321
G1 X120.491 Y81.965 E0.00901
G1 X120.475 Y82.251 E0.00901
G1 X120.380 Y82.662 E0.01321
G1 X120.198 Y83.046 E0.01333
G1 X119.942 Y83.381 E0.01321
G1 X119.727 Y83.578 E0.00913
G1 X119.371 Y83.803 E0.01321
G1 X118.972 Y83.950 E0.01333
G1 X118.555 Y84.010 E0.01321
G1 X118.264 Y83.999 E0.00913
G1 X117.930 Y83.927 E0.01071
M204 S1250
G1 X117.572 Y84.180 F9000.000
G1 E-2.24000 F4200.000
;WIPE_START
G1 F7200.000
G1 X117.464 Y83.736 E-0.27908
G1 X117.122 Y83.484 E-0.23562
G1 X116.841 Y83.165 E-0.23562
G1 X116.698 Y82.911 E-0.16168
;WIPE_END
G1 E-0.04800 F4200.000
G1 Z0.400 F9000.000
G1 X122.963 Y82.213
G1 Z0.200
G1 E3.20000 F2400.000
M204 S800
;TYPE:Perimeter
G1 F1200.000
G1 X122.963 Y97.787 E0.48832
G1 X126.963 Y97.787 E0.12542
G1 X126.963 Y105.213 E0.23283
G1 X53.037 Y105.213 E2.31789
M73 P7 R12
G1 X53.037 Y74.787 E0.95398
G1 X126.963 Y74.787 E2.31789
G1 X126.963 Y82.213 E0.23283
G1 X123.023 Y82.213 E0.12354
M204 S1250
G1 X123.340 Y82.590 F9000.000
M204 S800
;TYPE:External perimeter
G1 F1200.000
G1 X123.340 Y97.410 E0.46467
G1 X127.340 Y97.410 E0.12542
G1 X127.340 Y105.590 E0.25648
G1 X52.660 Y105.590 E2.34154
M73 P8 R12
G1 X52.660 Y74.410 E0.97763
G1 X127.340 Y74.410 E2.34154
M73 P9 R12
G1 X127.340 Y82.590 E0.25648
G1 X123.400 Y82.590 E0.12354
M204 S1250
G1 X122.967 Y82.735 F9000.000
G1 E-2.24000 F4200.000
;WIPE_START
G1 F7200.000
G1 X123.393 Y84.236 E-0.91200
;WIPE_END
G1 E-0.04800 F4200.000
G1 Z0.400 F9000.000
G1 X126.084 Y74.900
G1 Z0.200
G1 E3.20000 F2400.000
M204 S800
;TYPE:Solid infill
;WIDTH:0.421895
G1 F1200.000
G1 X126.680 Y75.497 E0.02659
G1 X126.680 Y76.033 E0.01689
G1 X125.717 Y75.070 E0.04291
G1 X125.181 Y75.070 E0.01689
G1 X126.680 Y76.569 E0.06679
G1 X126.680 Y77.105 E0.01689
G1 X124.645 Y75.070 E0.09068
G1 X124.109 Y75.070 E0.01689
G1 X126.680 Y77.641 E0.11456
G1 X126.680 Y78.177 E0.01689
G1 X123.573 Y75.070 E0.13845
G1 X123.037 Y75.070 E0.01689
G1 X126.680 Y78.713 E0.16233
G1 X126.680 Y79.248 E0.01689
G1 X122.502 Y75.070 E0.18622
G1 X121.966 Y75.070 E0.01689
G1 X126.680 Y79.784 E0.21010
G1 X126.680 Y80.320 E0.01689
G1 X121.430 Y75.070 E0.23399
G1 X120.894 Y75.070 E0.01689
G1 X126.680 Y80.856 E0.25787
G1 X126.680 Y81.392 E0.01689
G1 X120.358 Y75.070 E0.28175
G1 X119.822 Y75.070 E0.01689
G1 X126.680 Y81.930 E0.30568
G1 X126.146 Y81.930 E0.01683
G1 X119.286 Y75.070 E0.30572
G1 X118.750 Y75.070 E0.01689
G1 X125.610 Y81.930 E0.30572
G1 X125.074 Y81.930 E0.01689
G1 X118.214 Y75.070 E0.30572
G1 X117.678 Y75.070 E0.01689
G1 X124.538 Y81.930 E0.30572
G1 X124.002 Y81.930 E0.01689
G1 X117.142 Y75.070 E0.30572
M73 P10 R12
G1 X116.606 Y75.070 E0.01689
G1 X123.466 Y81.930 E0.30572
G1 X122.930 Y81.930 E0.01689
G1 X116.070 Y75.070 E0.30572
G1 X115.534 Y75.070 E0.01689
G1 X122.680 Y82.216 E0.31846
G1 X122.680 Y82.752 E0.01689
G1 X120.979 Y81.050 E0.07582
G1 X120.714 Y80.529 E0.01844
G1 X120.355 Y80.092 E0.01782
G1 X119.912 Y79.740 E0.01782
G1 X119.431 Y79.503 E0.01689
G1 X114.998 Y75.070 E0.19756
G1 X114.462 Y75.070 E0.01689
G1 X118.739 Y79.346 E0.19059
G1 X118.442 Y79.328 E0.00938
G1 X118.210 Y79.353 E0.00736
G1 X113.926 Y75.070 E0.19088
G1 X113.390 Y75.070 E0.01689
G1 X117.758 Y79.437 E0.19464
G1 X117.359 Y79.574 E0.01330
G1 X114.570 Y76.785 E0.12429
G1 X114.570 Y77.321 E0.01689
G1 X117.021 Y79.772 E0.10922
G1 X116.893 Y79.847 E0.00467
G1 X116.719 Y80.006 E0.00743
G1 X114.570 Y77.857 E0.09577
G1 X114.570 Y78.393 E0.01689
G1 X116.447 Y80.270 E0.08363
G1 X116.224 Y80.583 E0.01211
G1 X114.570 Y78.929 E0.07371
G1 X114.570 Y79.465 E0.01689
G1 X116.037 Y80.932 E0.06537
G1 X115.983 Y81.046 E0.00397
G1 X115.904 Y81.336 E0.00945
G1 X114.570 Y80.001 E0.05947
G1 X114.570 Y80.537 E0.01689
G1 X115.828 Y81.795 E0.05605
G1 X115.809 Y82.142 E0.01095
G1 X115.842 Y82.345 E0.00648
G1 X114.400 Y80.903 E0.06424
M204 S1250
G1 E-2.24000 F4200.000
;WIPE_START
G1 F7200.000
G1 X115.564 Y82.067 E-0.91200
;WIPE_END
G1 E-0.04800 F4200.000
G1 Z0.400 F9000.000
G1 X113.884 Y76.100
G1 Z0.200
G1 E3.20000 F2400.000
M204 S800
G1 F1200.000
G1 X112.854 Y75.070 E0.04590
G1 X112.318 Y75.070 E0.01689
G1 X113.179 Y75.930 E0.03834
G1 X112.643 Y75.930 E0.01689
G1 X111.783 Y75.070 E0.03834
G1 X111.247 Y75.070 E0.01689
G1 X112.107 Y75.930 E0.03834
G1 X111.571 Y75.930 E0.01689
G1 X110.711 Y75.070 E0.03834
