; generated by PrusaSlicer 2.3.0+win64 on 2021-08-21 at 15:29:46 UTC


;
;

;
;
; 

; external perimeters extrusion width = 0.45mm
; perimeters extrusion width = 0.45mm
; infill extrusion width = 0.45mm
; solid infill extrusion width = 0.45mm
; top infill extrusion width = 0.40mm
; first layer extrusion width = 0.42mm

M73 P0 R15
M201 X1250 Y1250 Z400 E5000 ; sets maximum accelerations, mm/sec^2
M203 X180 Y180 Z12 E80 ; sets maximum feedrates, mm/sec
M204 P1250 R1250 T1250 ; sets acceleration (P, T) and retract acceleration (R), mm/sec^2
M205 X8.00 Y8.00 Z2.00 E10.00 ; sets the jerk limits, mm/sec
M205 S0 T0 ; sets the minimum extruding and travel feed rate, mm/sec
M107
;TYPE:Custom
G90 ; use absolute coordinates
M83 ; extruder relative mode
M104 S170 ; set extruder temp for bed leveling
M140 S60 ; set bed temp
M109 R170 ; wait for bed leveling temp
M190 S60 ; wait for bed temp
G28 ; home all without mesh bed level
G29 ; mesh bed leveling 
M104 S215 ; set extruder temp
G92 E0.0
G1 Y-2.0 X179 F2400
G1 Z3 F720
M109 S215 ; wait for extruder temp

; intro line
G1 X170 F1000
G1 Z0.2 F720
G1 X110.0 E8.0 F900
M73 P1 R15
G1 X40.0 E10.0 F700
G92 E0.0

M221 S95 ; set flow
G21 ; set units to millimeters
G90 ; use absolute coordinates
M83 ; use relative distances for extrusion
M900 K0.2 ; Filament gcode LA 1.5
; ; Filament gcode LA 1.0
;LAYER_CHANGE
;Z:0.2
;HEIGHT:0.2
;BEFORE_LAYER_CHANGE
G92 E0.0
;0.2


G1 E-3.20000 F4200.000
G1 Z0.200 F9000.000
;AFTER_LAYER_CHANGE
;0.2
G1 Z0.400
G1 X48.938 Y70.708
G1 Z0.200
G1 E3.20000 F2400.000
M204 S800
;TYPE:Skirt
;WIDTH:0.42
G1 F1200.000
G1 X49.485 Y70.350 E0.02048
G1 X49.978 Y70.181 E0.01633
G1 X50.495 Y70.123 E0.01633
G1 X129.504 Y70.123 E2.47726
M73 P2 R15
G1 X130.399 Y70.299 E0.02860
G1 X131.162 Y70.800 E0.02860
G1 X131.678 Y71.548 E0.02849
G1 X131.876 Y72.438 E0.02860
G1 X131.875 Y107.588 E1.10209
G1 X131.763 Y108.227 E0.02036
G1 X131.484 Y108.809 E0.02024
G1 X131.056 Y109.297 E0.02036
G1 X130.515 Y109.650 E0.02024
G1 X130.022 Y109.819 E0.01633
G1 X129.505 Y109.877 E0.01633
G1 X50.466 Y109.877 E2.47822
G1 X49.813 Y109.776 E0.02071
G1 X49.213 Y109.499 E0.02071
G1 X48.713 Y109.067 E0.02071
G1 X48.350 Y108.515 E0.02071
G1 X48.183 Y108.030 E0.01609
G1 X48.123 Y107.516 E0.01621
G1 X48.124 Y72.428 E1.10018
M73 P3 R15
G1 X48.232 Y71.787 E0.02036
G1 X48.512 Y71.197 E0.02048
G1 X48.899 Y70.753 E0.01848
M204 S1250
; printing object Battery01.stl id:0 copy 0
G1 E-2.24000 F4200.000
;WIPE_START
G1 F7200.000
G1 X49.485 Y70.350 E-0.39402
G1 X49.978 Y70.181 E-0.28860
G1 X50.389 Y70.135 E-0.22938
;WIPE_END
G1 E-0.04800 F4200.000
G1 Z0.400 F9000.000
G1 X65.713 Y76.213
G1 Z0.200
G1 E3.20000 F2400.000
M204 S800
;TYPE:Perimeter
G1 F1200.000
G1 X114.287 Y76.213 E1.52301
G1 X114.287 Y103.787 E0.86457
G1 X65.713 Y103.787 E1.52301
G1 X65.713 Y76.273 E0.86269
M204 S1250
G1 X66.090 Y76.590 F9000.000
M204 S800
;TYPE:External perimeter
G1 F1200.000
G1 X113.910 Y76.590 E1.49936
M73 P4 R15
G1 X113.910 Y103.410 E0.84092
G1 X66.090 Y103.410 E1.49936
G1 X66.090 Y76.650 E0.83904
M204 S1250
G1 X65.952 Y76.215 F9000.000
G1 E-2.24000 F4200.000
;WIPE_START
G1 F7200.000
G1 X67.736 Y76.648 E-0.91200
;WIPE_END
G1 E-0.04800 F4200.000
G1 Z0.400 F9000.000
G1 X62.426 Y80.295
G1 Z0.200
G1 E3.20000 F2400.000
M204 S800
;TYPE:Perimeter
G1 F1200.000
G1 X62.747 Y80.685 E0.01584
G1 X62.979 Y81.134 E0.01584
G1 X63.109 Y81.612 E0.01552
G1 X63.140 Y81.968 E0.01122
G1 X63.096 Y82.461 E0.01552
G1 X62.950 Y82.934 E0.01552
G1 X62.786 Y83.252 E0.01122
G1 X62.485 Y83.645 E0.01552
G1 X62.101 Y83.973 E0.01584
G1 X61.656 Y84.213 E0.01584
G1 X61.181 Y84.350 E0.01552
G1 X60.825 Y84.388 E0.01122
G1 X60.331 Y84.353 E0.01552
G1 X59.856 Y84.215 E0.01552
G1 X59.535 Y84.057 E0.01122
G1 X59.137 Y83.763 E0.01552
G1 X58.802 Y83.385 E0.01584
G1 X58.555 Y82.944 E0.01584
G1 X58.408 Y82.471 E0.01552
G1 X58.364 Y82.116 E0.01122
G1 X58.390 Y81.632 E0.01519
G1 X58.471 Y81.284 E0.01122
G1 X58.667 Y80.829 E0.01552
G1 X58.959 Y80.417 E0.01584
G1 X59.332 Y80.076 E0.01584
G1 X59.768 Y79.821 E0.01584
G1 X60.247 Y79.663 E0.01581
G1 X60.719 Y79.611 E0.01488
G1 X61.095 Y79.635 E0.01183
G1 X61.577 Y79.757 E0.01558
G1 X62.030 Y79.981 E0.01584
G1 X62.379 Y80.258 E0.01396
M204 S1250
G1 X62.145 Y80.553 F9000.000
M204 S800
;TYPE:External perimeter
G1 F1200.000
G1 X62.431 Y80.894 E0.01394
G1 X62.626 Y81.271 E0.01333
G1 X62.736 Y81.678 E0.01321
G1 X62.762 Y81.968 E0.00913
G1 X62.724 Y82.388 E0.01321
G1 X62.600 Y82.791 E0.01321
G1 X62.466 Y83.049 E0.00913
G1 X62.210 Y83.384 E0.01321
G1 X61.887 Y83.660 E0.01333
G1 X61.512 Y83.862 E0.01333
G1 X61.108 Y83.979 E0.01321
G1 X60.818 Y84.010 E0.00913
G1 X60.398 Y83.980 E0.01321
G1 X59.993 Y83.863 E0.01321
G1 X59.732 Y83.734 E0.00913
G1 X59.393 Y83.484 E0.01321
G1 X59.111 Y83.165 E0.01333
G1 X58.903 Y82.794 E0.01333
G1 X58.778 Y82.392 E0.01321
G1 X58.743 Y82.103 E0.00913
G1 X58.765 Y81.686 E0.01310
G1 X58.831 Y81.402 E0.00913
G1 X58.997 Y81.015 E0.01321
G1 X59.244 Y80.668 E0.01333
G1 X59.557 Y80.381 E0.01333
G1 X59.924 Y80.166 E0.01333
G1 X60.328 Y80.034 E0.01332
G1 X60.728 Y79.990 E0.01262
G1 X61.037 Y80.009 E0.00971
G1 X61.446 Y80.113 E0.01324
G1 X61.827 Y80.301 E0.01333
G1 X62.098 Y80.516 E0.01083
M204 S1250
G1 X62.530 Y80.443 F9000.000
G1 E-2.24000 F4200.000
;WIPE_START
G1 F7200.000
G1 X62.431 Y80.894 E-0.27907
G1 X62.626 Y81.271 E-0.23562
G1 X62.736 Y81.678 E-0.23355
G1 X62.762 Y81.968 E-0.16133
G1 X62.761 Y81.973 E-0.00242
;WIPE_END
G1 E-0.04800 F4200.000
G1 Z0.400 F9000.000
G1 X61.095 Y95.635
M73 P5 R15
G1 Z0.200
G1 E3.20000 F2400.000
M204 S800
;TYPE:Perimeter
G1 F1200.000
G1 X61.577 Y95.757 E0.01558
G1 X62.030 Y95.981 E0.01584
G1 X62.426 Y96.295 E0.01584
G1 X62.747 Y96.685 E0.01584
G1 X62.979 Y97.134 E0.01584
G1 X63.109 Y97.612 E0.01552
G1 X63.140 Y97.968 E0.01122
G1 X63.096 Y98.461 E0.01552
G1 X62.950 Y98.934 E0.01552
G1 X62.786 Y99.252 E0.01122
G1 X62.485 Y99.645 E0.01552
G1 X62.109 Y99.966 E0.01552
G1 X61.800 Y100.147 E0.01122
G1 X61.336 Y100.318 E0.01552
G1 X60.835 Y100.389 E0.01584
G1 X60.331 Y100.353 E0.01584
G1 X59.856 Y100.215 E0.01552
G1 X59.535 Y100.057 E0.01122
G1 X59.137 Y99.763 E0.01552
G1 X58.803 Y99.385 E0.01581
G1 X58.569 Y98.973 E0.01488
G1 X58.442 Y98.617 E0.01183
G1 X58.364 Y98.127 E0.01558
G1 X58.390 Y97.632 E0.01552
G1 X58.471 Y97.284 E0.01122
G1 X58.667 Y96.829 E0.01552
G1 X58.959 Y96.417 E0.01584
G1 X59.332 Y96.076 E0.01584
G1 X59.768 Y95.821 E0.01584
G1 X60.247 Y95.663 E0.01581
G1 X60.719 Y95.611 E0.01488
G1 X61.035 Y95.632 E0.00994
M204 S1250
G1 X61.446 Y96.113 F9000.000
M204 S800
;TYPE:External perimeter
G1 F1200.000
G1 X61.827 Y96.301 E0.01333
G1 X62.160 Y96.565 E0.01333
G1 X62.431 Y96.894 E0.01333
G1 X62.626 Y97.271 E0.01333
G1 X62.736 Y97.678 E0.01321
G1 X62.762 Y97.968 E0.00913
G1 X62.724 Y98.388 E0.01321
G1 X62.600 Y98.791 E0.01321
G1 X62.466 Y99.049 E0.00913
G1 X62.210 Y99.384 E0.01321
G1 X61.889 Y99.657 E0.01321
G1 X61.638 Y99.805 E0.00913
G1 X61.243 Y99.950 E0.01321
G1 X60.822 Y100.010 E0.01333
G1 X60.398 Y99.980 E0.01333
G1 X59.993 Y99.863 E0.01321
G1 X59.732 Y99.734 E0.00913
G1 X59.393 Y99.484 E0.01321
G1 X59.111 Y99.165 E0.01332
G1 X58.913 Y98.815 E0.01262
G1 X58.809 Y98.523 E0.00971
G1 X58.742 Y98.106 E0.01324
G1 X58.765 Y97.686 E0.01321
G1 X58.831 Y97.402 E0.00913
G1 X58.997 Y97.015 E0.01321
G1 X59.244 Y96.668 E0.01333
G1 X59.557 Y96.381 E0.01333
G1 X59.924 Y96.166 E0.01333
G1 X60.328 Y96.034 E0.01332
G1 X60.728 Y95.990 E0.01262
G1 X61.037 Y96.009 E0.00971
G1 X61.388 Y96.098 E0.01136
M204 S1250
G1 X61.756 Y95.860 F9000.000
G1 E-2.24000 F4200.000
;WIPE_START
G1 F7200.000
G1 X61.827 Y96.301 E-0.26822
G1 X62.160 Y96.565 E-0.23562
G1 X62.431 Y96.894 E-0.23562
G1 X62.573 Y97.170 E-0.17253
;WIPE_END
G1 E-0.04800 F4200.000
G1 Z0.400 F9000.000
G1 X116.093 Y98.127
G1 Z0.200
G1 E3.20000 F2400.000
M204 S800
;TYPE:Perimeter
G1 F1200.000
G1 X116.120 Y97.622 E0.01584
G1 X116.249 Y97.144 E0.01552
G1 X116.402 Y96.821 E0.01122
G1 X116.689 Y96.417 E0.01552
G1 X117.062 Y96.076 E0.01584
G1 X117.498 Y95.821 E0.01584
G1 X117.977 Y95.663 E0.01581
G1 X118.448 Y95.611 E0.01488
G1 X118.825 Y95.635 E0.01183
G1 X119.307 Y95.757 E0.01558
G1 X119.760 Y95.981 E0.01584
G1 X120.156 Y96.295 E0.01584
G1 X120.477 Y96.685 E0.01584
G1 X120.708 Y97.134 E0.01584
G1 X120.838 Y97.612 E0.01552
G1 X120.869 Y97.958 E0.01089
G1 X120.850 Y98.305 E0.01089
G1 X120.738 Y98.787 E0.01552
G1 X120.522 Y99.244 E0.01584
G1 X120.221 Y99.637 E0.01552
G1 X119.957 Y99.878 E0.01122
G1 X119.539 Y100.143 E0.01552
G1 X119.065 Y100.318 E0.01584
G1 X118.565 Y100.389 E0.01584
G1 X118.071 Y100.354 E0.01552
G1 X117.724 Y100.267 E0.01122
G1 X117.273 Y100.063 E0.01552
G1 X116.866 Y99.763 E0.01584
G1 X116.532 Y99.385 E0.01581
G1 X116.298 Y98.973 E0.01488
G1 X116.172 Y98.617 E0.01183
G1 X116.103 Y98.186 E0.01370
M204 S1250
G1 X116.475 Y98.126 F9000.000
M204 S800
;TYPE:External perimeter
G1 F1200.000
G1 X116.494 Y97.682 E0.01394
G1 X116.605 Y97.275 E0.01321
G1 X116.729 Y97.012 E0.00913
G1 X116.973 Y96.668 E0.01321
G1 X117.287 Y96.381 E0.01333
G1 X117.654 Y96.166 E0.01333
G1 X118.057 Y96.034 E0.01332
G1 X118.457 Y95.990 E0.01262
G1 X118.766 Y96.009 E0.00971
G1 X119.176 Y96.113 E0.01324
G1 X119.557 Y96.301 E0.01333
G1 X119.890 Y96.565 E0.01333
G1 X120.160 Y96.894 E0.01333
G1 X120.355 Y97.271 E0.01333
G1 X120.465 Y97.678 E0.01321
G1 X120.491 Y97.965 E0.00901
G1 X120.475 Y98.251 E0.00901
G1 X120.380 Y98.662 E0.01321
G1 X120.198 Y99.046 E0.01333
G1 X119.942 Y99.381 E0.01321
G1 X119.727 Y99.578 E0.00913
G1 X119.371 Y99.803 E0.01321
G1 X118.972 Y99.950 E0.01333
G1 X118.551 Y100.010 E0.01333
G1 X118.131 Y99.980 E0.01321
G1 X117.849 Y99.909 E0.00913
G1 X117.464 Y99.736 E0.01321
G1 X117.122 Y99.484 E0.01333
G1 X116.841 Y99.165 E0.01332
G1 X116.643 Y98.815 E0.01262
G1 X116.539 Y98.523 E0.00971
G1 X116.484 Y98.185 E0.01073
M204 S1250
G1 X116.119 Y97.944 F9000.000
G1 E-2.24000 F4200.000
;WIPE_START
G1 F7200.000
G1 X116.494 Y97.682 E-0.27908
G1 X116.605 Y97.275 E-0.23355
G1 X116.729 Y97.012 E-0.16133
G1 X116.973 Y96.668 E-0.23355
G1 X116.979 Y96.663 E-0.00450
;WIPE_END
G1 E-0.04800 F4200.000
G1 Z0.400 F9000.000
G1 X117.734 Y84.271
G1 Z0.200
G1 E3.20000 F2400.000
M204 S800
;TYPE:Perimeter
G1 F1200.000
G1 X117.273 Y84.063 E0.01584
G1 X116.866 Y83.763 E0.01584
G1 X116.532 Y83.385 E0.01584
G1 X116.289 Y82.953 E0.01552
G1 X116.171 Y82.615 E0.01122
G1 X116.093 Y82.127 E0.01552
G1 X116.120 Y81.622 E0.01584
G1 X116.249 Y81.144 E0.01552
G1 X116.402 Y80.821 E0.01122
G1 X116.689 Y80.417 E0.01552
G1 X117.062 Y80.076 E0.01584
G1 X117.498 Y79.821 E0.01584
G1 X117.977 Y79.663 E0.01581
G1 X118.448 Y79.611 E0.01488
G1 X118.825 Y79.635 E0.01183
G1 X119.307 Y79.757 E0.01558
G1 X119.760 Y79.981 E0.01584
G1 X120.156 Y80.295 E0.01584
G1 X120.477 Y80.685 E0.01584
G1 X120.708 Y81.134 E0.01584
G1 X120.838 Y81.612 E0.01552
G1 X120.869 Y81.958 E0.01089
G1 X120.850 Y82.305 E0.01089
G1 X120.738 Y82.787 E0.01552
G1 X120.522 Y83.244 E0.01584
G1 X120.221 Y83.637 E0.01552
G1 X119.957 Y83.878 E0.01122
G1 X119.539 Y84.143 E0.01552
G1 X119.065 Y84.318 E0.01584
G1 X118.575 Y84.388 E0.01552
G1 X118.217 Y84.375 E0.01122
G1 X117.792 Y84.284 E0.01364
M204 S1250
G1 X117.871 Y83.915 F9000.000
M204 S800
;TYPE:External perimeter
G1 F1200.000
G1 X117.464 Y83.736 E0.01394
G1 X117.122 Y83.484 E0.01333
G1 X116.841 Y83.165 E0.01333
G1 X116.634 Y82.797 E0.01321
G1 X116.538 Y82.523 E0.00913
G1 X116.472 Y82.106 E0.01321
G1 X116.494 Y81.682 E0.01333
G1 X116.605 Y81.275 E0.01321
G1 X116.729 Y81.012 E0.00913
G1 X116.973 Y80.668 E0.01321
G1 X117.287 Y80.381 E0.01333
G1 X117.654 Y80.166 E0.01333
G1 X118.057 Y80.034 E0.01332
G1 X118.457 Y79.990 E0.01262
G1 X118.766 Y80.009 E0.00971
G1 X119.176 Y80.113 E0.01324
G1 X119.557 Y80.301 E0.01333
G1 X119.890 Y80.565 E0.01333
G1 X120.160 Y80.894 E0.01333
G1 X120.355 Y81.271 E0.01333
G1 X120.465 Y81.678 E0.01321
G1 X120.491 Y81.965 E0.00901
G1 X120.475 Y82.251 E0.00901
G1 X120.380 Y82.662 E0.01321
G1 X120.198 Y83.046 E0.01333
G1 X119.942 Y83.381 E0.01321
G1 X119.727 Y83.578 E0.00913
G1 X119.371 Y83.803 E0.01321
G1 X118.972 Y83.950 E0.01333
G1 X118.555 Y84.010 E0.01321
G1 X118.264 Y83.999 E0.00913
G1 X117.930 Y83.927 E0.01071
M204 S1250
G1 X117.572 Y84.180 F9000.000
G1 E-2.24000 F4200.000
;WIPE_START
G1 F7200.000
G1 X117.464 Y83.736 E-0.27908
G1 X117.122 Y83.484 E-0.23562
G1 X116.841 Y83.165 E-0.23562
G1 X116.698 Y82.911 E-0.16168
;WIPE_END
G1 E-0.04800 F4200.000
G1 Z0.400 F9000.000
G1 X123.713 Y80.881
G1 Z0.200
G1 E3.20000 F2400.000
M204 S800
;TYPE:Perimeter
G1 F1200.000
G1 X123.713 Y99.119 E0.57182
G1 X128.713 Y99.119 E0.15677
G1 X128.713 Y106.713 E0.23811
G1 X51.287 Y106.713 E2.42763
M73 P6 R15
G1 X51.287 Y73.287 E1.04804
G1 X128.713 Y73.287 E2.42763
M73 P6 R14
G1 X128.713 Y80.881 E0.23811
G1 X123.773 Y80.881 E0.15489
M204 S1250
G1 X124.090 Y81.258 F9000.000
M204 S800
;TYPE:External perimeter
G1 F1200.000
G1 X124.090 Y98.742 E0.54818
M73 P7 R14
G1 X129.090 Y98.742 E0.15677
G1 X129.090 Y107.090 E0.26176
G1 X50.910 Y107.090 E2.45128
G1 X50.910 Y72.910 E1.07169
G1 X129.090 Y72.910 E2.45128
M73 P8 R14
G1 X129.090 Y81.258 E0.26176
G1 X124.150 Y81.258 E0.15489
M204 S1250
G1 X123.713 Y81.393 F9000.000
G1 E-2.24000 F4200.000
;WIPE_START
G1 F7200.000
G1 X124.144 Y82.904 E-0.91200
;WIPE_END
G1 E-0.04800 F4200.000
G1 Z0.400 F9000.000
G1 X127.837 Y73.400
G1 Z0.200
G1 E3.20000 F2400.000
M204 S800
;TYPE:Solid infill
;WIDTH:0.420298
G1 F1200.000
G1 X128.430 Y73.993 E0.02633
G1 X128.430 Y74.527 E0.01675
G1 X127.473 Y73.570 E0.04248
G1 X126.939 Y73.570 E0.01675
G1 X128.430 Y75.061 E0.06616
G1 X128.430 Y75.594 E0.01675
G1 X126.406 Y73.570 E0.08985
G1 X125.872 Y73.570 E0.01675
G1 X128.430 Y76.128 E0.11353
G1 X128.430 Y76.662 E0.01675
G1 X125.338 Y73.570 E0.13721
G1 X124.804 Y73.570 E0.01675
G1 X128.430 Y77.196 E0.16090
G1 X128.430 Y77.729 E0.01675
G1 X124.271 Y73.570 E0.18458
G1 X123.737 Y73.570 E0.01675
G1 X128.430 Y78.263 E0.20826
G1 X128.430 Y78.797 E0.01675
G1 X123.203 Y73.570 E0.23195
G1 X122.670 Y73.570 E0.01675
G1 X128.430 Y79.330 E0.25563
G1 X128.430 Y79.864 E0.01675
G1 X122.136 Y73.570 E0.27931
G1 X121.602 Y73.570 E0.01675
G1 X128.430 Y80.398 E0.30300
G1 X128.430 Y80.598 E0.00630
G1 X128.097 Y80.598 E0.01045
G1 X121.069 Y73.570 E0.31191
G1 X120.535 Y73.570 E0.01675
G1 X127.563 Y80.598 E0.31191
G1 X127.030 Y80.598 E0.01675
G1 X120.001 Y73.570 E0.31191
G1 X119.467 Y73.570 E0.01675
G1 X126.496 Y80.598 E0.31191
G1 X125.962 Y80.598 E0.01675
G1 X118.934 Y73.570 E0.31191
G1 X118.400 Y73.570 E0.01675
G1 X125.429 Y80.598 E0.31191
M73 P9 R14
G1 X124.895 Y80.598 E0.01675
G1 X117.866 Y73.570 E0.31191
G1 X117.333 Y73.570 E0.01675
G1 X124.361 Y80.598 E0.31191
G1 X123.828 Y80.598 E0.01675
G1 X116.799 Y73.570 E0.31191
G1 X116.265 Y73.570 E0.01675
G1 X123.430 Y80.735 E0.31795
G1 X123.430 Y81.268 E0.01675
G1 X115.732 Y73.570 E0.34163
G1 X115.198 Y73.570 E0.01675
G1 X123.430 Y81.802 E0.36532
G1 X123.430 Y82.336 E0.01675
G1 X114.664 Y73.570 E0.38900
G1 X114.131 Y73.570 E0.01675
G1 X123.430 Y82.869 E0.41268
G1 X123.430 Y83.403 E0.01675
G1 X113.597 Y73.570 E0.43637
G1 X113.063 Y73.570 E0.01675
G1 X118.847 Y79.353 E0.25665
G1 X118.442 Y79.328 E0.01273
G1 X118.303 Y79.343 E0.00440
G1 X112.529 Y73.570 E0.25619
G1 X111.996 Y73.570 E0.01675
G1 X117.837 Y79.411 E0.25923
G1 X117.436 Y79.543 E0.01327
G1 X114.570 Y76.678 E0.12718
G1 X114.570 Y77.211 E0.01675
G1 X117.090 Y79.732 E0.11184
G1 X116.893 Y79.847 E0.00718
G1 X116.777 Y79.953 E0.00490
G1 X114.570 Y77.745 E0.09797
G1 X114.570 Y78.279 E0.01675
G1 X116.499 Y80.208 E0.08560
G1 X116.272 Y80.515 E0.01198
G1 X114.570 Y78.812 E0.07555
G1 X114.570 Y79.346 E0.01675
G1 X116.075 Y80.851 E0.06679
G1 X115.983 Y81.046 E0.00676
G1 X115.930 Y81.240 E0.00631
G1 X114.570 Y79.880 E0.06037
G1 X114.570 Y80.413 E0.01675
G1 X115.834 Y81.677 E0.05609
G1 X115.818 Y82.195 E0.01625
G1 X114.400 Y80.778 E0.06290
M204 S1250
G1 E-2.24000 F4200.000
;WIPE_START
G1 F7200.000
G1 X115.564 Y81.941 E-0.91200
;WIPE_END
G1 E-0.04800 F4200.000
G1 Z0.400 F9000.000
G1 X113.992 Y76.100
G1 Z0.200
G1 E3.20000 F2400.000
M204 S800
G1 F1200.000
G1 X111.462 Y73.570 E0.11227
G1 X110.928 Y73.570 E0.01675
