; generated by PrusaSlicer 2.3.0+win64 on 2021-08-02 at 16:33:31 UTC


;
;

;
;
; 

; external perimeters extrusion width = 0.45mm
; perimeters extrusion width = 0.45mm
; infill extrusion width = 0.45mm
; solid infill extrusion width = 0.45mm
; top infill extrusion width = 0.40mm
; first layer extrusion width = 0.42mm

M73 P0 R23
M201 X1250 Y1250 Z400 E5000 ; sets maximum accelerations, mm/sec^2
M203 X180 Y180 Z12 E80 ; sets maximum feedrates, mm/sec
M204 P1250 R1250 T1250 ; sets acceleration (P, T) and retract acceleration (R), mm/sec^2
M205 X8.00 Y8.00 Z2.00 E10.00 ; sets the jerk limits, mm/sec
M205 S0 T0 ; sets the minimum extruding and travel feed rate, mm/sec
M107
;TYPE:Custom
G90 ; use absolute coordinates
M83 ; extruder relative mode
M104 S170 ; set extruder temp for bed leveling
M140 S60 ; set bed temp
M109 R170 ; wait for bed leveling temp
M190 S60 ; wait for bed temp
G28 ; home all without mesh bed level
G29 ; mesh bed leveling 
M104 S215 ; set extruder temp
G92 E0.0
G1 Y-2.0 X179 F2400
G1 Z3 F720
M109 S215 ; wait for extruder temp

; intro line
G1 X170 F1000
G1 Z0.2 F720
G1 X110.0 E8.0 F900
G1 X40.0 E10.0 F700
G92 E0.0

M221 S95 ; set flow
G21 ; set units to millimeters
G90 ; use absolute coordinates
M83 ; use relative distances for extrusion
M900 K0.2 ; Filament gcode LA 1.5
; ; Filament gcode LA 1.0
;LAYER_CHANGE
;Z:0.2
;HEIGHT:0.2
;BEFORE_LAYER_CHANGE
G92 E0.0
;0.2


M73 P1 R23
G1 E-3.20000 F4200.000
G1 Z0.200 F9000.000
;AFTER_LAYER_CHANGE
;0.2
G1 Z0.400
G1 X80.573 Y123.976
G1 Z0.200
G1 E3.20000 F2400.000
M204 S800
;TYPE:Skirt
;WIDTH:0.42
G1 F1200.000
G1 X79.872 Y123.347 E0.02954
G1 X44.901 Y75.158 E1.86687
M73 P1 R22
G1 X44.368 Y74.251 E0.03298
G1 X44.022 Y73.255 E0.03308
G1 X43.884 Y72.340 E0.02901
G1 X43.920 Y71.287 E0.03304
G1 X44.196 Y70.162 E0.03631
G1 X44.787 Y68.998 E0.04094
G1 X45.538 Y68.107 E0.03655
G1 X46.578 Y67.331 E0.04067
G1 X50.395 Y65.405 E0.13406
G1 X54.707 Y63.441 E0.14858
G1 X58.284 Y61.978 E0.12116
G1 X62.522 Y60.441 E0.14135
G1 X66.013 Y59.335 E0.11483
G1 X69.489 Y58.378 E0.11304
G1 X72.944 Y57.571 E0.11123
G1 X76.387 Y56.909 E0.10994
G1 X79.798 Y56.394 E0.10816
G1 X83.212 Y56.019 E0.10768
G1 X86.600 Y55.788 E0.10646
G1 X90.635 Y55.695 E0.12656
G1 X94.498 Y55.795 E0.12117
G1 X98.030 Y56.046 E0.11100
G1 X102.043 Y56.521 E0.12670
G1 X105.406 Y57.074 E0.10686
G1 X109.416 Y57.920 E0.12850
G1 X112.778 Y58.787 E0.10888
G1 X116.795 Y60.013 E0.13166
G1 X120.163 Y61.202 E0.11200
G1 X123.541 Y62.543 E0.11396
G1 X126.934 Y64.041 E0.11628
G1 X131.004 Y66.038 E0.14216
G1 X133.839 Y67.596 E0.10143
G1 X134.447 Y68.092 E0.02460
G1 X134.962 Y68.655 E0.02391
G1 X135.689 Y69.871 E0.04444
G1 X136.072 Y71.233 E0.04434
G1 X136.085 Y72.662 E0.04482
G1 X135.752 Y73.969 E0.04230
G1 X135.106 Y75.149 E0.04218
G1 X99.854 Y123.655 E1.88010
M73 P2 R22
G1 X99.136 Y124.122 E0.02684
G1 X98.303 Y124.303 E0.02673
G1 X81.464 Y124.284 E0.52799
G1 X80.630 Y123.996 E0.02766
M204 S1250
; printing object RightBoardCradle_02.stl id:1 copy 0
G1 E-2.24000 F4200.000
;WIPE_START
G1 F7200.000
G1 X79.872 Y123.347 E-0.55290
G1 X79.491 Y122.823 E-0.35910
;WIPE_END
G1 E-0.04800 F4200.000
G1 Z0.400 F9000.000
G1 X86.061 Y102.739
G1 Z0.200
G1 E3.20000 F2400.000
M204 S800
;TYPE:Perimeter
G1 F1200.000
G1 X85.580 Y102.685 E0.01518
G1 X85.243 Y102.581 E0.01104
G1 X84.816 Y102.355 E0.01515
G1 X84.457 Y102.048 E0.01480
G1 X84.229 Y101.765 E0.01139
G1 X84.003 Y101.336 E0.01520
G1 X83.880 Y100.880 E0.01480
G1 X83.852 Y100.529 E0.01105
G1 X83.877 Y100.188 E0.01074
G1 X84.002 Y99.721 E0.01515
G1 X84.222 Y99.303 E0.01480
G1 X84.447 Y99.018 E0.01139
G1 X84.807 Y98.708 E0.01487
G1 X85.112 Y98.532 E0.01104
G1 X85.568 Y98.373 E0.01515
G1 X86.037 Y98.319 E0.01480
G1 X86.400 Y98.344 E0.01139
G1 X86.868 Y98.470 E0.01522
G1 X87.296 Y98.696 E0.01518
G1 X87.571 Y98.915 E0.01102
G1 X87.873 Y99.264 E0.01446
G1 X88.056 Y99.578 E0.01139
G1 X88.216 Y100.036 E0.01522
G1 X88.272 Y100.528 E0.01552
G1 X88.216 Y101.020 E0.01552
G1 X88.053 Y101.486 E0.01550
G1 X87.803 Y101.887 E0.01480
G1 X87.557 Y102.154 E0.01139
G1 X87.175 Y102.436 E0.01487
G1 X86.868 Y102.584 E0.01070
G1 X86.542 Y102.685 E0.01070
G1 X86.120 Y102.732 E0.01329
M204 S1250
G1 X86.078 Y102.357 F9000.000
M204 S800
;TYPE:External perimeter
G1 F1200.000
G1 X85.657 Y102.314 E0.01327
G1 X85.388 Y102.231 E0.00883
G1 X85.029 Y102.041 E0.01273
G1 X84.729 Y101.784 E0.01239
G1 X84.546 Y101.556 E0.00916
G1 X84.356 Y101.197 E0.01274
G1 X84.253 Y100.816 E0.01239
G1 X84.230 Y100.528 E0.00904
G1 X84.251 Y100.251 E0.00872
G1 X84.356 Y99.859 E0.01273
G1 X84.540 Y99.509 E0.01239
G1 X84.721 Y99.280 E0.00916
G1 X85.026 Y99.017 E0.01263
G1 X85.270 Y98.876 E0.00883
G1 X85.653 Y98.742 E0.01273
G1 X86.045 Y98.697 E0.01239
G1 X86.337 Y98.718 E0.00916
G1 X86.730 Y98.823 E0.01275
G1 X87.089 Y99.013 E0.01273
G1 X87.309 Y99.188 E0.00882
G1 X87.565 Y99.484 E0.01227
G1 X87.712 Y99.736 E0.00916
G1 X87.846 Y100.120 E0.01275
G1 X87.892 Y100.528 E0.01286
G1 X87.846 Y100.935 E0.01286
G1 X87.711 Y101.322 E0.01285
G1 X87.501 Y101.657 E0.01239
G1 X87.304 Y101.872 E0.00916
G1 X86.980 Y102.112 E0.01263
G1 X86.729 Y102.232 E0.00870
G1 X86.464 Y102.314 E0.00870
G1 X86.138 Y102.351 E0.01030
M204 S1250
G1 X85.876 Y102.703 F9000.000
G1 E-2.24000 F4200.000
;WIPE_START
G1 F7200.000
G1 X85.657 Y102.314 E-0.26713
G1 X85.388 Y102.231 E-0.15602
G1 X85.029 Y102.041 E-0.22494
G1 X84.729 Y101.784 E-0.21900
G1 X84.678 Y101.721 E-0.04491
;WIPE_END
G1 E-0.04800 F4200.000
G1 Z0.400 F9000.000
G1 X82.566 Y121.141
G1 Z0.200
G1 E3.20000 F2400.000
M204 S800
;TYPE:Perimeter
G1 F1200.000
G1 X82.566 Y81.784 E1.23401
G1 X97.434 Y81.784 E0.46618
G1 X97.434 Y121.141 E1.23401
G1 X82.626 Y121.141 E0.46430
M204 S1250
G1 X82.189 Y121.518 F9000.000
M204 S800
;TYPE:External perimeter
G1 F1200.000
G1 X82.189 Y81.407 E1.25766
G1 X97.811 Y81.407 E0.48983
G1 X97.811 Y121.518 E1.25766
M73 P3 R22
G1 X82.249 Y121.518 E0.48795
M204 S1250
G1 X82.238 Y121.121 F9000.000
G1 E-2.24000 F4200.000
;WIPE_START
G1 F7200.000
G1 X82.246 Y119.872 E-0.91200
;WIPE_END
G1 E-0.04800 F4200.000
G1 Z0.400 F9000.000
G1 X97.321 Y82.667
G1 Z0.200
G1 E3.20000 F2400.000
M204 S800
;TYPE:Solid infill
;WIDTH:0.423684
G1 F1200.000
G1 X96.721 Y82.067 E0.02688
G1 X96.182 Y82.067 E0.01705
G1 X97.151 Y83.036 E0.04340
G1 X97.151 Y83.574 E0.01705
G1 X95.644 Y82.067 E0.06751
G1 X95.105 Y82.067 E0.01705
G1 X97.151 Y84.113 E0.09162
G1 X97.151 Y84.651 E0.01705
G1 X94.567 Y82.067 E0.11573
G1 X94.028 Y82.067 E0.01705
G1 X97.151 Y85.190 E0.13984
G1 X97.151 Y85.728 E0.01705
G1 X93.490 Y82.067 E0.16395
G1 X92.951 Y82.067 E0.01705
G1 X97.151 Y86.267 E0.18806
G1 X97.151 Y86.805 E0.01705
G1 X92.413 Y82.067 E0.21217
G1 X91.874 Y82.067 E0.01705
G1 X97.151 Y87.344 E0.23628
G1 X97.151 Y87.882 E0.01705
G1 X91.336 Y82.067 E0.26039
G1 X90.797 Y82.067 E0.01705
G1 X97.151 Y88.421 E0.28450
G1 X97.151 Y88.959 E0.01705
G1 X90.259 Y82.067 E0.30861
G1 X89.720 Y82.067 E0.01705
G1 X97.151 Y89.498 E0.33272
G1 X97.151 Y90.036 E0.01705
G1 X89.182 Y82.067 E0.35683
G1 X88.643 Y82.067 E0.01705
G1 X97.151 Y90.574 E0.38094
G1 X97.151 Y91.113 E0.01705
G1 X88.105 Y82.067 E0.40505
G1 X87.566 Y82.067 E0.01705
G1 X97.151 Y91.651 E0.42916
G1 X97.151 Y92.190 E0.01705
G1 X87.028 Y82.067 E0.45327
G1 X86.489 Y82.067 E0.01705
G1 X97.151 Y92.728 E0.47738
G1 X97.151 Y93.267 E0.01705
G1 X85.951 Y82.067 E0.50149
G1 X85.413 Y82.067 E0.01705
G1 X97.151 Y93.805 E0.52561
G1 X97.151 Y94.344 E0.01705
G1 X84.874 Y82.067 E0.54972
G1 X84.336 Y82.067 E0.01705
M73 P4 R22
G1 X97.151 Y94.882 E0.57383
G1 X97.151 Y95.421 E0.01705
G1 X83.797 Y82.067 E0.59794
G1 X83.259 Y82.067 E0.01705
G1 X97.151 Y95.959 E0.62205
G1 X97.151 Y96.498 E0.01705
G1 X82.849 Y82.195 E0.64040
G1 X82.849 Y82.734 E0.01705
G1 X97.151 Y97.036 E0.64040
G1 X97.151 Y97.575 E0.01705
G1 X82.849 Y83.272 E0.64040
G1 X82.849 Y83.811 E0.01705
G1 X97.151 Y98.113 E0.64040
G1 X97.151 Y98.652 E0.01705
G1 X82.849 Y84.349 E0.64040
G1 X82.849 Y84.887 E0.01705
G1 X97.151 Y99.190 E0.64040
G1 X97.151 Y99.729 E0.01705
G1 X82.849 Y85.426 E0.64040
G1 X82.849 Y85.964 E0.01705
G1 X97.151 Y100.267 E0.64040
G1 X97.151 Y100.806 E0.01705
G1 X82.849 Y86.503 E0.64040
G1 X82.849 Y87.041 E0.01705
G1 X97.151 Y101.344 E0.64040
G1 X97.151 Y101.883 E0.01705
G1 X82.849 Y87.580 E0.64040
M73 P5 R22
G1 X82.849 Y88.118 E0.01705
G1 X97.151 Y102.421 E0.64040
G1 X97.151 Y102.960 E0.01705
G1 X82.849 Y88.657 E0.64040
G1 X82.849 Y89.195 E0.01705
G1 X97.151 Y103.498 E0.64040
G1 X97.151 Y104.037 E0.01705
G1 X82.849 Y89.734 E0.64040
G1 X82.849 Y90.272 E0.01705
G1 X97.151 Y104.575 E0.64040
G1 X97.151 Y105.113 E0.01705
G1 X82.849 Y90.811 E0.64040
G1 X82.849 Y91.349 E0.01705
G1 X97.151 Y105.652 E0.64040
G1 X97.151 Y106.190 E0.01705
G1 X82.849 Y91.888 E0.64040
M73 P5 R21
G1 X82.849 Y92.426 E0.01705
G1 X97.151 Y106.729 E0.64040
G1 X97.151 Y107.267 E0.01705
G1 X82.849 Y92.965 E0.64040
G1 X82.849 Y93.503 E0.01705
G1 X97.151 Y107.806 E0.64040
G1 X97.151 Y108.344 E0.01705
G1 X88.340 Y99.533 E0.39454
G1 X88.314 Y99.459 E0.00249
G1 X88.104 Y99.099 E0.01319
G1 X87.768 Y98.710 E0.01626
G1 X87.452 Y98.458 E0.01280
G1 X87.056 Y98.249 E0.01418
G1 X82.849 Y94.042 E0.18838
G1 X82.849 Y94.580 E0.01705
G1 X86.324 Y98.055 E0.15560
M73 P6 R21
G1 X86.031 Y98.035 E0.00930
G1 X85.792 Y98.062 E0.00761
G1 X82.849 Y95.119 E0.13179
G1 X82.849 Y95.657 E0.01705
G1 X85.343 Y98.152 E0.11169
G1 X84.951 Y98.298 E0.01325
G1 X82.849 Y96.196 E0.09415
G1 X82.849 Y96.734 E0.01705
G1 X84.615 Y98.500 E0.07908
G1 X84.325 Y98.749 E0.01209
G1 X82.849 Y97.273 E0.06612
G1 X82.849 Y97.811 E0.01705
G1 X84.073 Y99.035 E0.05482
G1 X83.984 Y99.148 E0.00455
G1 X83.868 Y99.369 E0.00790
G1 X82.849 Y98.350 E0.04564
G1 X82.849 Y98.888 E0.01705
G1 X83.704 Y99.743 E0.03828
G1 X83.595 Y100.173 E0.01403
G1 X82.849 Y99.426 E0.03341
G1 X82.849 Y99.965 E0.01705
G1 X83.766 Y100.883 E0.04109
M204 S1250
G1 E-2.24000 F4200.000
;WIPE_START
G1 F7200.000
G1 X82.849 Y99.965 E-0.71921
G1 X82.849 Y99.617 E-0.19279
;WIPE_END
G1 E-0.04800 F4200.000
G1 Z0.400 F9000.000
G1 X88.333 Y100.065
G1 Z0.200
G1 E3.20000 F2400.000
M204 S800
G1 F1200.000
G1 X97.151 Y108.883 E0.39483
G1 X97.151 Y109.421 E0.01705
G1 X88.526 Y100.796 E0.38620
G1 X88.494 Y101.083 E0.00915
G1 X88.437 Y101.245 E0.00544
G1 X97.151 Y109.960 E0.39019
G1 X97.151 Y110.498 E0.01705
G1 X88.291 Y101.638 E0.39670
G1 X88.084 Y101.970 E0.01237
G1 X97.151 Y111.037 E0.40598
G1 X97.151 Y111.575 E0.01705
G1 X87.840 Y102.264 E0.41691
G1 X87.746 Y102.366 E0.00438
G1 X87.549 Y102.511 E0.00777
G1 X97.151 Y112.114 E0.42994
G1 X97.151 Y112.652 E0.01705
G1 X87.225 Y102.726 E0.44446
G1 X86.971 Y102.848 E0.00891
G1 X86.847 Y102.886 E0.00412
G1 X97.151 Y113.191 E0.46138
G1 X97.151 Y113.729 E0.01705
G1 X86.406 Y102.984 E0.48110
G1 X86.061 Y103.023 E0.01102
G1 X85.887 Y103.004 E0.00552
G1 X97.151 Y114.268 E0.50434
G1 X97.151 Y114.806 E0.01705
G1 X85.212 Y102.867 E0.53457
G1 X85.134 Y102.843 E0.00258
G1 X84.656 Y102.590 E0.01714
G1 X84.253 Y102.245 E0.01678
G1 X83.992 Y101.921 E0.01319
G1 X83.738 Y101.440 E0.01721
G1 X83.720 Y101.375 E0.00213
G1 X82.849 Y100.503 E0.03904
G1 X82.849 Y101.042 E0.01705
G1 X97.151 Y115.345 E0.64040
G1 X97.151 Y115.883 E0.01705
G1 X82.849 Y101.580 E0.64040
G1 X82.849 Y102.119 E0.01705
G1 X97.151 Y116.422 E0.64040
M73 P7 R21
G1 X97.151 Y116.960 E0.01705
G1 X82.849 Y102.657 E0.64040
G1 X82.849 Y103.196 E0.01705
G1 X97.151 Y117.499 E0.64040
G1 X97.151 Y118.037 E0.01705
G1 X82.849 Y103.734 E0.64040
G1 X82.849 Y104.273 E0.01705
G1 X97.151 Y118.576 E0.64040
G1 X97.151 Y119.114 E0.01705
G1 X82.849 Y104.811 E0.64040
G1 X82.849 Y105.350 E0.01705
G1 X97.151 Y119.652 E0.64040
G1 X97.151 Y120.191 E0.01705
G1 X82.849 Y105.888 E0.64040
G1 X82.849 Y106.427 E0.01705
G1 X97.151 Y120.729 E0.64040
G1 X97.151 Y120.858 E0.00407
G1 X96.741 Y120.858 E0.01298
G1 X82.849 Y106.965 E0.62204
G1 X82.849 Y107.504 E0.01705
G1 X96.203 Y120.858 E0.59793
G1 X95.664 Y120.858 E0.01705
G1 X82.849 Y108.042 E0.57382
G1 X82.849 Y108.581 E0.01705
G1 X95.126 Y120.858 E0.54971
G1 X94.587 Y120.858 E0.01705
G1 X82.849 Y109.119 E0.52560
G1 X82.849 Y109.658 E0.01705
G1 X94.049 Y120.858 E0.50149
M73 P8 R21
G1 X93.510 Y120.858 E0.01705
G1 X82.849 Y110.196 E0.47738
G1 X82.849 Y110.735 E0.01705
G1 X92.972 Y120.858 E0.45327
G1 X92.433 Y120.858 E0.01705
G1 X82.849 Y111.273 E0.42916
G1 X82.849 Y111.812 E0.01705
G1 X91.895 Y120.858 E0.40505
G1 X91.357 Y120.858 E0.01705
G1 X82.849 Y112.350 E0.38094
G1 X82.849 Y112.889 E0.01705
G1 X90.818 Y120.858 E0.35683
G1 X90.280 Y120.858 E0.01705
G1 X82.849 Y113.427 E0.33272
G1 X82.849 Y113.965 E0.01705
G1 X89.741 Y120.858 E0.30861
G1 X89.203 Y120.858 E0.01705
G1 X82.849 Y114.504 E0.28450
G1 X82.849 Y115.042 E0.01705
G1 X88.664 Y120.858 E0.26039
G1 X88.126 Y120.858 E0.01705
G1 X82.849 Y115.581 E0.23628
G1 X82.849 Y116.119 E0.01705
G1 X87.587 Y120.858 E0.21217
G1 X87.049 Y120.858 E0.01705
G1 X82.849 Y116.658 E0.18805
G1 X82.849 Y117.196 E0.01705
G1 X86.510 Y120.858 E0.16394
G1 X85.972 Y120.858 E0.01705
G1 X82.849 Y117.735 E0.13983
G1 X82.849 Y118.273 E0.01705
G1 X85.433 Y120.858 E0.11572
G1 X84.895 Y120.858 E0.01705
G1 X82.849 Y118.812 E0.09161
G1 X82.849 Y119.350 E0.01705
G1 X84.356 Y120.858 E0.06750
G1 X83.818 Y120.858 E0.01705
G1 X82.849 Y119.889 E0.04339
G1 X82.849 Y120.427 E0.01705
G1 X83.449 Y121.028 E0.02688
M204 S1250
; stop printing object RightBoardCradle_02.stl id:1 copy 0
; printing object BoardMountStrut1.stl id:0 copy 0
G1 E-2.24000 F4200.000
;WIPE_START
G1 F7200.000
G1 X82.849 Y120.427 E-0.47047
G1 X82.849 Y119.889 E-0.29841
G1 X83.031 Y120.071 E-0.14312
;WIPE_END
G1 E-0.04800 F4200.000
G1 Z0.400 F9000.000
G1 X50.578 Y73.801
G1 Z0.200
G1 E3.20000 F2400.000
M204 S800
;TYPE:Perimeter
;WIDTH:0.42
G1 F1200.000
G1 X50.470 Y73.618 E0.00665
G1 X50.580 Y73.544 E0.00414
G1 X50.815 Y73.304 E0.01053
G1 X51.009 Y73.030 E0.01053
G1 X51.196 Y72.607 E0.01450
G1 X51.272 Y72.268 E0.01090
G1 X51.281 Y71.806 E0.01450
G1 X51.219 Y71.464 E0.01090
G1 X51.048 Y71.034 E0.01450
G1 X50.859 Y70.743 E0.01090
G1 X50.535 Y70.413 E0.01449
G1 X50.258 Y70.224 E0.01053
G1 X49.953 Y70.082 E0.01053
G1 X49.504 Y69.973 E0.01450
G1 X49.169 Y69.959 E0.01053
G1 X48.835 Y69.999 E0.01053
G1 X48.608 Y70.074 E0.00750
G1 X48.527 Y69.881 E0.00655
G1 X49.643 Y69.305 E0.03938
G1 X51.763 Y68.258 E0.07415
G1 X53.869 Y67.272 E0.07291
G1 X55.962 Y66.346 E0.07175
G1 X58.041 Y65.478 E0.07065
G1 X60.108 Y64.667 E0.06961
G1 X62.163 Y63.913 E0.06862
G1 X64.207 Y63.215 E0.06773
G1 X65.561 Y62.780 E0.04458
G1 X67.588 Y62.172 E0.06636
G1 X68.930 Y61.797 E0.04369
G1 X70.941 Y61.277 E0.06512
G1 X72.273 Y60.960 E0.04293
G1 X74.270 Y60.527 E0.06408
G1 X75.593 Y60.267 E0.04229
G1 X77.578 Y59.918 E0.06318
G1 X78.893 Y59.714 E0.04173
G1 X80.866 Y59.448 E0.06242
G1 X82.174 Y59.299 E0.04127
G1 X84.137 Y59.116 E0.06181
G1 X85.438 Y59.022 E0.04091
G1 X87.391 Y58.920 E0.06129
G1 X89.337 Y58.868 E0.06104
G1 X91.248 Y58.863 E0.05991
G1 X92.569 Y58.887 E0.04145
G1 X94.508 Y58.963 E0.06083
G1 X96.414 Y59.085 E0.05987
G1 X97.733 Y59.197 E0.04152
G1 X99.670 Y59.402 E0.06107
G1 X100.957 Y59.565 E0.04068
G1 X102.893 Y59.851 E0.06138
G1 X104.181 Y60.068 E0.04093
G1 X106.117 Y60.436 E0.06181
G1 X107.405 Y60.707 E0.04126
G1 X109.343 Y61.157 E0.06239
G1 X110.632 Y61.484 E0.04169
G1 X112.541 Y62.009 E0.06206
M73 P9 R21
G1 X113.864 Y62.401 E0.04327
G1 X115.810 Y63.020 E0.06402
G1 X117.105 Y63.461 E0.04291
G1 X119.057 Y64.167 E0.06508
G1 X121.013 Y64.926 E0.06577
G1 X122.975 Y65.739 E0.06659
G1 X124.283 Y66.311 E0.04477
G1 X126.255 Y67.216 E0.06802
G1 X128.231 Y68.177 E0.06892
G1 X130.215 Y69.196 E0.06991
G1 X131.495 Y69.889 E0.04565
G1 X131.424 Y70.075 E0.00623
G1 X131.004 Y69.973 E0.01354
G1 X130.657 Y69.959 E0.01090
G1 X130.200 Y70.032 E0.01449
G1 X129.886 Y70.150 E0.01053
G1 X129.594 Y70.316 E0.01053
G1 X129.245 Y70.619 E0.01450
G1 X129.033 Y70.894 E0.01090
G1 X128.829 Y71.309 E0.01449
G1 X128.740 Y71.645 E0.01090
G1 X128.712 Y72.118 E0.01487
G1 X128.796 Y72.585 E0.01487
G1 X128.920 Y72.897 E0.01053
G1 X129.092 Y73.186 E0.01053
G1 X129.402 Y73.528 E0.01450
G1 X129.498 Y73.599 E0.00372
G1 X129.386 Y73.777 E0.00658
