; generated by PrusaSlicer 2.2.0+win64 on 2020-09-24 at 17:27:06 UTC


;
;

;
;
; 

; external perimeters extrusion width = 0.45mm
; perimeters extrusion width = 0.45mm
; infill extrusion width = 0.45mm
; solid infill extrusion width = 0.45mm
; top infill extrusion width = 0.40mm
; first layer extrusion width = 0.42mm

M73 P0 R113
M201 X1250 Y1250 Z400 E5000 ; sets maximum accelerations, mm/sec^2
M203 X180 Y180 Z12 E80 ; sets maximum feedrates, mm/sec
M204 P1250 R1250 T1250 ; sets acceleration (P, T) and retract acceleration (R), mm/sec^2
M205 X8.00 Y8.00 Z2.00 E10.00 ; sets the jerk limits, mm/sec
M205 S0 T0 ; sets the minimum extruding and travel feed rate, mm/sec
M107
G90 ; use absolute coordinates
M83 ; extruder relative mode
M104 S170 ; set extruder temp for bed leveling
M140 S60 ; set bed temp
M109 R170 ; wait for bed leveling temp
M190 S60 ; wait for bed temp
G28 ; home all without mesh bed level
G29 ; mesh bed leveling 
M104 S215 ; set extruder temp
G92 E0.0
G1 Y-2.0 X179 F2400
G1 Z3 F720
M109 S215 ; wait for extruder temp

; intro line
G1 X170 F1000
G1 Z0.2 F720
G1 X110.0 E8.0 F900
M73 P0 R113
G1 X40.0 E10.0 F700
G92 E0.0

M221 S95 ; set flow
G21 ; set units to millimeters
G90 ; use absolute coordinates
M83 ; use relative distances for extrusion
M900 K0.2 ; Filament gcode LA 1.5
; ; Filament gcode LA 1.0
;BEFORE_LAYER_CHANGE
G92 E0.0
;0.2


G1 Z0.200 F9000.000
;AFTER_LAYER_CHANGE
;0.2
G1 E-3.20000 F4200.00000
G1 Z0.400 F9000.000
G1 X28.537 Y22.908
G1 Z0.200
G1 E3.20000 F2400.00000
M204 S800
G1 F1200.000
G1 X28.975 Y22.181 E0.02661
G1 X29.344 Y21.841 E0.01574
G1 X29.773 Y21.588 E0.01562
G1 X30.249 Y21.428 E0.01574
G1 X30.744 Y21.373 E0.01562
G1 X149.244 Y21.373 E3.71549
G1 X150.146 Y21.552 E0.02884
G1 X150.910 Y22.058 E0.02872
G1 X151.427 Y22.818 E0.02884
G1 X151.617 Y23.718 E0.02884
G1 X151.617 Y156.262 E4.15580
G1 X151.463 Y157.092 E0.02649
G1 X151.025 Y157.819 E0.02661
G1 X150.656 Y158.159 E0.01574
G1 X150.224 Y158.414 E0.01574
G1 X149.748 Y158.572 E0.01574
G1 X149.245 Y158.627 E0.01585
G1 X30.749 Y158.627 E3.71537
G1 X29.918 Y158.473 E0.02649
G1 X29.191 Y158.036 E0.02661
G1 X28.851 Y157.666 E0.01574
G1 X28.596 Y157.234 E0.01574
G1 X28.438 Y156.758 E0.01574
G1 X28.383 Y156.255 E0.01585
G1 X28.383 Y23.738 E4.15496
G1 X28.526 Y22.967 E0.02461
M204 S1250
G1 E-2.24000 F4200.00000
G1 F7200.000
G1 X28.975 Y22.181 E-0.50157
G1 X29.344 Y21.841 E-0.27811
G1 X29.549 Y21.719 E-0.13232
G1 E-0.04800 F4200.00000
G1 Z0.400 F9000.000
G1 X83.073 Y42.597
G1 Z0.200
G1 E3.20000 F2400.00000
M204 S800
G1 F1200.000
G1 X95.647 Y42.597 E0.39425
G1 X95.647 Y135.525 E2.91370
G1 X83.073 Y135.525 E0.39425
G1 X83.073 Y42.657 E2.91182
M204 S1250
G1 X83.450 Y42.974 F9000.000
M204 S800
G1 F1200.000
G1 X95.270 Y42.974 E0.37061
G1 X95.270 Y135.148 E2.89005
G1 X83.450 Y135.148 E0.37061
G1 X83.450 Y43.034 E2.88817
M204 S1250
G1 X83.433 Y42.575 F9000.000
G1 E-2.24000 F4200.00000
G1 F7200.000
G1 X85.096 Y43.026 E-0.91200
G1 E-0.04800 F4200.00000
G1 Z0.400 F9000.000
G1 X59.633 Y42.597
G1 Z0.200
G1 E3.20000 F2400.00000
M204 S800
G1 F1200.000
G1 X72.207 Y42.597 E0.39425
G1 X72.207 Y135.525 E2.91370
M73 P1 R112
G1 X59.633 Y135.525 E0.39425
G1 X59.633 Y42.657 E2.91182
M204 S1250
G1 X60.010 Y42.974 F9000.000
M204 S800
G1 F1200.000
G1 X71.830 Y42.974 E0.37061
G1 X71.830 Y135.148 E2.89005
G1 X60.010 Y135.148 E0.37061
G1 X60.010 Y43.034 E2.88817
M204 S1250
G1 X59.993 Y42.575 F9000.000
G1 E-2.24000 F4200.00000
G1 F7200.000
G1 X61.656 Y43.026 E-0.91200
G1 E-0.04800 F4200.00000
G1 Z0.400 F9000.000
G1 X32.473 Y42.597
G1 Z0.200
G1 E3.20000 F2400.00000
M204 S800
G1 F1200.000
G1 X48.767 Y42.597 E0.51089
G1 X48.767 Y135.525 E2.91370
G1 X32.473 Y135.525 E0.51089
G1 X32.473 Y42.657 E2.91182
M204 S1250
G1 X32.850 Y42.974 F9000.000
M204 S800
G1 F1200.000
G1 X48.390 Y42.974 E0.48725
G1 X48.390 Y135.148 E2.89005
G1 X32.850 Y135.148 E0.48725
G1 X32.850 Y43.034 E2.88817
M204 S1250
G1 X32.828 Y42.575 F9000.000
G1 E-2.24000 F4200.00000
G1 F7200.000
G1 X34.496 Y43.028 E-0.91200
G1 E-0.04800 F4200.00000
G1 Z0.400 F9000.000
G1 X36.603 Y30.969
G1 Z0.200
G1 E3.20000 F2400.00000
M204 S800
G1 F1200.000
G1 X36.124 Y30.942 E0.01504
G1 X35.785 Y30.856 E0.01096
G1 X35.360 Y30.659 E0.01469
G1 X35.077 Y30.454 E0.01096
G1 X34.747 Y30.106 E0.01504
G1 X34.505 Y29.692 E0.01504
G1 X34.388 Y29.362 E0.01096
G1 X34.316 Y28.888 E0.01504
G1 X34.352 Y28.410 E0.01504
G1 X34.443 Y28.072 E0.01096
G1 X34.649 Y27.652 E0.01469
G1 X34.852 Y27.381 E0.01061
G1 X35.094 Y27.144 E0.01061
G1 X35.493 Y26.878 E0.01504
G1 X35.952 Y26.706 E0.01538
G1 X36.424 Y26.642 E0.01494
G1 X36.777 Y26.662 E0.01106
G1 X37.242 Y26.779 E0.01505
G1 X37.669 Y26.997 E0.01504
G1 X37.945 Y27.212 E0.01096
G1 X38.253 Y27.565 E0.01469
G1 X38.430 Y27.867 E0.01096
G1 X38.587 Y28.308 E0.01469
G1 X38.639 Y28.654 E0.01096
G1 X38.622 Y29.122 E0.01469
G1 X38.543 Y29.462 E0.01096
G1 X38.354 Y29.891 E0.01469
G1 X38.154 Y30.178 E0.01096
G1 X37.820 Y30.506 E0.01469
G1 X37.529 Y30.700 E0.01096
G1 X37.087 Y30.886 E0.01504
G1 X36.662 Y30.959 E0.01351
M204 S1250
G1 X36.598 Y30.587 F9000.000
M204 S800
G1 F1200.000
G1 X36.181 Y30.567 E0.01309
G1 X35.911 Y30.499 E0.00872
G1 X35.552 Y30.332 E0.01244
G1 X35.326 Y30.169 E0.00872
G1 X35.051 Y29.878 E0.01257
G1 X34.848 Y29.532 E0.01257
G1 X34.755 Y29.270 E0.00872
G1 X34.695 Y28.874 E0.01257
G1 X34.725 Y28.474 E0.01257
G1 X34.798 Y28.206 E0.00872
G1 X34.972 Y27.849 E0.01244
G1 X35.136 Y27.630 E0.00859
G1 X35.332 Y27.438 E0.00859
G1 X35.666 Y27.216 E0.01257
G1 X36.045 Y27.074 E0.01269
G1 X36.439 Y27.021 E0.01247
G1 X36.720 Y27.036 E0.00881
G1 X37.109 Y27.134 E0.01257
G1 X37.465 Y27.317 E0.01257
G1 X37.685 Y27.488 E0.00872
G1 X37.946 Y27.786 E0.01244
G1 X38.087 Y28.026 E0.00872
G1 X38.219 Y28.400 E0.01244
G1 X38.261 Y28.675 E0.00872
G1 X38.246 Y29.072 E0.01244
G1 X38.184 Y29.343 E0.00872
G1 X38.023 Y29.706 E0.01244
G1 X37.865 Y29.934 E0.00872
G1 X37.582 Y30.212 E0.01244
G1 X37.350 Y30.366 E0.00872
G1 X36.980 Y30.521 E0.01257
G1 X36.657 Y30.577 E0.01028
M204 S1250
G1 X36.421 Y30.945 F9000.000
G1 E-2.24000 F4200.00000
G1 F7200.000
G1 X36.181 Y30.567 E-0.26388
G1 X35.911 Y30.499 E-0.15412
G1 X35.552 Y30.332 E-0.21989
G1 X35.326 Y30.169 E-0.15413
G1 X35.177 Y30.012 E-0.11998
G1 E-0.04800 F4200.00000
G1 Z0.400 F9000.000
G1 X46.316 Y28.888
G1 Z0.200
G1 E3.20000 F2400.00000
M204 S800
G1 F1200.000
G1 X46.352 Y28.410 E0.01504
G1 X46.443 Y28.072 E0.01096
G1 X46.649 Y27.652 E0.01469
G1 X46.852 Y27.381 E0.01061
G1 X47.094 Y27.144 E0.01061
G1 X47.493 Y26.878 E0.01504
G1 X47.952 Y26.706 E0.01538
G1 X48.424 Y26.642 E0.01494
G1 X48.777 Y26.662 E0.01106
G1 X49.242 Y26.779 E0.01505
G1 X49.669 Y26.997 E0.01504
G1 X49.945 Y27.212 E0.01096
G1 X50.253 Y27.565 E0.01469
G1 X50.430 Y27.867 E0.01096
G1 X50.587 Y28.308 E0.01469
G1 X50.639 Y28.654 E0.01096
G1 X50.622 Y29.122 E0.01469
G1 X50.543 Y29.462 E0.01096
G1 X50.354 Y29.891 E0.01469
G1 X50.154 Y30.178 E0.01096
G1 X49.820 Y30.506 E0.01469
G1 X49.529 Y30.700 E0.01096
G1 X49.087 Y30.886 E0.01504
G1 X48.603 Y30.969 E0.01539
G1 X48.124 Y30.942 E0.01504
G1 X47.785 Y30.856 E0.01096
G1 X47.360 Y30.659 E0.01469
G1 X47.077 Y30.454 E0.01096
G1 X46.747 Y30.106 E0.01504
G1 X46.505 Y29.692 E0.01504
G1 X46.388 Y29.362 E0.01096
G1 X46.325 Y28.948 E0.01316
M204 S1250
G1 X46.697 Y28.891 F9000.000
M204 S800
G1 F1200.000
G1 X46.725 Y28.474 E0.01309
G1 X46.798 Y28.206 E0.00872
G1 X46.972 Y27.849 E0.01244
G1 X47.136 Y27.630 E0.00859
G1 X47.332 Y27.438 E0.00859
G1 X47.666 Y27.216 E0.01257
G1 X48.045 Y27.074 E0.01269
G1 X48.439 Y27.021 E0.01247
G1 X48.720 Y27.036 E0.00881
G1 X49.109 Y27.134 E0.01257
G1 X49.465 Y27.317 E0.01257
G1 X49.685 Y27.488 E0.00872
G1 X49.946 Y27.786 E0.01244
G1 X50.087 Y28.026 E0.00872
G1 X50.219 Y28.400 E0.01244
G1 X50.261 Y28.675 E0.00872
G1 X50.246 Y29.072 E0.01244
G1 X50.184 Y29.343 E0.00872
G1 X50.023 Y29.706 E0.01244
G1 X49.865 Y29.934 E0.00872
G1 X49.582 Y30.212 E0.01244
G1 X49.350 Y30.366 E0.00872
G1 X48.980 Y30.521 E0.01257
G1 X48.581 Y30.590 E0.01269
G1 X48.181 Y30.567 E0.01257
G1 X47.911 Y30.499 E0.00872
G1 X47.552 Y30.332 E0.01244
G1 X47.326 Y30.169 E0.00872
G1 X47.051 Y29.878 E0.01257
G1 X46.848 Y29.532 E0.01257
G1 X46.755 Y29.270 E0.00872
G1 X46.706 Y28.950 E0.01015
M204 S1250
G1 X46.345 Y28.702 F9000.000
G1 E-2.24000 F4200.00000
G1 F7200.000
G1 X46.725 Y28.474 E-0.26388
G1 X46.798 Y28.206 E-0.15412
G1 X46.972 Y27.849 E-0.21990
G1 X47.136 Y27.630 E-0.15190
G1 X47.294 Y27.475 E-0.12220
G1 E-0.04800 F4200.00000
G1 Z0.400 F9000.000
G1 X57.756 Y28.888
G1 Z0.200
G1 E3.20000 F2400.00000
M204 S800
G1 F1200.000
G1 X57.792 Y28.410 E0.01504
G1 X57.880 Y28.083 E0.01061
G1 X58.017 Y27.774 E0.01061
G1 X58.284 Y27.389 E0.01469
G1 X58.534 Y27.144 E0.01096
G1 X58.933 Y26.878 E0.01504
G1 X59.392 Y26.706 E0.01538
G1 X59.864 Y26.642 E0.01494
G1 X60.217 Y26.662 E0.01106
G1 X60.671 Y26.776 E0.01470
G1 X60.988 Y26.923 E0.01096
G1 X61.368 Y27.197 E0.01469
G1 X61.609 Y27.452 E0.01096
G1 X61.860 Y27.846 E0.01469
G1 X61.990 Y28.171 E0.01096
G1 X62.078 Y28.631 E0.01469
G1 X62.078 Y28.981 E0.01096
G1 X61.987 Y29.452 E0.01504
G1 X61.794 Y29.891 E0.01504
G1 X61.601 Y30.169 E0.01061
G1 X61.368 Y30.415 E0.01061
G1 X60.979 Y30.696 E0.01504
G1 X60.527 Y30.886 E0.01539
G1 X60.043 Y30.969 E0.01539
G1 X59.564 Y30.942 E0.01504
G1 X59.236 Y30.859 E0.01061
G1 X58.924 Y30.728 E0.01061
G1 X58.534 Y30.469 E0.01469
G1 X58.284 Y30.224 E0.01096
G1 X58.011 Y29.830 E0.01504
G1 X57.830 Y29.373 E0.01539
G1 X57.765 Y28.948 E0.01351
M204 S1250
G1 X58.137 Y28.891 F9000.000
M204 S800
G1 F1200.000
G1 X58.165 Y28.474 E0.01309
G1 X58.237 Y28.210 E0.00859
G1 X58.348 Y27.959 E0.00859
G1 X58.574 Y27.633 E0.01244
G1 X58.772 Y27.438 E0.00872
G1 X59.106 Y27.216 E0.01257
G1 X59.485 Y27.074 E0.01269
G1 X59.879 Y27.021 E0.01247
G1 X60.160 Y27.036 E0.00881
G1 X60.545 Y27.133 E0.01245
G1 X60.797 Y27.250 E0.00872
G1 X61.119 Y27.482 E0.01244
G1 X61.310 Y27.684 E0.00872
G1 X61.523 Y28.019 E0.01244
G1 X61.626 Y28.277 E0.00872
G1 X61.701 Y28.667 E0.01244
G1 X61.701 Y28.945 E0.00872
G1 X61.625 Y29.339 E0.01257
G1 X61.463 Y29.706 E0.01257
G1 X61.307 Y29.931 E0.00859
G1 X61.119 Y30.130 E0.00859
G1 X60.794 Y30.365 E0.01257
G1 X60.420 Y30.521 E0.01269
G1 X60.021 Y30.590 E0.01269
G1 X59.621 Y30.567 E0.01257
G1 X59.355 Y30.500 E0.00859
G1 X59.103 Y30.394 E0.00859
G1 X58.772 Y30.175 E0.01244
G1 X58.574 Y29.980 E0.00872
G1 X58.345 Y29.650 E0.01257
G1 X58.196 Y29.274 E0.01269
G1 X58.146 Y28.950 E0.01028
M204 S1250
G1 X57.782 Y28.706 F9000.000
G1 E-2.24000 F4200.00000
G1 F7200.000
G1 X58.165 Y28.474 E-0.26388
G1 X58.237 Y28.210 E-0.15190
G1 X58.348 Y27.959 E-0.15190
G1 X58.574 Y27.633 E-0.21990
G1 X58.734 Y27.475 E-0.12442
G1 E-0.04800 F4200.00000
G1 Z0.400 F9000.000
G1 X69.756 Y28.888
G1 Z0.200
G1 E3.20000 F2400.00000
M204 S800
G1 F1200.000
G1 X69.792 Y28.410 E0.01504
G1 X69.880 Y28.083 E0.01061
G1 X70.017 Y27.774 E0.01061
G1 X70.284 Y27.389 E0.01469
G1 X70.534 Y27.144 E0.01096
G1 X70.933 Y26.878 E0.01504
G1 X71.392 Y26.706 E0.01538
G1 X71.864 Y26.642 E0.01494
G1 X72.217 Y26.662 E0.01106
G1 X72.671 Y26.776 E0.01470
G1 X72.988 Y26.923 E0.01096
G1 X73.368 Y27.197 E0.01469
G1 X73.609 Y27.452 E0.01096
G1 X73.860 Y27.846 E0.01469
G1 X73.990 Y28.171 E0.01096
G1 X74.078 Y28.631 E0.01469
G1 X74.078 Y28.981 E0.01096
G1 X73.987 Y29.452 E0.01504
G1 X73.794 Y29.891 E0.01504
G1 X73.601 Y30.169 E0.01061
G1 X73.368 Y30.415 E0.01061
G1 X72.979 Y30.696 E0.01504
G1 X72.527 Y30.886 E0.01539
G1 X72.043 Y30.969 E0.01539
G1 X71.564 Y30.942 E0.01504
G1 X71.236 Y30.859 E0.01061
G1 X70.924 Y30.728 E0.01061
G1 X70.534 Y30.469 E0.01469
G1 X70.284 Y30.224 E0.01096
G1 X70.011 Y29.830 E0.01504
G1 X69.830 Y29.373 E0.01539
G1 X69.765 Y28.948 E0.01351
M204 S1250
G1 X70.137 Y28.891 F9000.000
M204 S800
G1 F1200.000
G1 X70.165 Y28.474 E0.01309
G1 X70.237 Y28.210 E0.00859
G1 X70.348 Y27.959 E0.00859
G1 X70.574 Y27.633 E0.01244
G1 X70.772 Y27.438 E0.00872
G1 X71.106 Y27.216 E0.01257
G1 X71.485 Y27.074 E0.01269
G1 X71.879 Y27.021 E0.01247
G1 X72.160 Y27.036 E0.00881
G1 X72.545 Y27.133 E0.01245
G1 X72.797 Y27.250 E0.00872
G1 X73.119 Y27.482 E0.01244
G1 X73.310 Y27.684 E0.00872
G1 X73.523 Y28.019 E0.01244
G1 X73.626 Y28.277 E0.00872
G1 X73.701 Y28.667 E0.01244
G1 X73.701 Y28.945 E0.00872
G1 X73.625 Y29.339 E0.01257
G1 X73.463 Y29.706 E0.01257
G1 X73.307 Y29.931 E0.00859
G1 X73.119 Y30.130 E0.00859
G1 X72.794 Y30.365 E0.01257
G1 X72.420 Y30.521 E0.01269
G1 X72.021 Y30.590 E0.01269
G1 X71.621 Y30.567 E0.01257
G1 X71.355 Y30.500 E0.00859
G1 X71.103 Y30.394 E0.00859
G1 X70.772 Y30.175 E0.01244
G1 X70.574 Y29.980 E0.00872
G1 X70.345 Y29.650 E0.01257
G1 X70.196 Y29.274 E0.01269
G1 X70.146 Y28.950 E0.01028
M204 S1250
G1 X69.782 Y28.706 F9000.000
G1 E-2.24000 F4200.00000
G1 F7200.000
G1 X70.165 Y28.474 E-0.26388
G1 X70.237 Y28.210 E-0.15190
G1 X70.348 Y27.959 E-0.15190
G1 X70.574 Y27.633 E-0.21990
G1 X70.734 Y27.475 E-0.12442
G1 E-0.04800 F4200.00000
G1 Z0.400 F9000.000
G1 X81.196 Y28.888
G1 Z0.200
G1 E3.20000 F2400.00000
M204 S800
G1 F1200.000
G1 X81.232 Y28.410 E0.01504
G1 X81.323 Y28.072 E0.01096
G1 X81.529 Y27.652 E0.01469
G1 X81.732 Y27.381 E0.01061
G1 X81.974 Y27.144 E0.01061
G1 X82.373 Y26.878 E0.01504
G1 X82.832 Y26.706 E0.01538
G1 X83.304 Y26.642 E0.01494
G1 X83.657 Y26.662 E0.01106
G1 X84.122 Y26.779 E0.01505
G1 X84.549 Y26.997 E0.01504
G1 X84.825 Y27.212 E0.01096
G1 X85.133 Y27.565 E0.01469
G1 X85.310 Y27.867 E0.01096
G1 X85.467 Y28.308 E0.01469
G1 X85.519 Y28.654 E0.01096
G1 X85.502 Y29.122 E0.01469
G1 X85.423 Y29.462 E0.01096
G1 X85.234 Y29.891 E0.01469
G1 X85.034 Y30.178 E0.01096
G1 X84.700 Y30.506 E0.01469
G1 X84.409 Y30.700 E0.01096
G1 X83.967 Y30.886 E0.01504
G1 X83.483 Y30.969 E0.01539
G1 X83.004 Y30.942 E0.01504
G1 X82.676 Y30.859 E0.01061
G1 X82.364 Y30.728 E0.01061
G1 X81.964 Y30.463 E0.01504
G1 X81.628 Y30.107 E0.01535
G1 X81.394 Y29.711 E0.01440
G1 X81.268 Y29.365 E0.01156
G1 X81.205 Y28.948 E0.01323
M204 S1250
G1 X81.577 Y28.891 F9000.000
M204 S800
G1 F1200.000
G1 X81.605 Y28.474 E0.01309
G1 X81.678 Y28.206 E0.00872
G1 X81.852 Y27.849 E0.01244
G1 X82.016 Y27.630 E0.00859
G1 X82.212 Y27.438 E0.00859
G1 X82.546 Y27.216 E0.01257
G1 X82.925 Y27.074 E0.01269
G1 X83.319 Y27.021 E0.01247
G1 X83.600 Y27.036 E0.00881
G1 X83.989 Y27.134 E0.01257
G1 X84.345 Y27.317 E0.01257
G1 X84.565 Y27.488 E0.00872
G1 X84.826 Y27.786 E0.01244
G1 X84.967 Y28.026 E0.00872
G1 X85.099 Y28.400 E0.01244
G1 X85.141 Y28.675 E0.00872
G1 X85.126 Y29.072 E0.01244
G1 X85.064 Y29.343 E0.00872
G1 X84.903 Y29.706 E0.01244
G1 X84.745 Y29.934 E0.00872
G1 X84.462 Y30.212 E0.01244
G1 X84.230 Y30.366 E0.00872
G1 X83.860 Y30.521 E0.01257
G1 X83.461 Y30.590 E0.01269
G1 X83.061 Y30.567 E0.01257
G1 X82.795 Y30.500 E0.00859
G1 X82.543 Y30.394 E0.00859
G1 X82.209 Y30.172 E0.01257
G1 X81.931 Y29.878 E0.01268
G1 X81.737 Y29.550 E0.01198
G1 X81.635 Y29.271 E0.00929
G1 X81.586 Y28.950 E0.01018
M204 S1250
G1 X81.224 Y28.703 F9000.000
G1 E-2.24000 F4200.00000
G1 F7200.000
G1 X81.605 Y28.474 E-0.26388
G1 X81.678 Y28.206 E-0.15412
G1 X81.852 Y27.849 E-0.21990
G1 X82.016 Y27.630 E-0.15190
G1 X82.174 Y27.475 E-0.12220
G1 E-0.04800 F4200.00000
G1 Z0.400 F9000.000
G1 X93.196 Y28.888
G1 Z0.200
G1 E3.20000 F2400.00000
M204 S800
G1 F1200.000
G1 X93.232 Y28.410 E0.01504
G1 X93.323 Y28.072 E0.01096
G1 X93.529 Y27.652 E0.01469
G1 X93.732 Y27.381 E0.01061
G1 X93.974 Y27.144 E0.01061
G1 X94.373 Y26.878 E0.01504
G1 X94.832 Y26.706 E0.01538
G1 X95.304 Y26.642 E0.01494
G1 X95.657 Y26.662 E0.01106
G1 X96.122 Y26.779 E0.01505
G1 X96.549 Y26.997 E0.01504
G1 X96.825 Y27.212 E0.01096
G1 X97.133 Y27.565 E0.01469
G1 X97.310 Y27.867 E0.01096
G1 X97.467 Y28.308 E0.01469
G1 X97.519 Y28.654 E0.01096
G1 X97.502 Y29.122 E0.01469
G1 X97.423 Y29.462 E0.01096
G1 X97.234 Y29.891 E0.01469
G1 X97.034 Y30.178 E0.01096
G1 X96.700 Y30.506 E0.01469
G1 X96.409 Y30.700 E0.01096
G1 X95.967 Y30.886 E0.01504
G1 X95.483 Y30.969 E0.01539
G1 X95.004 Y30.942 E0.01504
G1 X94.676 Y30.859 E0.01061
G1 X94.364 Y30.728 E0.01061
G1 X93.964 Y30.463 E0.01504
G1 X93.628 Y30.107 E0.01535
G1 X93.394 Y29.711 E0.01440
G1 X93.268 Y29.365 E0.01156
