; generated by PrusaSlicer 2.2.0+win64 on 2020-09-24 at 17:27:31 UTC


;
;

;
;
; 

; external perimeters extrusion width = 0.45mm
; perimeters extrusion width = 0.45mm
; infill extrusion width = 0.45mm
; solid infill extrusion width = 0.45mm
; top infill extrusion width = 0.40mm
; first layer extrusion width = 0.42mm

M73 P0 R113
M201 X1250 Y1250 Z400 E5000 ; sets maximum accelerations, mm/sec^2
M203 X180 Y180 Z12 E80 ; sets maximum feedrates, mm/sec
M204 P1250 R1250 T1250 ; sets acceleration (P, T) and retract acceleration (R), mm/sec^2
M205 X8.00 Y8.00 Z2.00 E10.00 ; sets the jerk limits, mm/sec
M205 S0 T0 ; sets the minimum extruding and travel feed rate, mm/sec
M107
G90 ; use absolute coordinates
M83 ; extruder relative mode
M104 S170 ; set extruder temp for bed leveling
M140 S60 ; set bed temp
M109 R170 ; wait for bed leveling temp
M190 S60 ; wait for bed temp
G28 ; home all without mesh bed level
G29 ; mesh bed leveling 
M104 S215 ; set extruder temp
G92 E0.0
G1 Y-2.0 X179 F2400
G1 Z3 F720
M109 S215 ; wait for extruder temp

; intro line
G1 X170 F1000
G1 Z0.2 F720
G1 X110.0 E8.0 F900
M73 P0 R113
G1 X40.0 E10.0 F700
G92 E0.0

M221 S95 ; set flow
G21 ; set units to millimeters
G90 ; use absolute coordinates
M83 ; use relative distances for extrusion
M900 K0.2 ; Filament gcode LA 1.5
; ; Filament gcode LA 1.0
;BEFORE_LAYER_CHANGE
G92 E0.0
;0.2


G1 Z0.200 F9000.000
;AFTER_LAYER_CHANGE
;0.2
G1 E-3.20000 F4200.00000
G1 Z0.400 F9000.000
G1 X28.537 Y22.908
G1 Z0.200
G1 E3.20000 F2400.00000
M204 S800
G1 F1200.000
G1 X28.975 Y22.181 E0.02661
G1 X29.344 Y21.841 E0.01574
G1 X29.773 Y21.588 E0.01562
G1 X30.249 Y21.428 E0.01574
G1 X30.744 Y21.373 E0.01562
G1 X149.244 Y21.373 E3.71549
G1 X150.146 Y21.552 E0.02884
G1 X150.910 Y22.058 E0.02872
G1 X151.427 Y22.818 E0.02884
G1 X151.617 Y23.718 E0.02884
G1 X151.617 Y156.262 E4.15580
G1 X151.463 Y157.092 E0.02649
G1 X151.025 Y157.819 E0.02661
G1 X150.656 Y158.159 E0.01574
G1 X150.224 Y158.414 E0.01574
G1 X149.748 Y158.572 E0.01574
G1 X149.245 Y158.627 E0.01585
G1 X30.749 Y158.627 E3.71537
G1 X29.918 Y158.473 E0.02649
G1 X29.191 Y158.036 E0.02661
G1 X28.851 Y157.666 E0.01574
G1 X28.596 Y157.234 E0.01574
G1 X28.438 Y156.758 E0.01574
G1 X28.383 Y156.255 E0.01585
G1 X28.383 Y23.738 E4.15496
G1 X28.526 Y22.967 E0.02461
M204 S1250
G1 E-2.24000 F4200.00000
G1 F7200.000
G1 X28.975 Y22.181 E-0.50157
G1 X29.344 Y21.841 E-0.27811
G1 X29.549 Y21.719 E-0.13232
G1 E-0.04800 F4200.00000
G1 Z0.400 F9000.000
G1 X84.353 Y42.597
G1 Z0.200
G1 E3.20000 F2400.00000
M204 S800
G1 F1200.000
G1 X96.927 Y42.597 E0.39425
G1 X96.927 Y135.525 E2.91370
G1 X84.353 Y135.525 E0.39425
G1 X84.353 Y42.657 E2.91182
M204 S1250
G1 X84.730 Y42.974 F9000.000
M204 S800
G1 F1200.000
G1 X96.550 Y42.974 E0.37061
G1 X96.550 Y135.148 E2.89005
G1 X84.730 Y135.148 E0.37061
G1 X84.730 Y43.034 E2.88817
M204 S1250
G1 X84.713 Y42.575 F9000.000
G1 E-2.24000 F4200.00000
G1 F7200.000
G1 X86.376 Y43.026 E-0.91200
G1 E-0.04800 F4200.00000
G1 Z0.400 F9000.000
G1 X107.793 Y42.597
G1 Z0.200
G1 E3.20000 F2400.00000
M204 S800
G1 F1200.000
G1 X120.367 Y42.597 E0.39425
G1 X120.367 Y135.525 E2.91370
M73 P1 R112
G1 X107.793 Y135.525 E0.39425
G1 X107.793 Y42.657 E2.91182
M204 S1250
G1 X108.170 Y42.974 F9000.000
M204 S800
G1 F1200.000
G1 X119.990 Y42.974 E0.37061
G1 X119.990 Y135.148 E2.89005
G1 X108.170 Y135.148 E0.37061
G1 X108.170 Y43.034 E2.88817
M204 S1250
G1 X108.153 Y42.575 F9000.000
G1 E-2.24000 F4200.00000
G1 F7200.000
G1 X109.816 Y43.026 E-0.91200
G1 E-0.04800 F4200.00000
G1 Z0.400 F9000.000
G1 X131.233 Y42.597
G1 Z0.200
G1 E3.20000 F2400.00000
M204 S800
G1 F1200.000
G1 X147.527 Y42.597 E0.51089
G1 X147.527 Y135.525 E2.91370
G1 X131.233 Y135.525 E0.51089
G1 X131.233 Y42.657 E2.91182
M204 S1250
G1 X131.610 Y42.974 F9000.000
M204 S800
G1 F1200.000
G1 X147.150 Y42.974 E0.48725
G1 X147.150 Y135.148 E2.89005
G1 X131.610 Y135.148 E0.48725
G1 X131.610 Y43.034 E2.88817
M204 S1250
G1 X131.588 Y42.575 F9000.000
G1 E-2.24000 F4200.00000
G1 F7200.000
G1 X133.256 Y43.028 E-0.91200
G1 E-0.04800 F4200.00000
G1 Z0.400 F9000.000
G1 X142.312 Y30.603
G1 Z0.200
G1 E3.20000 F2400.00000
M204 S800
G1 F1200.000
G1 X141.954 Y30.301 E0.01469
G1 X141.734 Y30.029 E0.01096
G1 X141.513 Y29.617 E0.01469
G1 X141.408 Y29.283 E0.01096
G1 X141.354 Y28.806 E0.01504
G1 X141.408 Y28.330 E0.01504
G1 X141.513 Y27.996 E0.01096
G1 X141.734 Y27.583 E0.01469
G1 X141.954 Y27.311 E0.01096
G1 X142.312 Y27.010 E0.01469
G1 X142.617 Y26.839 E0.01096
G1 X143.069 Y26.688 E0.01492
G1 X143.498 Y26.642 E0.01355
G1 X143.894 Y26.673 E0.01243
G1 X144.358 Y26.809 E0.01518
G1 X144.777 Y27.044 E0.01504
G1 X145.044 Y27.269 E0.01096
G1 X145.339 Y27.633 E0.01469
G1 X145.499 Y27.931 E0.01061
G1 X145.612 Y28.250 E0.01061
G1 X145.683 Y28.713 E0.01469
G1 X145.670 Y29.063 E0.01096
G1 X145.562 Y29.529 E0.01500
G1 X145.362 Y29.942 E0.01440
G1 X145.143 Y30.239 E0.01156
G1 X144.787 Y30.563 E0.01511
G1 X144.368 Y30.798 E0.01504
G1 X144.036 Y30.909 E0.01096
G1 X143.561 Y30.972 E0.01504
G1 X143.072 Y30.926 E0.01539
G1 X142.617 Y30.774 E0.01504
G1 X142.365 Y30.632 E0.00908
M204 S1250
G1 X142.549 Y30.303 F9000.000
M204 S800
G1 F1200.000
G1 X142.224 Y30.036 E0.01319
G1 X142.049 Y29.820 E0.00872
G1 X141.862 Y29.470 E0.01244
G1 X141.779 Y29.205 E0.00872
G1 X141.733 Y28.806 E0.01257
G1 X141.779 Y28.408 E0.01257
G1 X141.862 Y28.143 E0.00872
G1 X142.049 Y27.793 E0.01244
G1 X142.224 Y27.577 E0.00872
G1 X142.528 Y27.321 E0.01244
G1 X142.770 Y27.185 E0.00872
G1 X143.149 Y27.059 E0.01253
G1 X143.504 Y27.021 E0.01117
G1 X143.825 Y27.046 E0.01011
G1 X144.211 Y27.159 E0.01262
G1 X144.561 Y27.355 E0.01257
G1 X144.774 Y27.534 E0.00872
G1 X145.024 Y27.842 E0.01244
G1 X145.153 Y28.084 E0.00859
G1 X145.245 Y28.342 E0.00859
G1 X145.305 Y28.735 E0.01244
G1 X145.294 Y29.013 E0.00872
G1 X145.204 Y29.403 E0.01255
G1 X145.038 Y29.747 E0.01198
G1 X144.862 Y29.985 E0.00929
G1 X144.565 Y30.256 E0.01259
G1 X144.215 Y30.452 E0.01257
G1 X143.951 Y30.540 E0.00872
G1 X143.554 Y30.592 E0.01257
G1 X143.151 Y30.554 E0.01269
G1 X142.770 Y30.427 E0.01257
G1 X142.601 Y30.333 E0.00608
M204 S1250
G1 X142.190 Y30.479 F9000.000
G1 E-2.24000 F4200.00000
G1 F7200.000
G1 X142.224 Y30.036 E-0.26587
G1 X142.049 Y29.820 E-0.15413
G1 X141.862 Y29.470 E-0.21990
G1 X141.779 Y29.205 E-0.15412
G1 X141.755 Y28.993 E-0.11799
G1 E-0.04800 F4200.00000
G1 Z0.400 F9000.000
G1 X133.562 Y29.529
G1 Z0.200
G1 E3.20000 F2400.00000
M204 S800
G1 F1200.000
G1 X133.362 Y29.942 E0.01440
G1 X133.143 Y30.239 E0.01156
G1 X132.787 Y30.563 E0.01511
G1 X132.368 Y30.798 E0.01504
G1 X132.036 Y30.909 E0.01096
G1 X131.561 Y30.972 E0.01504
G1 X131.072 Y30.926 E0.01539
G1 X130.617 Y30.774 E0.01504
G1 X130.312 Y30.603 E0.01096
G1 X129.954 Y30.301 E0.01469
G1 X129.734 Y30.029 E0.01096
G1 X129.513 Y29.617 E0.01469
G1 X129.408 Y29.283 E0.01096
G1 X129.354 Y28.806 E0.01504
G1 X129.408 Y28.330 E0.01504
G1 X129.513 Y27.996 E0.01096
G1 X129.734 Y27.583 E0.01469
G1 X129.954 Y27.311 E0.01096
G1 X130.312 Y27.010 E0.01469
G1 X130.617 Y26.839 E0.01096
G1 X131.069 Y26.688 E0.01492
G1 X131.498 Y26.642 E0.01355
G1 X131.894 Y26.673 E0.01243
G1 X132.358 Y26.809 E0.01518
G1 X132.777 Y27.044 E0.01504
G1 X133.044 Y27.269 E0.01096
G1 X133.339 Y27.633 E0.01469
G1 X133.499 Y27.931 E0.01061
G1 X133.612 Y28.250 E0.01061
G1 X133.683 Y28.713 E0.01469
G1 X133.670 Y29.063 E0.01096
G1 X133.575 Y29.470 E0.01312
M204 S1250
G1 X133.208 Y29.385 F9000.000
M204 S800
G1 F1200.000
G1 X133.038 Y29.747 E0.01252
G1 X132.862 Y29.985 E0.00929
G1 X132.565 Y30.256 E0.01259
G1 X132.215 Y30.452 E0.01257
G1 X131.951 Y30.540 E0.00872
G1 X131.554 Y30.592 E0.01257
G1 X131.151 Y30.554 E0.01269
G1 X130.770 Y30.427 E0.01257
G1 X130.528 Y30.291 E0.00872
G1 X130.224 Y30.036 E0.01244
G1 X130.049 Y29.820 E0.00872
G1 X129.862 Y29.470 E0.01244
G1 X129.779 Y29.205 E0.00872
G1 X129.733 Y28.806 E0.01257
G1 X129.779 Y28.408 E0.01257
G1 X129.862 Y28.143 E0.00872
G1 X130.049 Y27.793 E0.01244
G1 X130.224 Y27.577 E0.00872
G1 X130.528 Y27.321 E0.01244
G1 X130.770 Y27.185 E0.00872
G1 X131.149 Y27.059 E0.01253
G1 X131.504 Y27.021 E0.01117
G1 X131.825 Y27.046 E0.01011
G1 X132.211 Y27.159 E0.01262
G1 X132.561 Y27.355 E0.01257
G1 X132.774 Y27.534 E0.00872
G1 X133.024 Y27.842 E0.01244
G1 X133.153 Y28.084 E0.00859
G1 X133.245 Y28.342 E0.00859
G1 X133.305 Y28.735 E0.01244
G1 X133.294 Y29.013 E0.00872
G1 X133.221 Y29.327 E0.01012
M204 S1250
G1 X133.467 Y29.690 F9000.000
G1 E-2.24000 F4200.00000
G1 F7200.000
G1 X133.038 Y29.747 E-0.25393
G1 X132.862 Y29.985 E-0.16427
G1 X132.565 Y30.256 E-0.22259
G1 X132.215 Y30.452 E-0.22213
G1 X132.131 Y30.480 E-0.04908
G1 E-0.04800 F4200.00000
G1 Z0.400 F9000.000
G1 X122.207 Y29.214
G1 Z0.200
G1 E3.20000 F2400.00000
M204 S800
G1 F1200.000
G1 X122.064 Y29.672 E0.01504
G1 X121.899 Y29.980 E0.01096
G1 X121.604 Y30.344 E0.01469
G1 X121.337 Y30.569 E0.01096
G1 X120.928 Y30.798 E0.01469
G1 X120.596 Y30.909 E0.01096
G1 X120.121 Y30.972 E0.01504
G1 X119.632 Y30.926 E0.01539
G1 X119.177 Y30.774 E0.01504
G1 X118.872 Y30.603 E0.01096
G1 X118.514 Y30.301 E0.01469
G1 X118.294 Y30.029 E0.01096
G1 X118.067 Y29.607 E0.01504
G1 X117.942 Y29.144 E0.01504
G1 X117.916 Y28.806 E0.01061
G1 X117.942 Y28.469 E0.01061
G1 X118.067 Y28.006 E0.01504
G1 X118.294 Y27.583 E0.01504
G1 X118.514 Y27.311 E0.01096
G1 X118.872 Y27.010 E0.01469
G1 X119.177 Y26.839 E0.01096
G1 X119.629 Y26.688 E0.01492
G1 X120.058 Y26.642 E0.01355
G1 X120.454 Y26.673 E0.01243
G1 X120.918 Y26.809 E0.01518
G1 X121.337 Y27.044 E0.01504
G1 X121.604 Y27.269 E0.01096
G1 X121.899 Y27.633 E0.01469
G1 X122.064 Y27.941 E0.01096
G1 X122.204 Y28.388 E0.01469
G1 X122.244 Y28.735 E0.01096
G1 X122.212 Y29.154 E0.01316
M204 S1250
G1 X121.836 Y29.125 F9000.000
M204 S800
G1 F1200.000
G1 X121.715 Y29.525 E0.01309
G1 X121.584 Y29.770 E0.00872
G1 X121.334 Y30.078 E0.01244
G1 X121.121 Y30.258 E0.00872
G1 X120.775 Y30.452 E0.01244
G1 X120.511 Y30.540 E0.00872
G1 X120.114 Y30.592 E0.01257
G1 X119.711 Y30.554 E0.01269
G1 X119.330 Y30.427 E0.01257
G1 X119.088 Y30.291 E0.00872
G1 X118.784 Y30.036 E0.01244
G1 X118.609 Y29.820 E0.00872
G1 X118.420 Y29.466 E0.01257
G1 X118.315 Y29.080 E0.01257
G1 X118.294 Y28.806 E0.00859
G1 X118.315 Y28.533 E0.00859
G1 X118.420 Y28.146 E0.01257
G1 X118.609 Y27.793 E0.01257
G1 X118.784 Y27.577 E0.00872
G1 X119.088 Y27.321 E0.01244
G1 X119.330 Y27.185 E0.00872
G1 X119.709 Y27.059 E0.01253
G1 X120.064 Y27.021 E0.01117
G1 X120.385 Y27.046 E0.01011
G1 X120.771 Y27.159 E0.01262
G1 X121.121 Y27.355 E0.01257
G1 X121.334 Y27.534 E0.00872
G1 X121.584 Y27.842 E0.01244
G1 X121.715 Y28.088 E0.00872
G1 X121.833 Y28.466 E0.01244
G1 X121.865 Y28.743 E0.00872
G1 X121.840 Y29.066 E0.01015
M204 S1250
G1 X122.137 Y29.389 F9000.000
G1 E-2.24000 F4200.00000
G1 F7200.000
G1 X121.715 Y29.525 E-0.26387
G1 X121.584 Y29.770 E-0.15412
G1 X121.334 Y30.078 E-0.21990
G1 X121.121 Y30.258 E-0.15412
G1 X120.932 Y30.363 E-0.11998
G1 E-0.04800 F4200.00000
G1 Z0.400 F9000.000
G1 X110.207 Y29.214
G1 Z0.200
G1 E3.20000 F2400.00000
M204 S800
G1 F1200.000
G1 X110.064 Y29.672 E0.01504
G1 X109.899 Y29.980 E0.01096
G1 X109.604 Y30.344 E0.01469
G1 X109.337 Y30.569 E0.01096
G1 X108.928 Y30.798 E0.01469
G1 X108.596 Y30.909 E0.01096
G1 X108.121 Y30.972 E0.01504
G1 X107.632 Y30.926 E0.01539
G1 X107.177 Y30.774 E0.01504
G1 X106.872 Y30.603 E0.01096
G1 X106.514 Y30.301 E0.01469
G1 X106.294 Y30.029 E0.01096
G1 X106.067 Y29.607 E0.01504
G1 X105.942 Y29.144 E0.01504
G1 X105.916 Y28.806 E0.01061
G1 X105.942 Y28.469 E0.01061
G1 X106.067 Y28.006 E0.01504
G1 X106.294 Y27.583 E0.01504
G1 X106.514 Y27.311 E0.01096
G1 X106.872 Y27.010 E0.01469
G1 X107.177 Y26.839 E0.01096
G1 X107.629 Y26.688 E0.01492
G1 X108.058 Y26.642 E0.01355
G1 X108.454 Y26.673 E0.01243
G1 X108.918 Y26.809 E0.01518
G1 X109.337 Y27.044 E0.01504
G1 X109.604 Y27.269 E0.01096
G1 X109.899 Y27.633 E0.01469
G1 X110.064 Y27.941 E0.01096
G1 X110.204 Y28.388 E0.01469
G1 X110.244 Y28.735 E0.01096
G1 X110.212 Y29.154 E0.01316
M204 S1250
G1 X109.836 Y29.125 F9000.000
M204 S800
G1 F1200.000
G1 X109.715 Y29.525 E0.01309
G1 X109.584 Y29.770 E0.00872
G1 X109.334 Y30.078 E0.01244
G1 X109.121 Y30.258 E0.00872
G1 X108.775 Y30.452 E0.01244
G1 X108.511 Y30.540 E0.00872
G1 X108.114 Y30.592 E0.01257
G1 X107.711 Y30.554 E0.01269
G1 X107.330 Y30.427 E0.01257
G1 X107.088 Y30.291 E0.00872
G1 X106.784 Y30.036 E0.01244
G1 X106.609 Y29.820 E0.00872
G1 X106.420 Y29.466 E0.01257
G1 X106.315 Y29.080 E0.01257
G1 X106.294 Y28.806 E0.00859
G1 X106.315 Y28.533 E0.00859
G1 X106.420 Y28.146 E0.01257
G1 X106.609 Y27.793 E0.01257
G1 X106.784 Y27.577 E0.00872
G1 X107.088 Y27.321 E0.01244
G1 X107.330 Y27.185 E0.00872
G1 X107.709 Y27.059 E0.01253
G1 X108.064 Y27.021 E0.01117
G1 X108.385 Y27.046 E0.01011
G1 X108.771 Y27.159 E0.01262
G1 X109.121 Y27.355 E0.01257
G1 X109.334 Y27.534 E0.00872
G1 X109.584 Y27.842 E0.01244
G1 X109.715 Y28.088 E0.00872
G1 X109.833 Y28.466 E0.01244
G1 X109.865 Y28.743 E0.00872
G1 X109.840 Y29.066 E0.01015
M204 S1250
G1 X110.137 Y29.389 F9000.000
G1 E-2.24000 F4200.00000
G1 F7200.000
G1 X109.715 Y29.525 E-0.26387
G1 X109.584 Y29.770 E-0.15412
G1 X109.334 Y30.078 E-0.21990
G1 X109.121 Y30.258 E-0.15412
G1 X108.932 Y30.363 E-0.11998
G1 E-0.04800 F4200.00000
G1 Z0.400 F9000.000
G1 X98.804 Y28.735
G1 Z0.200
G1 E3.20000 F2400.00000
M204 S800
G1 F1200.000
G1 X98.768 Y29.203 E0.01469
G1 X98.677 Y29.540 E0.01096
G1 X98.466 Y29.971 E0.01504
G1 X98.164 Y30.344 E0.01504
G1 X97.897 Y30.569 E0.01096
G1 X97.488 Y30.798 E0.01469
G1 X97.156 Y30.909 E0.01096
G1 X96.692 Y30.970 E0.01469
G1 X96.343 Y30.951 E0.01096
G1 X95.878 Y30.834 E0.01504
G1 X95.441 Y30.610 E0.01539
G1 X95.066 Y30.295 E0.01535
G1 X94.789 Y29.928 E0.01440
G1 X94.625 Y29.598 E0.01156
G1 X94.502 Y29.144 E0.01476
G1 X94.476 Y28.806 E0.01061
G1 X94.502 Y28.469 E0.01061
G1 X94.624 Y28.017 E0.01469
G1 X94.778 Y27.702 E0.01096
G1 X95.059 Y27.328 E0.01469
G1 X95.317 Y27.092 E0.01096
G1 X95.727 Y26.842 E0.01504
G1 X96.189 Y26.688 E0.01527
G1 X96.618 Y26.642 E0.01355
G1 X97.014 Y26.673 E0.01243
G1 X97.478 Y26.809 E0.01518
G1 X97.897 Y27.044 E0.01504
G1 X98.156 Y27.262 E0.01061
G1 X98.379 Y27.516 E0.01061
G1 X98.621 Y27.930 E0.01504
G1 X98.764 Y28.388 E0.01504
G1 X98.797 Y28.676 E0.00908
M204 S1250
G1 X98.422 Y28.719 F9000.000
M204 S800
G1 F1200.000
G1 X98.395 Y29.138 E0.01319
G1 X98.322 Y29.407 E0.00872
G1 X98.146 Y29.767 E0.01257
G1 X97.894 Y30.078 E0.01257
G1 X97.681 Y30.258 E0.00872
G1 X97.335 Y30.452 E0.01244
G1 X97.071 Y30.540 E0.00872
G1 X96.678 Y30.592 E0.01244
G1 X96.400 Y30.576 E0.00872
G1 X96.011 Y30.479 E0.01257
G1 X95.651 Y30.294 E0.01269
G1 X95.342 Y30.033 E0.01268
G1 X95.111 Y29.729 E0.01198
G1 X94.979 Y29.463 E0.00929
G1 X94.875 Y29.080 E0.01247
G1 X94.854 Y28.806 E0.00859
G1 X94.875 Y28.533 E0.00859
G1 X94.979 Y28.150 E0.01244
G1 X95.101 Y27.900 E0.00872
G1 X95.339 Y27.583 E0.01244
G1 X95.545 Y27.395 E0.00872
G1 X95.887 Y27.186 E0.01257
G1 X96.270 Y27.059 E0.01265
G1 X96.624 Y27.021 E0.01117
G1 X96.945 Y27.046 E0.01011
G1 X97.331 Y27.159 E0.01262
G1 X97.681 Y27.355 E0.01257
G1 X97.891 Y27.532 E0.00860
G1 X98.071 Y27.738 E0.00859
G1 X98.274 Y28.084 E0.01257
G1 X98.393 Y28.466 E0.01257
G1 X98.415 Y28.659 E0.00608
M204 S1250
G1 X98.775 Y28.907 F9000.000
G1 E-2.24000 F4200.00000
G1 F7200.000
G1 X98.395 Y29.138 E-0.26588
G1 X98.322 Y29.407 E-0.15413
G1 X98.146 Y29.767 E-0.22213
G1 X97.894 Y30.078 E-0.22212
G1 X97.828 Y30.134 E-0.04775
G1 E-0.04800 F4200.00000
G1 Z0.400 F9000.000
G1 X86.804 Y28.735
G1 Z0.200
G1 E3.20000 F2400.00000
M204 S800
G1 F1200.000
G1 X86.768 Y29.203 E0.01469
G1 X86.677 Y29.540 E0.01096
G1 X86.466 Y29.971 E0.01504
G1 X86.164 Y30.344 E0.01504
G1 X85.897 Y30.569 E0.01096
G1 X85.488 Y30.798 E0.01469
G1 X85.156 Y30.909 E0.01096
G1 X84.692 Y30.970 E0.01469
G1 X84.343 Y30.951 E0.01096
G1 X83.878 Y30.834 E0.01504
G1 X83.441 Y30.610 E0.01539
G1 X83.066 Y30.295 E0.01535
G1 X82.789 Y29.928 E0.01440
G1 X82.625 Y29.598 E0.01156
G1 X82.502 Y29.144 E0.01476
G1 X82.476 Y28.806 E0.01061
G1 X82.502 Y28.469 E0.01061
G1 X82.624 Y28.017 E0.01469
G1 X82.778 Y27.702 E0.01096
G1 X83.059 Y27.328 E0.01469
