; generated by PrusaSlicer 2.2.0+win64 on 2020-10-23 at 15:27:02 UTC


;
;

;
;
; 

; external perimeters extrusion width = 0.45mm
; perimeters extrusion width = 0.45mm
; infill extrusion width = 0.45mm
; solid infill extrusion width = 0.45mm
; top infill extrusion width = 0.40mm
; first layer extrusion width = 0.42mm

M73 P0 R19
M201 X1250 Y1250 Z400 E5000 ; sets maximum accelerations, mm/sec^2
M203 X180 Y180 Z12 E80 ; sets maximum feedrates, mm/sec
M204 P1250 R1250 T1250 ; sets acceleration (P, T) and retract acceleration (R), mm/sec^2
M205 X8.00 Y8.00 Z2.00 E10.00 ; sets the jerk limits, mm/sec
M205 S0 T0 ; sets the minimum extruding and travel feed rate, mm/sec
M107
G90 ; use absolute coordinates
M83 ; extruder relative mode
M104 S170 ; set extruder temp for bed leveling
M140 S60 ; set bed temp
M109 R170 ; wait for bed leveling temp
M190 S60 ; wait for bed temp
G28 ; home all without mesh bed level
G29 ; mesh bed leveling 
M104 S215 ; set extruder temp
G92 E0.0
G1 Y-2.0 X179 F2400
G1 Z3 F720
M109 S215 ; wait for extruder temp

; intro line
G1 X170 F1000
G1 Z0.2 F720
G1 X110.0 E8.0 F900
M73 P0 R19
G1 X40.0 E10.0 F700
G92 E0.0

M221 S95 ; set flow
G21 ; set units to millimeters
G90 ; use absolute coordinates
M83 ; use relative distances for extrusion
M900 K0.2 ; Filament gcode LA 1.5
; ; Filament gcode LA 1.0
;BEFORE_LAYER_CHANGE
G92 E0.0
;0.2


G1 Z0.200 F9000.000
;AFTER_LAYER_CHANGE
;0.2
G1 E-3.20000 F4200.00000
G1 Z0.400 F9000.000
G1 X80.318 Y68.173
G1 Z0.200
G1 E3.20000 F2400.00000
M204 S800
G1 F1200.000
G1 X80.936 Y67.795 E0.02271
G1 X81.452 Y67.628 E0.01702
G1 X81.970 Y67.571 E0.01632
G1 X98.004 Y67.571 E0.50274
G1 X98.653 Y67.653 E0.02051
G1 X99.216 Y67.866 E0.01887
G1 X99.752 Y68.231 E0.02034
G1 X100.173 Y68.683 E0.01937
G1 X106.390 Y77.842 E0.34708
G1 X106.928 Y78.899 E0.03719
G1 X107.258 Y80.026 E0.03681
G1 X107.377 Y81.239 E0.03823
G1 X107.375 Y107.913 E0.83633
G1 X107.218 Y109.166 E0.03961
G1 X106.769 Y110.468 E0.04318
G1 X106.380 Y111.174 E0.02526
G1 X105.883 Y111.852 E0.02634
G1 X105.308 Y112.452 E0.02608
G1 X104.662 Y112.971 E0.02596
G1 X103.948 Y113.405 E0.02619
G1 X103.191 Y113.739 E0.02597
G1 X102.398 Y113.972 E0.02591
G1 X101.615 Y114.097 E0.02487
G1 X78.822 Y114.125 E0.71465
G1 X77.581 Y113.967 E0.03921
G1 X76.281 Y113.519 E0.04311
G1 X75.576 Y113.130 E0.02526
G1 X74.896 Y112.631 E0.02645
G1 X74.298 Y112.058 E0.02596
G1 X73.773 Y111.403 E0.02632
G1 X73.344 Y110.695 E0.02596
G1 X73.007 Y109.930 E0.02620
G1 X72.776 Y109.137 E0.02591
G1 X72.647 Y108.306 E0.02634
G1 X72.625 Y81.079 E0.85368
G1 X72.782 Y79.834 E0.03937
G1 X73.231 Y78.532 E0.04317
G1 X73.715 Y77.681 E0.03070
G1 X79.781 Y68.745 E0.33862
G1 X80.277 Y68.216 E0.02272
M204 S1250
G1 E-2.24000 F4200.00000
G1 F7200.000
G1 X80.936 Y67.795 E-0.43356
G1 X81.452 Y67.628 E-0.30083
G1 X81.771 Y67.593 E-0.17760
G1 E-0.04800 F4200.00000
G1 Z0.400 F9000.000
G1 X92.021 Y107.742
G1 Z0.200
G1 E3.20000 F2400.00000
M204 S800
G1 F1200.000
G1 X91.839 Y108.027 E0.01061
G1 X91.648 Y108.267 E0.00960
G1 X91.417 Y108.484 E0.00994
G1 X91.158 Y108.667 E0.00994
G1 X90.875 Y108.811 E0.00994
G1 X90.569 Y108.916 E0.01016
G1 X90.166 Y108.984 E0.01282
G1 X89.841 Y108.984 E0.01016
G1 X89.527 Y108.939 E0.00994
G1 X89.210 Y108.846 E0.01038
G1 X88.764 Y108.619 E0.01569
G1 X88.503 Y108.415 E0.01038
G1 X88.275 Y108.180 E0.01027
G1 X87.986 Y107.748 E0.01629
G1 X83.838 Y107.736 E0.13005
G1 X83.117 Y107.661 E0.02272
G1 X82.410 Y107.479 E0.02289
G1 X81.989 Y107.315 E0.01418
G1 X81.592 Y107.119 E0.01390
G1 X81.213 Y106.887 E0.01390
G1 X80.857 Y106.624 E0.01390
G1 X80.525 Y106.329 E0.01390
G1 X80.221 Y106.007 E0.01390
G1 X79.947 Y105.658 E0.01390
G1 X79.700 Y105.279 E0.01418
G1 X79.378 Y104.629 E0.02275
G1 X79.188 Y104.065 E0.01867
G1 X79.066 Y103.487 E0.01853
G1 X79.014 Y102.907 E0.01826
G1 X79.012 Y86.227 E0.52298
G1 X79.065 Y85.522 E0.02216
G1 X79.151 Y85.078 E0.01417
G1 X79.274 Y84.652 E0.01390
G1 X79.435 Y84.239 E0.01390
G1 X79.631 Y83.842 E0.01390
G1 X79.863 Y83.463 E0.01390
G1 X80.126 Y83.107 E0.01390
G1 X80.421 Y82.775 E0.01390
G1 X80.743 Y82.471 E0.01390
G1 X81.092 Y82.197 E0.01390
G1 X81.463 Y81.955 E0.01390
G1 X81.855 Y81.746 E0.01390
G1 X82.263 Y81.574 E0.01390
G1 X82.685 Y81.438 E0.01390
G1 X83.118 Y81.340 E0.01390
G1 X83.557 Y81.281 E0.01390
G1 X83.985 Y81.262 E0.01345
G1 X96.023 Y81.262 E0.37744
G1 X96.728 Y81.315 E0.02216
G1 X97.176 Y81.402 E0.01431
G1 X97.737 Y81.573 E0.01840
G1 X98.278 Y81.812 E0.01853
G1 X98.783 Y82.110 E0.01840
G1 X99.147 Y82.379 E0.01418
G1 X99.580 Y82.775 E0.01840
G1 X99.965 Y83.223 E0.01853
G1 X100.298 Y83.717 E0.01867
G1 X100.622 Y84.371 E0.02289
G1 X100.812 Y84.935 E0.01867
G1 X100.934 Y85.513 E0.01853
G1 X100.986 Y86.094 E0.01826
G1 X100.980 Y103.046 E0.53152
G1 X100.910 Y103.634 E0.01859
G1 X100.755 Y104.260 E0.02020
G1 X100.505 Y104.893 E0.02134
G1 X100.219 Y105.413 E0.01863
G1 X99.874 Y105.893 E0.01853
G1 X99.475 Y106.330 E0.01853
G1 X99.027 Y106.715 E0.01853
G1 X98.537 Y107.046 E0.01853
G1 X98.011 Y107.316 E0.01853
G1 X97.461 Y107.520 E0.01840
G1 X97.023 Y107.633 E0.01418
G1 X96.447 Y107.718 E0.01826
G1 X96.015 Y107.738 E0.01358
G1 X92.080 Y107.738 E0.12335
M204 S1250
G1 X91.835 Y107.407 F9000.000
M204 S800
G1 F1200.000
G1 X91.742 Y107.478 E0.00367
G1 X91.531 Y107.808 E0.01225
G1 X91.369 Y108.011 E0.00814
G1 X91.178 Y108.191 E0.00826
G1 X90.962 Y108.343 E0.00826
G1 X90.728 Y108.463 E0.00826
G1 X90.476 Y108.550 E0.00834
G1 X90.134 Y108.607 E0.01086
G1 X89.868 Y108.607 E0.00834
G1 X89.607 Y108.569 E0.00826
G1 X89.349 Y108.494 E0.00842
G1 X88.968 Y108.299 E0.01345
G1 X88.756 Y108.134 E0.00842
G1 X88.570 Y107.942 E0.00838
G1 X88.260 Y107.480 E0.01745
G1 X88.168 Y107.409 E0.00364
G1 X88.058 Y107.371 E0.00363
G1 X83.858 Y107.359 E0.13169
G1 X83.184 Y107.289 E0.02125
G1 X82.526 Y107.119 E0.02131
G1 X82.141 Y106.970 E0.01295
G1 X81.774 Y106.788 E0.01285
G1 X81.424 Y106.574 E0.01285
G1 X81.095 Y106.331 E0.01285
G1 X80.788 Y106.058 E0.01285
G1 X80.507 Y105.760 E0.01285
G1 X80.254 Y105.438 E0.01285
G1 X80.028 Y105.092 E0.01295
G1 X79.727 Y104.484 E0.02126
G1 X79.552 Y103.965 E0.01718
G1 X79.439 Y103.431 E0.01713
G1 X79.391 Y102.890 E0.01703
G1 X79.389 Y86.241 E0.52202
G1 X79.439 Y85.572 E0.02102
G1 X79.518 Y85.167 E0.01295
G1 X79.632 Y84.773 E0.01285
G1 X79.780 Y84.391 E0.01285
G1 X79.962 Y84.024 E0.01285
G1 X80.176 Y83.674 E0.01285
G1 X80.419 Y83.345 E0.01285
G1 X80.692 Y83.038 E0.01285
G1 X80.990 Y82.757 E0.01285
G1 X81.312 Y82.504 E0.01285
G1 X81.655 Y82.280 E0.01285
G1 X82.017 Y82.087 E0.01285
G1 X82.394 Y81.928 E0.01285
G1 X82.785 Y81.802 E0.01285
G1 X83.184 Y81.712 E0.01285
G1 X83.591 Y81.657 E0.01285
G1 X83.994 Y81.639 E0.01266
G1 X96.009 Y81.639 E0.37674
G1 X96.678 Y81.689 E0.02102
G1 X97.085 Y81.768 E0.01300
G1 X97.606 Y81.927 E0.01708
G1 X98.106 Y82.148 E0.01713
G1 X98.575 Y82.425 E0.01708
G1 X98.907 Y82.670 E0.01295
G1 X99.309 Y83.038 E0.01708
G1 X99.665 Y83.452 E0.01713
G1 X99.971 Y83.906 E0.01718
G1 X100.273 Y84.516 E0.02131
G1 X100.448 Y85.035 E0.01718
G1 X100.561 Y85.569 E0.01713
G1 X100.609 Y86.110 E0.01703
G1 X100.603 Y103.023 E0.53029
G1 X100.538 Y103.566 E0.01715
G1 X100.395 Y104.145 E0.01868
G1 X100.163 Y104.732 E0.01980
G1 X99.899 Y105.212 E0.01716
G1 X99.581 Y105.655 E0.01713
G1 X99.212 Y106.059 E0.01713
G1 X98.798 Y106.415 E0.01713
G1 X98.345 Y106.720 E0.01713
G1 X97.859 Y106.970 E0.01713
G1 X97.348 Y107.160 E0.01708
G1 X96.948 Y107.262 E0.01295
G1 X96.411 Y107.343 E0.01703
G1 X96.006 Y107.361 E0.01271
G1 X92.031 Y107.361 E0.12463
G1 X91.891 Y107.386 E0.00447
M204 S1250
G1 X91.825 Y107.524 F9000.000
G1 E-2.24000 F4200.00000
G1 F7200.000
G1 X91.742 Y107.478 E-0.09727
G1 X91.531 Y107.808 E-0.21659
G1 X91.369 Y108.011 E-0.14392
G1 X91.178 Y108.191 E-0.14607
G1 X90.962 Y108.343 E-0.14607
G1 X90.728 Y108.463 E-0.14607
G1 X90.700 Y108.473 E-0.01599
G1 E-0.04800 F4200.00000
G1 Z0.400 F9000.000
G1 X97.510 Y71.711
G1 Z0.200
G1 E3.20000 F2400.00000
M204 S800
G1 F1200.000
G1 X97.513 Y77.178 E0.17142
G1 X97.534 Y77.423 E0.00772
G1 X97.672 Y77.779 E0.01196
G1 X97.959 Y78.065 E0.01270
G1 X98.219 Y78.185 E0.00899
G1 X98.466 Y78.234 E0.00789
G1 X100.980 Y78.238 E0.07881
G1 X101.382 Y78.263 E0.01264
G1 X101.657 Y78.311 E0.00875
G1 X101.922 Y78.383 E0.00861
G1 X102.375 Y78.571 E0.01539
G1 X102.610 Y78.705 E0.00846
G1 X102.919 Y78.930 E0.01200
G1 X103.195 Y79.189 E0.01186
G1 X103.436 Y79.480 E0.01186
G1 X103.639 Y79.799 E0.01186
G1 X103.802 Y80.146 E0.01200
G1 X103.890 Y80.405 E0.00861
G1 X103.973 Y80.774 E0.01185
G1 X104.012 Y81.275 E0.01573
G1 X104.012 Y107.735 E0.82964
G1 X103.998 Y108.029 E0.00923
G1 X103.938 Y108.407 E0.01200
G1 X103.833 Y108.770 E0.01186
G1 X103.683 Y109.117 E0.01186
G1 X103.490 Y109.442 E0.01186
G1 X103.259 Y109.741 E0.01186
G1 X102.991 Y110.009 E0.01186
G1 X102.692 Y110.240 E0.01186
G1 X102.370 Y110.431 E0.01175
G1 X101.961 Y110.603 E0.01390
G1 X101.562 Y110.708 E0.01292
G1 X101.189 Y110.755 E0.01180
G1 X78.910 Y110.760 E0.69854
G1 X78.627 Y110.738 E0.00889
G1 X78.251 Y110.666 E0.01200
G1 X77.887 Y110.548 E0.01200
G1 X77.637 Y110.435 E0.00861
G1 X77.308 Y110.240 E0.01200
G1 X77.009 Y110.009 E0.01186
G1 X76.744 Y109.743 E0.01175
G1 X76.476 Y109.390 E0.01390
G1 X76.275 Y109.030 E0.01292
G1 X76.136 Y108.680 E0.01180
G1 X76.042 Y108.314 E0.01186
G1 X75.995 Y107.939 E0.01186
G1 X75.988 Y81.265 E0.83634
G1 X76.002 Y80.971 E0.00923
G1 X76.062 Y80.593 E0.01200
G1 X76.167 Y80.230 E0.01186
G1 X76.319 Y79.879 E0.01200
G1 X76.457 Y79.636 E0.00875
G1 X76.620 Y79.404 E0.00890
G1 X76.805 Y79.188 E0.00890
G1 X77.008 Y78.991 E0.00890
G1 X77.230 Y78.814 E0.00890
G1 X77.467 Y78.658 E0.00890
G1 X77.718 Y78.525 E0.00890
G1 X77.976 Y78.418 E0.00875
G1 X78.339 Y78.313 E0.01186
G1 X78.817 Y78.245 E0.01514
G1 X81.552 Y78.233 E0.08576
G1 X81.890 Y78.148 E0.01092
G1 X82.137 Y77.989 E0.00921
G1 X82.325 Y77.771 E0.00903
G1 X82.454 Y77.473 E0.01019
G1 X82.487 Y77.191 E0.00892
G1 X82.490 Y71.707 E0.17193
G1 X97.450 Y71.711 E0.46905
M204 S1250
G1 E-2.24000 F4200.00000
G1 F7200.000
G1 X97.469 Y73.356 E-0.91200
G1 E-0.04800 F4200.00000
G1 Z0.400 F9000.000
G1 X98.336 Y77.824
G1 Z0.200
G1 E3.20000 F2400.00000
M204 S800
G1 F1200.000
G1 X98.503 Y77.857 E0.00534
G1 X100.992 Y77.861 E0.07802
G1 X101.426 Y77.888 E0.01366
G1 X101.739 Y77.943 E0.00996
G1 X102.044 Y78.026 E0.00991
G1 X102.541 Y78.232 E0.01688
G1 X102.814 Y78.388 E0.00986
G1 X103.160 Y78.639 E0.01340
G1 X103.470 Y78.930 E0.01334
G1 X103.742 Y79.258 E0.01334
G1 X103.970 Y79.617 E0.01334
G1 X104.152 Y80.004 E0.01340
G1 X104.254 Y80.303 E0.00991
G1 X104.347 Y80.718 E0.01334
G1 X104.389 Y81.260 E0.01703
G1 X104.389 Y107.743 E0.83038
G1 X104.374 Y108.067 E0.01016
G1 X104.307 Y108.489 E0.01339
G1 X104.188 Y108.898 E0.01334
G1 X104.019 Y109.288 E0.01334
G1 X103.803 Y109.655 E0.01334
G1 X103.542 Y109.991 E0.01334
G1 X103.241 Y110.292 E0.01334
G1 X102.905 Y110.553 E0.01334
G1 X102.539 Y110.769 E0.01331
G1 X102.082 Y110.961 E0.01554
G1 X101.634 Y111.079 E0.01453
G1 X101.213 Y111.132 E0.01332
G1 X78.895 Y111.137 E0.69975
G1 X78.577 Y111.112 E0.01001
G1 X78.157 Y111.032 E0.01340
G1 X77.751 Y110.900 E0.01340
G1 X77.463 Y110.770 E0.00991
G1 X77.095 Y110.553 E0.01340
G1 X76.759 Y110.292 E0.01334
G1 X76.459 Y109.992 E0.01331
G1 X76.159 Y109.597 E0.01554
G1 X75.933 Y109.192 E0.01453
G1 X75.777 Y108.797 E0.01332
G1 X75.671 Y108.385 E0.01334
G1 X75.618 Y107.963 E0.01334
G1 X75.611 Y81.256 E0.83736
G1 X75.626 Y80.933 E0.01016
G1 X75.693 Y80.511 E0.01340
G1 X75.812 Y80.102 E0.01334
G1 X75.981 Y79.710 E0.01340
G1 X76.139 Y79.434 E0.00996
G1 X76.322 Y79.173 E0.01001
G1 X76.530 Y78.930 E0.01001
G1 X76.759 Y78.708 E0.01001
G1 X77.008 Y78.508 E0.01001
G1 X77.275 Y78.333 E0.01001
G1 X77.557 Y78.184 E0.01001
G1 X77.850 Y78.062 E0.00996
G1 X78.259 Y77.943 E0.01334
G1 X78.789 Y77.868 E0.01679
G1 X81.504 Y77.856 E0.08512
G1 X81.737 Y77.797 E0.00754
G1 X81.887 Y77.701 E0.00560
G1 X82.002 Y77.568 E0.00550
G1 X82.086 Y77.374 E0.00663
G1 X82.110 Y77.168 E0.00650
G1 X82.113 Y71.658 E0.17277
G1 X82.170 Y71.330 E0.01044
G1 X97.833 Y71.334 E0.49109
G1 X97.887 Y71.658 E0.01031
G1 X97.890 Y77.161 E0.17255
G1 X97.905 Y77.337 E0.00552
G1 X97.995 Y77.568 E0.00778
G1 X98.178 Y77.751 E0.00811
G1 X98.282 Y77.799 E0.00360
M204 S1250
G1 X98.367 Y77.991 F9000.000
G1 E-2.24000 F4200.00000
G1 F7200.000
G1 X98.503 Y77.857 E-0.12685
G1 X99.920 Y77.859 E-0.78515
G1 E-0.04800 F4200.00000
G1 Z0.400 F9000.000
G1 X97.397 Y72.591
G1 Z0.200
G1 E3.20000 F2400.00000
M204 S800
G1 F1200.000
G1 X96.799 Y71.993 E0.02667
G1 X96.263 Y71.993 E0.01693
G1 X97.228 Y72.958 E0.04305
G1 X97.228 Y73.495 E0.01693
G1 X95.726 Y71.993 E0.06700
G1 X95.189 Y71.993 E0.01693
G1 X97.228 Y74.032 E0.09095
G1 X97.228 Y74.569 E0.01693
G1 X94.653 Y71.993 E0.11490
G1 X94.116 Y71.993 E0.01693
G1 X97.229 Y75.105 E0.13885
G1 X97.229 Y75.642 E0.01693
G1 X93.580 Y71.993 E0.16280
G1 X93.043 Y71.992 E0.01693
G1 X97.229 Y76.179 E0.18675
G1 X97.229 Y76.716 E0.01693
G1 X92.506 Y71.992 E0.21070
G1 X91.970 Y71.992 E0.01693
G1 X97.236 Y77.258 E0.23491
G1 X97.256 Y77.488 E0.00728
G1 X97.430 Y77.937 E0.01518
G1 X97.794 Y78.301 E0.01624
G1 X98.131 Y78.456 E0.01170
G1 X98.494 Y78.517 E0.01162
G1 X103.729 Y83.752 E0.23353
G1 X103.729 Y83.215 E0.01692
G1 X99.032 Y78.518 E0.20956
G1 X99.569 Y78.518 E0.01695
G1 X103.729 Y82.679 E0.18559
G1 X103.729 Y82.142 E0.01692
G1 X100.106 Y78.519 E0.16163
G1 X100.643 Y78.520 E0.01695
G1 X103.729 Y81.606 E0.13766
G1 X103.711 Y81.051 E0.01751
G1 X101.195 Y78.535 E0.11226
G1 X101.595 Y78.587 E0.01275
G1 X101.861 Y78.664 E0.00872
G1 X103.824 Y80.628 E0.08760
M204 S1250
G1 E-2.24000 F4200.00000
G1 F7200.000
G1 X102.661 Y79.464 E-0.91200
G1 E-0.04800 F4200.00000
G1 Z0.400 F9000.000
G1 X103.899 Y84.458
G1 Z0.200
G1 E3.20000 F2400.00000
M204 S800
G1 F1200.000
G1 X91.433 Y71.992 E0.55610
G1 X90.896 Y71.992 E0.01693
G1 X103.729 Y84.825 E0.57247
G1 X103.729 Y85.361 E0.01692
G1 X90.360 Y71.992 E0.59640
G1 X89.823 Y71.992 E0.01693
G1 X103.729 Y85.898 E0.62034
G1 X103.729 Y86.434 E0.01692
G1 X89.287 Y71.992 E0.64428
G1 X88.750 Y71.991 E0.01693
G1 X98.248 Y81.489 E0.42369
G1 X97.836 Y81.308 E0.01420
G1 X97.395 Y81.173 E0.01453
G1 X88.213 Y71.991 E0.40960
G1 X87.677 Y71.991 E0.01693
G1 X96.716 Y81.030 E0.40322
G1 X96.136 Y80.987 E0.01833
G1 X87.140 Y71.991 E0.40130
G1 X86.603 Y71.991 E0.01693
G1 X95.592 Y80.979 E0.40097
G1 X95.055 Y80.979 E0.01692
G1 X86.067 Y71.991 E0.40097
G1 X85.530 Y71.991 E0.01693
G1 X94.519 Y80.979 E0.40098
G1 X93.983 Y80.979 E0.01692
G1 X84.994 Y71.990 E0.40099
G1 X84.457 Y71.990 E0.01693
G1 X93.446 Y80.979 E0.40099
G1 X92.910 Y80.979 E0.01692
G1 X83.920 Y71.990 E0.40100
G1 X83.384 Y71.990 E0.01693
G1 X92.373 Y80.979 E0.40100
G1 X91.837 Y80.979 E0.01692
G1 X82.847 Y71.990 E0.40101
G1 X82.773 Y71.990 E0.00235
G1 X82.773 Y72.452 E0.01457
G1 X91.300 Y80.979 E0.38040
G1 X90.764 Y80.979 E0.01692
G1 X82.772 Y72.988 E0.35648
G1 X82.772 Y73.524 E0.01691
G1 X90.227 Y80.979 E0.33256
G1 X89.691 Y80.979 E0.01692
G1 X82.772 Y74.061 E0.30864
G1 X82.772 Y74.597 E0.01691
G1 X89.154 Y80.979 E0.28472
G1 X88.618 Y80.979 E0.01692
G1 X82.771 Y75.133 E0.26080
G1 X82.771 Y75.669 E0.01691
G1 X88.081 Y80.979 E0.23688
G1 X87.545 Y80.979 E0.01692
G1 X82.771 Y76.205 E0.21296
M73 P5 R18
G1 X82.770 Y76.742 E0.01691
G1 X87.008 Y80.979 E0.18904
G1 X86.472 Y80.979 E0.01692
G1 X82.763 Y77.270 E0.16545
G1 X82.730 Y77.547 E0.00879
G1 X82.662 Y77.706 E0.00545
G1 X85.935 Y80.979 E0.14603
G1 X85.399 Y80.979 E0.01692
G1 X82.463 Y78.044 E0.13095
G1 X82.324 Y78.205 E0.00672
G1 X82.180 Y78.297 E0.00539
G1 X84.862 Y80.979 E0.11965
G1 X84.326 Y80.979 E0.01692
G1 X81.807 Y78.460 E0.11237
G1 X81.588 Y78.516 E0.00712
G1 X81.327 Y78.517 E0.00823
G1 X83.797 Y80.987 E0.11020
G1 X83.303 Y81.030 E0.01564
G1 X80.793 Y78.519 E0.11200
G1 X80.258 Y78.522 E0.01685
G1 X82.848 Y81.111 E0.11552
G1 X82.425 Y81.225 E0.01382
G1 X79.724 Y78.524 E0.12048
G1 X79.190 Y78.526 E0.01685
G1 X82.029 Y81.365 E0.12667
G1 X81.658 Y81.531 E0.01282
G1 X78.678 Y78.550 E0.13296
G1 X78.398 Y78.590 E0.00890
G1 X78.230 Y78.639 E0.00553
G1 X81.309 Y81.718 E0.13735
G1 X80.984 Y81.930 E0.01223
