; generated by PrusaSlicer 2.2.0+win64 on 2020-12-01 at 17:52:49 UTC


;
;

;
;
; 

; external perimeters extrusion width = 0.45mm
; perimeters extrusion width = 0.45mm
; infill extrusion width = 0.45mm
; solid infill extrusion width = 0.45mm
; top infill extrusion width = 0.40mm
; first layer extrusion width = 0.42mm

M73 P0 R208
M201 X1250 Y1250 Z400 E5000 ; sets maximum accelerations, mm/sec^2
M203 X180 Y180 Z12 E80 ; sets maximum feedrates, mm/sec
M204 P1250 R1250 T1250 ; sets acceleration (P, T) and retract acceleration (R), mm/sec^2
M205 X8.00 Y8.00 Z2.00 E10.00 ; sets the jerk limits, mm/sec
M205 S0 T0 ; sets the minimum extruding and travel feed rate, mm/sec
M107
G90 ; use absolute coordinates
M83 ; extruder relative mode
M104 S170 ; set extruder temp for bed leveling
M140 S60 ; set bed temp
M109 R170 ; wait for bed leveling temp
M190 S60 ; wait for bed temp
G28 ; home all without mesh bed level
G29 ; mesh bed leveling 
M104 S215 ; set extruder temp
G92 E0.0
G1 Y-2.0 X179 F2400
G1 Z3 F720
M109 S215 ; wait for extruder temp

; intro line
G1 X170 F1000
G1 Z0.2 F720
G1 X110.0 E8.0 F900
M73 P0 R208
G1 X40.0 E10.0 F700
G92 E0.0

M221 S95 ; set flow
G21 ; set units to millimeters
G90 ; use absolute coordinates
M83 ; use relative distances for extrusion
M900 K0.2 ; Filament gcode LA 1.5
; ; Filament gcode LA 1.0
;BEFORE_LAYER_CHANGE
G92 E0.0
;0.2


G1 Z0.200 F9000.000
;AFTER_LAYER_CHANGE
;0.2
G1 E-3.20000 F4200.00000
G1 Z0.400 F9000.000
G1 X10.885 Y39.908
G1 Z0.200
G1 E3.20000 F2400.00000
M204 S800
G1 F1200.000
G1 X11.451 Y39.519 E0.02154
G1 X12.101 Y39.308 E0.02142
G1 X117.433 Y21.694 E3.34848
G1 X156.981 Y21.675 E1.24000
G1 X157.565 Y21.749 E0.01846
G1 X158.110 Y21.963 E0.01835
G1 X158.589 Y22.305 E0.01846
G1 X158.969 Y22.755 E0.01846
G1 X169.554 Y40.455 E0.64662
G1 X169.765 Y40.931 E0.01633
G1 X169.868 Y41.441 E0.01633
G1 X169.877 Y155.667 E3.58146
G1 X169.675 Y156.610 E0.03024
G1 X169.115 Y157.396 E0.03024
G1 X168.379 Y157.860 E0.02731
G1 X167.528 Y158.029 E0.02720
G1 X89.907 Y158.324 E2.43376
G1 X12.468 Y158.029 E2.42806
G1 X11.533 Y157.823 E0.03001
G1 X10.758 Y157.269 E0.02989
G1 X10.289 Y156.525 E0.02755
G1 X10.123 Y155.663 E0.02755
G1 X10.123 Y41.648 E3.57486
G1 X10.174 Y41.164 E0.01526
G1 X10.323 Y40.697 E0.01538
G1 X10.850 Y39.957 E0.02848
M204 S1250
G1 E-2.24000 F4200.00000
G1 F7200.000
G1 X11.451 Y39.519 E-0.41211
G1 X12.101 Y39.308 E-0.37863
G1 X12.317 Y39.272 E-0.12125
G1 E-0.04800 F4200.00000
G1 Z0.400 F9000.000
G1 X88.452 Y149.484
G1 Z0.200
G1 E3.20000 F2400.00000
M204 S800
G1 F1200.000
G1 X88.740 Y149.325 E0.01032
G1 X89.191 Y149.152 E0.01516
G1 X89.512 Y149.079 E0.01033
G1 X89.840 Y149.042 E0.01032
G1 X90.323 Y149.056 E0.01516
G1 X90.648 Y149.111 E0.01032
G1 X90.961 Y149.201 E0.01024
G1 X91.263 Y149.326 E0.01024
G1 X91.551 Y149.486 E0.01032
G1 X91.940 Y149.778 E0.01525
G1 X92.274 Y150.131 E0.01525
G1 X92.464 Y150.400 E0.01032
G1 X92.624 Y150.688 E0.01033
G1 X92.796 Y151.140 E0.01516
G1 X92.869 Y151.461 E0.01032
G1 X92.906 Y151.788 E0.01033
G1 X92.893 Y152.271 E0.01516
G1 X92.837 Y152.596 E0.01033
G1 X92.746 Y152.912 E0.01032
G1 X92.549 Y153.354 E0.01516
G1 X92.374 Y153.633 E0.01033
G1 X92.170 Y153.888 E0.01023
G1 X91.939 Y154.119 E0.01024
G1 X91.682 Y154.324 E0.01033
G1 X91.266 Y154.569 E0.01516
G1 X90.961 Y154.696 E0.01033
G1 X90.645 Y154.787 E0.01032
G1 X90.163 Y154.855 E0.01525
G1 X89.677 Y154.841 E0.01525
G1 X89.352 Y154.786 E0.01033
G1 X89.036 Y154.695 E0.01033
G1 X88.595 Y154.497 E0.01516
G1 X88.316 Y154.322 E0.01032
G1 X88.061 Y154.118 E0.01024
G1 X87.830 Y153.888 E0.01023
G1 X87.625 Y153.630 E0.01033
G1 X87.379 Y153.214 E0.01516
G1 X87.253 Y152.910 E0.01032
G1 X87.162 Y152.593 E0.01033
G1 X87.094 Y152.114 E0.01516
G1 X87.094 Y151.785 E0.01032
G1 X87.131 Y151.458 E0.01033
G1 X87.252 Y150.990 E0.01516
G1 X87.378 Y150.686 E0.01033
G1 X87.537 Y150.397 E0.01033
G1 X87.830 Y150.009 E0.01525
G1 X88.183 Y149.675 E0.01525
G1 X88.403 Y149.519 E0.00844
M204 S1250
G1 X88.436 Y149.155 F9000.000
G1 E-2.24000 F4200.00000
G1 F7200.000
G1 X88.740 Y149.325 E-0.21553
G1 X89.191 Y149.152 E-0.26794
G1 X89.512 Y149.079 E-0.18249
G1 X89.840 Y149.042 E-0.18245
G1 X89.954 Y149.045 E-0.06359
G1 E-0.04800 F4200.00000
G1 Z0.400 F9000.000
G1 X161.189 Y149.519
G1 Z0.200
G1 E3.20000 F2400.00000
M204 S800
G1 F1200.000
G1 X161.189 Y149.362 E0.00492
G1 X161.983 Y149.275 E0.02505
G1 X162.494 Y149.247 E0.01604
G1 X165.506 Y149.247 E0.09445
G1 X166.017 Y149.275 E0.01605
G1 X166.811 Y149.362 E0.02505
G1 X166.811 Y154.963 E0.17562
G1 X161.189 Y154.963 E0.17630
G1 X161.189 Y149.579 E0.16882
M204 S1250
G1 X161.037 Y149.479 F9000.000
G1 X161.248 Y148.976
M204 S800
G1 F1200.000
G1 X161.302 Y147.886 E0.03421
G1 X159.511 Y147.865 E0.05618
G1 X93.183 Y147.865 E2.07966
G1 X93.183 Y151.140 E0.10270
G1 X93.158 Y151.030 E0.00354
G1 X92.966 Y150.529 E0.01682
G1 X92.784 Y150.199 E0.01182
G1 X92.566 Y149.892 E0.01182
G1 X92.192 Y149.496 E0.01708
G1 X91.757 Y149.168 E0.01708
G1 X91.427 Y148.986 E0.01182
G1 X91.086 Y148.845 E0.01156
G1 X90.732 Y148.743 E0.01156
G1 X90.360 Y148.680 E0.01181
G1 X89.824 Y148.665 E0.01682
G1 X89.449 Y148.707 E0.01182
G1 X89.082 Y148.791 E0.01182
G1 X88.581 Y148.982 E0.01682
G1 X88.251 Y149.164 E0.01182
G1 X87.943 Y149.382 E0.01182
G1 X87.547 Y149.757 E0.01708
G1 X87.220 Y150.192 E0.01708
G1 X87.038 Y150.522 E0.01182
G1 X86.893 Y150.870 E0.01182
G1 X86.817 Y151.165 E0.00956
G1 X86.817 Y147.865 E0.10349
G1 X20.987 Y147.865 E2.06406
G1 X18.698 Y147.884 E0.07178
G1 X18.752 Y148.976 E0.03428
G1 X18.048 Y148.899 E0.02219
G1 X17.517 Y148.870 E0.01668
G1 X15.499 Y148.865 E0.06326
G1 X14.482 Y148.870 E0.03188
G1 X13.952 Y148.899 E0.01666
G1 X13.248 Y148.976 E0.02222
G1 X13.272 Y148.680 E0.00930
G1 X13.287 Y147.656 E0.03213
G1 X13.287 Y42.439 E3.29901
G1 X166.713 Y42.439 E4.81056
M73 P0 R207
G1 X166.713 Y147.154 E3.28329
G1 X166.727 Y148.679 E0.04781
G1 X166.752 Y148.976 E0.00935
G1 X166.048 Y148.899 E0.02222
G1 X165.517 Y148.870 E0.01668
G1 X163.499 Y148.865 E0.06326
G1 X162.482 Y148.870 E0.03188
G1 X161.952 Y148.899 E0.01666
G1 X161.308 Y148.970 E0.02031
M204 S1250
G1 E-2.24000 F4200.00000
G1 F7200.000
G1 X161.302 Y147.886 E-0.60033
G1 X160.740 Y147.879 E-0.31167
G1 E-0.04800 F4200.00000
G1 Z0.400 F9000.000
G1 X18.811 Y149.362
G1 Z0.200
G1 E3.20000 F2400.00000
M204 S800
G1 F1200.000
G1 X18.811 Y154.963 E0.17562
G1 X13.189 Y154.963 E0.17630
G1 X13.189 Y149.362 E0.17562
G1 X13.983 Y149.275 E0.02505
G1 X14.494 Y149.247 E0.01604
G1 X15.500 Y149.242 E0.03154
G1 X17.506 Y149.247 E0.06291
G1 X18.017 Y149.275 E0.01605
G1 X18.752 Y149.355 E0.02317
M204 S1250
G1 X19.211 Y149.374 F9000.000
G1 E-2.24000 F4200.00000
G1 F7200.000
G1 X18.769 Y151.001 E-0.91200
G1 E-0.04800 F4200.00000
G1 Z0.400 F9000.000
G1 X160.906 Y148.259
G1 Z0.200
G1 E3.20000 F2400.00000
M204 S800
G1 F1200.000
G1 X159.508 Y148.242 E0.04383
G1 X93.560 Y148.242 E2.06776
G1 X93.560 Y152.406 E0.13056
G1 X93.510 Y152.703 E0.00945
G1 X93.428 Y153.012 E0.01003
G1 X93.320 Y153.313 E0.01003
G1 X93.187 Y153.601 E0.00995
G1 X92.936 Y154.013 E0.01511
G1 X92.635 Y154.386 E0.01503
G1 X92.287 Y154.715 E0.01503
G1 X91.897 Y154.995 E0.01503
G1 X91.474 Y155.221 E0.01503
G1 X91.025 Y155.388 E0.01503
G1 X90.558 Y155.494 E0.01503
G1 X90.080 Y155.537 E0.01503
G1 X89.601 Y155.516 E0.01503
G1 X89.129 Y155.431 E0.01503
G1 X88.673 Y155.284 E0.01503
G1 X88.240 Y155.077 E0.01503
G1 X87.839 Y154.814 E0.01503
G1 X87.474 Y154.499 E0.01511
G1 X87.259 Y154.266 E0.00995
G1 X87.065 Y154.015 E0.00995
G1 X86.813 Y153.601 E0.01518
G1 X86.680 Y153.313 E0.00995
G1 X86.572 Y153.012 E0.01003
G1 X86.491 Y152.704 E0.00999
G1 X86.440 Y152.406 E0.00949
G1 X86.440 Y148.242 E0.13056
G1 X20.989 Y148.242 E2.05219
G1 X19.094 Y148.258 E0.05941
G1 X19.139 Y149.167 E0.02855
G1 X19.189 Y149.662 E0.01559
G1 X19.189 Y154.644 E0.15619
G1 X19.140 Y155.292 E0.02037
G1 X18.492 Y155.340 E0.02037
G1 X13.508 Y155.340 E0.15628
G1 X12.860 Y155.292 E0.02037
G1 X12.811 Y154.644 E0.02037
G1 X12.811 Y149.660 E0.15625
G1 X12.896 Y148.662 E0.03142
G1 X12.910 Y147.653 E0.03163
G1 X12.910 Y42.062 E3.31075
G1 X167.090 Y42.062 E4.83421
G1 X167.090 Y147.153 E3.29505
G1 X167.104 Y148.661 E0.04731
G1 X167.189 Y149.660 E0.03143
G1 X167.189 Y154.644 E0.15625
G1 X167.140 Y155.292 E0.02037
G1 X166.492 Y155.340 E0.02037
G1 X161.508 Y155.340 E0.15628
G1 X160.860 Y155.292 E0.02037
G1 X160.811 Y154.644 E0.02037
G1 X160.811 Y149.662 E0.15619
G1 X160.861 Y149.167 E0.01559
G1 X160.903 Y148.319 E0.02665
M204 S1250
G1 X160.918 Y147.859 F9000.000
G1 X161.402 Y148.156
M204 S800
G1 F1200.000
G1 X161.870 Y148.624 E0.02078
G1 X162.373 Y148.593 E0.01584
G1 X56.502 Y42.722 E4.70238
G1 X57.036 Y42.722 E0.01678
G1 X162.900 Y148.585 E4.70204
G1 X163.431 Y148.582 E0.01669
G1 X57.570 Y42.722 E4.70191
M73 P1 R206
G1 X58.104 Y42.722 E0.01678
G1 X163.966 Y148.583 E4.70195
G1 X164.502 Y148.584 E0.01682
G1 X58.639 Y42.722 E4.70201
G1 X59.173 Y42.722 E0.01678
G1 X165.037 Y148.586 E4.70208
G1 X165.575 Y148.590 E0.01690
G1 X59.707 Y42.722 E4.70226
G1 X60.241 Y42.722 E0.01678
G1 X166.145 Y148.625 E4.70382
G1 X166.444 Y148.658 E0.00947
G1 X166.442 Y148.388 E0.00848
G1 X60.775 Y42.722 E4.69329
G1 X61.309 Y42.722 E0.01678
G1 X166.437 Y147.849 E4.66934
G1 X166.432 Y147.309 E0.01694
G1 X61.844 Y42.722 E4.64538
M73 P1 R205
G1 X62.378 Y42.722 E0.01678
G1 X166.430 Y146.774 E4.62159
G1 X166.430 Y146.240 E0.01678
G1 X62.912 Y42.722 E4.59787
G1 X63.446 Y42.722 E0.01678
G1 X166.430 Y145.706 E4.57414
G1 X166.430 Y145.171 E0.01678
G1 X63.980 Y42.722 E4.55042
G1 X64.514 Y42.722 E0.01678
G1 X166.430 Y144.637 E4.52669
G1 X166.430 Y144.103 E0.01678
G1 X65.049 Y42.722 E4.50296
G1 X65.583 Y42.722 E0.01678
G1 X166.430 Y143.569 E4.47924
G1 X166.430 Y143.035 E0.01678
G1 X66.117 Y42.722 E4.45551
G1 X66.651 Y42.722 E0.01678
G1 X166.430 Y142.501 E4.43179
M73 P2 R204
G1 X166.430 Y141.966 E0.01678
G1 X67.185 Y42.722 E4.40806
G1 X67.719 Y42.722 E0.01678
G1 X166.430 Y141.432 E4.38434
G1 X166.430 Y140.898 E0.01678
G1 X68.254 Y42.722 E4.36061
G1 X68.788 Y42.722 E0.01678
G1 X166.430 Y140.364 E4.33689
G1 X166.430 Y139.830 E0.01678
G1 X69.322 Y42.722 E4.31316
G1 X69.856 Y42.722 E0.01678
G1 X166.430 Y139.296 E4.28944
G1 X166.430 Y138.761 E0.01678
G1 X70.390 Y42.722 E4.26571
G1 X70.924 Y42.722 E0.01678
G1 X166.430 Y138.227 E4.24198
G1 X166.430 Y137.693 E0.01678
G1 X71.459 Y42.722 E4.21826
M73 P2 R203
G1 X71.993 Y42.722 E0.01678
G1 X166.430 Y137.159 E4.19453
G1 X166.430 Y136.625 E0.01678
G1 X72.527 Y42.722 E4.17081
G1 X73.061 Y42.722 E0.01678
G1 X166.430 Y136.091 E4.14708
G1 X166.430 Y135.556 E0.01678
G1 X73.595 Y42.722 E4.12336
G1 X74.129 Y42.722 E0.01678
G1 X166.430 Y135.022 E4.09963
G1 X166.430 Y134.488 E0.01678
G1 X74.664 Y42.722 E4.07591
G1 X75.198 Y42.722 E0.01678
G1 X166.430 Y133.954 E4.05218
G1 X166.430 Y133.420 E0.01678
G1 X75.732 Y42.722 E4.02845
G1 X76.266 Y42.722 E0.01678
G1 X166.430 Y132.886 E4.00473
G1 X166.430 Y132.351 E0.01678
G1 X76.800 Y42.722 E3.98100
M73 P3 R202
G1 X77.334 Y42.722 E0.01678
G1 X166.430 Y131.817 E3.95728
G1 X166.430 Y131.283 E0.01678
G1 X77.869 Y42.722 E3.93355
G1 X78.403 Y42.722 E0.01678
G1 X166.430 Y130.749 E3.90983
G1 X166.430 Y130.215 E0.01678
G1 X78.937 Y42.722 E3.88610
G1 X79.471 Y42.722 E0.01678
G1 X166.430 Y129.681 E3.86238
G1 X166.430 Y129.146 E0.01678
G1 X80.005 Y42.722 E3.83865
G1 X80.539 Y42.722 E0.01678
G1 X166.430 Y128.612 E3.81493
G1 X166.430 Y128.078 E0.01678
G1 X81.074 Y42.722 E3.79120
G1 X81.608 Y42.722 E0.01678
G1 X166.430 Y127.544 E3.76747
G1 X166.430 Y127.010 E0.01678
G1 X82.142 Y42.722 E3.74375
M73 P3 R201
G1 X82.676 Y42.722 E0.01678
G1 X166.430 Y126.476 E3.72002
G1 X166.430 Y125.941 E0.01678
G1 X83.210 Y42.722 E3.69630
G1 X83.744 Y42.722 E0.01678
G1 X166.430 Y125.407 E3.67257
G1 X166.430 Y124.873 E0.01678
G1 X84.279 Y42.722 E3.64885
G1 X84.813 Y42.722 E0.01678
G1 X166.430 Y124.339 E3.62512
G1 X166.430 Y123.805 E0.01678
G1 X85.347 Y42.722 E3.60140
G1 X85.881 Y42.722 E0.01678
G1 X166.430 Y123.271 E3.57767
G1 X166.430 Y122.736 E0.01678
G1 X86.415 Y42.722 E3.55394
G1 X86.949 Y42.722 E0.01678
G1 X166.430 Y122.202 E3.53022
G1 X166.430 Y121.668 E0.01678
G1 X87.484 Y42.722 E3.50649
G1 X88.018 Y42.722 E0.01678
G1 X166.430 Y121.134 E3.48277
M73 P4 R200
G1 X166.430 Y120.600 E0.01678
G1 X88.552 Y42.722 E3.45904
G1 X89.086 Y42.722 E0.01678
G1 X166.430 Y120.066 E3.43532
G1 X166.430 Y119.531 E0.01678
G1 X89.620 Y42.722 E3.41159
G1 X90.154 Y42.722 E0.01678
G1 X166.430 Y118.997 E3.38787
G1 X166.430 Y118.463 E0.01678
G1 X90.689 Y42.722 E3.36414
G1 X91.223 Y42.722 E0.01678
G1 X166.430 Y117.929 E3.34041
G1 X166.430 Y117.395 E0.01678
G1 X91.757 Y42.722 E3.31669
G1 X92.291 Y42.722 E0.01678
G1 X166.430 Y116.861 E3.29296
G1 X166.430 Y116.326 E0.01678
G1 X92.825 Y42.722 E3.26924
G1 X93.359 Y42.722 E0.01678
G1 X166.430 Y115.792 E3.24551
G1 X166.430 Y115.258 E0.01678
G1 X93.894 Y42.722 E3.22179
G1 X94.428 Y42.722 E0.01678
G1 X166.430 Y114.724 E3.19806
M73 P4 R198
G1 X166.430 Y114.190 E0.01678
G1 X94.962 Y42.722 E3.17434
G1 X95.496 Y42.722 E0.01678
G1 X166.430 Y113.656 E3.15061
G1 X166.430 Y113.121 E0.01678
G1 X96.030 Y42.722 E3.12689
G1 X96.564 Y42.722 E0.01678
G1 X166.430 Y112.587 E3.10316
G1 X166.430 Y112.053 E0.01678
G1 X97.099 Y42.722 E3.07943
G1 X97.633 Y42.722 E0.01678
G1 X166.430 Y111.519 E3.05571
G1 X166.430 Y110.985 E0.01678
G1 X98.167 Y42.722 E3.03198
G1 X98.701 Y42.722 E0.01678
G1 X166.430 Y110.451 E3.00826
G1 X166.430 Y109.916 E0.01678
G1 X99.235 Y42.722 E2.98453
G1 X99.769 Y42.722 E0.01678
G1 X166.430 Y109.382 E2.96081
G1 X166.430 Y108.848 E0.01678
G1 X100.304 Y42.722 E2.93708
G1 X100.838 Y42.722 E0.01678
G1 X166.430 Y108.314 E2.91336
G1 X166.430 Y107.780 E0.01678
G1 X101.372 Y42.722 E2.88963
M73 P5 R197
G1 X101.906 Y42.722 E0.01678
G1 X166.430 Y107.246 E2.86590
G1 X166.430 Y106.711 E0.01678
G1 X102.440 Y42.722 E2.84218
G1 X102.974 Y42.722 E0.01678
G1 X166.430 Y106.177 E2.81845
G1 X166.430 Y105.643 E0.01678
G1 X103.509 Y42.722 E2.79473
G1 X104.043 Y42.722 E0.01678
G1 X166.430 Y105.109 E2.77100
G1 X166.430 Y104.575 E0.01678
G1 X104.577 Y42.722 E2.74728
G1 X105.111 Y42.722 E0.01678
G1 X166.430 Y104.041 E2.72355
G1 X166.430 Y103.506 E0.01678
G1 X105.645 Y42.722 E2.69983
G1 X106.179 Y42.722 E0.01678
G1 X166.430 Y102.972 E2.67610
G1 X166.430 Y102.438 E0.01678
G1 X106.714 Y42.722 E2.65238
G1 X107.248 Y42.722 E0.01678
G1 X166.430 Y101.904 E2.62865
G1 X166.430 Y101.370 E0.01678
G1 X107.782 Y42.722 E2.60492
G1 X108.316 Y42.722 E0.01678
G1 X166.430 Y100.836 E2.58120
G1 X166.430 Y100.301 E0.01678
G1 X108.850 Y42.722 E2.55747
M73 P5 R196
G1 X109.384 Y42.722 E0.01678
G1 X166.430 Y99.767 E2.53375
G1 X166.430 Y99.233 E0.01678
G1 X109.919 Y42.722 E2.51002
G1 X110.453 Y42.722 E0.01678
G1 X166.430 Y98.699 E2.48630
G1 X166.430 Y98.165 E0.01678
G1 X110.987 Y42.722 E2.46257
G1 X111.521 Y42.722 E0.01678
G1 X166.430 Y97.631 E2.43885
G1 X166.430 Y97.096 E0.01678
G1 X112.055 Y42.722 E2.41512
G1 X112.589 Y42.722 E0.01678
G1 X166.430 Y96.562 E2.39139
G1 X166.430 Y96.028 E0.01678
G1 X113.124 Y42.722 E2.36767
G1 X113.658 Y42.722 E0.01678
G1 X166.430 Y95.494 E2.34394
G1 X166.430 Y94.960 E0.01678
G1 X114.192 Y42.722 E2.32022
G1 X114.726 Y42.722 E0.01678
G1 X166.430 Y94.426 E2.29649
G1 X166.430 Y93.891 E0.01678
G1 X115.260 Y42.722 E2.27277
G1 X115.794 Y42.722 E0.01678
G1 X166.430 Y93.357 E2.24904
G1 X166.430 Y92.823 E0.01678
G1 X116.329 Y42.722 E2.22532
G1 X116.863 Y42.722 E0.01678
G1 X166.430 Y92.289 E2.20159
G1 X166.430 Y91.755 E0.01678
G1 X117.397 Y42.722 E2.17786
M73 P6 R195
G1 X117.931 Y42.722 E0.01678
G1 X166.430 Y91.221 E2.15414
G1 X166.430 Y90.686 E0.01678
G1 X118.465 Y42.722 E2.13041
G1 X118.999 Y42.722 E0.01678
G1 X166.430 Y90.152 E2.10669
G1 X166.430 Y89.618 E0.01678
G1 X119.533 Y42.722 E2.08296
G1 X120.068 Y42.722 E0.01678
G1 X166.430 Y89.084 E2.05924
G1 X166.430 Y88.550 E0.01678
G1 X120.602 Y42.722 E2.03551
G1 X121.136 Y42.722 E0.01678
G1 X166.430 Y88.016 E2.01179
G1 X166.430 Y87.481 E0.01678
G1 X121.670 Y42.722 E1.98806
G1 X122.204 Y42.722 E0.01678
G1 X166.430 Y86.947 E1.96434
G1 X166.430 Y86.413 E0.01678
G1 X122.738 Y42.722 E1.94061
G1 X123.273 Y42.722 E0.01678
