; generated by PrusaSlicer 2.2.0+win64 on 2020-12-19 at 11:13:29 UTC


;
;

;
;
; 

; external perimeters extrusion width = 0.45mm
; perimeters extrusion width = 0.45mm
; infill extrusion width = 0.45mm
; solid infill extrusion width = 0.45mm
; top infill extrusion width = 0.40mm
; first layer extrusion width = 0.42mm

M73 P0 R41
M201 X1250 Y1250 Z400 E5000 ; sets maximum accelerations, mm/sec^2
M203 X180 Y180 Z12 E80 ; sets maximum feedrates, mm/sec
M204 P1250 R1250 T1250 ; sets acceleration (P, T) and retract acceleration (R), mm/sec^2
M205 X8.00 Y8.00 Z2.00 E10.00 ; sets the jerk limits, mm/sec
M205 S0 T0 ; sets the minimum extruding and travel feed rate, mm/sec
M107
G90 ; use absolute coordinates
M83 ; extruder relative mode
M104 S170 ; set extruder temp for bed leveling
M140 S60 ; set bed temp
M109 R170 ; wait for bed leveling temp
M190 S60 ; wait for bed temp
G28 ; home all without mesh bed level
G29 ; mesh bed leveling 
M104 S215 ; set extruder temp
G92 E0.0
G1 Y-2.0 X179 F2400
G1 Z3 F720
M109 S215 ; wait for extruder temp

; intro line
G1 X170 F1000
G1 Z0.2 F720
G1 X110.0 E8.0 F900
M73 P0 R40
G1 X40.0 E10.0 F700
G92 E0.0

M221 S95 ; set flow
G21 ; set units to millimeters
G90 ; use absolute coordinates
M83 ; use relative distances for extrusion
M900 K0.2 ; Filament gcode LA 1.5
; ; Filament gcode LA 1.0
;BEFORE_LAYER_CHANGE
G92 E0.0
;0.2


G1 Z0.200 F9000.000
;AFTER_LAYER_CHANGE
;0.2
G1 E-3.20000 F4200.00000
G1 Z0.400 F9000.000
G1 X150.921 Y152.191
G1 Z0.200
G1 E3.20000 F2400.00000
M204 S800
G1 F1200.000
G1 X150.000 Y152.377 E0.02946
G1 X29.989 Y152.377 E3.76287
G1 X29.094 Y152.198 E0.02860
G1 X28.336 Y151.697 E0.02849
G1 X27.812 Y150.928 E0.02919
G1 X27.623 Y150.016 E0.02919
G1 X27.662 Y147.568 E0.07677
G1 X27.891 Y146.904 E0.02201
G1 X28.303 Y146.336 E0.02201
G1 X146.341 Y28.298 E5.23401
G1 X146.907 Y27.889 E0.02190
G1 X147.568 Y27.663 E0.02190
G1 X150.004 Y27.623 E0.07639
G1 X150.906 Y27.802 E0.02884
G1 X151.670 Y28.308 E0.02872
G1 X152.187 Y29.069 E0.02884
G1 X152.377 Y29.968 E0.02884
G1 X152.377 Y150.011 E3.76386
G1 X152.198 Y150.906 E0.02860
G1 X151.697 Y151.664 E0.02849
G1 X150.971 Y152.158 E0.02754
M204 S1250
G1 E-2.24000 F4200.00000
G1 F7200.000
G1 X150.000 Y152.377 E-0.55144
G1 X149.349 Y152.377 E-0.36056
G1 E-0.04800 F4200.00000
G1 Z0.400 F9000.000
G1 X135.529 Y141.513
G1 Z0.200
G1 E3.20000 F2400.00000
M204 S800
G1 F1200.000
G1 X135.080 Y142.034 E0.02155
G1 X134.740 Y142.356 E0.01467
G1 X134.376 Y142.649 E0.01467
G1 X133.806 Y143.022 E0.02136
G1 X133.390 Y143.238 E0.01467
G1 X132.965 Y143.418 E0.01449
G1 X132.526 Y143.563 E0.01449
G1 X132.077 Y143.673 E0.01449
G1 X131.615 Y143.747 E0.01467
G1 X130.949 Y143.787 E0.02093
G1 X54.123 Y143.787 E2.40883
G1 X53.450 Y143.747 E0.02111
G1 X52.768 Y143.623 E0.02173
G1 X52.112 Y143.420 E0.02155
G1 X51.681 Y143.238 E0.01467
G1 X51.265 Y143.022 E0.01467
G1 X50.695 Y142.649 E0.02136
G1 X50.326 Y142.352 E0.01486
G1 X49.837 Y141.869 E0.02154
G1 X49.420 Y141.346 E0.02098
G1 X49.156 Y140.939 E0.01523
G1 X48.937 Y140.531 E0.01451
G1 X48.752 Y140.108 E0.01449
G1 X48.599 Y139.665 E0.01467
G1 X48.442 Y139.002 E0.02136
G1 X48.379 Y138.533 E0.01485
G1 X48.356 Y137.870 E0.02080
G1 X48.387 Y137.386 E0.01523
G1 X48.456 Y136.922 E0.01469
G1 X48.617 Y136.279 E0.02080
G1 X48.780 Y135.821 E0.01523
G1 X48.974 Y135.395 E0.01470
G1 X49.316 Y134.805 E0.02136
G1 X49.590 Y134.426 E0.01467
G1 X49.890 Y134.074 E0.01449
G1 X88.607 Y95.357 E1.71680
G1 X88.957 Y95.058 E0.01443
G1 X89.507 Y94.675 E0.02101
G1 X89.908 Y94.450 E0.01443
G1 X90.321 Y94.260 E0.01425
G1 X90.752 Y94.100 E0.01443
G1 X91.401 Y93.931 E0.02101
G1 X91.861 Y93.858 E0.01460
G1 X92.512 Y93.819 E0.02045
G1 X92.989 Y93.837 E0.01497
G1 X93.441 Y93.890 E0.01427
G1 X93.892 Y93.980 E0.01443
G1 X94.539 Y94.176 E0.02118
G1 X95.142 Y94.439 E0.02063
G1 X95.564 Y94.674 E0.01515
G1 X96.114 Y95.058 E0.02103
G1 X96.464 Y95.357 E0.01443
G1 X135.031 Y133.918 E1.70998
G1 X135.335 Y134.247 E0.01406
G1 X135.624 Y134.615 E0.01467
G1 X135.992 Y135.195 E0.02154
G1 X136.281 Y135.798 E0.02098
G1 X136.447 Y136.255 E0.01523
G1 X136.571 Y136.707 E0.01470
G1 X136.683 Y137.379 E0.02136
G1 X136.715 Y137.851 E0.01485
G1 X136.694 Y138.514 E0.02080
G1 X136.630 Y138.996 E0.01523
G1 X136.532 Y139.448 E0.01451
G1 X136.397 Y139.896 E0.01467
G1 X136.137 Y140.526 E0.02136
G1 X135.912 Y140.943 E0.01486
G1 X135.562 Y141.464 E0.01966
M204 S1250
G1 X135.249 Y141.253 F9000.000
M204 S800
G1 F1200.000
G1 X134.807 Y141.773 E0.02141
G1 X134.492 Y142.072 E0.01361
G1 X134.154 Y142.344 E0.01361
G1 X133.615 Y142.696 E0.02018
G1 X133.230 Y142.897 E0.01361
G1 X132.832 Y143.065 E0.01355
G1 X132.422 Y143.200 E0.01355
G1 X132.002 Y143.303 E0.01355
G1 X131.574 Y143.372 E0.01361
G1 X130.937 Y143.410 E0.01999
G1 X54.134 Y143.410 E2.40812
G1 X53.495 Y143.372 E0.02005
G1 X52.858 Y143.256 E0.02031
G1 X52.241 Y143.065 E0.02025
G1 X51.841 Y142.897 E0.01361
G1 X51.456 Y142.696 E0.01361
G1 X50.917 Y142.344 E0.02018
G1 X50.578 Y142.070 E0.01368
G1 X50.118 Y141.617 E0.02024
G1 X49.727 Y141.126 E0.01970
G1 X49.481 Y140.747 E0.01416
G1 X49.277 Y140.366 E0.01355
G1 X49.103 Y139.970 E0.01354
G1 X48.962 Y139.560 E0.01361
G1 X48.813 Y138.934 E0.02018
G1 X48.755 Y138.501 E0.01367
G1 X48.734 Y137.876 E0.01963
G1 X48.763 Y137.425 E0.01416
G1 X48.826 Y136.996 E0.01362
G1 X48.978 Y136.388 E0.01963
G1 X49.130 Y135.963 E0.01416
G1 X49.309 Y135.568 E0.01362
G1 X49.633 Y135.011 E0.02018
G1 X49.887 Y134.659 E0.01361
G1 X50.167 Y134.330 E0.01355
G1 X88.863 Y95.634 E1.71586
G1 X89.188 Y95.357 E0.01338
G1 X89.707 Y94.995 E0.01984
G1 X90.079 Y94.786 E0.01338
G1 X90.465 Y94.608 E0.01332
G1 X90.866 Y94.460 E0.01338
G1 X91.478 Y94.301 E0.01984
G1 X91.902 Y94.234 E0.01345
G1 X92.516 Y94.197 E0.01930
G1 X92.960 Y94.213 E0.01392
G1 X93.382 Y94.263 E0.01333
G1 X93.801 Y94.346 E0.01338
G1 X94.408 Y94.531 E0.01991
G1 X94.974 Y94.777 E0.01937
G1 X95.364 Y94.995 E0.01399
G1 X95.883 Y95.357 E0.01985
G1 X96.208 Y95.634 E0.01338
G1 X134.759 Y134.179 E1.70928
G1 X135.048 Y134.492 E0.01335
G1 X135.316 Y134.833 E0.01361
G1 X135.662 Y135.378 E0.02024
G1 X135.933 Y135.945 E0.01970
G1 X136.087 Y136.369 E0.01416
G1 X136.202 Y136.788 E0.01362
G1 X136.308 Y137.423 E0.02018
G1 X136.337 Y137.858 E0.01367
G1 X136.317 Y138.484 E0.01963
G1 X136.258 Y138.931 E0.01416
G1 X136.167 Y139.354 E0.01355
G1 X136.042 Y139.769 E0.01361
G1 X135.795 Y140.364 E0.02018
G1 X135.589 Y140.748 E0.01368
G1 X135.283 Y141.203 E0.01719
M204 S1250
G1 X135.403 Y141.623 F9000.000
G1 E-2.24000 F4200.00000
G1 F7200.000
G1 X134.807 Y141.773 E-0.41146
G1 X134.492 Y142.072 E-0.24057
G1 X134.154 Y142.344 E-0.24056
G1 X134.124 Y142.363 E-0.01940
G1 E-0.04800 F4200.00000
G1 Z0.400 F9000.000
G1 X136.928 Y129.546
G1 Z0.200
G1 E3.20000 F2400.00000
M204 S800
G1 F1200.000
G1 X136.261 Y129.378 E0.02155
G1 X135.815 Y129.218 E0.01486
G1 X135.201 Y128.924 E0.02136
G1 X134.801 Y128.681 E0.01467
G1 X134.421 Y128.407 E0.01467
G1 X133.922 Y127.964 E0.02093
G1 X98.892 Y92.929 E1.55340
G1 X98.597 Y92.583 E0.01425
G1 X98.330 Y92.215 E0.01425
G1 X98.089 Y91.823 E0.01443
G1 X97.795 Y91.215 E0.02118
G1 X97.578 Y90.594 E0.02063
G1 X97.465 Y90.124 E0.01515
G1 X97.373 Y89.460 E0.02103
G1 X97.355 Y89.000 E0.01443
G1 X97.373 Y88.540 E0.01443
G1 X97.464 Y87.877 E0.02101
G1 X97.573 Y87.423 E0.01461
G1 X97.793 Y86.790 E0.02101
G1 X97.988 Y86.368 E0.01460
G1 X98.317 Y85.804 E0.02045
G1 X98.597 Y85.417 E0.01497
G1 X98.892 Y85.071 E0.01427
G1 X133.922 Y50.036 E1.55340
G1 X134.421 Y49.593 E0.02093
G1 X134.801 Y49.319 E0.01467
G1 X135.201 Y49.076 E0.01467
G1 X135.815 Y48.782 E0.02136
G1 X136.261 Y48.622 E0.01486
G1 X136.922 Y48.456 E0.02136
G1 X137.390 Y48.387 E0.01485
G1 X138.053 Y48.355 E0.02080
G1 X138.538 Y48.380 E0.01523
G1 X138.997 Y48.441 E0.01451
G1 X139.454 Y48.540 E0.01467
G1 X140.108 Y48.751 E0.02155
G1 X140.732 Y49.040 E0.02155
G1 X141.135 Y49.277 E0.01467
G1 X141.518 Y49.546 E0.01467
G1 X142.038 Y49.995 E0.02155
G1 X142.501 Y50.503 E0.02155
G1 X142.780 Y50.879 E0.01467
G1 X143.028 Y51.276 E0.01467
G1 X143.333 Y51.891 E0.02154
G1 X143.556 Y52.522 E0.02098
G1 X143.672 Y52.993 E0.01523
G1 X143.747 Y53.456 E0.01469
G1 X143.787 Y54.123 E0.02093
G1 X143.787 Y123.872 E2.18693
M73 P2 R39
G1 X143.769 Y124.320 E0.01406
G1 X143.714 Y124.778 E0.01449
G1 X143.622 Y125.231 E0.01449
G1 X143.493 Y125.681 E0.01467
G1 X143.241 Y126.314 E0.02136
G1 X143.025 Y126.729 E0.01467
G1 X142.780 Y127.121 E0.01449
G1 X142.501 Y127.497 E0.01467
G1 X142.038 Y128.005 E0.02154
G1 X141.532 Y128.442 E0.02098
G1 X141.136 Y128.723 E0.01523
G1 X140.732 Y128.960 E0.01470
G1 X140.113 Y129.246 E0.02136
G1 X139.666 Y129.401 E0.01485
G1 X139.020 Y129.555 E0.02080
G1 X138.539 Y129.620 E0.01523
G1 X138.077 Y129.645 E0.01451
G1 X137.609 Y129.632 E0.01467
G1 X136.987 Y129.553 E0.01966
M204 S1250
G1 X137.035 Y129.179 F9000.000
M204 S800
G1 F1200.000
G1 X136.371 Y129.017 E0.02141
G1 X135.961 Y128.869 E0.01368
G1 X135.380 Y128.592 E0.02018
G1 X135.009 Y128.366 E0.01361
G1 X134.657 Y128.112 E0.01361
G1 X134.180 Y127.689 E0.01999
G1 X99.169 Y92.672 E1.55258
G1 X98.893 Y92.349 E0.01332
G1 X98.644 Y92.006 E0.01332
G1 X98.421 Y91.642 E0.01338
G1 X98.144 Y91.071 E0.01991
G1 X97.941 Y90.487 E0.01937
G1 X97.835 Y90.054 E0.01399
G1 X97.749 Y89.427 E0.01985
G1 X97.732 Y89.000 E0.01338
G1 X97.749 Y88.573 E0.01338
G1 X97.835 Y87.947 E0.01984
G1 X97.936 Y87.529 E0.01345
G1 X98.143 Y86.931 E0.01984
G1 X98.322 Y86.542 E0.01345
G1 X98.633 Y86.011 E0.01930
G1 X98.893 Y85.651 E0.01392
G1 X99.169 Y85.328 E0.01333
G1 X134.180 Y50.311 E1.55258
G1 X134.657 Y49.888 E0.01999
G1 X135.009 Y49.634 E0.01361
G1 X135.380 Y49.408 E0.01361
G1 X135.961 Y49.131 E0.02018
G1 X136.371 Y48.983 E0.01368
G1 X136.995 Y48.826 E0.02018
G1 X137.427 Y48.762 E0.01367
G1 X138.052 Y48.732 E0.01963
G1 X138.503 Y48.755 E0.01416
G1 X138.932 Y48.813 E0.01355
G1 X139.356 Y48.904 E0.01361
G1 X139.970 Y49.103 E0.02025
G1 X140.556 Y49.374 E0.02025
G1 X140.930 Y49.594 E0.01361
G1 X141.286 Y49.844 E0.01361
G1 X141.774 Y50.266 E0.02025
G1 X142.209 Y50.743 E0.02025
G1 X142.468 Y51.092 E0.01361
G1 X142.698 Y51.460 E0.01361
G1 X142.985 Y52.038 E0.02024
G1 X143.194 Y52.630 E0.01970
G1 X143.303 Y53.069 E0.01416
G1 X143.372 Y53.498 E0.01362
G1 X143.410 Y54.134 E0.01999
G1 X143.410 Y123.864 E2.18634
G1 X143.393 Y124.290 E0.01335
G1 X143.341 Y124.718 E0.01354
G1 X143.256 Y125.142 E0.01355
G1 X143.136 Y125.559 E0.01361
G1 X142.898 Y126.157 E0.02018
G1 X142.697 Y126.542 E0.01361
G1 X142.468 Y126.908 E0.01355
G1 X142.209 Y127.257 E0.01361
G1 X141.775 Y127.734 E0.02024
G1 X141.300 Y128.145 E0.01970
G1 X140.931 Y128.406 E0.01416
G1 X140.556 Y128.626 E0.01362
G1 X139.972 Y128.896 E0.02018
G1 X139.560 Y129.038 E0.01367
G1 X138.951 Y129.184 E0.01963
G1 X138.504 Y129.245 E0.01416
G1 X138.072 Y129.268 E0.01355
G1 X137.638 Y129.256 E0.01361
G1 X137.094 Y129.187 E0.01719
M204 S1250
G1 X136.773 Y129.482 F9000.000
G1 E-2.24000 F4200.00000
G1 F7200.000
G1 X136.371 Y129.017 E-0.41146
G1 X135.961 Y128.869 E-0.24173
G1 X135.540 Y128.668 E-0.25881
G1 E-0.04800 F4200.00000
G1 Z0.400 F9000.000
G1 X149.213 Y149.213
G1 Z0.200
G1 E3.20000 F2400.00000
M204 S800
G1 F1200.000
G1 X30.787 Y149.213 E3.71316
G1 X30.787 Y148.326 E0.02781
G1 X148.326 Y30.787 E5.21187
G1 X149.213 Y30.787 E0.02781
G1 X149.213 Y149.153 E3.71128
M204 S1250
G1 X149.590 Y149.590 F9000.000
M204 S800
G1 F1200.000
G1 X30.410 Y149.590 E3.73681
G1 X30.410 Y148.170 E0.04453
G1 X148.170 Y30.410 E5.22167
G1 X149.590 Y30.410 E0.04453
G1 X149.590 Y149.530 E3.73492
M204 S1250
G1 X149.243 Y149.391 F9000.000
G1 E-2.24000 F4200.00000
G1 F7200.000
G1 X147.944 Y149.531 E-0.91200
G1 E-0.04800 F4200.00000
G1 Z0.400 F9000.000
G1 X149.100 Y148.032
G1 Z0.200
G1 E3.20000 F2400.00000
M204 S800
G1 F1200.000
G1 X136.345 Y135.277 E0.56613
G1 X136.542 Y135.689 E0.01432
G1 X136.722 Y136.188 E0.01666
G1 X148.930 Y148.396 E0.54186
G1 X148.930 Y148.930 E0.01675
G1 X136.888 Y136.887 E0.53452
G1 X136.975 Y137.509 E0.01971
G1 X148.396 Y148.930 E0.50693
G1 X147.863 Y148.930 E0.01675
G1 X136.991 Y138.059 E0.48254
G1 X136.971 Y138.572 E0.01614
G1 X147.329 Y148.930 E0.45973
G1 X146.795 Y148.930 E0.01675
G1 X136.909 Y139.044 E0.43879
G1 X136.814 Y139.483 E0.01409
G1 X146.261 Y148.930 E0.41931
G1 X145.727 Y148.930 E0.01675
G1 X136.693 Y139.896 E0.40101
G1 X136.544 Y140.281 E0.01296
G1 X145.194 Y148.930 E0.38391
M73 P5 R38
G1 X144.660 Y148.930 E0.01675
G1 X136.387 Y140.657 E0.36720
G1 X136.201 Y141.005 E0.01237
G1 X144.126 Y148.930 E0.35178
G1 X143.592 Y148.930 E0.01675
G1 X135.993 Y141.331 E0.33731
G1 X135.778 Y141.650 E0.01207
G1 X143.058 Y148.930 E0.32315
G1 X142.525 Y148.930 E0.01675
G1 X135.534 Y141.940 E0.31027
G1 X135.287 Y142.226 E0.01188
G1 X141.991 Y148.930 E0.29756
G1 X141.457 Y148.930 E0.01675
G1 X135.013 Y142.486 E0.28601
G1 X134.725 Y142.731 E0.01189
G1 X140.923 Y148.930 E0.27513
G1 X140.389 Y148.930 E0.01675
G1 X134.419 Y142.959 E0.26502
G1 X134.096 Y143.170 E0.01210
G1 X139.856 Y148.930 E0.25565
G1 X139.322 Y148.930 E0.01675
G1 X133.758 Y143.366 E0.24697
G1 X133.399 Y143.541 E0.01252
G1 X138.788 Y148.930 E0.23919
G1 X138.254 Y148.930 E0.01675
G1 X133.021 Y143.697 E0.23228
G1 X132.620 Y143.830 E0.01326
G1 X137.720 Y148.930 E0.22639
G1 X137.187 Y148.930 E0.01675
G1 X132.192 Y143.936 E0.22169
G1 X131.737 Y144.014 E0.01451
G1 X136.653 Y148.930 E0.21821
G1 X136.119 Y148.930 E0.01675
G1 X131.242 Y144.053 E0.21649
G1 X130.725 Y144.070 E0.01623
G1 X135.585 Y148.930 E0.21573
G1 X135.051 Y148.930 E0.01675
G1 X130.191 Y144.070 E0.21573
G1 X129.657 Y144.070 E0.01675
G1 X134.518 Y148.930 E0.21573
G1 X133.984 Y148.930 E0.01675
G1 X129.124 Y144.070 E0.21573
G1 X128.590 Y144.070 E0.01675
G1 X133.450 Y148.930 E0.21573
G1 X132.916 Y148.930 E0.01675
G1 X128.056 Y144.070 E0.21573
G1 X127.522 Y144.070 E0.01675
G1 X132.382 Y148.930 E0.21573
G1 X131.849 Y148.930 E0.01675
G1 X126.988 Y144.070 E0.21573
G1 X126.455 Y144.070 E0.01675
G1 X131.315 Y148.930 E0.21573
G1 X130.781 Y148.930 E0.01675
G1 X125.921 Y144.070 E0.21573
G1 X125.387 Y144.070 E0.01675
G1 X130.247 Y148.930 E0.21573
G1 X129.713 Y148.930 E0.01675
G1 X124.853 Y144.070 E0.21573
G1 X124.319 Y144.070 E0.01675
G1 X129.180 Y148.930 E0.21573
G1 X128.646 Y148.930 E0.01675
G1 X123.786 Y144.070 E0.21573
G1 X123.252 Y144.070 E0.01675
G1 X128.112 Y148.930 E0.21573
G1 X127.578 Y148.930 E0.01675
G1 X122.718 Y144.070 E0.21573
G1 X122.184 Y144.070 E0.01675
G1 X127.044 Y148.930 E0.21573
G1 X126.511 Y148.930 E0.01675
G1 X121.650 Y144.070 E0.21573
G1 X121.117 Y144.070 E0.01675
G1 X125.977 Y148.930 E0.21573
G1 X125.443 Y148.930 E0.01675
G1 X120.583 Y144.070 E0.21573
G1 X120.049 Y144.070 E0.01675
G1 X124.909 Y148.930 E0.21573
G1 X124.375 Y148.930 E0.01675
G1 X119.515 Y144.070 E0.21573
G1 X118.981 Y144.070 E0.01675
G1 X123.842 Y148.930 E0.21573
G1 X123.308 Y148.930 E0.01675
G1 X118.447 Y144.070 E0.21573
G1 X117.914 Y144.070 E0.01675
G1 X122.774 Y148.930 E0.21573
G1 X122.240 Y148.930 E0.01675
G1 X117.380 Y144.070 E0.21573
G1 X116.846 Y144.070 E0.01675
G1 X121.706 Y148.930 E0.21573
G1 X121.173 Y148.930 E0.01675
G1 X116.312 Y144.070 E0.21573
G1 X115.778 Y144.070 E0.01675
G1 X120.639 Y148.930 E0.21573
G1 X120.105 Y148.930 E0.01675
G1 X115.245 Y144.070 E0.21573
G1 X114.711 Y144.070 E0.01675
G1 X119.571 Y148.930 E0.21573
G1 X119.037 Y148.930 E0.01675
G1 X114.177 Y144.070 E0.21573
G1 X113.643 Y144.070 E0.01675
G1 X118.504 Y148.930 E0.21573
G1 X117.970 Y148.930 E0.01675
G1 X113.109 Y144.070 E0.21573
G1 X112.576 Y144.070 E0.01675
G1 X117.436 Y148.930 E0.21573
G1 X116.902 Y148.930 E0.01675
G1 X112.042 Y144.070 E0.21573
G1 X111.508 Y144.070 E0.01675
G1 X116.368 Y148.930 E0.21573
G1 X115.835 Y148.930 E0.01675
G1 X110.974 Y144.070 E0.21573
G1 X110.440 Y144.070 E0.01675
G1 X115.301 Y148.930 E0.21573
G1 X114.767 Y148.930 E0.01675
G1 X109.907 Y144.070 E0.21573
G1 X109.373 Y144.070 E0.01675
G1 X114.233 Y148.930 E0.21573
G1 X113.699 Y148.930 E0.01675
G1 X108.839 Y144.070 E0.21573
G1 X108.305 Y144.070 E0.01675
G1 X113.166 Y148.930 E0.21573
G1 X112.632 Y148.930 E0.01675
G1 X107.771 Y144.070 E0.21573
G1 X107.238 Y144.070 E0.01675
G1 X112.098 Y148.930 E0.21573
