; generated by PrusaSlicer 2.2.0+win64 on 2020-12-19 at 09:38:50 UTC


;
;

;
;
; 

; external perimeters extrusion width = 0.45mm
; perimeters extrusion width = 0.45mm
; infill extrusion width = 0.45mm
; solid infill extrusion width = 0.45mm
; top infill extrusion width = 0.40mm
; first layer extrusion width = 0.42mm

M73 P0 R45
M201 X1250 Y1250 Z400 E5000 ; sets maximum accelerations, mm/sec^2
M203 X180 Y180 Z12 E80 ; sets maximum feedrates, mm/sec
M204 P1250 R1250 T1250 ; sets acceleration (P, T) and retract acceleration (R), mm/sec^2
M205 X8.00 Y8.00 Z2.00 E10.00 ; sets the jerk limits, mm/sec
M205 S0 T0 ; sets the minimum extruding and travel feed rate, mm/sec
M107
G90 ; use absolute coordinates
M83 ; extruder relative mode
M104 S170 ; set extruder temp for bed leveling
M140 S60 ; set bed temp
M109 R170 ; wait for bed leveling temp
M190 S60 ; wait for bed temp
G28 ; home all without mesh bed level
G29 ; mesh bed leveling 
M104 S215 ; set extruder temp
G92 E0.0
G1 Y-2.0 X179 F2400
G1 Z3 F720
M109 S215 ; wait for extruder temp

; intro line
G1 X170 F1000
G1 Z0.2 F720
G1 X110.0 E8.0 F900
M73 P0 R45
G1 X40.0 E10.0 F700
G92 E0.0

M221 S95 ; set flow
G21 ; set units to millimeters
G90 ; use absolute coordinates
M83 ; use relative distances for extrusion
M900 K0.2 ; Filament gcode LA 1.5
; ; Filament gcode LA 1.0
;BEFORE_LAYER_CHANGE
G92 E0.0
;0.2


G1 Z0.200 F9000.000
;AFTER_LAYER_CHANGE
;0.2
G1 E-3.20000 F4200.00000
G1 Z0.400 F9000.000
G1 X32.906 Y27.802
G1 Z0.200
G1 E3.20000 F2400.00000
M204 S800
G1 F1200.000
G1 X33.675 Y28.313 E0.02896
G1 X151.713 Y146.352 E5.23401
G1 X152.116 Y146.917 E0.02178
G1 X152.339 Y147.579 E0.02190
G1 X152.377 Y150.027 E0.07676
G1 X152.183 Y150.941 E0.02931
G1 X151.649 Y151.712 E0.02942
G1 X150.893 Y152.203 E0.02825
G1 X150.013 Y152.377 E0.02813
G1 X30.000 Y152.377 E3.76291
G1 X29.070 Y152.187 E0.02977
G1 X28.288 Y151.649 E0.02977
G1 X27.797 Y150.893 E0.02825
G1 X27.623 Y150.013 E0.02813
G1 X27.624 Y29.928 E3.76518
G1 X27.725 Y29.309 E0.01965
G1 X27.985 Y28.739 E0.01965
G1 X28.382 Y28.259 E0.01953
G1 X28.893 Y27.896 E0.01965
G1 X29.793 Y27.632 E0.02942
G1 X32.004 Y27.623 E0.06930
G1 X32.847 Y27.791 E0.02696
M204 S1250
G1 E-2.24000 F4200.00000
G1 F7200.000
G1 X33.675 Y28.313 E-0.54267
G1 X34.146 Y28.785 E-0.36933
G1 E-0.04800 F4200.00000
G1 Z0.400 F9000.000
G1 X83.886 Y95.058
G1 Z0.200
G1 E3.20000 F2400.00000
M204 S800
G1 F1200.000
G1 X84.435 Y94.675 E0.02101
G1 X84.837 Y94.450 E0.01443
G1 X85.250 Y94.260 E0.01425
G1 X85.681 Y94.100 E0.01443
G1 X86.330 Y93.931 E0.02101
G1 X86.790 Y93.858 E0.01460
G1 X87.441 Y93.819 E0.02045
G1 X87.918 Y93.837 E0.01497
G1 X88.370 Y93.890 E0.01427
G1 X88.821 Y93.980 E0.01443
G1 X89.468 Y94.176 E0.02118
G1 X90.071 Y94.439 E0.02063
G1 X90.493 Y94.674 E0.01515
G1 X91.043 Y95.058 E0.02103
G1 X91.393 Y95.357 E0.01443
G1 X129.960 Y133.918 E1.70998
G1 X130.268 Y134.251 E0.01423
G1 X130.667 Y134.781 E0.02080
G1 X130.923 Y135.200 E0.01540
G1 X131.210 Y135.798 E0.02082
G1 X131.378 Y136.260 E0.01541
G1 X131.544 Y136.922 E0.02138
G1 X131.613 Y137.385 E0.01467
G1 X131.644 Y137.852 E0.01467
G1 X131.621 Y138.539 E0.02155
G1 X131.516 Y139.218 E0.02155
G1 X131.398 Y139.677 E0.01486
G1 X131.162 Y140.316 E0.02136
G1 X130.958 Y140.737 E0.01467
G1 X130.723 Y141.135 E0.01449
G1 X130.454 Y141.518 E0.01467
G1 X130.009 Y142.034 E0.02136
G1 X129.665 Y142.360 E0.01486
G1 X129.126 Y142.777 E0.02136
G1 X128.729 Y143.025 E0.01467
G1 X128.319 Y143.238 E0.01449
G1 X127.894 Y143.418 E0.01449
G1 X127.455 Y143.563 E0.01449
G1 X127.006 Y143.673 E0.01449
G1 X126.544 Y143.747 E0.01467
G1 X125.877 Y143.787 E0.02093
G1 X49.051 Y143.787 E2.40883
G1 X48.379 Y143.747 E0.02111
G1 X47.703 Y143.624 E0.02154
G1 X47.248 Y143.493 E0.01486
G1 X46.609 Y143.239 E0.02155
G1 X46.006 Y142.910 E0.02155
G1 X45.615 Y142.642 E0.01486
G1 X45.093 Y142.204 E0.02136
G1 X44.767 Y141.869 E0.01467
G1 X44.468 Y141.509 E0.01467
G1 X44.088 Y140.943 E0.02136
G1 X43.863 Y140.526 E0.01486
G1 X43.603 Y139.896 E0.02136
G1 X43.466 Y139.443 E0.01486
G1 X43.335 Y138.774 E0.02136
G1 X43.292 Y138.308 E0.01467
G1 X43.286 Y137.846 E0.01449
G1 X43.316 Y137.385 E0.01449
G1 X43.385 Y136.922 E0.01467
G1 X43.551 Y136.261 E0.02136
G1 X43.709 Y135.821 E0.01467
G1 X43.900 Y135.400 E0.01449
G1 X44.127 Y134.991 E0.01467
G1 X44.515 Y134.430 E0.02136
G1 X44.818 Y134.074 E0.01467
G1 X83.536 Y95.357 E1.71680
G1 X83.840 Y95.097 E0.01255
M204 S1250
G1 X84.085 Y95.383 F9000.000
M204 S800
G1 F1200.000
G1 X84.636 Y94.995 E0.02114
G1 X85.008 Y94.786 E0.01338
G1 X85.394 Y94.608 E0.01332
G1 X85.795 Y94.460 E0.01338
G1 X86.407 Y94.301 E0.01984
G1 X86.830 Y94.234 E0.01345
G1 X87.445 Y94.197 E0.01930
G1 X87.889 Y94.213 E0.01392
G1 X88.311 Y94.263 E0.01333
G1 X88.729 Y94.346 E0.01338
G1 X89.337 Y94.531 E0.01991
G1 X89.903 Y94.777 E0.01937
G1 X90.293 Y94.995 E0.01399
G1 X90.812 Y95.357 E0.01985
G1 X91.137 Y95.634 E0.01338
G1 X129.688 Y134.179 E1.70928
G1 X129.978 Y134.493 E0.01341
G1 X130.355 Y134.993 E0.01963
G1 X130.591 Y135.380 E0.01422
G1 X130.862 Y135.945 E0.01964
G1 X131.017 Y136.371 E0.01422
G1 X131.174 Y136.995 E0.02019
G1 X131.237 Y137.425 E0.01361
G1 X131.266 Y137.858 E0.01361
G1 X131.245 Y138.503 E0.02025
G1 X131.146 Y139.142 E0.02025
G1 X131.037 Y139.564 E0.01368
G1 X130.815 Y140.168 E0.02018
G1 X130.625 Y140.558 E0.01361
G1 X130.406 Y140.930 E0.01355
G1 X130.156 Y141.286 E0.01361
G1 X129.736 Y141.773 E0.02018
G1 X129.419 Y142.073 E0.01368
G1 X128.910 Y142.467 E0.02018
G1 X128.542 Y142.697 E0.01361
G1 X128.159 Y142.897 E0.01355
G1 X127.761 Y143.065 E0.01355
G1 X127.351 Y143.200 E0.01355
G1 X126.931 Y143.303 E0.01355
G1 X126.502 Y143.372 E0.01361
G1 X125.866 Y143.410 E0.01999
G1 X49.063 Y143.410 E2.40812
G1 X48.424 Y143.372 E0.02005
G1 X47.789 Y143.256 E0.02025
G1 X47.370 Y143.136 E0.01368
G1 X46.770 Y142.897 E0.02025
G1 X46.203 Y142.588 E0.02025
G1 X45.843 Y142.342 E0.01368
G1 X45.350 Y141.928 E0.02018
G1 X45.047 Y141.617 E0.01361
G1 X44.770 Y141.282 E0.01361
G1 X44.411 Y140.748 E0.02018
G1 X44.205 Y140.364 E0.01368
G1 X43.958 Y139.769 E0.02018
G1 X43.832 Y139.352 E0.01368
G1 X43.709 Y138.720 E0.02018
G1 X43.669 Y138.288 E0.01361
G1 X43.663 Y137.856 E0.01355
G1 X43.692 Y137.425 E0.01355
G1 X43.755 Y136.995 E0.01361
G1 X43.912 Y136.371 E0.02018
G1 X44.059 Y135.963 E0.01361
G1 X44.238 Y135.570 E0.01355
G1 X44.448 Y135.190 E0.01361
G1 X44.814 Y134.661 E0.02018
G1 X45.096 Y134.330 E0.01361
G1 X83.792 Y95.634 E1.71586
G1 X84.039 Y95.422 E0.01020
M204 S1250
G1 X84.026 Y94.988 F9000.000
G1 E-2.24000 F4200.00000
G1 F7200.000
G1 X84.636 Y94.995 E-0.40673
G1 X85.008 Y94.786 E-0.23656
G1 X85.394 Y94.608 E-0.23541
G1 X85.450 Y94.587 E-0.03330
G1 E-0.04800 F4200.00000
G1 Z0.400 F9000.000
G1 X81.108 Y92.928
G1 Z0.200
G1 E3.20000 F2400.00000
M204 S800
G1 F1200.000
G1 X46.078 Y127.964 E1.55342
G1 X45.579 Y128.407 E0.02093
G1 X45.195 Y128.684 E0.01486
G1 X44.605 Y129.026 E0.02136
G1 X44.179 Y129.220 E0.01467
G1 X43.739 Y129.378 E0.01467
G1 X43.072 Y129.546 E0.02155
G1 X42.391 Y129.632 E0.02155
G1 X41.923 Y129.645 E0.01467
G1 X41.456 Y129.620 E0.01467
G1 X40.776 Y129.515 E0.02155
G1 X40.115 Y129.330 E0.02155
G1 X39.679 Y129.160 E0.01467
G1 X39.263 Y128.958 E0.01449
G1 X38.860 Y128.720 E0.01467
G1 X38.310 Y128.317 E0.02136
G1 X37.958 Y128.000 E0.01486
G1 X37.499 Y127.497 E0.02136
G1 X37.220 Y127.121 E0.01467
G1 X36.972 Y126.724 E0.01467
G1 X36.667 Y126.109 E0.02154
G1 X36.444 Y125.478 E0.02098
G1 X36.328 Y125.007 E0.01523
G1 X36.253 Y124.544 E0.01469
G1 X36.213 Y123.877 E0.02093
G1 X36.213 Y54.128 E2.18693
G1 X36.231 Y53.680 E0.01406
G1 X36.286 Y53.222 E0.01449
G1 X36.378 Y52.769 E0.01449
G1 X36.507 Y52.319 E0.01467
G1 X36.759 Y51.686 E0.02136
G1 X36.975 Y51.271 E0.01467
G1 X37.220 Y50.879 E0.01449
G1 X37.499 Y50.503 E0.01467
G1 X37.962 Y49.995 E0.02155
G1 X38.482 Y49.546 E0.02155
G1 X38.865 Y49.277 E0.01467
G1 X39.263 Y49.042 E0.01449
G1 X39.679 Y48.840 E0.01449
G1 X40.115 Y48.670 E0.01467
G1 X40.771 Y48.486 E0.02136
G1 X41.237 Y48.405 E0.01485
G1 X41.899 Y48.356 E0.02080
G1 X42.390 Y48.367 E0.01541
G1 X43.072 Y48.454 E0.02157
G1 X43.739 Y48.622 E0.02155
G1 X44.179 Y48.780 E0.01467
G1 X44.605 Y48.974 E0.01467
G1 X45.195 Y49.316 E0.02136
G1 X45.579 Y49.593 E0.01486
G1 X46.078 Y50.036 E0.02093
G1 X81.112 Y85.075 E1.55358
M73 P2 R44
G1 X81.537 Y85.593 E0.02100
G1 X81.796 Y85.981 E0.01461
G1 X82.112 Y86.572 E0.02101
G1 X82.290 Y87.002 E0.01461
G1 X82.484 Y87.643 E0.02101
G1 X82.574 Y88.095 E0.01443
G1 X82.628 Y88.546 E0.01425
G1 X82.646 Y89.006 E0.01443
G1 X82.606 Y89.675 E0.02101
G1 X82.533 Y90.135 E0.01461
G1 X82.364 Y90.783 E0.02101
G1 X82.205 Y91.215 E0.01443
G1 X82.015 Y91.627 E0.01425
G1 X81.790 Y92.029 E0.01442
G1 X81.418 Y92.564 E0.02045
G1 X81.147 Y92.882 E0.01309
M204 S1250
G1 X80.860 Y92.638 F9000.000
M204 S800
G1 F1200.000
G1 X45.820 Y127.689 E1.55398
G1 X45.343 Y128.112 E0.01999
G1 X44.989 Y128.367 E0.01368
G1 X44.432 Y128.691 E0.02018
G1 X44.037 Y128.870 E0.01361
G1 X43.629 Y129.017 E0.01361
G1 X43.002 Y129.175 E0.02025
G1 X42.362 Y129.256 E0.02025
G1 X41.928 Y129.268 E0.01361
G1 X41.494 Y129.244 E0.01361
G1 X40.856 Y129.146 E0.02025
G1 X40.235 Y128.972 E0.02025
G1 X39.830 Y128.814 E0.01361
G1 X39.442 Y128.625 E0.01355
G1 X39.068 Y128.405 E0.01361
G1 X38.549 Y128.024 E0.02018
G1 X38.224 Y127.733 E0.01368
G1 X37.791 Y127.257 E0.02018
G1 X37.532 Y126.908 E0.01361
G1 X37.302 Y126.540 E0.01361
G1 X37.015 Y125.962 E0.02024
G1 X36.806 Y125.370 E0.01970
G1 X36.697 Y124.931 E0.01416
G1 X36.628 Y124.502 E0.01362
G1 X36.590 Y123.866 E0.01999
G1 X36.590 Y54.136 E2.18634
G1 X36.607 Y53.710 E0.01335
G1 X36.659 Y53.282 E0.01354
G1 X36.744 Y52.858 E0.01355
G1 X36.864 Y52.441 E0.01361
G1 X37.103 Y51.843 E0.02018
G1 X37.303 Y51.458 E0.01361
G1 X37.532 Y51.092 E0.01355
G1 X37.791 Y50.743 E0.01361
G1 X38.226 Y50.266 E0.02025
G1 X38.714 Y49.844 E0.02025
G1 X39.070 Y49.594 E0.01361
G1 X39.442 Y49.375 E0.01355
G1 X39.830 Y49.186 E0.01355
G1 X40.235 Y49.028 E0.01361
G1 X40.854 Y48.855 E0.02018
G1 X41.284 Y48.779 E0.01367
G1 X41.908 Y48.733 E0.01963
G1 X42.362 Y48.744 E0.01422
G1 X43.002 Y48.825 E0.02025
G1 X43.629 Y48.983 E0.02025
G1 X44.037 Y49.130 E0.01361
G1 X44.432 Y49.309 E0.01361
G1 X44.989 Y49.633 E0.02018
G1 X45.343 Y49.888 E0.01368
G1 X45.820 Y50.311 E0.01999
G1 X80.832 Y85.329 E1.55264
G1 X81.234 Y85.818 E0.01984
G1 X81.472 Y86.175 E0.01345
G1 X81.770 Y86.733 E0.01984
G1 X81.934 Y87.129 E0.01345
G1 X82.118 Y87.735 E0.01984
G1 X82.201 Y88.154 E0.01338
G1 X82.251 Y88.576 E0.01332
G1 X82.268 Y89.002 E0.01338
G1 X82.231 Y89.634 E0.01984
G1 X82.164 Y90.058 E0.01345
G1 X82.004 Y90.670 E0.01984
G1 X81.856 Y91.070 E0.01338
G1 X81.678 Y91.456 E0.01332
G1 X81.470 Y91.829 E0.01338
G1 X81.118 Y92.334 E0.01930
G1 X80.899 Y92.592 E0.01064
M204 S1250
G1 X80.981 Y93.019 F9000.000
G1 E-2.24000 F4200.00000
G1 F7200.000
G1 X79.735 Y93.756 E-0.91200
G1 E-0.04800 F4200.00000
G1 Z0.400 F9000.000
G1 X30.787 Y30.787
G1 Z0.200
G1 E3.20000 F2400.00000
M204 S800
G1 F1200.000
G1 X31.674 Y30.787 E0.02781
G1 X89.384 Y88.497 E2.55894
G1 X149.213 Y148.326 E2.65293
G1 X149.213 Y149.213 E0.02781
G1 X30.787 Y149.213 E3.71316
G1 X30.787 Y30.847 E3.71128
M204 S1250
G1 X30.410 Y30.410 F9000.000
M204 S800
G1 F1200.000
G1 X31.830 Y30.410 E0.04453
G1 X89.650 Y88.230 E2.56384
G1 X149.590 Y148.170 E2.65783
G1 X149.590 Y149.590 E0.04453
G1 X30.410 Y149.590 E3.73681
G1 X30.410 Y30.470 E3.73492
M204 S1250
G1 X30.796 Y30.514 F9000.000
G1 E-2.24000 F4200.00000
G1 F7200.000
G1 X31.830 Y30.410 E-0.78771
G1 X31.989 Y30.569 E-0.12429
G1 E-0.04800 F4200.00000
G1 Z0.400 F9000.000
G1 X82.218 Y86.534
G1 Z0.200
G1 E3.20000 F2400.00000
M204 S800
G1 F1200.000
G1 X89.617 Y93.933 E0.32828
G1 X88.848 Y93.697 E0.02525
G1 X82.767 Y87.617 E0.26978
G1 X82.879 Y88.261 E0.02053
G1 X88.203 Y93.586 E0.23623
G1 X87.627 Y93.543 E0.01813
G1 X82.922 Y88.838 E0.20873
G1 X82.908 Y89.358 E0.01631
G1 X87.106 Y93.556 E0.18625
G1 X86.616 Y93.599 E0.01544
G1 X82.865 Y89.849 E0.16642
G1 X82.783 Y90.300 E0.01439
G1 X86.165 Y93.682 E0.15006
G1 X85.742 Y93.792 E0.01372
G1 X82.672 Y90.723 E0.13619
G1 X82.540 Y91.124 E0.01326
G1 X85.340 Y93.925 E0.12426
G1 X84.963 Y94.081 E0.01282
G1 X82.384 Y91.502 E0.11441
G1 X82.209 Y91.860 E0.01251
G1 X84.604 Y94.256 E0.10630
G1 X84.264 Y94.449 E0.01228
G1 X82.015 Y92.200 E0.09979
G1 X81.796 Y92.515 E0.01203
G1 X83.950 Y94.668 E0.09555
G1 X83.642 Y94.894 E0.01198
G1 X81.570 Y92.822 E0.09194
G1 X81.325 Y93.110 E0.01188
G1 X83.354 Y95.140 E0.09005
G1 X83.087 Y95.406 E0.01184
G1 X81.058 Y93.378 E0.08998
G1 X80.792 Y93.645 E0.01184
G1 X82.820 Y95.673 E0.08998
G1 X82.553 Y95.940 E0.01184
G1 X80.525 Y93.912 E0.08998
G1 X80.258 Y94.178 E0.01184
G1 X82.286 Y96.206 E0.08998
G1 X82.019 Y96.473 E0.01184
G1 X79.991 Y94.445 E0.08998
G1 X79.725 Y94.712 E0.01184
G1 X81.753 Y96.740 E0.08998
G1 X81.486 Y97.007 E0.01184
G1 X79.458 Y94.979 E0.08998
G1 X79.191 Y95.246 E0.01184
G1 X81.219 Y97.274 E0.08998
G1 X80.952 Y97.540 E0.01184
G1 X78.924 Y95.512 E0.08998
G1 X78.657 Y95.779 E0.01184
G1 X80.685 Y97.807 E0.08997
G1 X80.419 Y98.074 E0.01184
G1 X78.391 Y96.046 E0.08997
G1 X78.124 Y96.313 E0.01184
G1 X80.152 Y98.341 E0.08997
G1 X79.885 Y98.608 E0.01184
G1 X77.857 Y96.580 E0.08997
G1 X77.590 Y96.847 E0.01184
G1 X79.618 Y98.874 E0.08997
G1 X79.351 Y99.141 E0.01184
G1 X77.324 Y97.113 E0.08997
M73 P4 R43
G1 X77.057 Y97.380 E0.01184
G1 X79.085 Y99.408 E0.08997
G1 X78.818 Y99.675 E0.01184
G1 X76.790 Y97.647 E0.08997
G1 X76.523 Y97.914 E0.01184
G1 X78.551 Y99.942 E0.08997
G1 X78.284 Y100.208 E0.01184
G1 X76.257 Y98.181 E0.08997
G1 X75.990 Y98.447 E0.01184
G1 X78.017 Y100.475 E0.08997
G1 X77.751 Y100.742 E0.01184
G1 X75.723 Y98.714 E0.08996
G1 X75.456 Y98.981 E0.01184
G1 X77.484 Y101.009 E0.08996
G1 X77.217 Y101.276 E0.01184
G1 X75.189 Y99.248 E0.08996
G1 X74.923 Y99.515 E0.01184
G1 X76.950 Y101.542 E0.08996
G1 X76.683 Y101.809 E0.01184
G1 X74.656 Y99.782 E0.08996
G1 X74.389 Y100.048 E0.01184
G1 X76.417 Y102.076 E0.08996
G1 X76.150 Y102.343 E0.01184
G1 X74.122 Y100.315 E0.08996
G1 X73.856 Y100.582 E0.01184
G1 X75.883 Y102.610 E0.08996
G1 X75.616 Y102.876 E0.01184
G1 X73.589 Y100.849 E0.08996
G1 X73.322 Y101.116 E0.01184
G1 X75.350 Y103.143 E0.08996
G1 X75.083 Y103.410 E0.01184
G1 X73.055 Y101.382 E0.08996
G1 X72.788 Y101.649 E0.01184
G1 X74.816 Y103.677 E0.08995
G1 X74.549 Y103.944 E0.01184
G1 X72.522 Y101.916 E0.08995
G1 X72.255 Y102.183 E0.01184
G1 X74.282 Y104.210 E0.08995
G1 X74.016 Y104.477 E0.01184
G1 X71.988 Y102.450 E0.08995
G1 X71.721 Y102.717 E0.01184
G1 X73.749 Y104.744 E0.08995
G1 X73.482 Y105.011 E0.01184
G1 X71.455 Y102.983 E0.08995
G1 X71.188 Y103.250 E0.01184
G1 X73.215 Y105.277 E0.08995
G1 X72.948 Y105.544 E0.01184
G1 X70.921 Y103.517 E0.08995
G1 X70.654 Y103.784 E0.01184
G1 X72.682 Y105.811 E0.08995
G1 X72.415 Y106.078 E0.01184
G1 X70.387 Y104.051 E0.08995
G1 X70.121 Y104.317 E0.01184
G1 X72.148 Y106.345 E0.08995
G1 X71.881 Y106.611 E0.01184
G1 X69.854 Y104.584 E0.08994
G1 X69.587 Y104.851 E0.01184
G1 X71.614 Y106.878 E0.08994
G1 X71.348 Y107.145 E0.01184
G1 X69.320 Y105.118 E0.08994
G1 X69.054 Y105.385 E0.01184
G1 X71.081 Y107.412 E0.08994
G1 X70.814 Y107.679 E0.01184
G1 X68.787 Y105.652 E0.08994
G1 X68.520 Y105.918 E0.01184
G1 X70.547 Y107.945 E0.08994
G1 X70.280 Y108.212 E0.01184
G1 X68.253 Y106.185 E0.08994
G1 X67.987 Y106.452 E0.01184
G1 X70.014 Y108.479 E0.08994
G1 X69.747 Y108.746 E0.01184
G1 X67.720 Y106.719 E0.08994
G1 X67.453 Y106.986 E0.01184
G1 X69.480 Y109.013 E0.08994
G1 X69.213 Y109.279 E0.01184
G1 X67.186 Y107.252 E0.08994
G1 X66.919 Y107.519 E0.01184
G1 X68.946 Y109.546 E0.08993
G1 X68.680 Y109.813 E0.01184
G1 X66.653 Y107.786 E0.08993
G1 X66.386 Y108.053 E0.01184
G1 X68.413 Y110.080 E0.08993
G1 X68.146 Y110.347 E0.01184
G1 X66.119 Y108.320 E0.08993
G1 X65.852 Y108.586 E0.01184
G1 X67.879 Y110.613 E0.08993
G1 X67.612 Y110.880 E0.01184
G1 X65.586 Y108.853 E0.08993
G1 X65.319 Y109.120 E0.01184
G1 X67.346 Y111.147 E0.08993
G1 X67.079 Y111.414 E0.01184
G1 X65.052 Y109.387 E0.08993
G1 X64.785 Y109.654 E0.01184
G1 X66.812 Y111.681 E0.08993
G1 X66.545 Y111.947 E0.01184
