; generated by PrusaSlicer 2.2.0+win64 on 2020-12-17 at 08:41:22 UTC


;
;

;
;
; 

; external perimeters extrusion width = 0.45mm
; perimeters extrusion width = 0.45mm
; infill extrusion width = 0.45mm
; solid infill extrusion width = 0.45mm
; top infill extrusion width = 0.40mm
; first layer extrusion width = 0.42mm

M73 P0 R46
M201 X1250 Y1250 Z400 E5000 ; sets maximum accelerations, mm/sec^2
M203 X180 Y180 Z12 E80 ; sets maximum feedrates, mm/sec
M204 P1250 R1250 T1250 ; sets acceleration (P, T) and retract acceleration (R), mm/sec^2
M205 X8.00 Y8.00 Z2.00 E10.00 ; sets the jerk limits, mm/sec
M205 S0 T0 ; sets the minimum extruding and travel feed rate, mm/sec
M107
G90 ; use absolute coordinates
M83 ; extruder relative mode
M104 S170 ; set extruder temp for bed leveling
M140 S60 ; set bed temp
M109 R170 ; wait for bed leveling temp
M190 S60 ; wait for bed temp
G28 ; home all without mesh bed level
G29 ; mesh bed leveling 
M104 S215 ; set extruder temp
G92 E0.0
G1 Y-2.0 X179 F2400
G1 Z3 F720
M109 S215 ; wait for extruder temp

; intro line
G1 X170 F1000
G1 Z0.2 F720
G1 X110.0 E8.0 F900
M73 P0 R46
G1 X40.0 E10.0 F700
G92 E0.0

M221 S95 ; set flow
G21 ; set units to millimeters
G90 ; use absolute coordinates
M83 ; use relative distances for extrusion
M900 K0.2 ; Filament gcode LA 1.5
; ; Filament gcode LA 1.0
;BEFORE_LAYER_CHANGE
G92 E0.0
;0.2


G1 Z0.200 F9000.000
;AFTER_LAYER_CHANGE
;0.2
G1 E-3.20000 F4200.00000
G1 Z0.400 F9000.000
G1 X73.122 Y81.112
G1 Z0.200
G1 E3.20000 F2400.00000
M204 S800
G1 F1200.000
G1 X73.694 Y80.631 E0.02344
G1 X74.870 Y80.057 E0.04101
G1 X77.543 Y79.312 E0.08702
G1 X95.591 Y75.299 E0.57969
G1 X97.876 Y75.246 E0.07167
G1 X98.474 Y75.312 E0.01886
G1 X102.054 Y76.179 E0.11550
G1 X103.422 Y76.656 E0.04542
G1 X104.120 Y77.041 E0.02500
G1 X104.773 Y77.569 E0.02632
G1 X105.282 Y78.218 E0.02588
G1 X105.572 Y78.837 E0.02141
G1 X105.753 Y79.807 E0.03095
G1 X105.754 Y86.291 E0.20330
G1 X105.366 Y91.923 E0.17699
G1 X105.199 Y92.645 E0.02324
G1 X104.953 Y93.189 E0.01873
G1 X104.602 Y93.662 E0.01848
G1 X104.035 Y94.181 E0.02409
G1 X102.934 Y94.756 E0.03894
G1 X101.627 Y95.123 E0.04257
G1 X98.176 Y95.737 E0.10992
G1 X96.005 Y95.751 E0.06806
G1 X77.788 Y94.731 E0.57209
G1 X75.646 Y94.297 E0.06853
G1 X74.670 Y94.010 E0.03189
G1 X73.717 Y93.491 E0.03401
G1 X73.029 Y92.782 E0.03100
G1 X72.688 Y92.125 E0.02320
G1 X72.505 Y91.320 E0.02589
G1 X72.247 Y87.584 E0.11741
G1 X72.250 Y83.098 E0.14065
G1 X72.391 Y82.342 E0.02413
G1 X72.654 Y81.734 E0.02078
G1 X73.086 Y81.160 E0.02252
M204 S1250
G1 X73.933 Y80.924 F9000.000
M204 S800
G1 F1200.000
G1 X75.003 Y80.410 E0.03722
G1 X77.581 Y79.690 E0.08391
G1 X95.616 Y75.679 E0.57930
G1 X97.875 Y75.623 E0.07087
G1 X98.397 Y75.682 E0.01645
G1 X101.959 Y76.544 E0.11493
G1 X103.241 Y76.988 E0.04255
G1 X103.894 Y77.343 E0.02327
G1 X104.490 Y77.819 E0.02392
G1 X104.956 Y78.407 E0.02354
G1 X105.214 Y78.953 E0.01894
G1 X105.376 Y79.822 E0.02772
G1 X105.377 Y86.292 E0.20285
G1 X104.991 Y91.875 E0.17548
G1 X104.841 Y92.526 E0.02094
G1 X104.625 Y93.004 E0.01645
G1 X104.314 Y93.417 E0.01621
G1 X103.798 Y93.886 E0.02187
G1 X102.785 Y94.410 E0.03576
G1 X101.547 Y94.755 E0.04028
G1 X98.138 Y95.362 E0.10859
G1 X96.026 Y95.375 E0.06622
G1 X77.846 Y94.359 E0.57090
G1 X75.734 Y93.930 E0.06756
G1 X74.827 Y93.667 E0.02961
G1 X73.945 Y93.191 E0.03142
G1 X73.322 Y92.542 E0.02821
G1 X73.035 Y91.977 E0.01989
G1 X72.879 Y91.276 E0.02251
G1 X72.624 Y87.573 E0.11636
G1 X72.626 Y83.124 E0.13950
G1 X72.754 Y82.445 E0.02166
G1 X72.988 Y81.910 E0.01835
G1 X73.409 Y81.357 E0.02178
G1 X73.887 Y80.962 E0.01943
M204 S1250
G1 E-2.24000 F4200.00000
G1 F7200.000
G1 X75.003 Y80.410 E-0.69020
G1 X75.389 Y80.302 E-0.22180
G1 E-0.04800 F4200.00000
G1 Z0.400 F9000.000
G1 X93.064 Y91.650
G1 Z0.200
G1 E3.20000 F2400.00000
M204 S800
G1 F1200.000
G1 X93.539 Y91.561 E0.01516
G1 X94.684 Y91.415 E0.03620
G1 X95.309 Y91.366 E0.01966
G1 X96.660 Y91.314 E0.04237
G1 X97.438 Y91.317 E0.02440
G1 X98.691 Y91.366 E0.03931
G1 X99.316 Y91.415 E0.01967
G1 X100.461 Y91.561 E0.03620
G1 X100.936 Y91.650 E0.01516
G1 X100.461 Y91.739 E0.01516
G1 X99.316 Y91.885 E0.03620
G1 X98.691 Y91.934 E0.01966
G1 X97.339 Y91.986 E0.04240
G1 X96.661 Y91.986 E0.02129
G1 X95.309 Y91.934 E0.04240
G1 X94.684 Y91.885 E0.01966
G1 X93.539 Y91.739 E0.03620
G1 X93.122 Y91.661 E0.01327
M204 S1250
G1 X91.959 Y91.699 F9000.000
M204 S800
G1 F1200.000
G1 X91.879 Y91.650 E0.00292
G1 X92.213 Y91.493 E0.01156
G1 X92.559 Y91.384 E0.01138
G1 X92.986 Y91.281 E0.01376
G1 X93.480 Y91.188 E0.01577
G1 X94.645 Y91.040 E0.03683
G1 X95.287 Y90.989 E0.02018
G1 X96.653 Y90.937 E0.04286
G1 X97.446 Y90.940 E0.02486
G1 X98.713 Y90.989 E0.03976
G1 X99.355 Y91.040 E0.02019
G1 X100.520 Y91.188 E0.03683
G1 X101.441 Y91.384 E0.02952
G1 X101.787 Y91.493 E0.01138
G1 X102.121 Y91.650 E0.01156
G1 X101.787 Y91.807 E0.01156
G1 X101.441 Y91.916 E0.01138
G1 X100.520 Y92.112 E0.02952
G1 X99.355 Y92.260 E0.03683
G1 X98.713 Y92.311 E0.02018
G1 X97.347 Y92.363 E0.04287
G1 X96.653 Y92.363 E0.02174
G1 X95.287 Y92.311 E0.04287
G1 X94.645 Y92.260 E0.02018
G1 X93.480 Y92.112 E0.03683
G1 X92.986 Y92.019 E0.01577
G1 X92.559 Y91.916 E0.01376
G1 X92.213 Y91.807 E0.01138
G1 X92.014 Y91.722 E0.00678
M204 S1250
G1 X91.955 Y91.606 F9000.000
G1 X92.401 Y91.650
M204 S800
G1 F1200.000
G1 X92.875 Y91.650 E0.00689
M204 S1250
G1 E-2.24000 F4200.00000
G1 F7200.000
G1 X92.401 Y91.650 E-0.26266
G1 E-0.69734 F4200.00000
G1 Z0.400 F9000.000
G1 X94.508 Y91.650
G1 Z0.200
G1 E3.20000 F2400.00000
M204 S800
G1 F1200.000
G1 X94.708 Y91.650 E0.00158
M204 S1250
G1 X94.708 Y91.650 F9000.000
M204 S800
G1 F1200.000
G1 X95.017 Y91.650 E0.00368
M204 S1250
M204 S800
G1 X95.326 Y91.650 E0.00493
M204 S1250
G1 X95.326 Y91.650 F9000.000
M204 S800
G1 F1200.000
G1 X95.772 Y91.650 E0.00840
M204 S1250
M204 S800
G1 X96.219 Y91.650 E0.00966
M204 S1250
M204 S800
G1 X98.052 Y91.650 E0.04392
M204 S1250
M204 S800
G1 X98.983 Y91.650 E0.01487
M204 S1250
M204 S800
G1 X99.492 Y91.650 E0.00401
M204 S1250
G1 E-2.24000 F4200.00000
G1 F7200.000
G1 X98.983 Y91.650 E-0.28231
G1 E-0.67769 F4200.00000
G1 Z0.400 F9000.000
G1 X101.125 Y91.650
G1 Z0.200
G1 E3.20000 F2400.00000
M204 S800
G1 F1200.000
G1 X101.599 Y91.650 E0.00689
M204 S1250
G1 E-2.24000 F4200.00000
G1 F7200.000
G1 X101.125 Y91.650 E-0.26267
G1 E-0.69733 F4200.00000
G1 Z0.400 F9000.000
G1 X101.928 Y86.257
G1 Z0.200
G1 E3.20000 F2400.00000
M204 S800
G1 F1200.000
G1 X101.596 Y86.388 E0.01120
G1 X101.170 Y86.516 E0.01395
G1 X100.664 Y86.635 E0.01629
G1 X100.091 Y86.739 E0.01827
G1 X99.467 Y86.825 E0.01974
G1 X98.082 Y86.937 E0.04359
G1 X96.640 Y86.960 E0.04520
G1 X95.205 Y86.892 E0.04505
G1 X93.909 Y86.739 E0.04092
G1 X93.336 Y86.635 E0.01827
G1 X92.830 Y86.516 E0.01629
G1 X92.404 Y86.388 E0.01395
G1 X92.060 Y86.250 E0.01164
G1 X92.404 Y86.112 E0.01164
G1 X92.830 Y85.984 E0.01395
G1 X93.336 Y85.865 E0.01629
G1 X93.909 Y85.761 E0.01827
G1 X95.205 Y85.608 E0.04092
G1 X96.640 Y85.540 E0.04504
G1 X97.406 Y85.541 E0.02402
G1 X98.795 Y85.608 E0.04360
G1 X99.462 Y85.675 E0.02103
G1 X100.091 Y85.761 E0.01990
G1 X100.664 Y85.865 E0.01827
G1 X101.170 Y85.984 E0.01629
G1 X101.596 Y86.112 E0.01395
G1 X101.898 Y86.232 E0.01021
M204 S1250
G1 X102.518 Y86.169 F9000.000
M204 S800
G1 F1200.000
G1 X102.577 Y86.250 E0.00314
G1 X102.518 Y86.331 E0.00314
G1 X102.356 Y86.456 E0.00643
G1 X102.086 Y86.600 E0.00958
G1 X101.719 Y86.744 E0.01235
G1 X101.268 Y86.881 E0.01480
G1 X100.741 Y87.004 E0.01696
G1 X100.150 Y87.112 E0.01882
G1 X99.508 Y87.200 E0.02032
G1 X98.103 Y87.314 E0.04421
G1 X97.370 Y87.337 E0.02298
G1 X96.631 Y87.337 E0.02317
G1 X95.178 Y87.268 E0.04564
G1 X94.493 Y87.200 E0.02155
G1 X93.850 Y87.112 E0.02038
G1 X93.259 Y87.004 E0.01882
G1 X92.732 Y86.881 E0.01696
G1 X92.281 Y86.744 E0.01480
G1 X91.914 Y86.600 E0.01235
G1 X91.644 Y86.456 E0.00958
G1 X91.482 Y86.331 E0.00643
G1 X91.423 Y86.250 E0.00314
G1 X91.482 Y86.169 E0.00314
G1 X91.644 Y86.044 E0.00643
G1 X91.914 Y85.900 E0.00958
G1 X92.281 Y85.756 E0.01235
G1 X92.732 Y85.619 E0.01480
G1 X93.259 Y85.496 E0.01696
G1 X93.850 Y85.388 E0.01882
G1 X94.493 Y85.300 E0.02038
G1 X95.178 Y85.232 E0.02155
G1 X96.631 Y85.163 E0.04563
G1 X97.415 Y85.164 E0.02459
G1 X98.822 Y85.232 E0.04417
G1 X99.507 Y85.300 E0.02155
G1 X100.150 Y85.388 E0.02038
G1 X100.741 Y85.496 E0.01882
G1 X101.268 Y85.619 E0.01696
G1 X101.719 Y85.756 E0.01480
G1 X102.086 Y85.900 E0.01235
G1 X102.356 Y86.044 E0.00958
G1 X102.471 Y86.132 E0.00455
M204 S1250
G1 X102.490 Y86.265 F9000.000
G1 X101.337 Y86.250
M204 S800
G1 F1200.000
G1 X100.843 Y86.250 E0.00715
M204 S1250
G1 X100.513 Y86.547 F9000.000
M204 S800
G1 F1200.000
G1 X100.000 Y86.035 E0.02276
G1 X99.395 Y85.964 E0.01915
G1 X99.910 Y86.479 E0.02287
G1 X99.440 Y86.543 E0.01489
G1 X98.789 Y85.893 E0.02890
G1 X98.227 Y85.864 E0.01769
G1 X98.946 Y86.583 E0.03195
G1 X98.452 Y86.624 E0.01557
G1 X97.665 Y85.837 E0.03493
G1 X97.118 Y85.824 E0.01721
G1 X97.953 Y86.658 E0.03708
G1 X97.435 Y86.675 E0.01627
G1 X96.586 Y85.826 E0.03772
G1 X96.076 Y85.850 E0.01603
G1 X96.903 Y86.677 E0.03674
G1 X96.355 Y86.663 E0.01722
G1 X95.566 Y85.874 E0.03504
G1 X95.064 Y85.907 E0.01580
G1 X95.794 Y86.636 E0.03242
G1 X95.233 Y86.610 E0.01764
G1 X94.578 Y85.955 E0.02909
G1 X94.108 Y86.019 E0.01490
G1 X94.640 Y86.551 E0.02365
G1 X94.024 Y86.469 E0.01953
G1 X93.650 Y86.095 E0.01661
G1 X93.206 Y86.186 E0.01422
G1 X93.586 Y86.565 E0.01685
M204 S1250
G1 E-2.24000 F4200.00000
G1 F7200.000
G1 X93.206 Y86.186 E-0.29734
G1 X93.650 Y86.095 E-0.25095
G1 X94.024 Y86.469 E-0.29308
G1 X94.150 Y86.486 E-0.07063
G1 E-0.04800 F4200.00000
G1 Z0.400 F9000.000
G1 X92.072 Y79.882
G1 Z0.200
G1 E3.20000 F2400.00000
M204 S800
G1 F1200.000
G1 X92.060 Y79.875 E0.00044
G1 X92.404 Y79.737 E0.01164
G1 X92.830 Y79.609 E0.01394
G1 X93.336 Y79.490 E0.01629
G1 X93.909 Y79.386 E0.01827
G1 X95.205 Y79.233 E0.04092
G1 X96.639 Y79.165 E0.04502
G1 X97.446 Y79.168 E0.02528
G1 X98.795 Y79.233 E0.04235
G1 X99.462 Y79.300 E0.02104
G1 X100.091 Y79.386 E0.01990
G1 X100.664 Y79.490 E0.01827
G1 X101.170 Y79.609 E0.01629
G1 X101.596 Y79.737 E0.01394
G1 X101.940 Y79.875 E0.01164
G1 X101.596 Y80.013 E0.01164
G1 X101.170 Y80.141 E0.01395
G1 X100.664 Y80.260 E0.01629
G1 X100.091 Y80.364 E0.01827
G1 X99.462 Y80.450 E0.01990
G1 X98.795 Y80.517 E0.02104
G1 X97.450 Y80.582 E0.04220
G1 X96.635 Y80.585 E0.02557
G1 X95.918 Y80.562 E0.02247
G1 X94.533 Y80.450 E0.04359
G1 X93.909 Y80.364 E0.01974
G1 X93.336 Y80.260 E0.01827
G1 X92.830 Y80.141 E0.01629
G1 X92.404 Y80.013 E0.01395
G1 X92.128 Y79.904 E0.00932
M204 S1250
G1 X91.482 Y79.956 F9000.000
M204 S800
G1 F1200.000
G1 X91.423 Y79.875 E0.00314
G1 X91.482 Y79.794 E0.00314
G1 X91.644 Y79.669 E0.00643
G1 X91.914 Y79.525 E0.00959
G1 X92.281 Y79.381 E0.01235
G1 X92.732 Y79.244 E0.01480
G1 X93.259 Y79.121 E0.01696
G1 X93.850 Y79.013 E0.01882
G1 X94.493 Y78.925 E0.02038
G1 X95.178 Y78.857 E0.02155
G1 X96.631 Y78.788 E0.04563
G1 X97.455 Y78.791 E0.02585
G1 X98.822 Y78.857 E0.04291
G1 X99.507 Y78.925 E0.02156
G1 X100.150 Y79.013 E0.02038
G1 X100.741 Y79.121 E0.01882
G1 X101.268 Y79.244 E0.01696
G1 X101.719 Y79.381 E0.01480
G1 X102.086 Y79.525 E0.01235
G1 X102.356 Y79.669 E0.00959
G1 X102.518 Y79.794 E0.00643
G1 X102.577 Y79.875 E0.00314
G1 X102.518 Y79.956 E0.00314
G1 X102.356 Y80.081 E0.00643
G1 X102.086 Y80.225 E0.00958
G1 X101.719 Y80.369 E0.01235
G1 X101.268 Y80.506 E0.01480
G1 X100.741 Y80.629 E0.01696
G1 X100.150 Y80.737 E0.01882
G1 X99.507 Y80.825 E0.02038
G1 X98.822 Y80.893 E0.02156
G1 X97.460 Y80.959 E0.04277
G1 X96.629 Y80.962 E0.02604
G1 X95.897 Y80.939 E0.02297
G1 X94.492 Y80.825 E0.04421
G1 X93.850 Y80.737 E0.02032
G1 X93.259 Y80.629 E0.01882
G1 X92.732 Y80.506 E0.01696
G1 X92.281 Y80.369 E0.01480
G1 X91.914 Y80.225 E0.01235
G1 X91.644 Y80.081 E0.00958
G1 X91.529 Y79.993 E0.00455
M204 S1250
G1 X91.510 Y79.860 F9000.000
G1 X92.663 Y79.864
M204 S800
G1 F1200.000
G1 X93.157 Y79.886 E0.00716
M204 S1250
G1 X93.481 Y79.579 F9000.000
M204 S800
G1 F1200.000
G1 X93.993 Y80.090 E0.02278
G1 X94.611 Y80.172 E0.01962
G1 X94.085 Y79.647 E0.02339
G1 X94.556 Y79.582 E0.01496
G1 X95.194 Y80.220 E0.02838
G1 X95.776 Y80.267 E0.01841
G1 X95.043 Y79.534 E0.03265
G1 X95.545 Y79.500 E0.01584
G1 X96.337 Y80.293 E0.03527
G1 X96.882 Y80.301 E0.01713
G1 X96.056 Y79.476 E0.03675
G1 X96.567 Y79.452 E0.01611
G1 X97.415 Y80.299 E0.03775
G1 X97.443 Y80.299 E0.00087
G1 X97.927 Y80.276 E0.01526
G1 X97.101 Y79.449 E0.03679
G1 X97.647 Y79.461 E0.01722
G1 X98.437 Y80.251 E0.03518
G1 X98.940 Y80.218 E0.01586
G1 X98.210 Y79.488 E0.03250
G1 X98.771 Y79.515 E0.01768
G1 X99.427 Y80.170 E0.02917
G1 X99.898 Y80.105 E0.01496
G1 X99.380 Y79.587 E0.02307
G1 X99.987 Y79.658 E0.01924
G1 X100.503 Y80.174 E0.02297
M204 S1250
G1 X100.843 Y79.887 F9000.000
M204 S800
G1 F1200.000
G1 X101.337 Y79.864 E0.00716
M204 S1250
G1 E-2.24000 F4200.00000
G1 F7200.000
G1 X100.843 Y79.887 E-0.27440
G1 E-0.68560 F4200.00000
G1 Z0.400 F9000.000
G1 X82.197 Y91.100
G1 Z0.200
G1 E3.20000 F2400.00000
M204 S800
G1 F1200.000
G1 X82.109 Y91.140 E0.00303
G1 X81.938 Y91.294 E0.00722
G1 X80.976 Y91.338 E0.03018
G1 X80.134 Y91.404 E0.02647
G1 X79.230 Y91.438 E0.02836
G1 X78.313 Y91.427 E0.02875
G1 X76.062 Y91.294 E0.07070
G1 X75.891 Y91.140 E0.00722
G1 X75.803 Y91.100 E0.00303
G1 X75.891 Y91.060 E0.00303
G1 X76.062 Y90.906 E0.00722
G1 X78.313 Y90.773 E0.07069
G1 X79.328 Y90.764 E0.03181
G1 X81.937 Y90.906 E0.08193
G1 X82.142 Y91.075 E0.00835
M204 S1250
G1 X82.103 Y91.124 F9000.000
G1 X81.563 Y91.098
M204 S800
G1 F1200.000
G1 X80.679 Y91.099 E0.00584
M204 S1250
M204 S800
G1 X79.718 Y91.103 E0.01461
M204 S1250
M204 S800
G1 X78.327 Y91.100 E0.03398
M204 S1250
M204 S800
G1 X78.004 Y91.100 E0.00744
M204 S1250
M204 S800
G1 X77.682 Y91.100 E0.00624
M204 S1250
M204 S800
G1 X77.359 Y91.100 E0.00506
M204 S1250
M204 S800
G1 X77.037 Y91.100 E0.00387
M204 S1250
M204 S800
G1 X76.756 Y91.100 E0.00236
M204 S1250
M204 S800
G1 X76.475 Y91.100 E0.00176
M204 S1250
G1 E-2.24000 F4200.00000
G1 F7200.000
G1 X76.756 Y91.100 E-0.15560
G1 E-0.80440 F4200.00000
G1 Z0.400 F9000.000
G1 X76.616 Y87.500
G1 Z0.200
G1 E3.20000 F2400.00000
M204 S800
G1 F1200.000
G1 X77.395 Y87.376 E0.02475
G1 X77.823 Y87.334 E0.01348
G1 X78.765 Y87.289 E0.02957
G1 X79.280 Y87.291 E0.01614
G1 X80.177 Y87.334 E0.02815
G1 X80.605 Y87.376 E0.01349
G1 X81.384 Y87.500 E0.02475
G1 X80.605 Y87.624 E0.02475
G1 X80.177 Y87.666 E0.01348
G1 X79.234 Y87.711 E0.02960
G1 X78.766 Y87.711 E0.01467
G1 X77.823 Y87.666 E0.02960
G1 X77.395 Y87.624 E0.01348
G1 X76.675 Y87.509 E0.02287
M204 S1250
G1 X75.504 Y87.522 F9000.000
M204 S800
G1 F1200.000
G1 X75.475 Y87.500 E0.00114
G1 X75.663 Y87.393 E0.00677
G1 X76.194 Y87.211 E0.01763
G1 X76.532 Y87.132 E0.01086
G1 X77.347 Y87.002 E0.02589
G1 X77.796 Y86.958 E0.01413
G1 X78.757 Y86.912 E0.03017
G1 X79.290 Y86.913 E0.01671
G1 X80.204 Y86.958 E0.02871
G1 X80.653 Y87.002 E0.01413
G1 X81.468 Y87.132 E0.02589
G1 X81.806 Y87.211 E0.01086
G1 X82.337 Y87.393 E0.01763
G1 X82.525 Y87.500 E0.00677
G1 X82.337 Y87.607 E0.00677
G1 X81.806 Y87.789 E0.01763
G1 X81.468 Y87.868 E0.01086
G1 X80.653 Y87.998 E0.02589
G1 X80.204 Y88.042 E0.01413
G1 X79.243 Y88.088 E0.03018
G1 X78.757 Y88.088 E0.01524
G1 X77.796 Y88.042 E0.03018
G1 X77.347 Y87.998 E0.01413
G1 X76.532 Y87.868 E0.02589
G1 X76.194 Y87.789 E0.01086
G1 X75.663 Y87.607 E0.01763
G1 X75.557 Y87.550 E0.00376
M204 S1250
G1 X75.505 Y87.486 F9000.000
G1 E-2.24000 F4200.00000
G1 F7200.000
G1 X75.475 Y87.500 E-0.05325
G1 X75.663 Y87.393 E-0.11963
G1 X76.194 Y87.211 E-0.31155
G1 X76.532 Y87.132 E-0.19203
G1 X76.951 Y87.065 E-0.23555
G1 E-0.04800 F4200.00000
G1 Z0.400 F9000.000
G1 X76.616 Y83.250
G1 Z0.200
G1 E3.20000 F2400.00000
M204 S800
G1 F1200.000
G1 X77.395 Y83.126 E0.02475
G1 X77.823 Y83.084 E0.01348
G1 X78.765 Y83.039 E0.02955
G1 X79.319 Y83.042 E0.01740
G1 X80.176 Y83.084 E0.02690
G1 X80.605 Y83.126 E0.01349
G1 X81.384 Y83.250 E0.02475
G1 X80.605 Y83.374 E0.02475
G1 X80.177 Y83.416 E0.01348
G1 X79.234 Y83.461 E0.02960
G1 X78.766 Y83.461 E0.01467
G1 X77.823 Y83.416 E0.02960
G1 X77.395 Y83.374 E0.01348
