; generated by PrusaSlicer 2.3.0+win64 on 2021-06-08 at 09:56:26 UTC


;
;

;
;
; 

; external perimeters extrusion width = 0.45mm
; perimeters extrusion width = 0.45mm
; infill extrusion width = 0.45mm
; solid infill extrusion width = 0.45mm
; top infill extrusion width = 0.40mm
; first layer extrusion width = 0.42mm

M73 P0 R30
M201 X1250 Y1250 Z400 E5000 ; sets maximum accelerations, mm/sec^2
M203 X180 Y180 Z12 E80 ; sets maximum feedrates, mm/sec
M204 P1250 R1250 T1250 ; sets acceleration (P, T) and retract acceleration (R), mm/sec^2
M205 X8.00 Y8.00 Z2.00 E10.00 ; sets the jerk limits, mm/sec
M205 S0 T0 ; sets the minimum extruding and travel feed rate, mm/sec
M107
;TYPE:Custom
G90 ; use absolute coordinates
M83 ; extruder relative mode
M104 S170 ; set extruder temp for bed leveling
M140 S60 ; set bed temp
M109 R170 ; wait for bed leveling temp
M190 S60 ; wait for bed temp
G28 ; home all without mesh bed level
G29 ; mesh bed leveling 
M104 S215 ; set extruder temp
G92 E0.0
G1 Y-2.0 X179 F2400
G1 Z3 F720
M109 S215 ; wait for extruder temp

; intro line
G1 X170 F1000
G1 Z0.2 F720
G1 X110.0 E8.0 F900
M73 P0 R29
G1 X40.0 E10.0 F700
G92 E0.0

M221 S95 ; set flow
G21 ; set units to millimeters
G90 ; use absolute coordinates
M83 ; use relative distances for extrusion
M900 K0.2 ; Filament gcode LA 1.5
; ; Filament gcode LA 1.0
;LAYER_CHANGE
;Z:0.2
;HEIGHT:0.2
;BEFORE_LAYER_CHANGE
G92 E0.0
;0.2


G1 E-3.20000 F4200.000
G1 Z0.200 F9000.000
;AFTER_LAYER_CHANGE
;0.2
G1 Z0.400
G1 X79.463 Y53.775
G1 Z0.200
G1 E3.20000 F2400.000
M204 S800
;TYPE:Skirt
;WIDTH:0.42
G1 F1200.000
G1 X79.936 Y53.210 E0.02308
G1 X80.562 Y52.816 E0.02319
G1 X81.275 Y52.634 E0.02308
G1 X98.504 Y52.623 E0.54021
G1 X99.395 Y52.798 E0.02849
G1 X100.156 Y53.295 E0.02849
G1 X100.675 Y54.041 E0.02849
G1 X100.876 Y54.927 E0.02849
G1 X100.877 Y125.004 E2.19722
M73 P1 R29
G1 X100.814 Y125.544 E0.01704
G1 X100.535 Y126.229 E0.02319
G1 X100.056 Y126.797 E0.02331
G1 X99.428 Y127.188 E0.02319
G1 X98.710 Y127.368 E0.02319
G1 X81.492 Y127.377 E0.53986
G1 X80.956 Y127.314 E0.01692
G1 X80.236 Y127.013 E0.02449
G1 X79.654 Y126.497 E0.02437
G1 X79.269 Y125.822 E0.02437
G1 X79.124 Y125.058 E0.02437
G1 X79.123 Y54.996 E2.19675
G1 X79.186 Y54.456 E0.01704
G1 X79.441 Y53.830 E0.02119
M204 S1250
; printing object ButtonCover01.stl id:0 copy 0
G1 E-2.24000 F4200.000
;WIPE_START
G1 F7200.000
G1 X79.936 Y53.210 E-0.43963
G1 X80.562 Y52.816 E-0.40994
G1 X80.671 Y52.788 E-0.06243
;WIPE_END
G1 E-0.04800 F4200.000
G1 Z0.400 F9000.000
G1 X86.106 Y90.764
G1 Z0.200
G1 E3.20000 F2400.000
M204 S800
;TYPE:Perimeter
G1 F1200.000
G1 X93.880 Y90.764 E0.24375
G1 X93.880 Y98.538 E0.24375
G1 X86.106 Y98.538 E0.24375
G1 X86.106 Y90.824 E0.24187
M204 S1250
G1 X86.483 Y91.141 F9000.000
M204 S800
;TYPE:External perimeter
G1 F1200.000
G1 X93.503 Y91.141 E0.22011
G1 X93.503 Y98.161 E0.22011
G1 X86.483 Y98.161 E0.22011
G1 X86.483 Y91.201 E0.21823
M204 S1250
G1 X86.380 Y90.755 F9000.000
G1 E-2.24000 F4200.000
;WIPE_START
G1 F7200.000
G1 X88.129 Y91.187 E-0.91200
;WIPE_END
G1 E-0.04800 F4200.000
G1 Z0.400 F9000.000
G1 X86.106 Y80.764
G1 Z0.200
G1 E3.20000 F2400.000
M204 S800
;TYPE:Perimeter
G1 F1200.000
G1 X93.880 Y80.764 E0.24375
G1 X93.880 Y88.538 E0.24375
G1 X86.106 Y88.538 E0.24375
G1 X86.106 Y80.824 E0.24187
M204 S1250
G1 X86.483 Y81.141 F9000.000
M204 S800
;TYPE:External perimeter
G1 F1200.000
G1 X93.503 Y81.141 E0.22011
G1 X93.503 Y88.161 E0.22011
G1 X86.483 Y88.161 E0.22011
G1 X86.483 Y81.201 E0.21823
M204 S1250
G1 X86.380 Y80.755 F9000.000
G1 E-2.24000 F4200.000
;WIPE_START
G1 F7200.000
G1 X88.129 Y81.187 E-0.91200
;WIPE_END
G1 E-0.04800 F4200.000
G1 Z0.400 F9000.000
G1 X86.106 Y70.764
G1 Z0.200
G1 E3.20000 F2400.000
M204 S800
;TYPE:Perimeter
G1 F1200.000
G1 X93.880 Y70.764 E0.24375
G1 X93.880 Y78.538 E0.24375
G1 X86.106 Y78.538 E0.24375
G1 X86.106 Y70.824 E0.24187
M204 S1250
G1 X86.483 Y71.141 F9000.000
M204 S800
;TYPE:External perimeter
G1 F1200.000
G1 X93.503 Y71.141 E0.22011
M73 P2 R29
G1 X93.503 Y78.161 E0.22011
G1 X86.483 Y78.161 E0.22011
G1 X86.483 Y71.201 E0.21823
M204 S1250
G1 X86.380 Y70.755 F9000.000
G1 E-2.24000 F4200.000
;WIPE_START
G1 F7200.000
G1 X88.129 Y71.187 E-0.91200
;WIPE_END
G1 E-0.04800 F4200.000
G1 Z0.400 F9000.000
G1 X86.106 Y57.964
G1 Z0.200
G1 E3.20000 F2400.000
M204 S800
;TYPE:Perimeter
G1 F1200.000
G1 X93.880 Y57.964 E0.24375
G1 X93.880 Y65.738 E0.24375
G1 X86.106 Y65.738 E0.24375
G1 X86.106 Y58.024 E0.24187
M204 S1250
G1 X86.483 Y58.341 F9000.000
M204 S800
;TYPE:External perimeter
G1 F1200.000
G1 X93.503 Y58.341 E0.22011
G1 X93.503 Y65.361 E0.22011
G1 X86.483 Y65.361 E0.22011
G1 X86.483 Y58.401 E0.21823
M204 S1250
G1 X86.380 Y57.955 F9000.000
G1 E-2.24000 F4200.000
;WIPE_START
G1 F7200.000
G1 X88.129 Y58.387 E-0.91200
;WIPE_END
G1 E-0.04800 F4200.000
G1 Z0.400 F9000.000
G1 X86.106 Y100.764
G1 Z0.200
G1 E3.20000 F2400.000
M204 S800
;TYPE:Perimeter
G1 F1200.000
G1 X93.880 Y100.764 E0.24375
G1 X93.880 Y108.538 E0.24375
G1 X86.106 Y108.538 E0.24375
G1 X86.106 Y100.824 E0.24187
M204 S1250
G1 X86.483 Y101.141 F9000.000
M204 S800
;TYPE:External perimeter
G1 F1200.000
G1 X93.503 Y101.141 E0.22011
G1 X93.503 Y108.161 E0.22011
G1 X86.483 Y108.161 E0.22011
G1 X86.483 Y101.201 E0.21823
M204 S1250
G1 X86.380 Y100.755 F9000.000
G1 E-2.24000 F4200.000
;WIPE_START
G1 F7200.000
G1 X88.129 Y101.187 E-0.91200
;WIPE_END
G1 E-0.04800 F4200.000
G1 Z0.400 F9000.000
G1 X86.106 Y110.764
G1 Z0.200
G1 E3.20000 F2400.000
M204 S800
;TYPE:Perimeter
G1 F1200.000
G1 X93.880 Y110.764 E0.24375
G1 X93.880 Y118.538 E0.24375
G1 X86.106 Y118.538 E0.24375
G1 X86.106 Y110.824 E0.24187
M204 S1250
G1 X86.483 Y111.141 F9000.000
M204 S800
;TYPE:External perimeter
G1 F1200.000
G1 X93.503 Y111.141 E0.22011
G1 X93.503 Y118.161 E0.22011
G1 X86.483 Y118.161 E0.22011
G1 X86.483 Y111.201 E0.21823
M204 S1250
G1 X86.380 Y110.755 F9000.000
G1 E-2.24000 F4200.000
;WIPE_START
G1 F7200.000
G1 X88.129 Y111.187 E-0.91200
;WIPE_END
G1 E-0.04800 F4200.000
G1 Z0.400 F9000.000
G1 X82.287 Y124.213
G1 Z0.200
G1 E3.20000 F2400.000
M204 S800
;TYPE:Perimeter
G1 F1200.000
G1 X82.287 Y55.787 E2.14544
G1 X97.713 Y55.787 E0.48367
G1 X97.713 Y124.213 E2.14544
M73 P3 R29
G1 X82.347 Y124.213 E0.48179
M204 S1250
G1 X81.910 Y124.590 F9000.000
M204 S800
;TYPE:External perimeter
G1 F1200.000
G1 X81.910 Y55.410 E2.16909
G1 X98.090 Y55.410 E0.50731
G1 X98.090 Y124.590 E2.16909
G1 X81.970 Y124.590 E0.50543
M204 S1250
G1 X81.941 Y124.191 F9000.000
G1 E-2.24000 F4200.000
;WIPE_START
G1 F7200.000
G1 X81.969 Y122.944 E-0.91200
;WIPE_END
G1 E-0.04800 F4200.000
G1 Z0.400 F9000.000
G1 X96.835 Y55.900
G1 Z0.200
G1 E3.20000 F2400.000
M204 S800
;TYPE:Solid infill
;WIDTH:0.421288
G1 F1200.000
G1 X97.430 Y56.496 E0.02649
G1 X97.430 Y57.031 E0.01683
G1 X96.469 Y56.070 E0.04275
G1 X95.934 Y56.070 E0.01683
G1 X97.430 Y57.566 E0.06655
G1 X97.430 Y58.101 E0.01683
G1 X95.399 Y56.070 E0.09036
G1 X94.864 Y56.070 E0.01683
G1 X97.430 Y58.636 E0.11417
G1 X97.430 Y59.171 E0.01683
G1 X94.329 Y56.070 E0.13798
G1 X93.794 Y56.070 E0.01683
G1 X97.430 Y59.706 E0.16179
M73 P3 R28
G1 X97.430 Y60.241 E0.01683
G1 X93.259 Y56.070 E0.18559
G1 X92.724 Y56.070 E0.01683
G1 X97.430 Y60.776 E0.20940
G1 X97.430 Y61.311 E0.01683
G1 X94.163 Y58.044 E0.14536
G1 X94.163 Y57.681 E0.01141
G1 X93.800 Y57.681 E0.01141
G1 X92.189 Y56.070 E0.07171
G1 X91.654 Y56.070 E0.01683
G1 X93.265 Y57.681 E0.07171
G1 X92.730 Y57.681 E0.01683
G1 X91.118 Y56.070 E0.07171
G1 X90.583 Y56.070 E0.01683
G1 X92.195 Y57.681 E0.07171
G1 X91.660 Y57.681 E0.01683
G1 X90.048 Y56.070 E0.07171
G1 X89.513 Y56.070 E0.01683
G1 X91.125 Y57.681 E0.07171
G1 X90.590 Y57.681 E0.01683
G1 X88.978 Y56.070 E0.07171
G1 X88.443 Y56.070 E0.01683
G1 X90.055 Y57.681 E0.07171
G1 X89.520 Y57.681 E0.01683
G1 X87.908 Y56.070 E0.07171
G1 X87.373 Y56.070 E0.01683
G1 X88.984 Y57.681 E0.07171
G1 X88.449 Y57.681 E0.01683
G1 X86.838 Y56.070 E0.07171
G1 X86.303 Y56.070 E0.01683
G1 X87.914 Y57.681 E0.07171
G1 X87.379 Y57.681 E0.01683
G1 X85.768 Y56.070 E0.07171
G1 X85.232 Y56.070 E0.01683
G1 X86.844 Y57.681 E0.07171
G1 X86.309 Y57.681 E0.01683
G1 X84.697 Y56.070 E0.07171
G1 X84.162 Y56.070 E0.01683
G1 X85.823 Y57.731 E0.07391
G1 X85.823 Y58.266 E0.01683
G1 X83.627 Y56.070 E0.09771
G1 X83.092 Y56.070 E0.01683
G1 X85.823 Y58.801 E0.12152
M73 P4 R28
G1 X85.823 Y59.336 E0.01683
G1 X82.570 Y56.083 E0.14476
G1 X82.570 Y56.618 E0.01683
G1 X85.823 Y59.871 E0.14476
G1 X85.823 Y60.406 E0.01683
G1 X82.570 Y57.153 E0.14476
G1 X82.570 Y57.688 E0.01683
G1 X85.823 Y60.942 E0.14476
G1 X85.823 Y61.477 E0.01683
G1 X82.570 Y58.223 E0.14476
G1 X82.570 Y58.758 E0.01683
G1 X85.823 Y62.012 E0.14476
G1 X85.823 Y62.547 E0.01683
G1 X82.570 Y59.293 E0.14476
G1 X82.570 Y59.828 E0.01683
G1 X85.823 Y63.082 E0.14476
G1 X85.823 Y63.617 E0.01683
G1 X82.570 Y60.364 E0.14476
G1 X82.570 Y60.899 E0.01683
G1 X85.823 Y64.152 E0.14476
G1 X85.823 Y64.687 E0.01683
G1 X82.570 Y61.434 E0.14476
G1 X82.570 Y61.969 E0.01683
G1 X85.993 Y65.392 E0.15231
M204 S1250
G1 E-2.24000 F4200.000
;WIPE_START
G1 F7200.000
G1 X84.829 Y64.228 E-0.91200
;WIPE_END
G1 E-0.04800 F4200.000
G1 Z0.400 F9000.000
G1 X93.993 Y58.410
G1 Z0.200
G1 E3.20000 F2400.000
M204 S800
G1 F1200.000
G1 X97.430 Y61.846 E0.15291
G1 X97.430 Y62.382 E0.01683
G1 X94.163 Y59.114 E0.14536
G1 X94.163 Y59.650 E0.01683
G1 X97.430 Y62.917 E0.14536
G1 X97.430 Y63.452 E0.01683
G1 X94.163 Y60.185 E0.14536
G1 X94.163 Y60.720 E0.01683
G1 X97.430 Y63.987 E0.14536
G1 X97.430 Y64.522 E0.01683
G1 X94.163 Y61.255 E0.14536
G1 X94.163 Y61.790 E0.01683
G1 X97.430 Y65.057 E0.14536
G1 X97.430 Y65.592 E0.01683
G1 X94.163 Y62.325 E0.14536
G1 X94.163 Y62.860 E0.01683
G1 X97.430 Y66.127 E0.14536
G1 X97.430 Y66.662 E0.01683
G1 X94.163 Y63.395 E0.14536
G1 X94.163 Y63.930 E0.01683
G1 X97.430 Y67.197 E0.14536
G1 X97.430 Y67.732 E0.01683
G1 X94.163 Y64.465 E0.14536
G1 X94.163 Y65.001 E0.01683
G1 X97.430 Y68.268 E0.14536
G1 X97.430 Y68.803 E0.01683
G1 X94.163 Y65.536 E0.14536
G1 X94.163 Y66.021 E0.01528
G1 X94.114 Y66.021 E0.00156
G1 X97.430 Y69.338 E0.14756
G1 X97.430 Y69.873 E0.01683
G1 X93.579 Y66.021 E0.17137
G1 X93.043 Y66.021 E0.01683
G1 X97.430 Y70.408 E0.19518
G1 X97.430 Y70.943 E0.01683
G1 X92.508 Y66.021 E0.21899
G1 X91.973 Y66.021 E0.01683
G1 X97.430 Y71.478 E0.24279
G1 X97.430 Y72.013 E0.01683
G1 X91.438 Y66.021 E0.26660
G1 X90.903 Y66.021 E0.01683
G1 X97.430 Y72.548 E0.29041
G1 X97.430 Y73.083 E0.01683
G1 X90.368 Y66.021 E0.31422
G1 X89.833 Y66.021 E0.01683
G1 X97.430 Y73.618 E0.33803
G1 X97.430 Y74.154 E0.01683
G1 X94.163 Y70.887 E0.14536
G1 X94.163 Y70.481 E0.01274
G1 X93.758 Y70.481 E0.01274
G1 X89.298 Y66.021 E0.19845
G1 X88.763 Y66.021 E0.01683
G1 X93.223 Y70.481 E0.19845
G1 X92.688 Y70.481 E0.01683
G1 X88.228 Y66.021 E0.19845
G1 X87.693 Y66.021 E0.01683
G1 X92.153 Y70.481 E0.19845
G1 X91.618 Y70.481 E0.01683
G1 X87.157 Y66.021 E0.19845
G1 X86.622 Y66.021 E0.01683
G1 X91.083 Y70.481 E0.19845
G1 X90.547 Y70.481 E0.01683
G1 X82.570 Y62.504 E0.35495
G1 X82.570 Y63.039 E0.01683
G1 X90.012 Y70.481 E0.33114
G1 X89.477 Y70.481 E0.01683
G1 X82.570 Y63.574 E0.30733
G1 X82.570 Y64.109 E0.01683
G1 X88.942 Y70.481 E0.28352
G1 X88.407 Y70.481 E0.01683
G1 X82.570 Y64.644 E0.25972
G1 X82.570 Y65.179 E0.01683
G1 X87.872 Y70.481 E0.23591
G1 X87.337 Y70.481 E0.01683
G1 X82.570 Y65.714 E0.21210
G1 X82.570 Y66.250 E0.01683
G1 X86.802 Y70.481 E0.18829
G1 X86.267 Y70.481 E0.01683
G1 X82.570 Y66.785 E0.16448
M73 P5 R28
G1 X82.570 Y67.320 E0.01683
G1 X85.823 Y70.573 E0.14476
G1 X85.823 Y71.108 E0.01683
G1 X82.570 Y67.855 E0.14476
G1 X82.570 Y68.390 E0.01683
G1 X85.823 Y71.643 E0.14476
G1 X85.823 Y72.178 E0.01683
G1 X82.570 Y68.925 E0.14476
G1 X82.570 Y69.460 E0.01683
G1 X85.823 Y72.714 E0.14476
G1 X85.823 Y73.249 E0.01683
G1 X82.570 Y69.995 E0.14476
G1 X82.570 Y70.530 E0.01683
G1 X85.823 Y73.784 E0.14476
G1 X85.823 Y74.319 E0.01683
G1 X82.570 Y71.065 E0.14476
G1 X82.570 Y71.600 E0.01683
G1 X85.823 Y74.854 E0.14476
G1 X85.823 Y75.389 E0.01683
G1 X82.570 Y72.136 E0.14476
G1 X82.570 Y72.671 E0.01683
G1 X85.823 Y75.924 E0.14476
G1 X85.823 Y76.459 E0.01683
G1 X82.570 Y73.206 E0.14476
G1 X82.570 Y73.741 E0.01683
G1 X85.823 Y76.994 E0.14476
G1 X85.823 Y77.529 E0.01683
G1 X82.570 Y74.276 E0.14476
G1 X82.570 Y74.811 E0.01683
G1 X85.993 Y78.234 E0.15231
M204 S1250
G1 E-2.24000 F4200.000
;WIPE_START
G1 F7200.000
G1 X84.829 Y77.070 E-0.91200
;WIPE_END
G1 E-0.04800 F4200.000
G1 Z0.400 F9000.000
G1 X97.600 Y74.858
G1 Z0.200
G1 E3.20000 F2400.000
M204 S800
G1 F1200.000
G1 X94.163 Y71.422 E0.15291
G1 X94.163 Y71.957 E0.01683
G1 X97.430 Y75.224 E0.14536
G1 X97.430 Y75.759 E0.01683
G1 X94.163 Y72.492 E0.14536
G1 X94.163 Y73.027 E0.01683
G1 X97.430 Y76.294 E0.14536
G1 X97.430 Y76.829 E0.01683
G1 X94.163 Y73.562 E0.14536
G1 X94.163 Y74.097 E0.01683
G1 X97.430 Y77.364 E0.14536
G1 X97.430 Y77.899 E0.01683
G1 X94.163 Y74.632 E0.14536
G1 X94.163 Y75.167 E0.01683
G1 X97.430 Y78.434 E0.14536
G1 X97.430 Y78.969 E0.01683
G1 X94.163 Y75.702 E0.14536
G1 X94.163 Y76.237 E0.01683
G1 X97.430 Y79.505 E0.14536
G1 X97.430 Y80.040 E0.01683
G1 X94.163 Y76.773 E0.14536
G1 X94.163 Y77.308 E0.01683
G1 X97.430 Y80.575 E0.14536
G1 X97.430 Y81.110 E0.01683
G1 X94.163 Y77.843 E0.14536
G1 X94.163 Y78.378 E0.01683
G1 X97.430 Y81.645 E0.14536
G1 X97.430 Y82.180 E0.01683
G1 X94.071 Y78.821 E0.14944
G1 X93.536 Y78.821 E0.01683
G1 X97.430 Y82.715 E0.17325
G1 X97.430 Y83.250 E0.01683
G1 X93.001 Y78.821 E0.19706
G1 X92.466 Y78.821 E0.01683
G1 X97.430 Y83.785 E0.22086
G1 X97.430 Y84.320 E0.01683
G1 X94.163 Y81.053 E0.14536
G1 X94.163 Y81.588 E0.01683
G1 X97.430 Y84.855 E0.14536
G1 X97.430 Y85.391 E0.01683
G1 X94.163 Y82.123 E0.14536
G1 X94.163 Y82.659 E0.01683
G1 X97.430 Y85.926 E0.14536
G1 X97.430 Y86.461 E0.01683
G1 X94.163 Y83.194 E0.14536
G1 X94.163 Y83.729 E0.01683
G1 X97.430 Y86.996 E0.14536
G1 X97.430 Y87.531 E0.01683
G1 X94.163 Y84.264 E0.14536
G1 X94.163 Y84.799 E0.01683
G1 X97.430 Y88.066 E0.14536
G1 X97.430 Y88.601 E0.01683
G1 X94.163 Y85.334 E0.14536
G1 X94.163 Y85.869 E0.01683
G1 X97.430 Y89.136 E0.14536
G1 X97.430 Y89.671 E0.01683
G1 X94.163 Y86.404 E0.14536
G1 X94.163 Y86.939 E0.01683
G1 X97.430 Y90.206 E0.14536
G1 X97.430 Y90.741 E0.01683
G1 X94.163 Y87.474 E0.14536
G1 X94.163 Y88.010 E0.01683
G1 X97.430 Y91.277 E0.14536
G1 X97.430 Y91.812 E0.01683
G1 X94.163 Y88.545 E0.14536
G1 X94.163 Y88.821 E0.00870
G1 X93.905 Y88.821 E0.00813
G1 X97.430 Y92.347 E0.15686
G1 X97.430 Y92.882 E0.01683
G1 X93.370 Y88.821 E0.18067
G1 X92.834 Y88.821 E0.01683
G1 X97.430 Y93.417 E0.20448
G1 X97.430 Y93.952 E0.01683
G1 X92.299 Y88.821 E0.22828
G1 X91.764 Y88.821 E0.01683
G1 X93.424 Y90.481 E0.07387
G1 X92.889 Y90.481 E0.01683
G1 X91.229 Y88.821 E0.07387
G1 X90.694 Y88.821 E0.01683
G1 X92.354 Y90.481 E0.07387
G1 X91.819 Y90.481 E0.01683
G1 X90.159 Y88.821 E0.07387
G1 X89.624 Y88.821 E0.01683
G1 X91.284 Y90.481 E0.07387
G1 X90.749 Y90.481 E0.01683
G1 X89.089 Y88.821 E0.07387
G1 X88.554 Y88.821 E0.01683
G1 X90.214 Y90.481 E0.07387
G1 X89.679 Y90.481 E0.01683
G1 X88.019 Y88.821 E0.07387
G1 X87.483 Y88.821 E0.01683
G1 X89.144 Y90.481 E0.07387
G1 X88.609 Y90.481 E0.01683
G1 X86.948 Y88.821 E0.07387
G1 X86.413 Y88.821 E0.01683
G1 X88.243 Y90.651 E0.08142
M204 S1250
G1 E-2.24000 F4200.000
;WIPE_START
G1 F7200.000
G1 X87.080 Y89.487 E-0.91200
;WIPE_END
G1 E-0.04800 F4200.000
G1 Z0.400 F9000.000
G1 X93.993 Y91.050
G1 Z0.200
G1 E3.20000 F2400.000
M204 S800
G1 F1200.000
G1 X97.430 Y94.487 E0.15291
G1 X97.430 Y95.022 E0.01683
G1 X94.163 Y91.755 E0.14536
M73 P6 R28
G1 X94.163 Y92.290 E0.01683
G1 X97.430 Y95.557 E0.14536
G1 X97.430 Y96.092 E0.01683
G1 X94.163 Y92.825 E0.14536
G1 X94.163 Y93.360 E0.01683
G1 X97.430 Y96.627 E0.14536
G1 X97.430 Y97.163 E0.01683
G1 X94.163 Y93.896 E0.14536
G1 X94.163 Y94.431 E0.01683
G1 X97.430 Y97.698 E0.14536
G1 X97.430 Y98.233 E0.01683
G1 X94.163 Y94.966 E0.14536
G1 X94.163 Y95.501 E0.01683
G1 X97.430 Y98.768 E0.14536
G1 X97.430 Y99.303 E0.01683
G1 X94.163 Y96.036 E0.14536
G1 X94.163 Y96.571 E0.01683
G1 X97.430 Y99.838 E0.14536
G1 X97.430 Y100.373 E0.01683
G1 X94.163 Y97.106 E0.14536
