; generated by PrusaSlicer 2.3.0+win64 on 2021-06-09 at 07:43:50 UTC


;
;

;
;
; 

; external perimeters extrusion width = 0.45mm
; perimeters extrusion width = 0.45mm
; infill extrusion width = 0.45mm
; solid infill extrusion width = 0.45mm
; top infill extrusion width = 0.40mm
; first layer extrusion width = 0.42mm

M73 P0 R33
M201 X1250 Y1250 Z400 E5000 ; sets maximum accelerations, mm/sec^2
M203 X180 Y180 Z12 E80 ; sets maximum feedrates, mm/sec
M204 P1250 R1250 T1250 ; sets acceleration (P, T) and retract acceleration (R), mm/sec^2
M205 X8.00 Y8.00 Z2.00 E10.00 ; sets the jerk limits, mm/sec
M205 S0 T0 ; sets the minimum extruding and travel feed rate, mm/sec
M107
;TYPE:Custom
G90 ; use absolute coordinates
M83 ; extruder relative mode
M104 S170 ; set extruder temp for bed leveling
M140 S60 ; set bed temp
M109 R170 ; wait for bed leveling temp
M190 S60 ; wait for bed temp
G28 ; home all without mesh bed level
G29 ; mesh bed leveling 
M104 S215 ; set extruder temp
G92 E0.0
G1 Y-2.0 X179 F2400
G1 Z3 F720
M109 S215 ; wait for extruder temp

; intro line
G1 X170 F1000
G1 Z0.2 F720
G1 X110.0 E8.0 F900
G1 X40.0 E10.0 F700
G92 E0.0

M221 S95 ; set flow
G21 ; set units to millimeters
G90 ; use absolute coordinates
M83 ; use relative distances for extrusion
M900 K0.2 ; Filament gcode LA 1.5
; ; Filament gcode LA 1.0
;LAYER_CHANGE
;Z:0.2
;HEIGHT:0.2
;BEFORE_LAYER_CHANGE
G92 E0.0
;0.2


G1 E-3.20000 F4200.000
G1 Z0.200 F9000.000
;AFTER_LAYER_CHANGE
;0.2
G1 Z0.400
G1 X79.453 Y51.791
G1 Z0.200
G1 E3.20000 F2400.000
M204 S800
;TYPE:Skirt
;WIDTH:0.42
G1 F1200.000
G1 X79.927 Y51.218 E0.02331
G1 X80.555 Y50.819 E0.02331
G1 X81.275 Y50.634 E0.02331
G1 X98.504 Y50.623 E0.54021
G1 X99.395 Y50.798 E0.02849
G1 X100.156 Y51.295 E0.02849
G1 X100.675 Y52.041 E0.02849
G1 X100.876 Y52.927 E0.02849
G1 X100.877 Y127.000 E2.32252
M73 P1 R32
G1 X100.820 Y127.518 E0.01633
G1 X100.545 Y128.212 E0.02343
G1 X100.067 Y128.787 E0.02343
G1 X99.438 Y129.184 E0.02331
G1 X98.714 Y129.367 E0.02343
G1 X81.492 Y129.377 E0.53997
G1 X80.982 Y129.320 E0.01609
G1 X80.252 Y129.023 E0.02473
G1 X79.661 Y128.506 E0.02461
G1 X79.271 Y127.825 E0.02461
G1 X79.124 Y127.054 E0.02461
G1 X79.123 Y53.000 E2.32192
G1 X79.180 Y52.482 E0.01633
G1 X79.431 Y51.847 E0.02143
M204 S1250
; printing object ButtonCover02.stl id:0 copy 0
G1 E-2.24000 F4200.000
;WIPE_START
G1 F7200.000
G1 X79.927 Y51.218 E-0.44377
G1 X80.555 Y50.819 E-0.41202
G1 X80.653 Y50.794 E-0.05621
;WIPE_END
G1 E-0.04800 F4200.000
G1 Z0.400 F9000.000
G1 X82.767 Y55.549
G1 Z0.200
G1 E3.20000 F2400.000
M204 S800
;TYPE:Perimeter
G1 F1200.000
G1 X82.878 Y55.244 E0.01017
G1 X83.034 Y54.974 E0.00978
G1 X83.235 Y54.735 E0.00978
G1 X83.474 Y54.534 E0.00978
G1 X83.744 Y54.378 E0.00978
G1 X84.049 Y54.267 E0.01017
G1 X84.457 Y54.213 E0.01291
G1 X95.642 Y54.217 E0.35072
G1 X95.950 Y54.271 E0.00978
G1 X96.243 Y54.378 E0.00978
G1 X96.512 Y54.534 E0.00974
G1 X96.746 Y54.728 E0.00955
G1 X97.030 Y55.091 E0.01443
G1 X97.168 Y55.388 E0.01027
G1 X97.249 Y55.689 E0.00977
G1 X97.273 Y55.970 E0.00884
G1 X97.273 Y124.030 E2.13399
G1 X97.249 Y124.311 E0.00884
G1 X97.168 Y124.612 E0.00977
G1 X97.036 Y124.895 E0.00978
G1 X96.857 Y125.150 E0.00978
G1 X96.637 Y125.371 E0.00978
G1 X96.381 Y125.550 E0.00978
G1 X96.098 Y125.682 E0.00978
G1 X95.797 Y125.762 E0.00977
G1 X95.517 Y125.787 E0.00884
G1 X84.344 Y125.783 E0.35031
G1 X84.037 Y125.729 E0.00978
G1 X83.744 Y125.622 E0.00978
G1 X83.475 Y125.466 E0.00974
G1 X83.240 Y125.272 E0.00955
G1 X82.957 Y124.909 E0.01443
G1 X82.818 Y124.612 E0.01027
G1 X82.738 Y124.311 E0.00977
G1 X82.713 Y124.030 E0.00884
G1 X82.713 Y55.957 E2.13440
G1 X82.759 Y55.608 E0.01103
M204 S1250
G1 X83.133 Y55.658 F9000.000
M204 S800
;TYPE:External perimeter
G1 F1200.000
G1 X83.221 Y55.404 E0.00843
G1 X83.344 Y55.191 E0.00771
G1 X83.502 Y55.002 E0.00771
G1 X83.691 Y54.844 E0.00771
G1 X83.904 Y54.721 E0.00771
G1 X84.139 Y54.636 E0.00785
G1 X84.482 Y54.590 E0.01084
G1 X95.609 Y54.594 E0.34890
G1 X95.852 Y54.637 E0.00771
G1 X96.083 Y54.721 E0.00771
G1 X96.295 Y54.844 E0.00770
G1 X96.474 Y54.992 E0.00728
G1 X96.706 Y55.289 E0.01182
G1 X96.812 Y55.517 E0.00789
G1 X96.876 Y55.755 E0.00771
G1 X96.896 Y55.986 E0.00729
G1 X96.896 Y124.014 E2.13295
G1 X96.876 Y124.245 E0.00729
G1 X96.812 Y124.483 E0.00771
G1 X96.708 Y124.705 E0.00771
G1 X96.567 Y124.907 E0.00771
G1 X96.393 Y125.081 E0.00771
G1 X96.192 Y125.222 E0.00771
G1 X95.969 Y125.326 E0.00771
G1 X95.732 Y125.390 E0.00771
G1 X95.500 Y125.410 E0.00729
M73 P2 R32
G1 X84.377 Y125.406 E0.34875
G1 X84.135 Y125.363 E0.00771
G1 X83.904 Y125.279 E0.00771
G1 X83.691 Y125.156 E0.00770
G1 X83.513 Y125.007 E0.00728
G1 X83.280 Y124.711 E0.01182
G1 X83.174 Y124.483 E0.00789
G1 X83.110 Y124.245 E0.00771
G1 X83.090 Y124.014 E0.00729
G1 X83.090 Y55.982 E2.13309
G1 X83.125 Y55.717 E0.00836
M204 S1250
G1 X82.936 Y55.475 F9000.000
G1 E-2.24000 F4200.000
;WIPE_START
G1 F7200.000
G1 X83.221 Y55.404 E-0.18176
G1 X83.344 Y55.191 E-0.13630
G1 X83.502 Y55.002 E-0.13630
G1 X83.691 Y54.844 E-0.13630
G1 X83.904 Y54.721 E-0.13630
G1 X84.139 Y54.636 E-0.13879
G1 X84.222 Y54.625 E-0.04626
;WIPE_END
G1 E-0.04800 F4200.000
G1 Z0.400 F9000.000
G1 X82.287 Y53.787
G1 Z0.200
G1 E3.20000 F2400.000
M204 S800
;TYPE:Perimeter
G1 F1200.000
G1 X97.713 Y53.787 E0.48367
G1 X97.713 Y126.213 E2.27086
G1 X82.287 Y126.213 E0.48367
G1 X82.287 Y53.847 E2.26898
M204 S1250
G1 X81.910 Y53.410 F9000.000
M204 S800
;TYPE:External perimeter
G1 F1200.000
G1 X98.090 Y53.410 E0.50731
G1 X98.090 Y126.590 E2.29451
G1 X81.910 Y126.590 E0.50731
G1 X81.910 Y53.470 E2.29263
M204 S1250
M73 P3 R32
G1 X82.270 Y53.584 F9000.000
G1 X82.675 Y53.900
M204 S800
;TYPE:Solid infill
;WIDTH:0.449913
G1 F1200.000
G1 X83.183 Y54.409 E0.02433
G1 X83.034 Y54.534 E0.00659
G1 X82.897 Y54.698 E0.00723
G1 X82.400 Y54.201 E0.02376
M204 S1250
G1 X82.728 Y55.081 F9000.000
M204 S800
;TYPE:Gap fill
;WIDTH:0.103264
G1 F1200.000
G1 X82.551 Y55.373 E0.00171
G1 X82.499 Y55.955 E0.00293
M204 S1250
G1 E-2.24000 F4200.000
;WIPE_START
G1 F7200.000
G1 X82.551 Y55.373 E-0.32396
G1 X82.728 Y55.081 E-0.18919
;WIPE_END
G1 E-0.44685 F4200.000
G1 Z0.400 F9000.000
G1 X83.581 Y54.228
G1 Z0.200
G1 E3.20000 F2400.000
M204 S800
;WIDTH:0.104664
G1 F1200.000
G1 X83.653 Y54.178 E0.00045
M204 S1250
M204 S800
;WIDTH:0.122035
G1 X83.873 Y54.051 E0.00167
G1 X84.456 Y53.999 E0.00385
M204 S1250
G1 E-2.24000 F4200.000
;WIPE_START
G1 F7200.000
G1 X83.873 Y54.051 E-0.32397
G1 X83.653 Y54.178 E-0.14078
;WIPE_END
G1 E-0.49526 F4200.000
G1 Z0.400 F9000.000
G1 X88.609 Y54.001
G1 Z0.200
G1 E3.20000 F2400.000
M204 S800
;WIDTH:0.10162
G1 F1200.000
G1 X95.659 Y54.002 E0.03441
G1 X96.109 Y54.050 E0.00221
G1 X96.398 Y54.223 E0.00164
M204 S1250
G1 X96.791 Y53.900 F9000.000
M204 S800
;TYPE:Solid infill
;WIDTH:0.441771
G1 F1200.000
G1 X97.557 Y54.666 E0.03593
M204 S1250
G1 X97.348 Y54.818 F9000.000
M204 S800
;TYPE:Gap fill
;WIDTH:0.230232
G1 F1200.000
G1 X97.456 Y55.472 E0.01032
M204 S1250
M204 S800
;WIDTH:0.179189
G1 X97.479 Y55.644 E0.00197
M204 S1250
M204 S800
;WIDTH:0.133826
G1 X97.493 Y55.959 E0.00238
M204 S1250
M204 S800
;WIDTH:0.105398
G1 X97.493 Y124.039 E0.35368
G1 X97.456 Y124.528 E0.00255
M204 S1250
M204 S800
;WIDTH:0.224551
G1 X97.432 Y124.711 E0.00279
G1 X97.362 Y124.811 E0.00184
M204 S1250
M204 S800
;WIDTH:0.185757
G1 X97.295 Y124.907 E0.00139
M204 S1250
M204 S800
;WIDTH:0.145211
G1 X97.228 Y125.002 E0.00099
M204 S1250
M204 S800
;WIDTH:0.104665
G1 X97.172 Y125.070 E0.00045
M204 S1250
G1 X96.860 Y125.307 F9000.000
M204 S800
;TYPE:Solid infill
;WIDTH:0.495415
G1 F1200.000
G1 X97.430 Y125.877 E0.03033
G1 X97.430 Y125.930 E0.00198
G1 X96.843 Y125.930 E0.02209
G1 X96.698 Y125.785 E0.00770
M204 S1250
G1 X96.556 Y125.686 F9000.000
M204 S800
;TYPE:Gap fill
;WIDTH:0.103263
G1 F1200.000
G1 X96.305 Y125.871 E0.00157
M204 S1250
M204 S800
;WIDTH:0.221724
G1 X96.185 Y125.940 E0.00206
M204 S1250
M204 S800
;WIDTH:0.210722
G1 X96.013 Y125.963 E0.00242
M204 S1250
M204 S800
;WIDTH:0.16536
G1 X95.840 Y125.986 E0.00177
M204 S1250
M204 S800
;WIDTH:0.119998
G1 X95.519 Y126.000 E0.00206
M204 S1250
G1 E-2.24000 F4200.000
;WIPE_START
G1 F7200.000
G1 X95.840 Y125.986 E-0.17799
;WIPE_END
G1 E-0.78201 F4200.000
G1 Z0.400 F9000.000
G1 X91.365 Y125.999
G1 Z0.200
G1 E3.20000 F2400.000
M204 S800
;WIDTH:0.0960884
G1 F1200.000
G1 X84.327 Y125.998 E0.03111
G1 X83.968 Y125.966 E0.00160
M204 S1250
M204 S800
;WIDTH:0.191504
G1 X83.877 Y125.950 E0.00114
G1 X83.765 Y125.886 E0.00159
M204 S1250
M204 S800
;WIDTH:0.147229
G1 X83.653 Y125.822 E0.00112
M204 S1250
M204 S800
;WIDTH:0.10295
G1 X83.588 Y125.777 E0.00039
M204 S1250
G1 X82.648 Y125.200 F9000.000
M204 S800
;WIDTH:0.215974
G1 F1200.000
G1 X82.537 Y124.526 E0.00983
M204 S1250
M204 S800
;WIDTH:0.165363
G1 X82.514 Y124.354 E0.00177
M204 S1250
M204 S800
;WIDTH:0.120002
G1 X82.500 Y124.033 E0.00206
M204 S1250
G1 X82.452 Y125.350 F9000.000
M204 S800
;TYPE:Solid infill
;WIDTH:0.438572
G1 F1200.000
G1 X83.202 Y126.100 E0.03488
M204 S1250
G1 E-2.24000 F4200.000
;WIPE_START
G1 F7200.000
G1 X82.452 Y125.350 E-0.58762
;WIPE_END
G1 E-0.37238 F4200.000
G1 Z0.400 F9000.000
G1 X97.524 Y55.035
G1 Z0.200
G1 E3.20000 F2400.000
M204 S800
;TYPE:Gap fill
;WIDTH:0.247821
G1 F1200.000
G1 X97.131 Y54.893 E0.00713
M204 S1250
G1 E-2.24000 F4200.000
;WIPE_START
G1 F7200.000
G1 X97.524 Y55.035 E-0.23197
;WIPE_END
G1 E-0.72803 F4200.000
G1 Z0.400 F9000.000
G1 X89.404 Y115.413
G1 Z0.200
G1 E3.20000 F2400.000
M204 S800
;TYPE:Perimeter
;WIDTH:0.42
G1 F1200.000
G1 X89.967 Y115.352 E0.01774
G1 X90.252 Y115.364 E0.00897
G1 X90.595 Y115.416 E0.01086
G1 X91.074 Y115.567 E0.01575
G1 X91.526 Y115.807 E0.01603
G1 X91.926 Y116.125 E0.01603
G1 X92.262 Y116.511 E0.01603
G1 X92.518 Y116.943 E0.01575
G1 X92.648 Y117.268 E0.01097
G1 X92.738 Y117.606 E0.01097
G1 X92.791 Y118.106 E0.01575
G1 X92.753 Y118.607 E0.01575
G1 X92.674 Y118.948 E0.01098
G1 X92.553 Y119.277 E0.01097
G1 X92.311 Y119.717 E0.01575
G1 X91.987 Y120.112 E0.01603
G1 X91.603 Y120.436 E0.01575
G1 X91.305 Y120.619 E0.01096
G1 X91.001 Y120.758 E0.01047
G1 X90.504 Y120.900 E0.01623
G1 X89.993 Y120.947 E0.01607
G1 X89.484 Y120.900 E0.01603
G1 X88.992 Y120.762 E0.01603
G1 X88.541 Y120.540 E0.01575
G1 X88.254 Y120.339 E0.01097
G1 X87.994 Y120.105 E0.01097
G1 X87.675 Y119.717 E0.01575
G1 X87.433 Y119.277 E0.01575
G1 X87.313 Y118.948 E0.01097
G1 X87.233 Y118.607 E0.01098
G1 X87.195 Y118.106 E0.01575
G1 X87.249 Y117.606 E0.01575
G1 X87.338 Y117.269 E0.01096
G1 X87.462 Y116.958 E0.01047
G1 X87.723 Y116.512 E0.01623
G1 X88.060 Y116.125 E0.01607
G1 X88.461 Y115.807 E0.01603
G1 X88.912 Y115.567 E0.01603
G1 X89.347 Y115.431 E0.01428
M204 S1250
G1 X89.460 Y115.790 F9000.000
M204 S800
;TYPE:External perimeter
G1 F1200.000
G1 X89.979 Y115.729 E0.01638
G1 X90.216 Y115.740 E0.00743
G1 X90.509 Y115.785 E0.00931
G1 X90.928 Y115.917 E0.01376
G1 X91.318 Y116.124 E0.01387
G1 X91.665 Y116.399 E0.01386
G1 X91.955 Y116.732 E0.01386
G1 X92.178 Y117.110 E0.01376
G1 X92.289 Y117.387 E0.00935
G1 X92.366 Y117.675 E0.00935
G1 X92.413 Y118.112 E0.01376
G1 X92.379 Y118.549 E0.01376
G1 X92.312 Y118.840 E0.00935
G1 X92.209 Y119.120 E0.00935
G1 X91.997 Y119.504 E0.01376
G1 X91.717 Y119.847 E0.01387
G1 X91.382 Y120.130 E0.01376
G1 X91.128 Y120.285 E0.00934
G1 X90.870 Y120.403 E0.00887
G1 X90.434 Y120.528 E0.01423
G1 X89.993 Y120.568 E0.01388
G1 X89.553 Y120.528 E0.01387
G1 X89.127 Y120.408 E0.01387
G1 X88.733 Y120.214 E0.01376
G1 X88.489 Y120.043 E0.00935
G1 X88.267 Y119.844 E0.00935
G1 X87.989 Y119.504 E0.01376
G1 X87.777 Y119.120 E0.01376
G1 X87.675 Y118.840 E0.00935
G1 X87.607 Y118.549 E0.00935
G1 X87.574 Y118.112 E0.01376
G1 X87.621 Y117.675 E0.01376
G1 X87.697 Y117.387 E0.00934
G1 X87.802 Y117.124 E0.00887
G1 X88.031 Y116.733 E0.01423
G1 X88.322 Y116.399 E0.01388
G1 X88.668 Y116.124 E0.01386
G1 X89.059 Y115.917 E0.01387
G1 X89.403 Y115.808 E0.01132
M204 S1250
G1 X89.583 Y115.410 F9000.000
G1 E-2.24000 F4200.000
;WIPE_START
G1 F7200.000
G1 X89.979 Y115.729 E-0.32219
G1 X90.216 Y115.740 E-0.13123
G1 X90.509 Y115.785 E-0.16450
G1 X90.928 Y115.917 E-0.24327
G1 X91.009 Y115.960 E-0.05081
;WIPE_END
G1 E-0.04800 F4200.000
G1 Z0.400 F9000.000
G1 X85.417 Y114.510
G1 Z0.200
G1 E3.20000 F2400.000
M204 S800
;TYPE:Perimeter
G1 F1200.000
G1 X85.555 Y114.486 E0.00440
G1 X94.479 Y114.489 E0.27980
G1 X94.572 Y114.514 E0.00304
G1 X94.630 Y114.555 E0.00222
G1 X94.671 Y114.613 E0.00222
G1 X94.696 Y114.706 E0.00304
G1 X94.699 Y122.945 E0.25832
G1 X94.673 Y123.095 E0.00477
G1 X94.622 Y123.162 E0.00264
G1 X94.570 Y123.189 E0.00185
G1 X94.431 Y123.213 E0.00440
G1 X85.555 Y123.213 E0.27831
G1 X85.405 Y123.187 E0.00477
G1 X85.338 Y123.136 E0.00264
G1 X85.311 Y123.083 E0.00185
G1 X85.287 Y122.945 E0.00440
G1 X85.287 Y114.754 E0.25683
G1 X85.311 Y114.615 E0.00440
G1 X85.364 Y114.539 E0.00293
M204 S1250
G1 X85.159 Y114.219 F9000.000
M204 S800
;TYPE:External perimeter
G1 F1200.000
G1 X85.295 Y114.148 E0.00481
G1 X85.522 Y114.109 E0.00725
G1 X94.528 Y114.112 E0.28238
G1 X94.734 Y114.167 E0.00668
G1 X94.901 Y114.284 E0.00639
G1 X95.018 Y114.451 E0.00639
G1 X95.073 Y114.657 E0.00668
G1 X95.076 Y122.978 E0.26090
G1 X95.036 Y123.210 E0.00740
G1 X94.899 Y123.419 E0.00784
G1 X94.828 Y123.480 E0.00293
G1 X94.692 Y123.550 E0.00481
G1 X94.464 Y123.590 E0.00726
G1 X85.523 Y123.590 E0.28035
G1 X85.290 Y123.549 E0.00740
G1 X85.081 Y123.413 E0.00784
G1 X85.020 Y123.341 E0.00293
G1 X84.950 Y123.205 E0.00480
G1 X84.910 Y122.977 E0.00726
G1 X84.910 Y114.721 E0.25887
G1 X84.950 Y114.493 E0.00726
G1 X85.020 Y114.357 E0.00481
G1 X85.113 Y114.258 E0.00425
M204 S1250
G1 X85.299 Y114.282 F9000.000
G1 E-2.24000 F4200.000
;WIPE_START
G1 F7200.000
G1 X85.295 Y114.148 E-0.11761
G1 X85.522 Y114.109 E-0.12822
G1 X86.725 Y114.109 E-0.66617
;WIPE_END
G1 E-0.04800 F4200.000
G1 Z0.400 F9000.000
G1 X89.344 Y114.997
G1 Z0.200
G1 E3.20000 F2400.000
M204 S800
;TYPE:Solid infill
;WIDTH:0.421002
G1 F1200.000
G1 X89.117 Y114.770 E0.01012
G1 X88.582 Y114.770 E0.01682
G1 X89.042 Y115.230 E0.02047
G1 X88.803 Y115.305 E0.00790
G1 X88.659 Y115.382 E0.00511
G1 X88.047 Y114.769 E0.02722
G1 X87.512 Y114.769 E0.01682
G1 X88.310 Y115.567 E0.03547
G1 X88.011 Y115.803 E0.01197
G1 X86.977 Y114.769 E0.04597
G1 X86.443 Y114.769 E0.01682
G1 X87.738 Y116.064 E0.05760
G1 X87.490 Y116.351 E0.01192
G1 X85.908 Y114.769 E0.07035
G1 X85.571 Y114.770 E0.01057
G1 X85.570 Y114.966 E0.00615
G1 X87.292 Y116.688 E0.07659
G1 X87.207 Y116.834 E0.00531
G1 X87.121 Y117.051 E0.00735
G1 X85.570 Y115.500 E0.06895
G1 X85.570 Y116.035 E0.01681
G1 X86.995 Y117.460 E0.06336
G1 X86.930 Y117.929 E0.01490
G1 X85.570 Y116.570 E0.06046
G1 X85.570 Y117.104 E0.01681
G1 X87.131 Y118.665 E0.06940
M204 S1250
G1 E-2.24000 F4200.000
;WIPE_START
G1 F7200.000
G1 X85.967 Y117.502 E-0.91200
;WIPE_END
G1 E-0.04800 F4200.000
G1 Z0.400 F9000.000
G1 X93.761 Y114.602
G1 Z0.200
G1 E3.20000 F2400.000
M204 S800
G1 F1200.000
G1 X94.414 Y115.254 E0.02901
G1 X94.414 Y115.789 E0.01682
G1 X93.396 Y114.771 E0.04525
G1 X92.861 Y114.771 E0.01682
G1 X94.414 Y116.324 E0.06904
G1 X94.414 Y116.859 E0.01682
G1 X92.326 Y114.771 E0.09283
G1 X91.791 Y114.771 E0.01682
G1 X94.414 Y117.394 E0.11662
G1 X94.415 Y117.929 E0.01682
G1 X91.256 Y114.771 E0.14041
M73 P4 R31
G1 X90.848 Y114.770 E0.01284
G1 X91.096 Y115.090 E0.01273
G1 X91.065 Y115.114 E0.00121
G1 X91.339 Y115.388 E0.01218
G1 X91.681 Y115.570 E0.01217
G1 X92.122 Y115.920 E0.01771
G1 X92.492 Y116.344 E0.01771
G1 X92.774 Y116.823 E0.01746
G1 X94.415 Y118.464 E0.07294
G1 X94.415 Y118.999 E0.01682
G1 X93.022 Y117.606 E0.06193
G1 X93.075 Y118.102 E0.01568
G1 X93.069 Y118.187 E0.00269
G1 X94.415 Y119.533 E0.05987
G1 X94.415 Y120.068 E0.01682
G1 X93.026 Y118.679 E0.06175
G1 X92.917 Y119.105 E0.01381
G1 X94.416 Y120.603 E0.06662
G1 X94.416 Y121.138 E0.01682
G1 X92.762 Y119.484 E0.07353
G1 X92.572 Y119.829 E0.01238
G1 X94.416 Y121.673 E0.08198
G1 X94.416 Y122.208 E0.01682
G1 X92.338 Y120.130 E0.09239
G1 X92.189 Y120.312 E0.00738
G1 X92.079 Y120.405 E0.00455
G1 X94.416 Y122.743 E0.10394
G1 X94.415 Y122.929 E0.00584
G1 X94.069 Y122.930 E0.01088
G1 X91.789 Y120.650 E0.10138
