; generated by PrusaSlicer 2.3.0+win64 on 2021-06-17 at 08:25:43 UTC


;
;

;
;
; 

; external perimeters extrusion width = 0.45mm
; perimeters extrusion width = 0.45mm
; infill extrusion width = 0.45mm
; solid infill extrusion width = 0.45mm
; top infill extrusion width = 0.40mm
; first layer extrusion width = 0.42mm

M73 P0 R27
M201 X1250 Y1250 Z400 E5000 ; sets maximum accelerations, mm/sec^2
M203 X180 Y180 Z12 E80 ; sets maximum feedrates, mm/sec
M204 P1250 R1250 T1250 ; sets acceleration (P, T) and retract acceleration (R), mm/sec^2
M205 X8.00 Y8.00 Z2.00 E10.00 ; sets the jerk limits, mm/sec
M205 S0 T0 ; sets the minimum extruding and travel feed rate, mm/sec
M107
;TYPE:Custom
G90 ; use absolute coordinates
M83 ; extruder relative mode
M104 S170 ; set extruder temp for bed leveling
M140 S60 ; set bed temp
M109 R170 ; wait for bed leveling temp
M190 S60 ; wait for bed temp
G28 ; home all without mesh bed level
G29 ; mesh bed leveling 
M104 S215 ; set extruder temp
G92 E0.0
G1 Y-2.0 X179 F2400
G1 Z3 F720
M109 S215 ; wait for extruder temp

; intro line
G1 X170 F1000
G1 Z0.2 F720
G1 X110.0 E8.0 F900
G1 X40.0 E10.0 F700
G92 E0.0

M221 S95 ; set flow
G21 ; set units to millimeters
G90 ; use absolute coordinates
M83 ; use relative distances for extrusion
M900 K0.2 ; Filament gcode LA 1.5
; ; Filament gcode LA 1.0
;LAYER_CHANGE
;Z:0.2
;HEIGHT:0.2
;BEFORE_LAYER_CHANGE
G92 E0.0
;0.2


G1 E-3.20000 F4200.000
G1 Z0.200 F9000.000
;AFTER_LAYER_CHANGE
;0.2
G1 Z0.400
G1 X83.729 Y51.111
G1 Z0.200
G1 E3.20000 F2400.000
M204 S800
;TYPE:Skirt
;WIDTH:0.42
G1 F1200.000
G1 X84.458 Y49.932 E0.04347
G1 X85.270 Y49.042 E0.03776
M73 P1 R27
G1 X86.384 Y48.204 E0.04371
G1 X87.460 Y47.672 E0.03764
G1 X88.616 Y47.332 E0.03780
G1 X89.998 Y47.193 E0.04354
G1 X91.420 Y47.339 E0.04481
G1 X92.752 Y47.759 E0.04379
G1 X93.848 Y48.350 E0.03904
G1 X94.931 Y49.234 E0.04386
G1 X95.817 Y50.318 E0.04386
G1 X96.408 Y51.410 E0.03893
G1 X96.830 Y52.746 E0.04394
G1 X96.977 Y54.163 E0.04468
G1 X96.952 Y126.418 E2.26548
G1 X96.702 Y127.767 E0.04303
G1 X96.271 Y128.889 E0.03769
G1 X95.538 Y130.074 E0.04368
G1 X94.730 Y130.958 E0.03755
G1 X93.616 Y131.796 E0.04371
G1 X92.540 Y132.328 E0.03764
G1 X91.384 Y132.668 E0.03780
G1 X90.006 Y132.807 E0.04342
G1 X88.580 Y132.661 E0.04493
G1 X87.248 Y132.241 E0.04379
G1 X86.158 Y131.654 E0.03883
G1 X85.069 Y130.766 E0.04407
G1 X84.166 Y129.657 E0.04481
G1 X83.520 Y128.416 E0.04387
G1 X83.165 Y127.230 E0.03882
G1 X83.023 Y125.830 E0.04412
G1 X83.048 Y53.582 E2.26528
G1 X83.299 Y52.228 E0.04317
G1 X83.708 Y51.167 E0.03567
M204 S1250
; printing object CableGuide02.stl id:0 copy 0
G1 E-2.24000 F4200.000
;WIPE_START
G1 F7200.000
G1 X84.458 Y49.932 E-0.80096
G1 X84.593 Y49.784 E-0.11104
;WIPE_END
G1 E-0.04800 F4200.000
G1 Z0.400 F9000.000
G1 X89.824 Y122.424
G1 Z0.200
G1 E3.20000 F2400.000
M204 S800
;TYPE:External perimeter
G1 F1200.000
G1 X90.176 Y122.424 E0.01101
G1 X90.525 Y122.460 E0.01101
G1 X90.869 Y122.532 E0.01101
G1 X91.206 Y122.640 E0.01109
G1 X91.677 Y122.861 E0.01634
G1 X91.976 Y123.050 E0.01109
G1 X92.251 Y123.268 E0.01101
G1 X92.503 Y123.513 E0.01101
G1 X92.728 Y123.783 E0.01101
G1 X92.924 Y124.074 E0.01101
G1 X93.089 Y124.384 E0.01101
G1 X93.221 Y124.710 E0.01101
G1 X93.319 Y125.047 E0.01101
G1 X93.382 Y125.392 E0.01101
G1 X93.409 Y125.742 E0.01101
G1 X93.400 Y126.093 E0.01101
G1 X93.355 Y126.441 E0.01101
G1 X93.274 Y126.783 E0.01101
G1 X93.158 Y127.117 E0.01109
G1 X92.925 Y127.583 E0.01634
G1 X92.728 Y127.877 E0.01109
G1 X92.503 Y128.147 E0.01101
G1 X92.251 Y128.392 E0.01101
G1 X91.974 Y128.611 E0.01109
G1 X91.527 Y128.879 E0.01634
G1 X91.203 Y129.021 E0.01109
G1 X90.869 Y129.128 E0.01101
G1 X90.525 Y129.200 E0.01101
G1 X90.176 Y129.236 E0.01101
G1 X89.824 Y129.236 E0.01101
G1 X89.475 Y129.200 E0.01101
G1 X89.131 Y129.128 E0.01101
G1 X88.797 Y129.021 E0.01101
G1 X88.475 Y128.881 E0.01101
G1 X88.170 Y128.708 E0.01101
G1 X87.884 Y128.504 E0.01101
G1 X87.620 Y128.272 E0.01101
G1 X87.381 Y128.015 E0.01101
G1 X87.171 Y127.734 E0.01101
G1 X86.990 Y127.433 E0.01101
G1 X86.841 Y127.115 E0.01101
G1 X86.726 Y126.783 E0.01101
G1 X86.644 Y126.439 E0.01109
G1 X86.591 Y125.921 E0.01634
G1 X86.600 Y125.567 E0.01109
G1 X86.645 Y125.219 E0.01101
G1 X86.726 Y124.877 E0.01101
G1 X86.841 Y124.545 E0.01101
G1 X86.990 Y124.227 E0.01101
G1 X87.172 Y123.924 E0.01109
G1 X87.495 Y123.515 E0.01634
G1 X87.749 Y123.268 E0.01109
G1 X88.026 Y123.049 E0.01109
G1 X88.473 Y122.781 E0.01634
G1 X88.797 Y122.639 E0.01109
G1 X89.131 Y122.532 E0.01101
G1 X89.475 Y122.460 E0.01101
G1 X89.765 Y122.430 E0.00913
M204 S1250
G1 X89.984 Y122.111 F9000.000
G1 E-2.24000 F4200.000
;WIPE_START
G1 F7200.000
G1 X90.176 Y122.424 E-0.22769
G1 X90.525 Y122.460 E-0.19457
G1 X90.869 Y122.532 E-0.19458
G1 X91.206 Y122.640 E-0.19609
G1 X91.368 Y122.715 E-0.09907
;WIPE_END
G1 E-0.04800 F4200.000
G1 Z0.400 F9000.000
G1 X93.355 Y124.081
G1 Z0.200
G1 E3.20000 F2400.000
M204 S800
;TYPE:Perimeter
G1 F1200.000
G1 X93.500 Y123.964 E0.00585
G1 X93.813 Y124.227 E0.01282
G1 X93.813 Y124.699 E0.01479
G1 X93.619 Y124.726 E0.00615
G1 X93.578 Y124.586 E0.00459
G1 X93.383 Y124.134 E0.01541
M204 S1250
G1 E-2.24000 F4200.000
;WIPE_START
G1 F7200.000
G1 X93.500 Y123.964 E-0.11447
G1 X93.813 Y124.227 E-0.22662
G1 X93.813 Y124.699 E-0.26136
G1 X93.619 Y124.726 E-0.10877
G1 X93.578 Y124.586 E-0.08121
G1 X93.492 Y124.387 E-0.11957
;WIPE_END
G1 E-0.04800 F4200.000
G1 Z0.400 F9000.000
G1 X91.141 Y122.223
G1 Z0.200
G1 E3.20000 F2400.000
M204 S800
G1 F1200.000
G1 X90.965 Y122.167 E0.00581
G1 X90.583 Y122.087 E0.01223
G1 X90.195 Y122.047 E0.01223
G1 X89.805 Y122.047 E0.01223
G1 X89.417 Y122.087 E0.01223
G1 X89.035 Y122.167 E0.01223
G1 X88.664 Y122.286 E0.01223
G1 X88.299 Y122.445 E0.01247
G1 X87.811 Y122.738 E0.01786
G1 X87.499 Y122.985 E0.01247
G1 X87.215 Y123.262 E0.01247
G1 X86.861 Y123.709 E0.01786
G1 X86.656 Y124.050 E0.01247
G1 X86.491 Y124.403 E0.01223
G1 X86.379 Y124.724 E0.01067
G1 X86.191 Y124.693 E0.00600
G1 X86.187 Y55.302 E2.17570
G1 X86.381 Y55.274 E0.00615
G1 X86.569 Y55.776 E0.01680
G1 X86.753 Y56.120 E0.01223
G1 X86.970 Y56.444 E0.01223
G1 X87.220 Y56.743 E0.01223
G1 X87.499 Y57.015 E0.01223
G1 X87.805 Y57.257 E0.01223
G1 X88.141 Y57.471 E0.01247
G1 X88.657 Y57.712 E0.01786
G1 X89.035 Y57.833 E0.01247
G1 X89.417 Y57.913 E0.01223
G1 X89.805 Y57.953 E0.01223
G1 X90.195 Y57.953 E0.01223
G1 X90.583 Y57.913 E0.01223
G1 X90.965 Y57.833 E0.01223
G1 X91.336 Y57.714 E0.01223
G1 X91.701 Y57.555 E0.01247
G1 X92.189 Y57.262 E0.01786
G1 X92.501 Y57.015 E0.01247
G1 X92.780 Y56.743 E0.01223
G1 X93.030 Y56.444 E0.01223
G1 X93.252 Y56.114 E0.01247
G1 X93.506 Y55.604 E0.01786
G1 X93.624 Y55.265 E0.01126
G1 X93.813 Y55.297 E0.00600
G1 X93.813 Y56.368 E0.03358
M73 P2 R27
G1 X88.808 Y60.568 E0.20486
G1 X88.808 Y120.027 E1.86432
G1 X91.231 Y122.060 E0.09918
G1 X91.170 Y122.171 E0.00395
M204 S1250
G1 E-2.24000 F4200.000
;WIPE_START
G1 F7200.000
G1 X90.965 Y122.167 E-0.11394
G1 X90.583 Y122.087 E-0.21612
G1 X90.195 Y122.047 E-0.21611
G1 X89.805 Y122.047 E-0.21613
G1 X89.536 Y122.075 E-0.14969
;WIPE_END
G1 E-0.04800 F4200.000
G1 Z0.400 F9000.000
G1 X90.176 Y57.576
G1 Z0.200
G1 E3.20000 F2400.000
M204 S800
;TYPE:External perimeter
G1 F1200.000
G1 X89.824 Y57.576 E0.01101
G1 X89.475 Y57.540 E0.01101
G1 X89.131 Y57.468 E0.01101
G1 X88.794 Y57.360 E0.01109
G1 X88.323 Y57.139 E0.01634
G1 X88.024 Y56.950 E0.01109
G1 X87.749 Y56.732 E0.01101
G1 X87.497 Y56.487 E0.01101
G1 X87.272 Y56.217 E0.01101
G1 X87.076 Y55.926 E0.01101
G1 X86.911 Y55.616 E0.01101
G1 X86.779 Y55.290 E0.01101
G1 X86.681 Y54.953 E0.01101
G1 X86.618 Y54.608 E0.01101
G1 X86.591 Y54.258 E0.01101
G1 X86.600 Y53.907 E0.01101
G1 X86.645 Y53.559 E0.01101
G1 X86.726 Y53.217 E0.01101
G1 X86.841 Y52.885 E0.01101
G1 X86.990 Y52.567 E0.01101
G1 X87.172 Y52.264 E0.01109
G1 X87.495 Y51.855 E0.01634
G1 X87.749 Y51.608 E0.01109
G1 X88.026 Y51.389 E0.01109
G1 X88.473 Y51.121 E0.01634
G1 X88.797 Y50.979 E0.01109
G1 X89.131 Y50.872 E0.01101
G1 X89.475 Y50.800 E0.01101
G1 X89.824 Y50.764 E0.01101
G1 X90.176 Y50.764 E0.01101
G1 X90.525 Y50.800 E0.01101
G1 X90.869 Y50.872 E0.01101
G1 X91.203 Y50.979 E0.01101
G1 X91.525 Y51.119 E0.01101
G1 X91.830 Y51.292 E0.01101
G1 X92.116 Y51.496 E0.01101
G1 X92.380 Y51.728 E0.01101
G1 X92.619 Y51.985 E0.01101
G1 X92.829 Y52.266 E0.01101
G1 X93.010 Y52.567 E0.01101
G1 X93.159 Y52.885 E0.01101
G1 X93.274 Y53.217 E0.01101
G1 X93.356 Y53.561 E0.01109
G1 X93.409 Y54.079 E0.01634
G1 X93.400 Y54.433 E0.01109
G1 X93.355 Y54.781 E0.01101
G1 X93.274 Y55.123 E0.01101
G1 X93.158 Y55.457 E0.01109
G1 X92.925 Y55.923 E0.01634
G1 X92.728 Y56.217 E0.01109
G1 X92.503 Y56.487 E0.01101
G1 X92.251 Y56.732 E0.01101
G1 X91.974 Y56.951 E0.01109
G1 X91.527 Y57.219 E0.01634
G1 X91.203 Y57.361 E0.01109
G1 X90.869 Y57.468 E0.01101
G1 X90.525 Y57.540 E0.01101
G1 X90.235 Y57.570 E0.00913
M204 S1250
G1 X90.016 Y57.889 F9000.000
G1 E-2.24000 F4200.000
;WIPE_START
G1 F7200.000
G1 X89.824 Y57.576 E-0.22769
G1 X89.475 Y57.540 E-0.19457
G1 X89.131 Y57.468 E-0.19458
G1 X88.794 Y57.360 E-0.19609
G1 X88.632 Y57.285 E-0.09908
;WIPE_END
G1 E-0.04800 F4200.000
G1 Z0.400 F9000.000
G1 X89.185 Y60.743
G1 Z0.200
G1 E3.20000 F2400.000
M204 S800
G1 F1200.000
G1 X89.185 Y119.851 E1.85329
G1 X94.190 Y124.051 E0.20486
G1 X94.190 Y125.824 E0.05558
G1 X94.175 Y126.176 E0.01106
G1 X94.133 Y126.517 E0.01079
G1 X94.015 Y127.028 E0.01642
G1 X93.904 Y127.351 E0.01072
G1 X93.684 Y127.826 E0.01642
G1 X93.508 Y128.122 E0.01079
G1 X93.308 Y128.402 E0.01079
G1 X92.961 Y128.794 E0.01642
G1 X92.709 Y129.026 E0.01072
G1 X92.290 Y129.339 E0.01642
G1 X91.996 Y129.514 E0.01072
G1 X91.523 Y129.733 E0.01635
G1 X91.028 Y129.892 E0.01631
G1 X90.690 Y129.963 E0.01083
G1 X90.346 Y130.005 E0.01086
G1 X90.000 Y130.020 E0.01086
G1 X89.654 Y130.005 E0.01086
G1 X89.310 Y129.963 E0.01086
G1 X88.974 Y129.892 E0.01079
G1 X88.477 Y129.733 E0.01635
G1 X88.004 Y129.514 E0.01635
G1 X87.708 Y129.338 E0.01079
G1 X87.428 Y129.138 E0.01079
G1 X87.037 Y128.792 E0.01638
G1 X86.803 Y128.538 E0.01083
G1 X86.591 Y128.266 E0.01079
G1 X86.315 Y127.823 E0.01638
G1 X86.163 Y127.513 E0.01083
G1 X86.038 Y127.192 E0.01079
G1 X85.899 Y126.689 E0.01638
G1 X85.842 Y126.348 E0.01083
G1 X85.814 Y126.003 E0.01086
G1 X85.810 Y54.176 E2.25208
G1 X85.825 Y53.824 E0.01106
G1 X85.867 Y53.483 E0.01079
G1 X85.985 Y52.972 E0.01642
G1 X86.096 Y52.649 E0.01072
G1 X86.316 Y52.174 E0.01642
G1 X86.492 Y51.878 E0.01079
G1 X86.692 Y51.598 E0.01079
G1 X87.039 Y51.206 E0.01642
G1 X87.291 Y50.974 E0.01072
G1 X87.710 Y50.661 E0.01642
G1 X88.004 Y50.486 E0.01072
G1 X88.477 Y50.267 E0.01635
G1 X88.972 Y50.108 E0.01631
G1 X89.310 Y50.037 E0.01083
G1 X89.652 Y49.995 E0.01079
G1 X90.172 Y49.984 E0.01631
G1 X90.690 Y50.038 E0.01632
G1 X91.195 Y50.155 E0.01628
G1 X91.683 Y50.333 E0.01628
G1 X92.145 Y50.571 E0.01628
G1 X92.573 Y50.864 E0.01628
G1 X92.962 Y51.208 E0.01628
G1 X93.306 Y51.597 E0.01628
G1 X93.600 Y52.027 E0.01635
G1 X93.763 Y52.328 E0.01072
G1 X93.963 Y52.812 E0.01642
G1 X94.061 Y53.139 E0.01072
G1 X94.157 Y53.652 E0.01635
G1 X94.190 Y54.179 E0.01655
G1 X94.190 Y56.544 E0.07416
G1 X89.231 Y60.705 E0.20297
M204 S1250
G1 X88.804 Y60.864 F9000.000
G1 E-2.24000 F4200.000
;WIPE_START
G1 F7200.000
G1 X89.230 Y62.351 E-0.91200
;WIPE_END
G1 E-0.04800 F4200.000
G1 Z0.400 F9000.000
G1 X90.015 Y58.066
G1 Z0.200
G1 E3.20000 F2400.000
M204 S800
;TYPE:Solid infill
;WIDTH:0.422187
G1 F1200.000
G1 X90.624 Y58.675 E0.02714
G1 X90.332 Y58.919 E0.01201
G1 X89.632 Y58.219 E0.03122
G1 X89.374 Y58.193 E0.00820
G1 X88.989 Y58.112 E0.01240
G1 X90.041 Y59.164 E0.04691
G1 X89.749 Y59.409 E0.01201
G1 X88.107 Y57.767 E0.07321
G1 X87.641 Y57.488 E0.01714
G1 X87.312 Y57.228 E0.01322
G1 X87.012 Y56.935 E0.01322
G1 X86.662 Y56.492 E0.01783
G1 X86.470 Y56.621 E0.00729
G1 X86.470 Y56.666 E0.00143
G1 X89.457 Y59.654 E0.13323
G1 X89.166 Y59.898 E0.01201
G1 X86.470 Y57.203 E0.12022
G1 X86.470 Y57.739 E0.01692
G1 X88.874 Y60.143 E0.10721
G1 X88.582 Y60.388 E0.01201
G1 X86.470 Y58.275 E0.09420
G1 X86.470 Y58.812 E0.01692
G1 X88.525 Y60.867 E0.09165
M73 P3 R27
G1 X88.525 Y61.403 E0.01691
G1 X86.470 Y59.348 E0.09165
G1 X86.470 Y59.885 E0.01692
G1 X88.525 Y61.940 E0.09165
G1 X88.525 Y62.476 E0.01691
G1 X86.470 Y60.421 E0.09165
G1 X86.470 Y60.957 E0.01692
G1 X88.525 Y63.012 E0.09165
G1 X88.525 Y63.549 E0.01691
G1 X86.470 Y61.494 E0.09164
G1 X86.470 Y62.030 E0.01692
G1 X88.525 Y64.085 E0.09164
G1 X88.525 Y64.621 E0.01691
G1 X86.470 Y62.567 E0.09164
G1 X86.470 Y63.103 E0.01692
G1 X88.525 Y65.158 E0.09164
G1 X88.525 Y65.694 E0.01691
G1 X86.470 Y63.639 E0.09164
G1 X86.470 Y64.176 E0.01692
G1 X88.525 Y66.230 E0.09164
G1 X88.525 Y66.767 E0.01691
G1 X86.470 Y64.712 E0.09164
G1 X86.470 Y65.249 E0.01692
G1 X88.525 Y67.303 E0.09164
G1 X88.525 Y67.840 E0.01691
G1 X86.470 Y65.785 E0.09163
G1 X86.471 Y66.321 E0.01692
G1 X88.525 Y68.376 E0.09163
G1 X88.525 Y68.912 E0.01691
G1 X86.471 Y66.858 E0.09163
G1 X86.471 Y67.394 E0.01692
G1 X88.525 Y69.449 E0.09163
G1 X88.525 Y69.985 E0.01691
G1 X86.471 Y67.930 E0.09163
G1 X86.471 Y68.467 E0.01692
G1 X88.525 Y70.521 E0.09163
G1 X88.525 Y71.058 E0.01691
G1 X86.471 Y69.003 E0.09163
G1 X86.471 Y69.540 E0.01692
G1 X88.525 Y71.594 E0.09163
G1 X88.525 Y72.130 E0.01691
G1 X86.471 Y70.076 E0.09162
G1 X86.471 Y70.612 E0.01692
G1 X88.525 Y72.667 E0.09162
G1 X88.525 Y73.203 E0.01691
G1 X86.471 Y71.149 E0.09162
G1 X86.471 Y71.685 E0.01692
G1 X88.525 Y73.740 E0.09162
G1 X88.525 Y74.276 E0.01691
G1 X86.471 Y72.222 E0.09162
G1 X86.471 Y72.758 E0.01692
G1 X88.525 Y74.812 E0.09162
G1 X88.525 Y75.349 E0.01691
G1 X86.471 Y73.294 E0.09162
G1 X86.471 Y73.831 E0.01692
G1 X88.525 Y75.885 E0.09162
G1 X88.525 Y76.421 E0.01691
G1 X86.471 Y74.367 E0.09161
G1 X86.471 Y74.904 E0.01692
G1 X88.525 Y76.958 E0.09161
G1 X88.525 Y77.494 E0.01691
G1 X86.471 Y75.440 E0.09161
G1 X86.471 Y75.976 E0.01692
G1 X88.525 Y78.030 E0.09161
G1 X88.525 Y78.567 E0.01691
G1 X86.471 Y76.513 E0.09161
G1 X86.471 Y77.049 E0.01692
G1 X88.525 Y79.103 E0.09161
G1 X88.525 Y79.640 E0.01691
G1 X86.471 Y77.586 E0.09161
G1 X86.471 Y78.122 E0.01692
G1 X88.525 Y80.176 E0.09161
G1 X88.525 Y80.712 E0.01691
G1 X86.471 Y78.658 E0.09160
G1 X86.471 Y79.195 E0.01692
G1 X88.525 Y81.249 E0.09160
G1 X88.525 Y81.785 E0.01691
G1 X86.471 Y79.731 E0.09160
G1 X86.471 Y80.268 E0.01692
G1 X88.525 Y82.321 E0.09160
G1 X88.525 Y82.858 E0.01691
G1 X86.471 Y80.804 E0.09160
G1 X86.471 Y81.340 E0.01692
G1 X88.525 Y83.394 E0.09160
G1 X88.525 Y83.930 E0.01691
G1 X86.471 Y81.877 E0.09160
G1 X86.471 Y82.413 E0.01692
G1 X88.525 Y84.467 E0.09159
G1 X88.525 Y85.003 E0.01691
G1 X86.471 Y82.950 E0.09159
G1 X86.471 Y83.486 E0.01692
G1 X88.525 Y85.540 E0.09159
G1 X88.525 Y86.076 E0.01691
G1 X86.471 Y84.022 E0.09159
G1 X86.471 Y84.559 E0.01692
G1 X88.525 Y86.612 E0.09159
G1 X88.525 Y87.149 E0.01691
G1 X86.472 Y85.095 E0.09159
G1 X86.472 Y85.631 E0.01692
G1 X88.525 Y87.685 E0.09159
G1 X88.525 Y88.221 E0.01691
G1 X86.472 Y86.168 E0.09159
G1 X86.472 Y86.704 E0.01692
G1 X88.525 Y88.758 E0.09158
M73 P3 R26
G1 X88.525 Y89.294 E0.01691
G1 X86.472 Y87.241 E0.09158
G1 X86.472 Y87.777 E0.01692
G1 X88.525 Y89.831 E0.09158
G1 X88.525 Y90.367 E0.01691
G1 X86.472 Y88.313 E0.09158
G1 X86.472 Y88.850 E0.01692
G1 X88.525 Y90.903 E0.09158
G1 X88.525 Y91.440 E0.01691
G1 X86.472 Y89.386 E0.09158
G1 X86.472 Y89.923 E0.01692
G1 X88.525 Y91.976 E0.09158
G1 X88.525 Y92.512 E0.01691
G1 X86.472 Y90.459 E0.09158
G1 X86.472 Y90.995 E0.01692
G1 X88.525 Y93.049 E0.09157
G1 X88.525 Y93.585 E0.01691
G1 X86.472 Y91.532 E0.09157
G1 X86.472 Y92.068 E0.01692
G1 X88.525 Y94.121 E0.09157
G1 X88.525 Y94.658 E0.01691
G1 X86.472 Y92.605 E0.09157
G1 X86.472 Y93.141 E0.01692
G1 X88.525 Y95.194 E0.09157
G1 X88.525 Y95.731 E0.01691
G1 X86.472 Y93.677 E0.09157
G1 X86.472 Y94.214 E0.01692
G1 X88.525 Y96.267 E0.09157
G1 X88.525 Y96.803 E0.01691
G1 X86.472 Y94.750 E0.09157
G1 X86.472 Y95.287 E0.01692
G1 X88.525 Y97.340 E0.09156
G1 X88.525 Y97.876 E0.01691
G1 X86.472 Y95.823 E0.09156
G1 X86.472 Y96.359 E0.01692
G1 X88.525 Y98.412 E0.09156
G1 X88.525 Y98.949 E0.01691
