; generated by PrusaSlicer 2.3.0+win64 on 2021-06-16 at 22:50:24 UTC


;
;

;
;
; 

; external perimeters extrusion width = 0.45mm
; perimeters extrusion width = 0.45mm
; infill extrusion width = 0.45mm
; solid infill extrusion width = 0.45mm
; top infill extrusion width = 0.40mm
; first layer extrusion width = 0.42mm

M73 P0 R27
M201 X1250 Y1250 Z400 E5000 ; sets maximum accelerations, mm/sec^2
M203 X180 Y180 Z12 E80 ; sets maximum feedrates, mm/sec
M204 P1250 R1250 T1250 ; sets acceleration (P, T) and retract acceleration (R), mm/sec^2
M205 X8.00 Y8.00 Z2.00 E10.00 ; sets the jerk limits, mm/sec
M205 S0 T0 ; sets the minimum extruding and travel feed rate, mm/sec
M107
;TYPE:Custom
G90 ; use absolute coordinates
M83 ; extruder relative mode
M104 S170 ; set extruder temp for bed leveling
M140 S60 ; set bed temp
M109 R170 ; wait for bed leveling temp
M190 S60 ; wait for bed temp
G28 ; home all without mesh bed level
G29 ; mesh bed leveling 
M104 S215 ; set extruder temp
G92 E0.0
G1 Y-2.0 X179 F2400
G1 Z3 F720
M109 S215 ; wait for extruder temp

; intro line
G1 X170 F1000
G1 Z0.2 F720
G1 X110.0 E8.0 F900
G1 X40.0 E10.0 F700
G92 E0.0

M221 S95 ; set flow
G21 ; set units to millimeters
G90 ; use absolute coordinates
M83 ; use relative distances for extrusion
M900 K0.2 ; Filament gcode LA 1.5
; ; Filament gcode LA 1.0
;LAYER_CHANGE
;Z:0.2
;HEIGHT:0.2
;BEFORE_LAYER_CHANGE
G92 E0.0
;0.2


G1 E-3.20000 F4200.000
G1 Z0.200 F9000.000
;AFTER_LAYER_CHANGE
;0.2
G1 Z0.400
G1 X84.484 Y50.597
M73 P1 R27
G1 Z0.200
G1 E3.20000 F2400.000
M204 S800
;TYPE:Skirt
;WIDTH:0.42
G1 F1200.000
G1 X85.350 Y49.526 E0.04316
G1 X86.272 Y48.758 E0.03762
G1 X87.485 Y48.098 E0.04333
G1 X88.802 Y47.709 E0.04304
G1 X90.005 Y47.598 E0.03789
G1 X91.184 Y47.706 E0.03711
G1 X92.466 Y48.079 E0.04187
G1 X93.520 Y48.620 E0.03715
G1 X94.438 Y49.323 E0.03624
G1 X95.240 Y50.203 E0.03734
G1 X95.931 Y51.340 E0.04173
G1 X96.345 Y52.457 E0.03735
G1 X96.548 Y53.604 E0.03652
G1 X96.572 Y125.830 E2.26459
G1 X96.463 Y127.022 E0.03754
G1 X96.073 Y128.342 E0.04315
G1 X95.516 Y129.403 E0.03758
G1 X94.650 Y130.474 E0.04317
G1 X93.728 Y131.242 E0.03762
G1 X92.518 Y131.901 E0.04321
G1 X91.198 Y132.291 E0.04316
G1 X89.999 Y132.402 E0.03777
G1 X88.816 Y132.294 E0.03723
G1 X87.534 Y131.921 E0.04187
G1 X86.480 Y131.380 E0.03715
G1 X85.562 Y130.677 E0.03624
G1 X84.764 Y129.802 E0.03715
G1 X84.067 Y128.655 E0.04209
G1 X83.655 Y127.543 E0.03719
G1 X83.452 Y126.395 E0.03655
G1 X83.428 Y54.170 E2.26455
G1 X83.572 Y52.803 E0.04311
G1 X83.927 Y51.658 E0.03758
G1 X84.457 Y50.650 E0.03570
M204 S1250
; printing object CableGuide.stl id:0 copy 0
G1 E-2.24000 F4200.000
;WIPE_START
G1 F7200.000
G1 X85.350 Y49.526 E-0.79555
G1 X85.511 Y49.392 E-0.11645
;WIPE_END
G1 E-0.04800 F4200.000
G1 Z0.400 F9000.000
G1 X89.840 Y122.924
G1 Z0.200
G1 E3.20000 F2400.000
M204 S800
;TYPE:External perimeter
G1 F1200.000
G1 X90.323 Y122.937 E0.01516
G1 X90.648 Y122.993 E0.01033
G1 X90.964 Y123.084 E0.01033
G1 X91.405 Y123.281 E0.01516
G1 X91.684 Y123.456 E0.01033
G1 X91.939 Y123.660 E0.01023
G1 X92.170 Y123.891 E0.01023
G1 X92.375 Y124.148 E0.01033
G1 X92.623 Y124.567 E0.01525
G1 X92.796 Y125.021 E0.01525
G1 X92.869 Y125.342 E0.01033
G1 X92.906 Y125.670 E0.01033
G1 X92.893 Y126.153 E0.01516
G1 X92.837 Y126.478 E0.01033
G1 X92.746 Y126.794 E0.01033
G1 X92.549 Y127.235 E0.01516
G1 X92.374 Y127.514 E0.01033
G1 X92.168 Y127.772 E0.01033
G1 X91.817 Y128.104 E0.01516
G1 X91.548 Y128.294 E0.01033
G1 X91.263 Y128.452 E0.01023
G1 X90.961 Y128.577 E0.01023
G1 X90.645 Y128.668 E0.01033
G1 X90.163 Y128.736 E0.01525
G1 X89.677 Y128.723 E0.01525
G1 X89.352 Y128.667 E0.01033
G1 X89.036 Y128.576 E0.01033
G1 X88.595 Y128.379 E0.01516
G1 X88.316 Y128.204 E0.01033
G1 X88.061 Y128.000 E0.01023
G1 X87.830 Y127.769 E0.01023
G1 X87.625 Y127.512 E0.01033
G1 X87.377 Y127.093 E0.01525
G1 X87.204 Y126.639 E0.01525
G1 X87.131 Y126.318 E0.01033
G1 X87.094 Y125.990 E0.01033
G1 X87.107 Y125.507 E0.01516
G1 X87.163 Y125.182 E0.01033
G1 X87.253 Y124.869 E0.01023
G1 X87.378 Y124.567 E0.01023
G1 X87.537 Y124.279 E0.01033
G1 X87.830 Y123.890 E0.01525
G1 X88.183 Y123.556 E0.01525
M73 P1 R26
G1 X88.452 Y123.366 E0.01033
G1 X88.740 Y123.206 E0.01033
G1 X89.191 Y123.034 E0.01516
G1 X89.512 Y122.961 E0.01033
G1 X89.780 Y122.931 E0.00844
M204 S1250
G1 X90.027 Y122.570 F9000.000
G1 E-2.24000 F4200.000
;WIPE_START
G1 F7200.000
G1 X90.323 Y122.937 E-0.30084
G1 X90.648 Y122.993 E-0.18250
G1 X90.964 Y123.084 E-0.18251
G1 X91.370 Y123.265 E-0.24615
;WIPE_END
G1 E-0.04800 F4200.000
G1 Z0.400 F9000.000
G1 X89.213 Y120.367
G1 Z0.200
G1 E3.20000 F2400.000
M204 S800
;TYPE:Perimeter
G1 F1200.000
G1 X93.408 Y123.887 E0.17170
G1 X93.408 Y125.105 E0.03819
G1 X93.207 Y125.128 E0.00634
G1 X93.158 Y124.912 E0.00694
G1 X92.964 Y124.403 E0.01708
G1 X92.687 Y123.934 E0.01708
G1 X92.452 Y123.639 E0.01182
G1 X92.191 Y123.378 E0.01156
G1 X91.903 Y123.148 E0.01156
G1 X91.584 Y122.948 E0.01182
G1 X91.094 Y122.729 E0.01682
G1 X90.732 Y122.624 E0.01182
G1 X90.360 Y122.561 E0.01182
G1 X89.824 Y122.546 E0.01682
G1 X89.449 Y122.588 E0.01182
G1 X89.082 Y122.672 E0.01182
G1 X88.581 Y122.864 E0.01682
G1 X88.251 Y123.046 E0.01182
G1 X87.943 Y123.264 E0.01182
G1 X87.547 Y123.638 E0.01708
G1 X87.220 Y124.073 E0.01708
G1 X87.038 Y124.403 E0.01182
G1 X86.896 Y124.744 E0.01156
G1 X86.790 Y125.112 E0.01200
G1 X86.596 Y125.084 E0.00616
G1 X86.592 Y54.895 E2.20073
G1 X86.793 Y54.873 E0.00634
G1 X86.842 Y55.088 E0.00694
G1 X87.037 Y55.597 E0.01708
G1 X87.313 Y56.066 E0.01708
G1 X87.548 Y56.361 E0.01182
G1 X87.809 Y56.622 E0.01156
G1 X88.097 Y56.852 E0.01156
G1 X88.416 Y57.052 E0.01182
M73 P2 R26
G1 X88.906 Y57.271 E0.01682
G1 X89.268 Y57.376 E0.01182
G1 X89.640 Y57.439 E0.01182
G1 X90.176 Y57.454 E0.01682
G1 X90.551 Y57.412 E0.01182
G1 X90.918 Y57.328 E0.01182
G1 X91.419 Y57.136 E0.01682
G1 X91.749 Y56.954 E0.01182
G1 X92.057 Y56.736 E0.01182
G1 X92.453 Y56.362 E0.01708
G1 X92.780 Y55.927 E0.01708
G1 X92.962 Y55.597 E0.01182
G1 X93.104 Y55.256 E0.01156
G1 X93.213 Y54.875 E0.01243
G1 X93.408 Y54.903 E0.00616
G1 X93.408 Y56.708 E0.05660
G1 X89.213 Y60.228 E0.17170
G1 X89.213 Y120.307 E1.88374
M204 S1250
G1 E-2.24000 F4200.000
;WIPE_START
G1 F7200.000
G1 X90.465 Y121.375 E-0.91200
;WIPE_END
G1 E-0.04800 F4200.000
G1 Z0.400 F9000.000
G1 X90.160 Y57.076
G1 Z0.200
G1 E3.20000 F2400.000
M204 S800
;TYPE:External perimeter
G1 F1200.000
G1 X89.677 Y57.063 E0.01516
G1 X89.352 Y57.007 E0.01033
G1 X89.036 Y56.916 E0.01033
G1 X88.595 Y56.719 E0.01516
G1 X88.316 Y56.544 E0.01033
G1 X88.061 Y56.340 E0.01023
G1 X87.830 Y56.109 E0.01023
G1 X87.625 Y55.852 E0.01033
G1 X87.377 Y55.433 E0.01525
G1 X87.204 Y54.979 E0.01525
G1 X87.131 Y54.658 E0.01033
G1 X87.094 Y54.330 E0.01033
G1 X87.107 Y53.847 E0.01516
G1 X87.163 Y53.522 E0.01033
G1 X87.254 Y53.206 E0.01033
G1 X87.451 Y52.765 E0.01516
G1 X87.626 Y52.486 E0.01033
G1 X87.832 Y52.228 E0.01033
G1 X88.183 Y51.896 E0.01516
G1 X88.452 Y51.706 E0.01033
G1 X88.740 Y51.546 E0.01033
G1 X89.191 Y51.374 E0.01516
G1 X89.512 Y51.301 E0.01033
G1 X89.840 Y51.264 E0.01033
G1 X90.323 Y51.277 E0.01516
G1 X90.648 Y51.333 E0.01033
G1 X90.964 Y51.424 E0.01033
G1 X91.405 Y51.621 E0.01516
G1 X91.684 Y51.796 E0.01033
G1 X91.939 Y52.000 E0.01023
G1 X92.170 Y52.231 E0.01023
G1 X92.375 Y52.488 E0.01033
G1 X92.623 Y52.907 E0.01525
G1 X92.796 Y53.361 E0.01525
G1 X92.869 Y53.682 E0.01033
G1 X92.906 Y54.010 E0.01033
G1 X92.893 Y54.493 E0.01516
G1 X92.837 Y54.818 E0.01033
G1 X92.747 Y55.131 E0.01023
G1 X92.622 Y55.433 E0.01023
G1 X92.463 Y55.721 E0.01033
G1 X92.170 Y56.110 E0.01525
G1 X91.817 Y56.444 E0.01525
G1 X91.548 Y56.634 E0.01033
G1 X91.260 Y56.794 E0.01033
G1 X90.809 Y56.966 E0.01516
G1 X90.488 Y57.039 E0.01033
G1 X90.220 Y57.069 E0.00844
M204 S1250
G1 X89.973 Y57.430 F9000.000
G1 E-2.24000 F4200.000
;WIPE_START
G1 F7200.000
G1 X89.677 Y57.063 E-0.30084
G1 X89.352 Y57.007 E-0.18250
G1 X89.036 Y56.916 E-0.18251
G1 X88.630 Y56.735 E-0.24615
;WIPE_END
G1 E-0.04800 F4200.000
G1 Z0.400 F9000.000
G1 X89.590 Y60.404
G1 Z0.200
G1 E3.20000 F2400.000
M204 S800
G1 F1200.000
G1 X89.590 Y120.191 E1.87460
G1 X93.785 Y123.711 E0.17170
G1 X93.785 Y125.823 E0.06622
G1 X93.770 Y126.160 E0.01056
G1 X93.728 Y126.485 E0.01028
G1 X93.609 Y126.970 E0.01567
G1 X93.497 Y127.278 E0.01028
G1 X93.358 Y127.576 E0.01028
G1 X93.100 Y128.002 E0.01563
G1 X92.899 Y128.263 E0.01032
G1 X92.676 Y128.506 E0.01035
G1 X92.434 Y128.728 E0.01028
G1 X92.033 Y129.023 E0.01563
G1 X91.748 Y129.187 E0.01032
G1 X91.448 Y129.327 E0.01035
G1 X91.140 Y129.439 E0.01028
G1 X90.656 Y129.557 E0.01563
G1 X90.330 Y129.600 E0.01032
G1 X90.000 Y129.615 E0.01035
G1 X89.670 Y129.600 E0.01035
G1 X89.345 Y129.558 E0.01028
G1 X88.860 Y129.439 E0.01567
G1 X88.552 Y129.327 E0.01028
G1 X88.252 Y129.187 E0.01035
G1 X87.966 Y129.022 E0.01035
G1 X87.698 Y128.834 E0.01028
G1 X87.323 Y128.505 E0.01563
G1 X87.101 Y128.263 E0.01032
G1 X86.900 Y128.001 E0.01035
G1 X86.722 Y127.722 E0.01035
G1 X86.570 Y127.430 E0.01035
G1 X86.443 Y127.124 E0.01035
G1 X86.345 Y126.812 E0.01028
G1 X86.247 Y126.322 E0.01567
G1 X86.219 Y125.995 E0.01028
G1 X86.215 Y54.177 E2.25181
G1 X86.230 Y53.840 E0.01056
G1 X86.272 Y53.515 E0.01028
G1 X86.391 Y53.030 E0.01567
G1 X86.503 Y52.722 E0.01028
G1 X86.643 Y52.422 E0.01035
G1 X86.808 Y52.136 E0.01035
G1 X86.996 Y51.868 E0.01028
G1 X87.325 Y51.492 E0.01567
G1 X87.566 Y51.272 E0.01021
G1 X87.967 Y50.977 E0.01563
G1 X88.252 Y50.813 E0.01032
G1 X88.552 Y50.673 E0.01035
G1 X88.860 Y50.561 E0.01028
G1 X89.345 Y50.442 E0.01567
G1 X89.668 Y50.400 E0.01021
G1 X90.166 Y50.389 E0.01563
G1 X90.492 Y50.417 E0.01025
G1 X90.980 Y50.514 E0.01559
G1 X91.448 Y50.674 E0.01552
G1 X91.892 Y50.893 E0.01552
G1 X92.304 Y51.168 E0.01552
G1 X92.676 Y51.494 E0.01552
G1 X93.002 Y51.866 E0.01552
G1 X93.279 Y52.280 E0.01559
G1 X93.430 Y52.570 E0.01028
G1 X93.556 Y52.873 E0.01028
G1 X93.695 Y53.353 E0.01567
G1 X93.752 Y53.674 E0.01021
G1 X93.785 Y54.179 E0.01588
G1 X93.785 Y56.884 E0.08480
G1 X89.636 Y60.365 E0.16982
M204 S1250
G1 X89.211 Y60.532 F9000.000
G1 E-2.24000 F4200.000
;WIPE_START
G1 F7200.000
G1 X89.635 Y62.011 E-0.91200
;WIPE_END
G1 E-0.04800 F4200.000
G1 Z0.400 F9000.000
G1 X90.966 Y57.431
G1 Z0.200
G1 E3.20000 F2400.000
M204 S800
;TYPE:Solid infill
;WIDTH:0.421302
G1 F1200.000
G1 X91.486 Y57.951 E0.02316
G1 X91.195 Y58.195 E0.01195
G1 X90.673 Y57.674 E0.02321
G1 X90.200 Y57.736 E0.01501
G1 X90.904 Y58.439 E0.03131
G1 X90.613 Y58.684 E0.01195
G1 X89.652 Y57.722 E0.04279
G1 X89.205 Y57.652 E0.01421
G1 X88.982 Y57.587 E0.00732
G1 X90.322 Y58.928 E0.05964
G1 X90.031 Y59.172 E0.01195
G1 X87.956 Y57.097 E0.09232
G1 X87.620 Y56.833 E0.01345
G1 X87.360 Y56.573 E0.01157
G1 X87.345 Y56.619 E0.00152
G1 X87.111 Y56.542 E0.00776
G1 X86.912 Y56.587 E0.00643
G1 X89.740 Y59.416 E0.12586
G1 X89.449 Y59.660 E0.01195
G1 X86.875 Y57.086 E0.11454
G1 X86.875 Y57.621 E0.01684
G1 X89.158 Y59.904 E0.10159
M73 P3 R26
G1 X88.930 Y60.096 E0.00937
G1 X88.930 Y60.211 E0.00363
G1 X86.875 Y58.156 E0.09144
G1 X86.875 Y58.691 E0.01684
G1 X88.930 Y60.746 E0.09144
G1 X88.930 Y61.281 E0.01684
G1 X86.875 Y59.227 E0.09144
G1 X86.875 Y59.762 E0.01684
G1 X88.930 Y61.817 E0.09144
G1 X88.930 Y62.352 E0.01684
G1 X86.875 Y60.297 E0.09143
G1 X86.875 Y60.832 E0.01684
G1 X88.930 Y62.887 E0.09143
G1 X88.930 Y63.422 E0.01684
G1 X86.875 Y61.367 E0.09143
G1 X86.875 Y61.902 E0.01684
G1 X88.930 Y63.957 E0.09143
G1 X88.930 Y64.492 E0.01684
G1 X86.875 Y62.437 E0.09143
G1 X86.875 Y62.972 E0.01684
G1 X88.930 Y65.027 E0.09143
G1 X88.930 Y65.562 E0.01684
G1 X86.875 Y63.508 E0.09143
G1 X86.875 Y64.043 E0.01684
G1 X88.930 Y66.098 E0.09142
G1 X88.930 Y66.633 E0.01684
G1 X86.875 Y64.578 E0.09142
G1 X86.875 Y65.113 E0.01684
G1 X88.930 Y67.168 E0.09142
G1 X88.930 Y67.703 E0.01684
G1 X86.875 Y65.648 E0.09142
G1 X86.876 Y66.183 E0.01684
G1 X88.930 Y68.238 E0.09142
G1 X88.930 Y68.773 E0.01684
G1 X86.876 Y66.718 E0.09142
G1 X86.876 Y67.254 E0.01684
G1 X88.930 Y69.308 E0.09142
G1 X88.930 Y69.843 E0.01684
G1 X86.876 Y67.789 E0.09142
G1 X86.876 Y68.324 E0.01684
G1 X88.930 Y70.378 E0.09141
G1 X88.930 Y70.914 E0.01684
G1 X86.876 Y68.859 E0.09141
G1 X86.876 Y69.394 E0.01684
G1 X88.930 Y71.449 E0.09141
G1 X88.930 Y71.984 E0.01684
G1 X86.876 Y69.929 E0.09141
G1 X86.876 Y70.464 E0.01684
G1 X88.930 Y72.519 E0.09141
G1 X88.930 Y73.054 E0.01684
G1 X86.876 Y71.000 E0.09141
G1 X86.876 Y71.535 E0.01684
G1 X88.930 Y73.589 E0.09141
G1 X88.930 Y74.124 E0.01684
G1 X86.876 Y72.070 E0.09141
G1 X86.876 Y72.605 E0.01684
G1 X88.930 Y74.659 E0.09140
G1 X88.930 Y75.194 E0.01684
G1 X86.876 Y73.140 E0.09140
G1 X86.876 Y73.675 E0.01684
G1 X88.930 Y75.730 E0.09140
G1 X88.930 Y76.265 E0.01684
G1 X86.876 Y74.210 E0.09140
G1 X86.876 Y74.746 E0.01684
G1 X88.930 Y76.800 E0.09140
G1 X88.930 Y77.335 E0.01684
G1 X86.876 Y75.281 E0.09140
G1 X86.876 Y75.816 E0.01684
G1 X88.930 Y77.870 E0.09140
G1 X88.930 Y78.405 E0.01684
G1 X86.876 Y76.351 E0.09140
G1 X86.876 Y76.886 E0.01684
G1 X88.930 Y78.940 E0.09139
G1 X88.930 Y79.475 E0.01684
G1 X86.876 Y77.421 E0.09139
G1 X86.876 Y77.956 E0.01684
G1 X88.930 Y80.010 E0.09139
G1 X88.930 Y80.546 E0.01684
G1 X86.876 Y78.492 E0.09139
G1 X86.876 Y79.027 E0.01684
G1 X88.930 Y81.081 E0.09139
G1 X88.930 Y81.616 E0.01684
G1 X86.876 Y79.562 E0.09139
G1 X86.876 Y80.097 E0.01684
G1 X88.930 Y82.151 E0.09139
G1 X88.930 Y82.686 E0.01684
G1 X86.876 Y80.632 E0.09139
G1 X86.876 Y81.167 E0.01684
G1 X88.930 Y83.221 E0.09138
G1 X88.930 Y83.756 E0.01684
G1 X86.876 Y81.702 E0.09138
G1 X86.876 Y82.238 E0.01684
G1 X88.930 Y84.291 E0.09138
G1 X88.930 Y84.826 E0.01684
G1 X86.876 Y82.773 E0.09138
G1 X86.876 Y83.308 E0.01684
G1 X88.930 Y85.362 E0.09138
G1 X88.930 Y85.897 E0.01684
G1 X86.876 Y83.843 E0.09138
G1 X86.876 Y84.378 E0.01684
G1 X88.930 Y86.432 E0.09138
G1 X88.930 Y86.967 E0.01684
G1 X86.877 Y84.913 E0.09138
G1 X86.877 Y85.448 E0.01684
G1 X88.930 Y87.502 E0.09137
G1 X88.930 Y88.037 E0.01684
G1 X86.877 Y85.984 E0.09137
G1 X86.877 Y86.519 E0.01684
G1 X88.930 Y88.572 E0.09137
G1 X88.930 Y89.107 E0.01684
G1 X86.877 Y87.054 E0.09137
G1 X86.877 Y87.589 E0.01684
G1 X88.930 Y89.642 E0.09137
G1 X88.930 Y90.178 E0.01684
G1 X86.877 Y88.124 E0.09137
G1 X86.877 Y88.659 E0.01684
G1 X88.930 Y90.713 E0.09137
G1 X88.930 Y91.248 E0.01684
G1 X86.877 Y89.194 E0.09137
G1 X86.877 Y89.730 E0.01684
G1 X88.930 Y91.783 E0.09136
G1 X88.930 Y92.318 E0.01684
G1 X86.877 Y90.265 E0.09136
G1 X86.877 Y90.800 E0.01684
G1 X88.930 Y92.853 E0.09136
G1 X88.930 Y93.388 E0.01684
G1 X86.877 Y91.335 E0.09136
G1 X86.877 Y91.870 E0.01684
G1 X88.930 Y93.923 E0.09136
G1 X88.930 Y94.458 E0.01684
G1 X86.877 Y92.405 E0.09136
G1 X86.877 Y92.940 E0.01684
G1 X88.930 Y94.994 E0.09136
G1 X88.930 Y95.529 E0.01684
G1 X86.877 Y93.476 E0.09135
G1 X86.877 Y94.011 E0.01684
G1 X88.930 Y96.064 E0.09135
G1 X88.930 Y96.599 E0.01684
G1 X86.877 Y94.546 E0.09135
G1 X86.877 Y95.081 E0.01684
G1 X88.930 Y97.134 E0.09135
G1 X88.930 Y97.669 E0.01684
G1 X86.877 Y95.616 E0.09135
G1 X86.877 Y96.151 E0.01684
G1 X88.930 Y98.204 E0.09135
G1 X88.930 Y98.739 E0.01684
G1 X86.877 Y96.686 E0.09135
G1 X86.877 Y97.222 E0.01684
G1 X88.930 Y99.275 E0.09135
G1 X88.930 Y99.810 E0.01684
G1 X86.877 Y97.757 E0.09134
G1 X86.877 Y98.292 E0.01684
G1 X88.930 Y100.345 E0.09134
G1 X88.930 Y100.880 E0.01684
G1 X86.877 Y98.827 E0.09134
G1 X86.877 Y99.362 E0.01684
G1 X88.930 Y101.415 E0.09134
G1 X88.930 Y101.950 E0.01684
G1 X86.877 Y99.897 E0.09134
G1 X86.877 Y100.432 E0.01684
G1 X88.930 Y102.485 E0.09134
G1 X88.930 Y103.020 E0.01684
G1 X86.877 Y100.968 E0.09134
G1 X86.877 Y101.503 E0.01684
G1 X88.930 Y103.555 E0.09134
G1 X88.930 Y104.091 E0.01684
G1 X86.877 Y102.038 E0.09133
G1 X86.877 Y102.573 E0.01684
G1 X88.930 Y104.626 E0.09133
G1 X88.930 Y105.161 E0.01684
G1 X86.877 Y103.108 E0.09133
G1 X86.878 Y103.643 E0.01684
G1 X88.930 Y105.696 E0.09133
G1 X88.930 Y106.231 E0.01684
G1 X86.878 Y104.178 E0.09133
M73 P4 R26
G1 X86.878 Y104.714 E0.01684
G1 X88.930 Y106.766 E0.09133
G1 X88.930 Y107.301 E0.01684
G1 X86.878 Y105.249 E0.09133
G1 X86.878 Y105.784 E0.01684
G1 X88.930 Y107.836 E0.09133
G1 X88.930 Y108.371 E0.01684
