; generated by PrusaSlicer 2.2.0+win64 on 2020-11-18 at 12:30:56 UTC


;
;

;
;
; 

; external perimeters extrusion width = 0.45mm
; perimeters extrusion width = 0.45mm
; infill extrusion width = 0.45mm
; solid infill extrusion width = 0.45mm
; top infill extrusion width = 0.40mm
; first layer extrusion width = 0.42mm

M73 P0 R6
M201 X1250 Y1250 Z400 E5000 ; sets maximum accelerations, mm/sec^2
M203 X180 Y180 Z12 E80 ; sets maximum feedrates, mm/sec
M204 P1250 R1250 T1250 ; sets acceleration (P, T) and retract acceleration (R), mm/sec^2
M205 X8.00 Y8.00 Z2.00 E10.00 ; sets the jerk limits, mm/sec
M205 S0 T0 ; sets the minimum extruding and travel feed rate, mm/sec
M107
G90 ; use absolute coordinates
M83 ; extruder relative mode
M104 S170 ; set extruder temp for bed leveling
M140 S60 ; set bed temp
M109 R170 ; wait for bed leveling temp
M190 S60 ; wait for bed temp
G28 ; home all without mesh bed level
G29 ; mesh bed leveling 
M104 S215 ; set extruder temp
G92 E0.0
G1 Y-2.0 X179 F2400
G1 Z3 F720
M109 S215 ; wait for extruder temp

; intro line
G1 X170 F1000
G1 Z0.2 F720
G1 X110.0 E8.0 F900
M73 P2 R6
G1 X40.0 E10.0 F700
G92 E0.0

M221 S95 ; set flow
G21 ; set units to millimeters
G90 ; use absolute coordinates
M83 ; use relative distances for extrusion
M900 K0.2 ; Filament gcode LA 1.5
; ; Filament gcode LA 1.0
;BEFORE_LAYER_CHANGE
G92 E0.0
;0.2


G1 Z0.200 F9000.000
;AFTER_LAYER_CHANGE
;0.2
G1 E-3.20000 F4200.00000
G1 Z0.400 F9000.000
G1 X82.740 Y82.630
G1 Z0.200
G1 E3.20000 F2400.00000
M204 S800
G1 F1200.000
G1 X84.144 Y81.471 E0.05709
G1 X84.984 Y80.951 E0.03096
G1 X85.947 Y80.481 E0.03361
G1 X87.872 Y79.875 E0.06326
G1 X88.890 Y79.714 E0.03232
G1 X89.946 Y79.654 E0.03316
G1 X91.965 Y79.842 E0.06361
G1 X92.968 Y80.089 E0.03238
G1 X93.936 Y80.432 E0.03220
G1 X94.874 Y80.873 E0.03248
G1 X95.751 Y81.399 E0.03206
G1 X97.315 Y82.683 E0.06347
G1 X98.030 Y83.476 E0.03347
G1 X98.635 Y84.300 E0.03207
G1 X99.580 Y86.092 E0.06351
G1 X99.932 Y87.099 E0.03344
G1 X100.164 Y88.064 E0.03113
G1 X100.346 Y89.880 E0.05722
G1 X100.173 Y91.890 E0.06326
G1 X99.935 Y92.889 E0.03220
G1 X99.596 Y93.868 E0.03248
G1 X99.168 Y94.797 E0.03207
G1 X98.643 Y95.687 E0.03240
G1 X98.035 Y96.518 E0.03228
G1 X97.343 Y97.289 E0.03248
G1 X96.585 Y97.981 E0.03220
G1 X95.762 Y98.594 E0.03216
G1 X94.873 Y99.127 E0.03252
G1 X93.944 Y99.565 E0.03220
G1 X92.967 Y99.912 E0.03248
G1 X91.970 Y100.157 E0.03220
G1 X90.949 Y100.303 E0.03234
G1 X89.946 Y100.346 E0.03148
G1 X88.893 Y100.287 E0.03306
G1 X87.884 Y100.127 E0.03203
G1 X85.951 Y99.520 E0.06354
G1 X84.995 Y99.055 E0.03332
G1 X84.151 Y98.533 E0.03111
G1 X82.744 Y97.374 E0.05717
G1 X81.447 Y95.821 E0.06345
G1 X80.913 Y94.946 E0.03213
G1 X80.465 Y94.014 E0.03241
G1 X80.116 Y93.057 E0.03195
G1 X79.860 Y92.053 E0.03248
G1 X79.706 Y91.030 E0.03245
G1 X79.654 Y90.000 E0.03234
G1 X79.706 Y88.969 E0.03234
G1 X79.858 Y87.955 E0.03216
G1 X80.113 Y86.954 E0.03238
G1 X80.463 Y85.989 E0.03220
G1 X80.911 Y85.059 E0.03236
G1 X81.447 Y84.178 E0.03232
G1 X82.702 Y82.676 E0.06137
M204 S1250
G1 X82.990 Y82.916 F9000.000
M204 S800
G1 F1200.000
G1 X84.354 Y81.784 E0.05559
G1 X86.089 Y80.830 E0.06208
G1 X87.948 Y80.245 E0.06111
G1 X88.929 Y80.089 E0.03115
G1 X89.946 Y80.031 E0.03193
G1 X91.892 Y80.212 E0.06130
G1 X93.796 Y80.782 E0.06229
G1 X95.544 Y81.714 E0.06212
G1 X97.048 Y82.950 E0.06104
G1 X97.737 Y83.713 E0.03223
G1 X98.322 Y84.511 E0.03103
G1 X99.233 Y86.239 E0.06122
G1 X99.794 Y88.139 E0.06213
G1 X99.969 Y89.880 E0.05487
G1 X99.802 Y91.820 E0.06105
G1 X99.247 Y93.726 E0.06224
G1 X98.329 Y95.479 E0.06205
G1 X97.077 Y97.022 E0.06231
G1 X95.553 Y98.280 E0.06194
G1 X93.801 Y99.216 E0.06229
G1 X91.899 Y99.787 E0.06224
G1 X89.949 Y99.969 E0.06143
G1 X88.930 Y99.912 E0.03198
G1 X87.958 Y99.758 E0.03086
G1 X86.094 Y99.172 E0.06127
G1 X84.361 Y98.220 E0.06200
G1 X83.010 Y97.107 E0.05489
G1 X81.759 Y95.610 E0.06116
G1 X80.811 Y93.865 E0.06224
G1 X80.230 Y91.980 E0.06188
G1 X80.031 Y90.001 E0.06236
G1 X80.228 Y88.031 E0.06207
G1 X80.812 Y86.132 E0.06229
G1 X81.759 Y84.391 E0.06212
G1 X82.951 Y82.962 E0.05836
M204 S1250
G1 X83.240 Y83.203 F9000.000
M204 S800
G1 F1200.000
G1 X84.564 Y82.098 E0.05409
G1 X86.235 Y81.178 E0.05980
G1 X88.024 Y80.614 E0.05882
G1 X89.946 Y80.408 E0.06060
G1 X91.820 Y80.582 E0.05900
G1 X93.651 Y81.130 E0.05995
G1 X95.334 Y82.027 E0.05977
G1 X96.785 Y83.219 E0.05888
G1 X98.010 Y84.722 E0.06078
G1 X98.885 Y86.385 E0.05894
G1 X99.424 Y88.210 E0.05966
G1 X99.592 Y89.880 E0.05263
G1 X99.432 Y91.750 E0.05885
G1 X98.898 Y93.584 E0.05989
G1 X98.014 Y95.271 E0.05972
G1 X96.810 Y96.756 E0.05995
G1 X95.344 Y97.966 E0.05960
G1 X93.654 Y98.869 E0.06007
G1 X91.824 Y99.417 E0.05989
G1 X89.947 Y99.592 E0.05912
G1 X88.036 Y99.389 E0.06025
G1 X86.238 Y98.823 E0.05911
G1 X84.570 Y97.907 E0.05966
G1 X83.278 Y96.842 E0.05249
G1 X82.072 Y95.398 E0.05900
G1 X81.161 Y93.724 E0.05977
G1 X80.600 Y91.906 E0.05966
G1 X80.408 Y90.001 E0.06000
G1 X80.597 Y88.106 E0.05972
G1 X81.160 Y86.279 E0.05995
G1 X82.072 Y84.601 E0.05989
G1 X83.201 Y83.249 E0.05522
M204 S1250
G1 E-2.24000 F4200.00000
G1 F7200.000
G1 X84.458 Y82.187 E-0.91200
G1 E-0.04800 F4200.00000
G1 Z0.400 F9000.000
G1 X88.038 Y88.819
G1 Z0.200
G1 E3.20000 F2400.00000
M204 S800
G1 F1200.000
G1 X88.331 Y88.433 E0.01519
G1 X88.591 Y88.196 E0.01103
G1 X89.001 Y87.939 E0.01520
G1 X89.467 Y87.772 E0.01550
G1 X89.931 Y87.712 E0.01469
G1 X90.298 Y87.730 E0.01150
G1 X90.770 Y87.843 E0.01522
G1 X91.192 Y88.046 E0.01469
G1 X91.490 Y88.261 E0.01150
G1 X91.824 Y88.614 E0.01525
G1 X92.074 Y89.029 E0.01519
G1 X92.198 Y89.358 E0.01103
G1 X92.283 Y89.824 E0.01486
G1 X92.283 Y90.176 E0.01103
G1 X92.196 Y90.653 E0.01520
G1 X92.005 Y91.109 E0.01553
G1 X91.719 Y91.514 E0.01553
G1 X91.362 Y91.841 E0.01520
G1 X91.064 Y92.028 E0.01103
G1 X90.613 Y92.207 E0.01520
G1 X90.125 Y92.287 E0.01553
G1 X89.631 Y92.261 E0.01550
G1 X89.179 Y92.137 E0.01469
G1 X88.848 Y91.979 E0.01150
G1 X88.455 Y91.691 E0.01525
G1 X88.135 Y91.328 E0.01520
G1 X87.954 Y91.026 E0.01103
G1 X87.783 Y90.573 E0.01519
G1 X87.713 Y90.095 E0.01513
G1 X87.726 Y89.742 E0.01109
G1 X87.830 Y89.269 E0.01520
G1 X88.013 Y88.873 E0.01365
M204 S1250
G1 X88.355 Y89.032 F9000.000
M204 S800
G1 F1200.000
G1 X88.611 Y88.689 E0.01342
G1 X88.820 Y88.497 E0.00889
G1 X89.167 Y88.280 E0.01284
G1 X89.556 Y88.141 E0.01295
G1 X89.947 Y88.090 E0.01237
G1 X90.245 Y88.105 E0.00934
G1 X90.643 Y88.200 E0.01285
G1 X90.999 Y88.371 E0.01237
G1 X91.240 Y88.546 E0.00934
G1 X91.522 Y88.843 E0.01286
G1 X91.733 Y89.194 E0.01284
G1 X91.833 Y89.459 E0.00889
G1 X91.906 Y89.858 E0.01272
G1 X91.906 Y90.142 E0.00889
G1 X91.833 Y90.545 E0.01284
G1 X91.673 Y90.926 E0.01296
G1 X91.435 Y91.263 E0.01296
G1 X91.132 Y91.540 E0.01284
G1 X90.892 Y91.690 E0.00889
G1 X90.512 Y91.842 E0.01284
G1 X90.104 Y91.909 E0.01296
G1 X89.692 Y91.886 E0.01295
G1 X89.311 Y91.782 E0.01237
G1 X89.042 Y91.653 E0.00935
G1 X88.711 Y91.411 E0.01286
G1 X88.441 Y91.104 E0.01284
G1 X88.295 Y90.861 E0.00889
G1 X88.150 Y90.478 E0.01284
G1 X88.091 Y90.075 E0.01278
G1 X88.101 Y89.790 E0.00894
G1 X88.189 Y89.390 E0.01284
G1 X88.330 Y89.086 E0.01048
M204 S1250
G1 X88.159 Y88.683 F9000.000
G1 E-2.24000 F4200.00000
G1 F7200.000
G1 X88.611 Y88.689 E-0.26983
G1 X88.820 Y88.497 E-0.15704
G1 X89.167 Y88.280 E-0.22692
G1 X89.556 Y88.141 E-0.22887
G1 X89.608 Y88.134 E-0.02934
G1 E-0.04800 F4200.00000
G1 Z0.400 F9000.000
G1 X84.356 Y86.926
G1 Z0.200
G1 E3.20000 F2400.00000
M204 S800
G1 F1200.000
G1 X84.690 Y86.379 E0.02009
G1 X85.077 Y85.869 E0.02009
G1 X85.513 Y85.399 E0.02009
G1 X85.993 Y84.975 E0.02009
G1 X86.513 Y84.601 E0.02009
G1 X87.068 Y84.281 E0.02009
G1 X87.652 Y84.017 E0.02009
G1 X88.260 Y83.813 E0.02009
G1 X88.884 Y83.670 E0.02009
G1 X89.520 Y83.591 E0.02009
G1 X90.163 Y83.575 E0.02017
G1 X90.582 Y83.599 E0.01316
G1 X91.222 Y83.690 E0.02024
G1 X91.844 Y83.843 E0.02009
G1 X92.448 Y84.057 E0.02009
G1 X93.027 Y84.330 E0.02009
G1 X93.577 Y84.660 E0.02009
G1 X94.091 Y85.042 E0.02009
G1 X94.564 Y85.474 E0.02009
G1 X94.992 Y85.951 E0.02009
G1 X95.370 Y86.468 E0.02009
G1 X95.695 Y87.020 E0.02009
G1 X95.964 Y87.602 E0.02009
G1 X96.173 Y88.208 E0.02009
G1 X96.321 Y88.831 E0.02009
G1 X96.405 Y89.466 E0.02009
G1 X96.427 Y90.107 E0.02009
G1 X96.384 Y90.746 E0.02009
G1 X96.277 Y91.383 E0.02024
G1 X96.174 Y91.787 E0.01309
G1 X95.964 Y92.398 E0.02024
G1 X95.695 Y92.980 E0.02009
G1 X95.370 Y93.532 E0.02009
G1 X94.992 Y94.049 E0.02009
G1 X94.564 Y94.526 E0.02009
G1 X94.091 Y94.958 E0.02009
G1 X93.577 Y95.340 E0.02009
G1 X93.027 Y95.670 E0.02009
G1 X92.448 Y95.943 E0.02009
G1 X91.844 Y96.157 E0.02009
G1 X91.222 Y96.310 E0.02009
G1 X90.587 Y96.400 E0.02009
G1 X89.947 Y96.427 E0.02009
G1 X89.307 Y96.390 E0.02009
G1 X88.670 Y96.288 E0.02024
G1 X88.264 Y96.189 E0.01309
G1 X87.652 Y95.983 E0.02024
G1 X87.068 Y95.719 E0.02009
G1 X86.513 Y95.399 E0.02009
G1 X85.993 Y95.025 E0.02009
G1 X85.513 Y94.601 E0.02009
G1 X85.077 Y94.131 E0.02009
G1 X84.690 Y93.621 E0.02009
G1 X84.356 Y93.074 E0.02009
G1 X84.078 Y92.497 E0.02009
G1 X83.859 Y91.894 E0.02009
G1 X83.701 Y91.274 E0.02009
G1 X83.605 Y90.640 E0.02009
G1 X83.573 Y90.000 E0.02009
G1 X83.605 Y89.360 E0.02009
G1 X83.701 Y88.726 E0.02009
G1 X83.859 Y88.106 E0.02009
G1 X84.078 Y87.503 E0.02009
G1 X84.330 Y86.980 E0.01821
M204 S1250
G1 X83.990 Y86.817 F9000.000
M204 S800
G1 F1200.000
G1 X84.378 Y86.167 E0.02373
G1 X84.788 Y85.626 E0.02127
G1 X85.249 Y85.129 E0.02127
G1 X85.758 Y84.680 E0.02127
G1 X86.309 Y84.284 E0.02127
G1 X86.896 Y83.945 E0.02127
G1 X87.514 Y83.666 E0.02127
G1 X88.158 Y83.450 E0.02127
G1 X88.819 Y83.299 E0.02127
G1 X89.492 Y83.214 E0.02127
G1 X90.170 Y83.197 E0.02125
G1 X90.620 Y83.223 E0.01414
G1 X91.293 Y83.319 E0.02132
G1 X91.952 Y83.481 E0.02127
G1 X92.591 Y83.708 E0.02127
G1 X93.205 Y83.997 E0.02127
G1 X93.787 Y84.346 E0.02127
G1 X94.331 Y84.751 E0.02127
G1 X94.832 Y85.208 E0.02127
G1 X95.285 Y85.713 E0.02127
G1 X95.686 Y86.261 E0.02127
G1 X96.030 Y86.845 E0.02127
G1 X96.314 Y87.461 E0.02127
G1 X96.535 Y88.103 E0.02127
G1 X96.692 Y88.763 E0.02127
G1 X96.782 Y89.435 E0.02127
G1 X96.804 Y90.113 E0.02127
G1 X96.759 Y90.790 E0.02127
G1 X96.647 Y91.461 E0.02132
G1 X96.536 Y91.896 E0.01407
G1 X96.314 Y92.539 E0.02132
G1 X96.030 Y93.155 E0.02127
G1 X95.686 Y93.739 E0.02127
G1 X95.285 Y94.287 E0.02127
G1 X94.832 Y94.792 E0.02127
G1 X94.331 Y95.249 E0.02127
G1 X93.787 Y95.654 E0.02127
G1 X93.205 Y96.003 E0.02127
G1 X92.591 Y96.292 E0.02127
G1 X91.952 Y96.519 E0.02127
G1 X91.293 Y96.681 E0.02127
G1 X90.622 Y96.776 E0.02127
G1 X89.944 Y96.804 E0.02127
G1 X89.267 Y96.765 E0.02127
G1 X88.595 Y96.658 E0.02132
G1 X88.159 Y96.551 E0.01407
G1 X87.514 Y96.334 E0.02132
G1 X86.896 Y96.055 E0.02127
G1 X86.309 Y95.716 E0.02127
G1 X85.758 Y95.320 E0.02127
G1 X85.249 Y94.871 E0.02127
G1 X84.788 Y94.374 E0.02127
G1 X84.378 Y93.833 E0.02127
G1 X84.024 Y93.254 E0.02127
G1 X83.730 Y92.643 E0.02127
G1 X83.498 Y92.006 E0.02127
G1 X83.331 Y91.348 E0.02127
G1 X83.230 Y90.678 E0.02127
G1 X83.196 Y90.000 E0.02127
G1 X83.230 Y89.322 E0.02127
G1 X83.331 Y88.652 E0.02127
G1 X83.498 Y87.994 E0.02127
G1 X83.730 Y87.357 E0.02127
G1 X83.964 Y86.871 E0.01692
M204 S1250
G1 X84.390 Y86.803 F9000.000
G1 E-2.24000 F4200.00000
G1 F7200.000
G1 X84.378 Y86.167 E-0.45254
G1 X84.788 Y85.626 E-0.37593
G1 X84.890 Y85.516 E-0.08352
G1 E-0.04800 F4200.00000
G1 Z0.400 F9000.000
G1 X87.477 Y84.220
G1 Z0.200
G1 E3.20000 F2400.00000
M204 S800
G1 F1200.000
G1 X90.821 Y87.564 E0.15091
G1 X90.338 Y87.448 E0.01586
G1 X90.154 Y87.440 E0.00587
G1 X87.232 Y84.517 E0.13189
G1 X86.885 Y84.713 E0.01271
G1 X89.637 Y87.465 E0.12420
G1 X89.400 Y87.496 E0.00761
G1 X89.197 Y87.568 E0.00688
G1 X86.551 Y84.922 E0.11943
G1 X86.235 Y85.149 E0.01241
G1 X88.811 Y87.724 E0.11622
G1 X88.477 Y87.934 E0.01257
G1 X85.941 Y85.398 E0.11443
G1 X85.659 Y85.658 E0.01226
G1 X88.185 Y88.184 E0.11401
G1 X87.939 Y88.481 E0.01230
G1 X85.397 Y85.939 E0.11472
G1 X85.153 Y86.237 E0.01231
G1 X87.729 Y88.813 E0.11626
G1 X87.558 Y89.186 E0.01307
G1 X84.919 Y86.547 E0.11910
G1 X84.713 Y86.884 E0.01260
G1 X87.460 Y89.631 E0.12398
G1 X87.444 Y89.706 E0.00247
G1 X87.435 Y90.148 E0.01409
G1 X84.521 Y87.234 E0.13149
G1 X84.345 Y87.601 E0.01298
G1 X87.579 Y90.835 E0.14597
G1 X87.698 Y91.150 E0.01074
G1 X87.906 Y91.495 E0.01286
G1 X88.264 Y91.901 E0.01726
G1 X88.702 Y92.222 E0.01735
G1 X89.080 Y92.403 E0.01336
G1 X89.172 Y92.428 E0.00305
G1 X92.398 Y95.654 E0.14559
G1 X92.767 Y95.480 E0.01301
G1 X89.842 Y92.555 E0.13199
G1 X90.140 Y92.571 E0.00952
G1 X90.364 Y92.535 E0.00726
G1 X93.116 Y95.287 E0.12420
G1 X93.453 Y95.080 E0.01259
G1 X90.807 Y92.434 E0.11940
G1 X91.195 Y92.279 E0.01332
G1 X93.764 Y94.849 E0.11595
G1 X94.060 Y94.602 E0.01230
G1 X91.528 Y92.070 E0.11428
G1 X91.813 Y91.812 E0.01226
G1 X94.344 Y94.343 E0.11425
G1 X94.603 Y94.059 E0.01226
G1 X92.062 Y91.519 E0.11466
G1 X92.277 Y91.191 E0.01251
G1 X94.850 Y93.764 E0.11612
G1 X95.079 Y93.450 E0.01239
G1 X92.438 Y90.808 E0.11923
G1 X92.469 Y90.734 E0.00259
G1 X92.536 Y90.365 E0.01197
G1 X95.287 Y93.115 E0.12415
G1 X95.482 Y92.767 E0.01273
G1 X92.566 Y89.852 E0.13159
G1 X92.472 Y89.282 E0.01842
G1 X92.431 Y89.174 E0.00370
G1 X95.653 Y92.396 E0.14542
G1 X95.801 Y92.001 E0.01345
G1 X87.999 Y84.199 E0.35212
G1 X88.411 Y84.069 E0.01380
G1 X95.933 Y91.590 E0.33945
G1 X96.031 Y91.145 E0.01454
G1 X88.853 Y83.968 E0.32392
G1 X89.328 Y83.900 E0.01531
G1 X96.105 Y90.677 E0.30586
G1 X96.139 Y90.168 E0.01628
G1 X89.837 Y83.866 E0.28443
G1 X90.385 Y83.871 E0.01748
G1 X96.127 Y89.614 E0.25917
G1 X96.058 Y89.001 E0.01966
G1 X91.001 Y83.944 E0.22823
G1 X91.168 Y83.968 E0.00539
G1 X91.697 Y84.098 E0.01740
G1 X95.905 Y88.306 E0.18991
G1 X95.701 Y87.708 E0.02017
G1 X95.573 Y87.431 E0.00972
G1 X92.569 Y84.427 E0.13559
G1 X92.894 Y84.580 E0.01147
G1 X93.419 Y84.895 E0.01955
G1 X93.911 Y85.261 E0.01955
G1 X94.312 Y85.627 E0.01733
G1 X95.362 Y86.677 E0.04740
M204 S1250
G1 E-2.24000 F4200.00000
G1 F7200.000
G1 X94.312 Y85.627 E-0.82313
G1 X94.193 Y85.519 E-0.08887
G1 E-0.04800 F4200.00000
G1 Z0.400 F9000.000
G1 X92.135 Y95.934
G1 Z0.200
G1 E3.20000 F2400.00000
M204 S800
G1 F1200.000
G1 X84.199 Y87.998 E0.35816
G1 X84.072 Y88.414 E0.01388
G1 X91.588 Y95.929 E0.33917
G1 X91.150 Y96.035 E0.01435
G1 X83.968 Y88.852 E0.32416
G1 X83.897 Y89.324 E0.01522
G1 X90.675 Y96.102 E0.30592
G1 X90.165 Y96.135 E0.01631
G1 X83.865 Y89.834 E0.28434
G1 X83.876 Y90.388 E0.01768
G1 X89.612 Y96.124 E0.25887
G1 X89.338 Y96.108 E0.00875
G1 X88.999 Y96.054 E0.01095
G1 X83.946 Y91.001 E0.22807
G1 X83.978 Y91.217 E0.00699
G1 X84.101 Y91.699 E0.01585
G1 X88.306 Y95.904 E0.18980
G1 X87.756 Y95.719 E0.01854
G1 X87.433 Y95.574 E0.01130
G1 X84.425 Y92.566 E0.13574
G1 X84.605 Y92.938 E0.01319
G1 X84.924 Y93.461 E0.01955
G1 X85.294 Y93.949 E0.01955
G1 X85.654 Y94.337 E0.01690
G1 X86.683 Y95.366 E0.04642
M204 S1250
M106 S255
;BEFORE_LAYER_CHANGE
G92 E0.0
;0.4


G1 Z0.400 F9000.000
;AFTER_LAYER_CHANGE
;0.4
G1 E-3.20000 F4200.00000
G1 Z0.600 F9000.000
G1 X82.744 Y97.374
G1 Z0.400
G1 E3.20000 F2400.00000
G1 F1894
G1 X81.447 Y95.821 E0.06345
G1 X80.913 Y94.946 E0.03213
G1 X80.465 Y94.014 E0.03241
G1 X80.116 Y93.057 E0.03195
G1 X79.860 Y92.053 E0.03248
G1 X79.706 Y91.030 E0.03245
G1 X79.654 Y90.000 E0.03234
G1 X79.706 Y88.969 E0.03234
G1 X79.858 Y87.955 E0.03216
G1 X80.113 Y86.954 E0.03238
G1 X80.463 Y85.989 E0.03220
G1 X80.911 Y85.059 E0.03236
G1 X81.447 Y84.178 E0.03232
G1 X82.740 Y82.630 E0.06325
G1 X84.144 Y81.471 E0.05709
G1 X84.984 Y80.951 E0.03096
G1 X85.947 Y80.481 E0.03361
G1 X87.872 Y79.875 E0.06326
G1 X88.890 Y79.714 E0.03232
G1 X89.946 Y79.654 E0.03316
G1 X91.965 Y79.842 E0.06361
G1 X92.968 Y80.089 E0.03238
G1 X93.936 Y80.432 E0.03220
G1 X94.874 Y80.873 E0.03248
G1 X95.751 Y81.399 E0.03206
G1 X97.315 Y82.683 E0.06347
G1 X98.030 Y83.476 E0.03347
G1 X98.635 Y84.300 E0.03207
G1 X99.580 Y86.092 E0.06351
G1 X99.932 Y87.099 E0.03344
G1 X100.164 Y88.064 E0.03113
G1 X100.346 Y89.880 E0.05722
G1 X100.173 Y91.890 E0.06326
G1 X99.935 Y92.889 E0.03220
G1 X99.596 Y93.868 E0.03248
G1 X99.168 Y94.797 E0.03207
G1 X98.643 Y95.687 E0.03240
G1 X98.035 Y96.518 E0.03228
