; generated by PrusaSlicer 2.3.0+win64 on 2022-04-07 at 11:54:33 UTC


;
;

;
;
; 

; external perimeters extrusion width = 0.45mm
; perimeters extrusion width = 0.45mm
; infill extrusion width = 0.45mm
; solid infill extrusion width = 0.45mm
; top infill extrusion width = 0.40mm
; first layer extrusion width = 0.42mm

M73 P0 R30
M201 X1250 Y1250 Z400 E5000 ; sets maximum accelerations, mm/sec^2
M203 X180 Y180 Z12 E80 ; sets maximum feedrates, mm/sec
M204 P1250 R1250 T1250 ; sets acceleration (P, T) and retract acceleration (R), mm/sec^2
M205 X8.00 Y8.00 Z2.00 E10.00 ; sets the jerk limits, mm/sec
M205 S0 T0 ; sets the minimum extruding and travel feed rate, mm/sec
M107
;TYPE:Custom
G90 ; use absolute coordinates
M83 ; extruder relative mode
M104 S170 ; set extruder temp for bed leveling
M140 S85 ; set bed temp
M109 R170 ; wait for bed leveling temp
M190 S85 ; wait for bed temp
G28 ; home all without mesh bed level
G29 ; mesh bed leveling 
M104 S240 ; set extruder temp
G92 E0.0
G1 Y-2.0 X179 F2400
G1 Z3 F720
M109 S240 ; wait for extruder temp

; intro line
G1 X170 F1000
G1 Z0.2 F720
G1 X110.0 E8.0 F900
G1 X40.0 E10.0 F700
G92 E0.0

M221 S95 ; set flow
G21 ; set units to millimeters
G90 ; use absolute coordinates
M83 ; use relative distances for extrusion
M900 K0.2 ; Filament gcode
;LAYER_CHANGE
;Z:0.2
;HEIGHT:0.2
;BEFORE_LAYER_CHANGE
G92 E0.0
;0.2


G1 E-3.20000 F2400.000
G1 Z0.200 F9000.000
;AFTER_LAYER_CHANGE
;0.2
G1 Z0.400
G1 X76.699 Y63.126
G1 Z0.200
G1 E3.20000 F1500.000
M204 S800
;TYPE:Skirt
;WIDTH:0.42
G1 F1200.000
G1 X77.034 Y62.552 E0.02083
G1 X77.515 Y62.093 E0.02083
G1 X78.103 Y61.785 E0.02083
G1 X78.754 Y61.652 E0.02083
G1 X101.104 Y61.648 E0.70075
G1 X101.967 Y61.812 E0.02755
G1 X102.709 Y62.275 E0.02743
G1 X103.235 Y62.979 E0.02755
G1 X103.468 Y63.822 E0.02743
G1 X103.477 Y86.244 E0.70302
M73 P1 R30
G1 X103.301 Y87.124 E0.02813
G1 X91.096 Y116.884 E1.00852
G1 X90.742 Y117.477 E0.02166
G1 X90.395 Y117.823 E0.01538
G1 X89.980 Y118.092 E0.01550
G1 X89.519 Y118.270 E0.01550
G1 X89.031 Y118.348 E0.01550
G1 X78.862 Y118.352 E0.31885
G1 X78.001 Y118.176 E0.02755
G1 X77.409 Y117.827 E0.02154
G1 X76.942 Y117.323 E0.02154
G1 X76.638 Y116.707 E0.02154
G1 X76.524 Y116.029 E0.02154
G1 X76.523 Y64.017 E1.63080
G1 X76.688 Y63.185 E0.02661
M204 S1250
; printing object Carriage_04_ArmEndRight02 id:0 copy 0
G1 E-2.24000 F2400.000
;WIPE_START
G1 F7200.000
G1 X77.034 Y62.552 E-0.22844
G1 X77.515 Y62.093 E-0.21039
G1 X78.103 Y61.785 E-0.21039
G1 X78.754 Y61.652 E-0.21039
G1 X78.920 Y61.652 E-0.05239
;WIPE_END
G1 E-0.04800 F2400.000
G1 Z0.400 F9000.000
G1 X82.730 Y86.127
G1 Z0.200
G1 E3.20000 F1500.000
M204 S800
;TYPE:Perimeter
G1 F1200.000
G1 X83.221 Y85.997 E0.01592
G1 X83.795 Y85.938 E0.01810
G1 X84.192 Y85.948 E0.01247
G1 X84.579 Y85.998 E0.01223
G1 X84.959 Y86.088 E0.01223
G1 X85.334 Y86.219 E0.01247
G1 X85.844 Y86.473 E0.01786
G1 X86.174 Y86.695 E0.01247
G1 X86.473 Y86.945 E0.01223
G1 X86.745 Y87.224 E0.01223
G1 X86.987 Y87.530 E0.01223
G1 X87.197 Y87.859 E0.01223
G1 X87.371 Y88.208 E0.01223
G1 X87.509 Y88.573 E0.01223
G1 X87.608 Y88.950 E0.01223
G1 X87.668 Y89.335 E0.01223
G1 X87.687 Y89.707 E0.01168
G1 X87.683 Y94.996 E0.16581
G1 X87.609 Y95.568 E0.01809
G1 X87.445 Y96.129 E0.01834
G1 X87.197 Y96.659 E0.01834
G1 X86.871 Y97.144 E0.01834
G1 X86.474 Y97.574 E0.01834
G1 X86.015 Y97.936 E0.01834
G1 X85.506 Y98.225 E0.01834
G1 X84.966 Y98.428 E0.01810
G1 X84.572 Y98.521 E0.01270
G1 X84.005 Y98.580 E0.01786
G1 X83.608 Y98.570 E0.01246
G1 X83.227 Y98.521 E0.01204
G1 X82.663 Y98.374 E0.01827
G1 X82.294 Y98.224 E0.01249
G1 X81.950 Y98.040 E0.01223
G1 X81.626 Y97.823 E0.01223
G1 X81.327 Y97.573 E0.01223
G1 X81.055 Y97.294 E0.01223
G1 X80.813 Y96.988 E0.01223
G1 X80.603 Y96.659 E0.01223
G1 X80.429 Y96.310 E0.01223
G1 X80.291 Y95.945 E0.01223
G1 X80.192 Y95.568 E0.01223
G1 X80.132 Y95.182 E0.01223
G1 X80.113 Y94.810 E0.01168
G1 X80.117 Y89.522 E0.16581
G1 X80.191 Y88.950 E0.01809
G1 X80.355 Y88.388 E0.01834
G1 X80.599 Y87.866 E0.01810
G1 X80.817 Y87.524 E0.01270
G1 X81.187 Y87.081 E0.01810
G1 X81.626 Y86.694 E0.01834
G1 X82.119 Y86.381 E0.01834
G1 X82.672 Y86.142 E0.01886
M204 S1250
G1 X82.779 Y86.504 F9000.000
M204 S800
;TYPE:External perimeter
G1 F1200.000
G1 X83.289 Y86.370 E0.01651
G1 X83.809 Y86.316 E0.01642
G1 X84.163 Y86.325 E0.01109
G1 X84.511 Y86.370 E0.01101
G1 X84.853 Y86.451 E0.01101
G1 X85.187 Y86.567 E0.01109
G1 X85.653 Y86.800 E0.01634
G1 X85.947 Y86.997 E0.01109
G1 X86.217 Y87.222 E0.01101
G1 X86.462 Y87.474 E0.01101
G1 X86.680 Y87.749 E0.01101
G1 X86.868 Y88.045 E0.01101
G1 X87.025 Y88.359 E0.01101
G1 X87.149 Y88.688 E0.01101
G1 X87.238 Y89.027 E0.01101
G1 X87.292 Y89.374 E0.01101
G1 X87.310 Y89.717 E0.01076
G1 X87.306 Y94.971 E0.16474
G1 X87.239 Y95.491 E0.01642
G1 X87.091 Y95.996 E0.01651
G1 X86.868 Y96.473 E0.01651
G1 X86.574 Y96.910 E0.01651
G1 X86.217 Y97.296 E0.01651
G1 X85.804 Y97.623 E0.01651
G1 X85.346 Y97.882 E0.01651
G1 X84.856 Y98.067 E0.01642
G1 X84.509 Y98.149 E0.01118
G1 X83.991 Y98.202 E0.01634
G1 X83.637 Y98.193 E0.01109
G1 X83.299 Y98.150 E0.01068
G1 X82.782 Y98.015 E0.01674
G1 X82.454 Y97.882 E0.01110
G1 X82.144 Y97.717 E0.01101
G1 X81.853 Y97.521 E0.01101
G1 X81.583 Y97.296 E0.01101
G1 X81.338 Y97.044 E0.01101
G1 X81.120 Y96.769 E0.01101
G1 X80.932 Y96.473 E0.01101
G1 X80.775 Y96.159 E0.01101
G1 X80.651 Y95.830 E0.01101
G1 X80.562 Y95.491 E0.01101
G1 X80.508 Y95.144 E0.01101
G1 X80.490 Y94.801 E0.01076
G1 X80.494 Y89.547 E0.16474
G1 X80.561 Y89.027 E0.01642
G1 X80.709 Y88.522 E0.01651
G1 X80.931 Y88.048 E0.01642
G1 X81.122 Y87.747 E0.01118
G1 X81.457 Y87.345 E0.01642
G1 X81.853 Y86.997 E0.01651
G1 X82.297 Y86.714 E0.01651
G1 X82.724 Y86.528 E0.01462
M204 S1250
G1 X82.855 Y86.111 F9000.000
G1 E-2.24000 F2400.000
;WIPE_START
G1 F7200.000
G1 X83.289 Y86.370 E-0.18550
G1 X83.809 Y86.316 E-0.16585
G1 X84.163 Y86.325 E-0.11205
G1 X84.511 Y86.370 E-0.11119
G1 X84.853 Y86.451 E-0.11119
G1 X85.187 Y86.567 E-0.11205
G1 X85.510 Y86.728 E-0.11418
;WIPE_END
G1 E-0.04800 F2400.000
G1 Z0.400 F9000.000
G1 X83.795 Y101.938
G1 Z0.200
G1 E3.20000 F1500.000
M204 S800
;TYPE:Perimeter
G1 F1200.000
G1 X84.192 Y101.948 E0.01247
G1 X84.579 Y101.998 E0.01223
G1 X84.959 Y102.088 E0.01223
G1 X85.334 Y102.219 E0.01247
G1 X85.844 Y102.473 E0.01786
G1 X86.174 Y102.695 E0.01247
G1 X86.473 Y102.945 E0.01223
G1 X86.745 Y103.224 E0.01223
G1 X86.987 Y103.530 E0.01223
G1 X87.197 Y103.859 E0.01223
G1 X87.371 Y104.208 E0.01223
G1 X87.509 Y104.573 E0.01223
G1 X87.608 Y104.950 E0.01223
G1 X87.668 Y105.335 E0.01223
G1 X87.687 Y105.707 E0.01168
G1 X87.683 Y110.996 E0.16581
G1 X87.609 Y111.568 E0.01809
G1 X87.445 Y112.129 E0.01834
G1 X87.197 Y112.659 E0.01834
G1 X86.871 Y113.144 E0.01834
G1 X86.474 Y113.574 E0.01834
G1 X86.015 Y113.936 E0.01834
G1 X85.507 Y114.224 E0.01832
G1 X84.980 Y114.424 E0.01767
G1 X84.573 Y114.521 E0.01312
G1 X84.005 Y114.580 E0.01789
G1 X83.608 Y114.570 E0.01246
G1 X83.227 Y114.521 E0.01204
G1 X82.663 Y114.374 E0.01827
G1 X82.294 Y114.224 E0.01249
G1 X81.950 Y114.040 E0.01223
G1 X81.626 Y113.823 E0.01223
G1 X81.327 Y113.573 E0.01223
G1 X81.055 Y113.294 E0.01223
G1 X80.813 Y112.988 E0.01223
G1 X80.603 Y112.659 E0.01223
G1 X80.429 Y112.310 E0.01223
G1 X80.291 Y111.945 E0.01223
G1 X80.192 Y111.568 E0.01223
G1 X80.132 Y111.182 E0.01223
G1 X80.113 Y110.810 E0.01168
G1 X80.117 Y105.522 E0.16581
G1 X80.191 Y104.950 E0.01809
G1 X80.355 Y104.388 E0.01834
G1 X80.599 Y103.866 E0.01810
G1 X80.817 Y103.524 E0.01270
G1 X81.187 Y103.081 E0.01810
G1 X81.626 Y102.694 E0.01834
G1 X82.119 Y102.381 E0.01834
G1 X82.655 Y102.146 E0.01834
G1 X83.221 Y101.997 E0.01834
G1 X83.735 Y101.944 E0.01622
M204 S1250
G1 X83.289 Y102.370 F9000.000
M204 S800
;TYPE:External perimeter
G1 F1200.000
G1 X83.809 Y102.316 E0.01642
G1 X84.163 Y102.325 E0.01109
G1 X84.511 Y102.370 E0.01101
G1 X84.853 Y102.451 E0.01101
G1 X85.187 Y102.567 E0.01109
G1 X85.653 Y102.800 E0.01634
G1 X85.947 Y102.997 E0.01109
G1 X86.217 Y103.222 E0.01101
G1 X86.462 Y103.474 E0.01101
G1 X86.680 Y103.749 E0.01101
G1 X86.868 Y104.045 E0.01101
G1 X87.025 Y104.359 E0.01101
G1 X87.149 Y104.688 E0.01101
G1 X87.238 Y105.027 E0.01101
G1 X87.292 Y105.374 E0.01101
G1 X87.310 Y105.717 E0.01076
G1 X87.306 Y110.971 E0.16474
G1 X87.239 Y111.491 E0.01642
G1 X87.091 Y111.996 E0.01651
G1 X86.868 Y112.473 E0.01651
G1 X86.574 Y112.910 E0.01651
G1 X86.217 Y113.296 E0.01651
G1 X85.804 Y113.623 E0.01651
G1 X85.346 Y113.882 E0.01650
G1 X84.868 Y114.063 E0.01601
G1 X84.509 Y114.149 E0.01159
G1 X83.991 Y114.202 E0.01635
G1 X83.637 Y114.193 E0.01109
G1 X83.299 Y114.150 E0.01068
G1 X82.782 Y114.015 E0.01674
G1 X82.454 Y113.882 E0.01110
G1 X82.144 Y113.717 E0.01101
G1 X81.853 Y113.521 E0.01101
G1 X81.583 Y113.296 E0.01101
G1 X81.338 Y113.044 E0.01101
G1 X81.120 Y112.769 E0.01101
G1 X80.932 Y112.473 E0.01101
G1 X80.775 Y112.159 E0.01101
G1 X80.651 Y111.830 E0.01101
G1 X80.562 Y111.491 E0.01101
G1 X80.508 Y111.144 E0.01101
G1 X80.490 Y110.801 E0.01076
G1 X80.494 Y105.547 E0.16474
G1 X80.561 Y105.027 E0.01642
G1 X80.709 Y104.522 E0.01651
G1 X80.931 Y104.048 E0.01642
G1 X81.122 Y103.747 E0.01118
G1 X81.457 Y103.345 E0.01642
G1 X81.853 Y102.997 E0.01651
G1 X82.297 Y102.714 E0.01651
G1 X82.779 Y102.504 E0.01651
G1 X83.231 Y102.385 E0.01463
M204 S1250
G1 X83.423 Y101.993 F9000.000
G1 E-2.24000 F2400.000
;WIPE_START
G1 F7200.000
G1 X83.809 Y102.316 E-0.18464
G1 X84.163 Y102.325 E-0.11205
G1 X84.511 Y102.370 E-0.11119
G1 X84.853 Y102.451 E-0.11119
G1 X85.187 Y102.567 E-0.11205
G1 X85.653 Y102.800 E-0.16498
G1 X85.947 Y102.997 E-0.11205
G1 X85.956 Y103.005 E-0.00385
;WIPE_END
G1 E-0.04800 F2400.000
G1 Z0.400 F9000.000
G1 X88.113 Y85.438
G1 Z0.200
G1 E3.20000 F1500.000
M204 S800
;TYPE:Perimeter
G1 F1200.000
G1 X88.113 Y115.188 E0.93279
G1 X79.687 Y115.188 E0.26419
G1 X79.687 Y64.812 E1.57950
M73 P2 R30
G1 X100.313 Y64.812 E0.64671
G1 X100.313 Y85.438 E0.64671
G1 X88.173 Y85.438 E0.38064
M204 S1250
G1 X88.490 Y85.815 F9000.000
M204 S800
;TYPE:External perimeter
G1 F1200.000
G1 X88.490 Y115.565 E0.93279
G1 X79.310 Y115.565 E0.28783
G1 X79.310 Y64.435 E1.60315
M73 P2 R29
G1 X100.690 Y64.435 E0.67036
G1 X100.690 Y85.815 E0.67035
G1 X88.550 Y85.815 E0.38064
M204 S1250
G1 X88.114 Y85.952 F9000.000
G1 E-2.24000 F2400.000
;WIPE_START
G1 F7200.000
G1 X88.544 Y88.695 E-0.91200
;WIPE_END
G1 E-0.04800 F2400.000
G1 Z0.400 F9000.000
G1 X87.474 Y87.973
G1 Z0.200
G1 E3.20000 F1500.000
M204 S800
;TYPE:Gap fill
;WIDTH:0.332511
G1 F1200.000
G1 X87.734 Y88.096 E0.00691
G1 X87.802 Y88.473 E0.00921
M204 S1250
M204 S800
;WIDTH:0.212215
G1 X87.857 Y88.895 E0.00599
M204 S1250
M204 S800
;WIDTH:0.111722
G1 X87.900 Y89.695 E0.00459
M204 S1250
G1 E-2.24000 F2400.000
;WIPE_START
G1 F7200.000
G1 X87.857 Y88.895 E-0.25393
;WIPE_END
G1 E-0.70607 F2400.000
G1 Z0.400 F9000.000
G1 X87.899 Y91.751
G1 Z0.200
G1 E3.20000 F1500.000
M204 S800
;WIDTH:0.0961166
G1 F1200.000
G1 X87.898 Y95.011 E0.01442
M204 S1250
M204 S800
;WIDTH:0.135034
G1 X87.878 Y95.313 E0.00232
M204 S1250
M204 S800
;WIDTH:0.17606
G1 X87.858 Y95.625 E0.00346
M204 S1250
M204 S800
;WIDTH:0.219833
G1 X87.836 Y95.779 E0.00228
M204 S1250
M204 S800
;WIDTH:0.263607
G1 X87.814 Y95.932 E0.00285
M204 S1250
M204 S800
;WIDTH:0.307381
G1 X87.792 Y96.086 E0.00341
M204 S1250
M204 S800
;WIDTH:0.351156
G1 X87.770 Y96.239 E0.00397
M204 S1250
M204 S800
;WIDTH:0.359963
G1 X87.702 Y96.614 E0.01004
M204 S1250
G1 X88.000 Y97.564 F9000.000
M204 S800
;TYPE:Solid infill
;WIDTH:0.427362
G1 F1200.000
G1 X87.360 Y96.924 E0.02893
G1 X87.141 Y97.249 E0.01252
G1 X87.830 Y97.938 E0.03115
G1 X87.830 Y98.482 E0.01738
G1 X86.889 Y97.541 E0.04254
G1 X86.622 Y97.817 E0.01229
G1 X87.830 Y99.026 E0.05463
G1 X87.830 Y99.569 E0.01738
G1 X86.318 Y98.057 E0.06835
G1 X86.173 Y98.172 E0.00590
G1 X85.992 Y98.275 E0.00667
G1 X87.830 Y100.113 E0.08311
G1 X87.830 Y100.657 E0.01738
G1 X85.645 Y98.471 E0.09880
G1 X85.252 Y98.622 E0.01344
G1 X87.830 Y101.200 E0.11654
G1 X87.830 Y101.744 E0.01738
G1 X84.836 Y98.750 E0.13538
G1 X84.619 Y98.801 E0.00712
G1 X84.369 Y98.826 E0.00804
G1 X87.830 Y102.288 E0.15647
G1 X87.830 Y102.831 E0.01738
G1 X83.858 Y98.859 E0.17959
G1 X83.586 Y98.852 E0.00868
G1 X83.266 Y98.811 E0.01033
G1 X87.830 Y103.375 E0.20634
G1 X87.830 Y103.645 E0.00864
G1 X87.410 Y103.445 E0.01489
G1 X87.393 Y103.481 E0.00128
G1 X82.228 Y98.316 E0.23349
M204 S1250
G1 E-2.24000 F2400.000
;WIPE_START
G1 F7200.000
G1 X84.264 Y100.353 E-0.91200
;WIPE_END
G1 E-0.04800 F2400.000
G1 Z0.400 F9000.000
G1 X80.159 Y96.792
G1 Z0.200
G1 E3.20000 F1500.000
M204 S800
G1 F1200.000
G1 X85.262 Y101.894 E0.23066
G1 X85.038 Y101.816 E0.00758
G1 X84.531 Y101.707 E0.01657
G1 X79.970 Y97.146 E0.20620
G1 X79.970 Y97.690 E0.01738
G1 X83.939 Y101.659 E0.17945
G1 X83.784 Y101.655 E0.00497
G1 X83.428 Y101.692 E0.01143
G1 X79.970 Y98.233 E0.15635
G1 X79.970 Y98.777 E0.01738
G1 X82.965 Y101.772 E0.13541
G1 X82.538 Y101.889 E0.01415
G1 X79.970 Y99.321 E0.11611
G1 X79.970 Y99.864 E0.01738
G1 X82.160 Y102.054 E0.09900
G1 X81.986 Y102.130 E0.00606
G1 X81.806 Y102.245 E0.00681
G1 X79.970 Y100.408 E0.08302
G1 X79.970 Y100.952 E0.01738
G1 X81.474 Y102.456 E0.06800
G1 X81.182 Y102.708 E0.01232
G1 X79.970 Y101.495 E0.05481
G1 X79.970 Y102.039 E0.01738
G1 X80.906 Y102.975 E0.04233
G1 X80.659 Y103.272 E0.01234
G1 X79.970 Y102.583 E0.03115
G1 X79.970 Y103.126 E0.01738
G1 X80.560 Y103.717 E0.02668
M204 S1250
G1 X80.098 Y103.907 F9000.000
M204 S800
;TYPE:Gap fill
;WIDTH:0.35997
G1 F1200.000
G1 X80.030 Y104.279 E0.00996
M204 S1250
M204 S800
;WIDTH:0.351164
G1 X80.008 Y104.432 E0.00397
M204 S1250
M204 S800
;WIDTH:0.307392
G1 X79.986 Y104.586 E0.00341
M204 S1250
M204 S800
;WIDTH:0.263619
G1 X79.964 Y104.739 E0.00285
M204 S1250
M204 S800
;WIDTH:0.219847
G1 X79.942 Y104.893 E0.00228
M204 S1250
M204 S800
;WIDTH:0.176072
G1 X79.922 Y105.205 E0.00346
M204 S1250
M204 S800
;WIDTH:0.135043
G1 X79.902 Y105.507 E0.00232
M204 S1250
M204 S800
;WIDTH:0.0961209
G1 X79.901 Y108.772 E0.01444
M204 S1250
M73 P3 R29
G1 E-2.24000 F2400.000
;WIPE_START
G1 F7200.000
G1 X79.902 Y105.892 E-0.91200
;WIPE_END
G1 E-0.04800 F2400.000
G1 Z0.400 F9000.000
G1 X79.900 Y110.823
G1 Z0.200
G1 E3.20000 F1500.000
M204 S800
;WIDTH:0.112092
G1 F1200.000
G1 X79.910 Y111.207 E0.00221
M204 S1250
M204 S800
;WIDTH:0.143781
G1 X79.926 Y111.412 E0.00172
M204 S1250
M204 S800
;WIDTH:0.17689
G1 X79.943 Y111.623 E0.00236
M204 S1250
M204 S800
;WIDTH:0.212228
G1 X79.960 Y111.760 E0.00194
M204 S1250
M204 S800
;WIDTH:0.247566
G1 X79.978 Y111.896 E0.00234
M204 S1250
M204 S800
;WIDTH:0.286786
G1 X79.998 Y112.045 E0.00305
M204 S1250
M204 S800
;WIDTH:0.332521
G1 X80.020 Y112.171 E0.00307
M204 S1250
M204 S800
;WIDTH:0.362933
G1 X80.066 Y112.422 E0.00679
G1 X80.326 Y112.545 E0.00764
M204 S1250
G1 X79.838 Y112.638 F9000.000
M204 S800
;TYPE:Solid infill
;WIDTH:0.437604
G1 F1200.000
G1 X82.104 Y114.905 E0.10521
G1 X81.546 Y114.905 E0.01832
G1 X79.970 Y113.329 E0.07317
G1 X79.970 Y113.887 E0.01832
G1 X80.988 Y114.905 E0.04726
G1 X80.430 Y114.905 E0.01832
G1 X79.800 Y114.275 E0.02923
M204 S1250
G1 E-2.24000 F2400.000
;WIPE_START
G1 F7200.000
G1 X80.430 Y114.905 E-0.28204
G1 X80.988 Y114.905 E-0.17675
G1 X79.976 Y113.893 E-0.45320
;WIPE_END
G1 E-0.04800 F2400.000
G1 Z0.400 F9000.000
G1 X82.454 Y114.761
G1 Z0.200
G1 E3.20000 F1500.000
M204 S800
;TYPE:Gap fill
;WIDTH:0.382784
G1 F1200.000
G1 X83.154 Y114.850 E0.01994
M204 S1250
M204 S800
;WIDTH:0.274332
G1 X84.024 Y114.884 E0.01677
M204 S1250
M204 S800
;WIDTH:0.305004
G1 X84.322 Y114.868 E0.00649
M204 S1250
M204 S800
;WIDTH:0.338956
G1 X84.639 Y114.851 E0.00781
M204 S1250
M204 S800
;WIDTH:0.373756
G1 X84.786 Y114.834 E0.00409
M204 S1250
M204 S800
;WIDTH:0.408556
G1 X84.934 Y114.817 E0.00452
M204 S1250
M204 S800
;WIDTH:0.443356
G1 X85.082 Y114.799 E0.00495
M204 S1250
M204 S800
;WIDTH:0.451088
G1 X85.107 Y114.795 E0.00088
M204 S1250
M204 S800
;WIDTH:0.46221
G1 X85.344 Y114.752 E0.00839
M204 S1250
G1 E-2.24000 F2400.000
;WIPE_START
G1 F7200.000
G1 X85.107 Y114.795 E-0.07617
;WIPE_END
G1 E-0.88383 F2400.000
G1 Z0.400 F9000.000
G1 X88.000 Y113.556
G1 Z0.200
