; generated by PrusaSlicer 2.3.0+win64 on 2022-04-05 at 18:56:42 UTC


;
;

;
;
; 

; external perimeters extrusion width = 0.45mm
; perimeters extrusion width = 0.45mm
; infill extrusion width = 0.45mm
; solid infill extrusion width = 0.45mm
; top infill extrusion width = 0.40mm
; first layer extrusion width = 0.42mm

M73 P0 R28
M201 X1250 Y1250 Z400 E5000 ; sets maximum accelerations, mm/sec^2
M203 X180 Y180 Z12 E80 ; sets maximum feedrates, mm/sec
M204 P1250 R1250 T1250 ; sets acceleration (P, T) and retract acceleration (R), mm/sec^2
M205 X8.00 Y8.00 Z2.00 E10.00 ; sets the jerk limits, mm/sec
M205 S0 T0 ; sets the minimum extruding and travel feed rate, mm/sec
M107
;TYPE:Custom
G90 ; use absolute coordinates
M83 ; extruder relative mode
M104 S170 ; set extruder temp for bed leveling
M140 S60 ; set bed temp
M109 R170 ; wait for bed leveling temp
M190 S60 ; wait for bed temp
G28 ; home all without mesh bed level
G29 ; mesh bed leveling 
M104 S215 ; set extruder temp
G92 E0.0
G1 Y-2.0 X179 F2400
G1 Z3 F720
M109 S215 ; wait for extruder temp

; intro line
G1 X170 F1000
G1 Z0.2 F720
G1 X110.0 E8.0 F900
G1 X40.0 E10.0 F700
G92 E0.0

M221 S95 ; set flow
G21 ; set units to millimeters
G90 ; use absolute coordinates
M83 ; use relative distances for extrusion
M900 K0.2 ; Filament gcode LA 1.5
; ; Filament gcode LA 1.0
;LAYER_CHANGE
;Z:0.2
;HEIGHT:0.2
;BEFORE_LAYER_CHANGE
G92 E0.0
;0.2


G1 E-3.20000 F4200.000
G1 Z0.200 F9000.000
;AFTER_LAYER_CHANGE
;0.2
G1 Z0.400
G1 X76.572 Y66.420
G1 Z0.200
G1 E3.20000 F2400.000
M204 S800
;TYPE:Skirt
;WIDTH:0.42
G1 F1200.000
G1 X76.844 Y65.707 E0.02390
G1 X77.327 Y65.118 E0.02390
G1 X77.972 Y64.712 E0.02390
G1 X78.716 Y64.530 E0.02402
G1 X101.104 Y64.523 E0.70195
M73 P1 R28
G1 X101.988 Y64.695 E0.02825
G1 X102.742 Y65.181 E0.02813
G1 X103.262 Y65.913 E0.02813
G1 X103.474 Y66.789 E0.02825
G1 X103.428 Y113.580 E1.46713
G1 X103.175 Y114.260 E0.02272
G1 X102.729 Y114.831 E0.02272
G1 X102.132 Y115.241 E0.02272
G1 X101.439 Y115.453 E0.02272
G1 X90.620 Y115.428 E0.33923
G1 X90.128 Y115.269 E0.01621
G1 X89.685 Y115.010 E0.01609
G1 X89.308 Y114.662 E0.01609
G1 X89.013 Y114.237 E0.01621
G1 X76.615 Y89.756 E0.86040
G1 X76.523 Y89.106 E0.02060
G1 X76.572 Y66.480 E0.70943
M204 S1250
; printing object Carriage_04_ArmEndRight01_Mirrored id:0 copy 0
G1 E-2.24000 F4200.000
;WIPE_START
G1 F7200.000
G1 X76.844 Y65.707 E-0.45369
G1 X77.327 Y65.118 E-0.42244
G1 X77.382 Y65.083 E-0.03587
;WIPE_END
G1 E-0.04800 F4200.000
G1 Z0.400 F9000.000
G1 X94.654 Y105.511
G1 Z0.200
G1 E3.20000 F2400.000
M204 S800
;TYPE:External perimeter
G1 F1200.000
G1 X94.980 Y105.379 E0.01101
G1 X95.317 Y105.281 E0.01101
G1 X95.662 Y105.218 E0.01101
G1 X96.012 Y105.191 E0.01101
G1 X96.363 Y105.200 E0.01101
G1 X96.701 Y105.243 E0.01068
G1 X97.218 Y105.378 E0.01674
G1 X97.546 Y105.511 E0.01110
G1 X97.856 Y105.676 E0.01101
G1 X98.147 Y105.872 E0.01101
G1 X98.417 Y106.097 E0.01101
G1 X98.662 Y106.349 E0.01101
G1 X98.880 Y106.624 E0.01101
G1 X99.068 Y106.920 E0.01101
G1 X99.221 Y107.225 E0.01068
G1 X99.397 Y107.729 E0.01674
G1 X99.470 Y108.075 E0.01110
G1 X99.506 Y108.424 E0.01101
G1 X99.506 Y108.776 E0.01101
G1 X99.470 Y109.125 E0.01101
G1 X99.398 Y109.469 E0.01101
G1 X99.291 Y109.803 E0.01101
G1 X99.151 Y110.125 E0.01101
G1 X98.978 Y110.430 E0.01101
G1 X98.774 Y110.716 E0.01101
G1 X98.541 Y110.982 E0.01109
G1 X98.149 Y111.326 E0.01634
G1 X97.856 Y111.524 E0.01109
G1 X97.546 Y111.689 E0.01101
G1 X97.220 Y111.821 E0.01101
G1 X96.883 Y111.919 E0.01101
G1 X96.538 Y111.982 E0.01101
G1 X96.188 Y112.009 E0.01101
G1 X95.837 Y112.000 E0.01101
G1 X95.489 Y111.955 E0.01101
G1 X95.147 Y111.874 E0.01101
G1 X94.825 Y111.763 E0.01068
G1 X94.347 Y111.525 E0.01674
G1 X94.053 Y111.328 E0.01110
G1 X93.783 Y111.103 E0.01101
G1 X93.538 Y110.851 E0.01101
G1 X93.320 Y110.576 E0.01101
G1 X93.132 Y110.280 E0.01101
G1 X92.975 Y109.966 E0.01101
G1 X92.851 Y109.637 E0.01101
G1 X92.764 Y109.308 E0.01068
G1 X92.694 Y108.779 E0.01674
G1 X92.694 Y108.424 E0.01110
G1 X92.730 Y108.075 E0.01101
G1 X92.802 Y107.731 E0.01101
G1 X92.909 Y107.397 E0.01101
G1 X93.049 Y107.075 E0.01101
G1 X93.222 Y106.770 E0.01101
G1 X93.426 Y106.483 E0.01101
G1 X93.659 Y106.218 E0.01109
G1 X94.051 Y105.874 E0.01634
G1 X94.344 Y105.676 E0.01109
G1 X94.601 Y105.539 E0.00913
M204 S1250
G1 X94.684 Y105.161 F9000.000
G1 E-2.24000 F4200.000
;WIPE_START
G1 F7200.000
G1 X94.980 Y105.379 E-0.22768
G1 X95.317 Y105.281 E-0.19458
G1 X95.662 Y105.218 E-0.19458
G1 X96.012 Y105.191 E-0.19458
G1 X96.194 Y105.195 E-0.10059
;WIPE_END
G1 E-0.04800 F4200.000
G1 Z0.400 F9000.000
G1 X95.808 Y96.377
G1 Z0.200
G1 E3.20000 F2400.000
M204 S800
;TYPE:Perimeter
G1 F1200.000
G1 X95.421 Y96.327 E0.01223
G1 X95.041 Y96.237 E0.01223
G1 X94.666 Y96.106 E0.01247
G1 X94.156 Y95.852 E0.01786
G1 X93.826 Y95.630 E0.01247
G1 X93.527 Y95.380 E0.01223
G1 X93.255 Y95.101 E0.01223
G1 X93.013 Y94.795 E0.01223
G1 X92.803 Y94.466 E0.01223
G1 X92.626 Y94.110 E0.01247
G1 X92.439 Y93.572 E0.01786
G1 X92.357 Y93.183 E0.01247
G1 X92.317 Y92.795 E0.01223
G1 X92.317 Y92.405 E0.01223
G1 X92.357 Y92.017 E0.01223
G1 X92.437 Y91.635 E0.01223
G1 X92.556 Y91.264 E0.01223
G1 X92.712 Y90.906 E0.01223
G1 X92.904 Y90.567 E0.01223
G1 X93.130 Y90.249 E0.01223
G1 X93.392 Y89.951 E0.01247
G1 X93.820 Y89.574 E0.01786
G1 X94.150 Y89.353 E0.01247
G1 X94.494 Y89.169 E0.01223
G1 X94.856 Y89.022 E0.01223
G1 X95.230 Y88.913 E0.01223
G1 X95.614 Y88.843 E0.01223
G1 X96.002 Y88.813 E0.01223
G1 X96.392 Y88.823 E0.01223
G1 X96.787 Y88.874 E0.01247
G1 X97.337 Y89.019 E0.01786
G1 X97.706 Y89.169 E0.01247
G1 X98.050 Y89.353 E0.01223
G1 X98.374 Y89.570 E0.01223
G1 X98.673 Y89.820 E0.01223
G1 X98.945 Y90.099 E0.01223
G1 X99.187 Y90.405 E0.01223
G1 X99.396 Y90.734 E0.01222
G1 X99.568 Y91.077 E0.01204
G1 X99.761 Y91.627 E0.01827
G1 X99.843 Y92.017 E0.01249
G1 X99.883 Y92.405 E0.01223
G1 X99.883 Y92.795 E0.01223
G1 X99.843 Y93.183 E0.01223
G1 X99.763 Y93.565 E0.01223
G1 X99.644 Y93.936 E0.01223
G1 X99.488 Y94.294 E0.01223
G1 X99.296 Y94.633 E0.01223
G1 X99.070 Y94.951 E0.01223
G1 X98.808 Y95.249 E0.01247
G1 X98.380 Y95.626 E0.01786
G1 X98.050 Y95.847 E0.01247
G1 X97.706 Y96.031 E0.01223
G1 X97.344 Y96.178 E0.01223
G1 X96.970 Y96.287 E0.01223
G1 X96.586 Y96.357 E0.01223
G1 X96.198 Y96.387 E0.01223
G1 X95.868 Y96.378 E0.01035
M204 S1250
G1 X95.877 Y96.001 F9000.000
M204 S800
;TYPE:External perimeter
G1 F1200.000
G1 X95.489 Y95.955 E0.01227
G1 X95.147 Y95.874 E0.01101
G1 X94.813 Y95.758 E0.01109
G1 X94.347 Y95.525 E0.01634
G1 X94.053 Y95.328 E0.01109
G1 X93.783 Y95.103 E0.01101
G1 X93.538 Y94.851 E0.01101
G1 X93.320 Y94.576 E0.01101
G1 X93.132 Y94.280 E0.01101
G1 X92.974 Y93.963 E0.01109
G1 X92.803 Y93.471 E0.01634
G1 X92.730 Y93.125 E0.01109
G1 X92.694 Y92.776 E0.01101
G1 X92.694 Y92.424 E0.01101
G1 X92.730 Y92.075 E0.01101
G1 X92.802 Y91.731 E0.01101
G1 X92.909 Y91.397 E0.01101
G1 X93.049 Y91.075 E0.01101
G1 X93.222 Y90.770 E0.01101
G1 X93.426 Y90.483 E0.01101
G1 X93.659 Y90.218 E0.01109
G1 X94.051 Y89.874 E0.01634
G1 X94.344 Y89.676 E0.01109
G1 X94.654 Y89.511 E0.01101
G1 X94.980 Y89.379 E0.01101
G1 X95.317 Y89.281 E0.01101
G1 X95.662 Y89.218 E0.01101
G1 X96.012 Y89.191 E0.01101
G1 X96.363 Y89.200 E0.01101
G1 X96.714 Y89.245 E0.01109
G1 X97.218 Y89.378 E0.01634
G1 X97.546 Y89.511 E0.01109
G1 X97.856 Y89.676 E0.01101
G1 X98.147 Y89.872 E0.01101
G1 X98.417 Y90.097 E0.01101
G1 X98.662 Y90.349 E0.01101
G1 X98.880 Y90.624 E0.01101
G1 X99.068 Y90.920 E0.01101
G1 X99.221 Y91.225 E0.01068
G1 X99.397 Y91.729 E0.01674
G1 X99.470 Y92.075 E0.01110
G1 X99.506 Y92.424 E0.01101
G1 X99.506 Y92.776 E0.01101
G1 X99.470 Y93.125 E0.01101
G1 X99.398 Y93.469 E0.01101
G1 X99.291 Y93.803 E0.01101
G1 X99.151 Y94.125 E0.01101
G1 X98.978 Y94.430 E0.01101
G1 X98.774 Y94.716 E0.01101
G1 X98.541 Y94.982 E0.01109
G1 X98.149 Y95.326 E0.01634
G1 X97.856 Y95.524 E0.01109
G1 X97.546 Y95.689 E0.01101
G1 X97.220 Y95.821 E0.01101
G1 X96.883 Y95.919 E0.01101
G1 X96.538 Y95.982 E0.01101
G1 X96.188 Y96.009 E0.01101
G1 X95.937 Y96.003 E0.00786
M204 S1250
G1 X95.659 Y96.326 F9000.000
G1 E-2.24000 F4200.000
;WIPE_START
G1 F7200.000
G1 X95.489 Y95.955 E-0.25007
G1 X95.147 Y95.874 E-0.19458
G1 X94.813 Y95.758 E-0.19608
G1 X94.375 Y95.539 E-0.27126
;WIPE_END
G1 E-0.04800 F4200.000
G1 Z0.400 F9000.000
G1 X91.887 Y88.313
G1 Z0.200
G1 E3.20000 F2400.000
M204 S800
;TYPE:Perimeter
G1 F1200.000
G1 X79.687 Y88.313 E0.38252
G1 X79.687 Y67.687 E0.64671
G1 X100.313 Y67.687 E0.64671
G1 X100.313 Y112.313 E1.39921
G1 X97.497 Y112.313 E0.08829
G1 X97.461 Y112.130 E0.00584
G1 X97.706 Y112.031 E0.00827
G1 X98.050 Y111.847 E0.01223
G1 X98.380 Y111.626 E0.01247
G1 X98.808 Y111.249 E0.01786
G1 X99.070 Y110.951 E0.01247
G1 X99.296 Y110.633 E0.01223
G1 X99.488 Y110.294 E0.01223
G1 X99.644 Y109.936 E0.01223
G1 X99.763 Y109.565 E0.01223
G1 X99.843 Y109.183 E0.01223
G1 X99.883 Y108.795 E0.01223
G1 X99.883 Y108.405 E0.01223
G1 X99.843 Y108.017 E0.01223
G1 X99.761 Y107.627 E0.01249
G1 X99.568 Y107.077 E0.01827
M73 P2 R28
G1 X99.396 Y106.734 E0.01204
G1 X99.187 Y106.405 E0.01222
G1 X98.945 Y106.099 E0.01223
G1 X98.673 Y105.820 E0.01223
G1 X98.374 Y105.570 E0.01223
G1 X98.050 Y105.353 E0.01223
G1 X97.706 Y105.169 E0.01223
G1 X97.337 Y105.019 E0.01249
G1 X96.773 Y104.872 E0.01827
G1 X96.392 Y104.823 E0.01204
G1 X96.002 Y104.813 E0.01222
G1 X95.614 Y104.843 E0.01223
G1 X95.230 Y104.913 E0.01223
G1 X94.856 Y105.022 E0.01223
G1 X94.494 Y105.169 E0.01223
G1 X94.150 Y105.353 E0.01223
G1 X93.820 Y105.574 E0.01247
G1 X93.392 Y105.951 E0.01786
G1 X93.130 Y106.249 E0.01247
G1 X92.904 Y106.567 E0.01223
G1 X92.712 Y106.906 E0.01223
G1 X92.556 Y107.264 E0.01223
G1 X92.437 Y107.635 E0.01223
G1 X92.357 Y108.017 E0.01223
G1 X92.317 Y108.405 E0.01223
G1 X92.317 Y108.803 E0.01249
G1 X92.393 Y109.381 E0.01827
G1 X92.492 Y109.752 E0.01204
G1 X92.629 Y110.117 E0.01222
G1 X92.803 Y110.466 E0.01223
G1 X93.013 Y110.795 E0.01223
G1 X93.255 Y111.101 E0.01223
G1 X93.527 Y111.380 E0.01223
G1 X93.826 Y111.630 E0.01223
G1 X94.157 Y111.852 E0.01249
G1 X94.733 Y112.138 E0.02018
G1 X94.692 Y112.313 E0.00562
G1 X91.887 Y112.313 E0.08796
G1 X91.887 Y88.373 E0.75062
M204 S1250
G1 X91.510 Y88.690 F9000.000
M204 S800
;TYPE:External perimeter
G1 F1200.000
G1 X79.310 Y88.690 E0.38252
G1 X79.310 Y67.310 E0.67035
G1 X100.690 Y67.310 E0.67036
G1 X100.690 Y112.690 E1.42286
G1 X91.510 Y112.690 E0.28783
G1 X91.510 Y88.750 E0.75062
M204 S1250
G1 X91.461 Y88.293 F9000.000
G1 E-2.24000 F4200.000
;WIPE_START
G1 F7200.000
G1 X89.864 Y88.742 E-0.91200
;WIPE_END
G1 E-0.04800 F4200.000
G1 Z0.400 F9000.000
G1 X92.296 Y90.793
G1 Z0.200
G1 E3.20000 F2400.000
M204 S800
;TYPE:Gap fill
;WIDTH:0.35947
G1 F1200.000
G1 X92.210 Y91.286 E0.01319
M204 S1250
M204 S800
;WIDTH:0.311069
G1 X92.188 Y91.423 E0.00308
M204 S1250
M204 S800
;WIDTH:0.268558
G1 X92.167 Y91.559 E0.00259
M204 S1250
M204 S800
;WIDTH:0.226046
G1 X92.145 Y91.773 E0.00328
M204 S1250
M204 S800
;WIDTH:0.181298
G1 X92.124 Y91.978 E0.00237
M204 S1250
M204 S800
;WIDTH:0.138975
G1 X92.102 Y92.393 E0.00331
M204 S1250
M204 S800
;WIDTH:0.0959997
G1 X92.102 Y92.807 E0.00183
G1 X92.145 Y93.432 E0.00276
M204 S1250
M204 S800
;WIDTH:0.22569
G1 X92.193 Y93.797 E0.00560
M204 S1250
M204 S800
;WIDTH:0.326243
G1 X92.242 Y94.085 E0.00688
M204 S1250
M204 S800
;WIDTH:0.423564
G1 X92.266 Y94.229 E0.00462
G1 X92.288 Y94.240 E0.00078
M204 S1250
M204 S800
;WIDTH:0.389497
G1 X92.523 Y94.353 E0.00750
M204 S1250
G1 E-2.24000 F4200.000
;WIPE_START
G1 F7200.000
G1 X92.288 Y94.240 E-0.14426
;WIPE_END
G1 E-0.81574 F4200.000
G1 Z0.400 F9000.000
G1 X99.449 Y94.593
G1 Z0.200
G1 E3.20000 F2400.000
M204 S800
;TYPE:Solid infill
;WIDTH:0.420969
G1 F1200.000
G1 X100.030 Y95.174 E0.02584
G1 X100.030 Y95.709 E0.01681
G1 X99.357 Y95.035 E0.02992
G1 X99.115 Y95.328 E0.01194
G1 X100.030 Y96.243 E0.04068
G1 X100.030 Y96.778 E0.01681
G1 X98.845 Y95.593 E0.05268
G1 X98.561 Y95.843 E0.01191
G1 X100.030 Y97.313 E0.06533
G1 X100.030 Y97.847 E0.01681
G1 X98.242 Y96.059 E0.07949
G1 X97.897 Y96.249 E0.01237
G1 X100.030 Y98.382 E0.09481
G1 X100.030 Y98.916 E0.01681
G1 X97.524 Y96.410 E0.11142
G1 X97.117 Y96.538 E0.01340
G1 X100.030 Y99.451 E0.12949
G1 X100.030 Y99.986 E0.01681
G1 X96.673 Y96.628 E0.14926
G1 X96.179 Y96.669 E0.01558
G1 X100.030 Y100.520 E0.17121
G1 X100.030 Y101.055 E0.01681
G1 X95.612 Y96.636 E0.19643
G1 X95.370 Y96.605 E0.00765
G1 X94.942 Y96.502 E0.01383
G1 X100.030 Y101.590 E0.22617
G1 X100.030 Y102.124 E0.01681
G1 X93.979 Y96.073 E0.26900
G1 X93.656 Y95.856 E0.01223
G1 X93.335 Y95.588 E0.01318
G1 X93.042 Y95.288 E0.01318
G1 X92.782 Y94.959 E0.01318
G1 X92.648 Y94.748 E0.00787
G1 X92.572 Y94.905 E0.00549
G1 X92.324 Y94.787 E0.00865
G1 X92.312 Y94.810 E0.00081
G1 X92.170 Y94.736 E0.00504
G1 X92.170 Y94.799 E0.00197
G1 X100.030 Y102.659 E0.34943
G1 X100.030 Y103.194 E0.01681
G1 X92.170 Y95.333 E0.34943
G1 X92.170 Y95.868 E0.01681
G1 X100.030 Y103.728 E0.34943
G1 X100.030 Y104.263 E0.01681
G1 X92.170 Y96.403 E0.34943
M73 P2 R27
G1 X92.170 Y96.937 E0.01681
G1 X100.030 Y104.797 E0.34943
G1 X100.030 Y105.332 E0.01681
G1 X92.170 Y97.472 E0.34943
G1 X92.170 Y98.007 E0.01681
G1 X100.030 Y105.867 E0.34943
M73 P3 R27
G1 X100.030 Y106.401 E0.01681
G1 X92.170 Y98.541 E0.34943
G1 X92.170 Y99.076 E0.01681
G1 X98.221 Y105.126 E0.26899
G1 X97.826 Y104.913 E0.01411
G1 X97.426 Y104.750 E0.01357
G1 X97.269 Y104.709 E0.00511
G1 X92.170 Y99.610 E0.22667
G1 X92.170 Y100.145 E0.01681
G1 X96.588 Y104.563 E0.19642
G1 X96.021 Y104.531 E0.01786
G1 X92.170 Y100.680 E0.17121
G1 X92.170 Y101.214 E0.01681
G1 X95.527 Y104.572 E0.14925
G1 X95.083 Y104.662 E0.01426
G1 X92.170 Y101.749 E0.12949
G1 X92.170 Y102.284 E0.01681
G1 X94.676 Y104.790 E0.11142
G1 X94.303 Y104.951 E0.01279
G1 X92.170 Y102.818 E0.09481
G1 X92.170 Y103.353 E0.01681
G1 X93.958 Y105.141 E0.07949
G1 X93.639 Y105.357 E0.01210
G1 X92.170 Y103.888 E0.06532
G1 X92.170 Y104.422 E0.01681
G1 X93.355 Y105.607 E0.05267
G1 X93.085 Y105.872 E0.01188
G1 X92.170 Y104.957 E0.04068
G1 X92.170 Y105.492 E0.01681
G1 X92.843 Y106.165 E0.02992
G1 X92.627 Y106.483 E0.01210
G1 X92.000 Y105.856 E0.02785
M204 S1250
G1 X92.296 Y106.793 F9000.000
M204 S800
;TYPE:Gap fill
;WIDTH:0.359469
G1 F1200.000
G1 X92.210 Y107.286 E0.01319
M204 S1250
M204 S800
;WIDTH:0.311069
G1 X92.188 Y107.423 E0.00308
M204 S1250
M204 S800
;WIDTH:0.268558
G1 X92.167 Y107.559 E0.00259
M204 S1250
M204 S800
;WIDTH:0.226046
G1 X92.145 Y107.773 E0.00328
M204 S1250
M204 S800
;WIDTH:0.181298
G1 X92.124 Y107.978 E0.00237
M204 S1250
M204 S800
;WIDTH:0.138975
G1 X92.102 Y108.393 E0.00331
M204 S1250
M204 S800
;WIDTH:0.0959997
G1 X92.102 Y108.819 E0.00188
G1 X92.143 Y109.435 E0.00272
M204 S1250
M204 S800
;WIDTH:0.212777
G1 X92.198 Y109.853 E0.00595
M204 S1250
M204 S800
;WIDTH:0.332613
G1 X92.266 Y110.229 E0.00921
G1 X92.526 Y110.352 E0.00692
M204 S1250
G1 X92.000 Y110.674 F9000.000
M204 S800
;TYPE:Solid infill
;WIDTH:0.485099
G1 F1200.000
G1 X93.356 Y112.030 E0.07050
G1 X92.731 Y112.030 E0.02299
G1 X92.000 Y111.300 E0.03799
M204 S1250
G1 E-2.24000 F4200.000
;WIPE_START
G1 F7200.000
G1 X92.731 Y112.030 E-0.57253
G1 X93.343 Y112.030 E-0.33947
;WIPE_END
G1 E-0.04800 F4200.000
G1 Z0.400 F9000.000
G1 X94.055 Y112.037
G1 Z0.200
G1 E3.20000 F2400.000
M204 S800
;TYPE:Gap fill
;WIDTH:0.110502
G1 F1200.000
G1 X94.137 Y112.091 E0.00055
G1 X94.198 Y112.105 E0.00035
M204 S1250
G1 X94.899 Y112.259 F9000.000
M204 S800
;WIDTH:0.442984
G1 F1200.000
G1 X95.413 Y112.319 E0.01721
M204 S1250
M204 S800
;WIDTH:0.34689
G1 X96.204 Y112.349 E0.02002
M204 S1250
M204 S800
;WIDTH:0.377752
G1 X96.592 Y112.334 E0.01080
M204 S1250
M204 S800
;WIDTH:0.41124
G1 X96.777 Y112.317 E0.00570
M204 S1250
M204 S800
;WIDTH:0.449574
G1 X96.984 Y112.298 E0.00700
M204 S1250
M204 S800
;WIDTH:0.476674
G1 X97.294 Y112.254 E0.01129
M204 S1250
G1 X98.028 Y112.124 F9000.000
M204 S800
;WIDTH:0.0970041
G1 F1200.000
G1 X98.205 Y111.999 E0.00097
M204 S1250
G1 E-2.24000 F4200.000
;WIPE_START
G1 F7200.000
G1 X98.028 Y112.124 E-0.11999
;WIPE_END
G1 E-0.84001 F4200.000
G1 Z0.400 F9000.000
G1 X100.200 Y111.407
G1 Z0.200
G1 E3.20000 F2400.000
M204 S800
