; generated by PrusaSlicer 2.3.0+win64 on 2022-04-10 at 07:56:14 UTC


;
;

;
;
; 

; external perimeters extrusion width = 0.45mm
; perimeters extrusion width = 0.45mm
; infill extrusion width = 0.45mm
; solid infill extrusion width = 0.45mm
; top infill extrusion width = 0.40mm
; first layer extrusion width = 0.42mm

M73 P0 R65
M201 X1250 Y1250 Z400 E5000 ; sets maximum accelerations, mm/sec^2
M203 X180 Y180 Z12 E80 ; sets maximum feedrates, mm/sec
M204 P1250 R1250 T1250 ; sets acceleration (P, T) and retract acceleration (R), mm/sec^2
M205 X8.00 Y8.00 Z2.00 E10.00 ; sets the jerk limits, mm/sec
M205 S0 T0 ; sets the minimum extruding and travel feed rate, mm/sec
M107
;TYPE:Custom
G90 ; use absolute coordinates
M83 ; extruder relative mode
M104 S170 ; set extruder temp for bed leveling
M140 S85 ; set bed temp
M109 R170 ; wait for bed leveling temp
M190 S85 ; wait for bed temp
G28 ; home all without mesh bed level
G29 ; mesh bed leveling 
M104 S240 ; set extruder temp
G92 E0.0
G1 Y-2.0 X179 F2400
G1 Z3 F720
M109 S240 ; wait for extruder temp

; intro line
G1 X170 F1000
G1 Z0.2 F720
G1 X110.0 E8.0 F900
G1 X40.0 E10.0 F700
G92 E0.0

M221 S95 ; set flow
G21 ; set units to millimeters
G90 ; use absolute coordinates
M83 ; use relative distances for extrusion
M900 K0.2 ; Filament gcode
;LAYER_CHANGE
;Z:0.2
;HEIGHT:0.2
;BEFORE_LAYER_CHANGE
G92 E0.0
;0.2


G1 E-3.20000 F2400.000
G1 Z0.200 F9000.000
;AFTER_LAYER_CHANGE
;0.2
G1 Z0.400
G1 X77.275 Y37.386
G1 Z0.200
G1 E3.20000 F1500.000
M204 S800
;TYPE:Skirt
;WIDTH:0.42
G1 F1200.000
G1 X77.753 Y36.826 E0.02308
G1 X78.376 Y36.441 E0.02296
G1 X79.090 Y36.264 E0.02308
G1 X92.950 Y35.747 E0.43488
G1 X103.054 Y35.746 E0.31679
G1 X103.953 Y35.924 E0.02872
G1 X104.714 Y36.426 E0.02860
G1 X105.231 Y37.178 E0.02860
G1 X105.427 Y38.072 E0.02872
G1 X105.427 Y141.877 E3.25472
G1 X105.358 Y142.446 E0.01799
G1 X105.061 Y143.145 E0.02378
G1 X104.557 Y143.716 E0.02390
G1 X103.897 Y144.098 E0.02390
G1 X103.154 Y144.252 E0.02378
G1 X93.007 Y144.254 E0.31817
G1 X76.870 Y143.761 E0.50620
G1 X76.380 Y143.693 E0.01550
G1 X75.669 Y143.388 E0.02426
G1 X75.094 Y142.871 E0.02426
G1 X74.717 Y142.200 E0.02414
G1 X74.573 Y141.439 E0.02426
G1 X74.573 Y61.366 E2.51064
G1 X76.992 Y38.061 E0.73465
G1 X77.252 Y37.441 E0.02108
M204 S1250
; printing object Carriage_04_ArmMid_02 id:1 copy 0
G1 E-2.24000 F2400.000
;WIPE_START
G1 F7200.000
G1 X77.753 Y36.826 E-0.25122
G1 X78.376 Y36.441 E-0.23187
G1 X79.090 Y36.264 E-0.23306
G1 X79.708 Y36.240 E-0.19585
;WIPE_END
G1 E-0.04800 F2400.000
G1 Z0.400 F9000.000
G1 X97.174 Y120.423
G1 Z0.200
G1 E3.20000 F1500.000
M204 S800
;TYPE:Perimeter
G1 F1200.000
G1 X97.632 Y120.278 E0.01504
G1 X97.980 Y120.238 E0.01098
G1 X98.447 Y120.274 E0.01468
G1 X98.784 Y120.367 E0.01098
G1 X99.204 Y120.575 E0.01468
G1 X99.473 Y120.780 E0.01062
G1 X99.708 Y121.024 E0.01062
G1 X99.963 Y121.417 E0.01469
G1 X100.094 Y121.742 E0.01098
G1 X100.183 Y122.202 E0.01468
G1 X100.183 Y122.552 E0.01098
G1 X100.094 Y123.012 E0.01468
G1 X99.963 Y123.337 E0.01098
G1 X99.702 Y123.739 E0.01504
G1 X99.348 Y124.080 E0.01540
G1 X98.926 Y124.331 E0.01540
G1 X98.469 Y124.475 E0.01504
G1 X98.121 Y124.516 E0.01098
G1 X97.654 Y124.480 E0.01468
G1 X97.327 Y124.390 E0.01062
G1 X97.018 Y124.251 E0.01062
G1 X96.635 Y123.982 E0.01469
G1 X96.392 Y123.730 E0.01098
G1 X96.138 Y123.337 E0.01468
G1 X96.007 Y123.012 E0.01098
G1 X95.915 Y122.541 E0.01504
G1 X95.934 Y122.061 E0.01504
G1 X96.014 Y121.721 E0.01098
G1 X96.210 Y121.283 E0.01504
G1 X96.501 Y120.901 E0.01504
G1 X96.762 Y120.668 E0.01098
G1 X97.123 Y120.454 E0.01316
M204 S1250
G1 X97.316 Y120.778 F9000.000
M204 S800
;TYPE:External perimeter
G1 F1200.000
G1 X97.711 Y120.649 E0.01304
G1 X97.987 Y120.617 E0.00871
G1 X98.382 Y120.647 E0.01241
G1 X98.649 Y120.721 E0.00871
G1 X99.004 Y120.897 E0.01241
G1 X99.222 Y121.062 E0.00858
G1 X99.411 Y121.260 E0.00858
G1 X99.627 Y121.592 E0.01241
G1 X99.730 Y121.849 E0.00871
G1 X99.806 Y122.238 E0.01241
G1 X99.806 Y122.516 E0.00871
G1 X99.730 Y122.904 E0.01241
G1 X99.627 Y123.162 E0.00871
G1 X99.409 Y123.498 E0.01254
G1 X99.118 Y123.778 E0.01267
G1 X98.771 Y123.984 E0.01267
G1 X98.390 Y124.105 E0.01254
G1 X98.114 Y124.137 E0.00871
G1 X97.719 Y124.107 E0.01241
G1 X97.455 Y124.034 E0.00858
G1 X97.205 Y123.922 E0.00858
G1 X96.882 Y123.694 E0.01241
G1 X96.689 Y123.494 E0.00871
G1 X96.474 Y123.162 E0.01241
G1 X96.370 Y122.904 E0.00871
G1 X96.294 Y122.512 E0.01254
G1 X96.309 Y122.112 E0.01254
G1 X96.372 Y121.842 E0.00871
G1 X96.536 Y121.477 E0.01254
G1 X96.779 Y121.159 E0.01254
G1 X96.986 Y120.974 E0.00871
G1 X97.264 Y120.809 E0.01014
M204 S1250
G1 X97.358 Y120.380 F9000.000
G1 E-2.24000 F2400.000
;WIPE_START
G1 F7200.000
G1 X97.711 Y120.649 E-0.15034
G1 X97.987 Y120.617 E-0.08793
G1 X98.382 Y120.647 E-0.12537
G1 X98.649 Y120.721 E-0.08793
G1 X99.004 Y120.897 E-0.12537
G1 X99.222 Y121.062 E-0.08665
G1 X99.411 Y121.260 E-0.08665
G1 X99.627 Y121.592 E-0.12537
G1 X99.670 Y121.698 E-0.03639
;WIPE_END
G1 E-0.04800 F2400.000
G1 Z0.400 F9000.000
G1 X97.483 Y136.312
G1 Z0.200
G1 E3.20000 F1500.000
M204 S800
;TYPE:Perimeter
G1 F1200.000
G1 X97.957 Y136.239 E0.01504
G1 X98.307 Y136.253 E0.01098
G1 X98.774 Y136.362 E0.01504
G1 X99.204 Y136.575 E0.01504
G1 X99.473 Y136.780 E0.01062
G1 X99.708 Y137.024 E0.01062
G1 X99.969 Y137.427 E0.01504
G1 X100.131 Y137.878 E0.01504
G1 X100.183 Y138.213 E0.01062
G1 X100.183 Y138.552 E0.01062
G1 X100.092 Y139.023 E0.01504
G1 X99.895 Y139.461 E0.01504
G1 X99.694 Y139.747 E0.01098
G1 X99.356 Y140.072 E0.01468
G1 X99.063 Y140.262 E0.01098
G1 X98.618 Y140.442 E0.01504
G1 X98.144 Y140.515 E0.01504
G1 X97.794 Y140.501 E0.01098
G1 X97.327 Y140.392 E0.01504
G1 X96.897 Y140.179 E0.01504
G1 X96.627 Y139.974 E0.01062
G1 X96.392 Y139.730 E0.01062
G1 X96.131 Y139.327 E0.01504
G1 X95.969 Y138.876 E0.01504
G1 X95.916 Y138.529 E0.01098
G1 X95.934 Y138.061 E0.01469
G1 X96.014 Y137.721 E0.01098
G1 X96.205 Y137.293 E0.01469
G1 X96.400 Y137.016 E0.01062
G1 X96.635 Y136.772 E0.01062
G1 X97.027 Y136.496 E0.01504
G1 X97.427 Y136.335 E0.01352
M204 S1250
G1 X97.568 Y136.685 F9000.000
M204 S800
;TYPE:External perimeter
G1 F1200.000
G1 X97.979 Y136.617 E0.01304
G1 X98.256 Y136.628 E0.00871
G1 X98.646 Y136.719 E0.01254
G1 X99.004 Y136.897 E0.01254
G1 X99.222 Y137.062 E0.00858
G1 X99.411 Y137.260 E0.00858
G1 X99.629 Y137.595 E0.01254
G1 X99.764 Y137.972 E0.01254
G1 X99.806 Y138.242 E0.00858
G1 X99.806 Y138.516 E0.00858
G1 X99.730 Y138.908 E0.01254
G1 X99.566 Y139.273 E0.01254
G1 X99.406 Y139.501 E0.00871
G1 X99.121 Y139.775 E0.01241
G1 X98.888 Y139.926 E0.00871
G1 X98.517 Y140.076 E0.01254
G1 X98.122 Y140.137 E0.01254
G1 X97.844 Y140.126 E0.00871
G1 X97.455 Y140.035 E0.01254
G1 X97.096 Y139.857 E0.01254
G1 X96.879 Y139.691 E0.00858
G1 X96.689 Y139.494 E0.00858
G1 X96.472 Y139.159 E0.01254
G1 X96.336 Y138.782 E0.01254
G1 X96.294 Y138.508 E0.00871
G1 X96.309 Y138.112 E0.01241
G1 X96.372 Y137.842 E0.00871
G1 X96.534 Y137.480 E0.01241
G1 X96.692 Y137.257 E0.00858
G1 X96.882 Y137.060 E0.00858
G1 X97.209 Y136.829 E0.01254
G1 X97.513 Y136.707 E0.01027
M204 S1250
G1 X97.667 Y136.297 F9000.000
G1 E-2.24000 F2400.000
;WIPE_START
G1 F7200.000
G1 X97.979 Y136.617 E-0.15033
G1 X98.256 Y136.628 E-0.08794
G1 X98.646 Y136.719 E-0.12665
G1 X99.004 Y136.897 E-0.12666
G1 X99.222 Y137.062 E-0.08665
G1 X99.411 Y137.260 E-0.08665
G1 X99.629 Y137.595 E-0.12666
G1 X99.757 Y137.953 E-0.12046
;WIPE_END
G1 E-0.04800 F2400.000
G1 Z0.400 F9000.000
G1 X97.071 Y58.012
G1 Z0.200
G1 E3.20000 F1500.000
M204 S800
;TYPE:Perimeter
G1 F1200.000
G1 X96.604 Y57.976 E0.01469
G1 X96.266 Y57.883 E0.01098
G1 X95.847 Y57.675 E0.01468
G1 X95.568 Y57.463 E0.01098
G1 X95.257 Y57.113 E0.01469
G1 X95.083 Y56.822 E0.01062
G1 X94.957 Y56.508 E0.01062
G1 X94.868 Y56.048 E0.01469
G1 X94.868 Y55.698 E0.01098
G1 X94.957 Y55.238 E0.01468
G1 X95.088 Y54.913 E0.01098
G1 X95.348 Y54.511 E0.01504
G1 X95.694 Y54.178 E0.01504
G1 X95.988 Y53.988 E0.01098
G1 X96.433 Y53.808 E0.01504
G1 X96.918 Y53.734 E0.01540
G1 X97.397 Y53.770 E0.01504
G1 X97.734 Y53.863 E0.01098
G1 X98.154 Y54.071 E0.01469
G1 X98.432 Y54.283 E0.01098
G1 X98.744 Y54.633 E0.01469
G1 X98.923 Y54.934 E0.01098
G1 X99.081 Y55.374 E0.01468
G1 X99.135 Y55.721 E0.01098
G1 X99.117 Y56.189 E0.01468
G1 X99.037 Y56.529 E0.01098
G1 X98.841 Y56.967 E0.01504
G1 X98.543 Y57.358 E0.01540
G1 X98.173 Y57.663 E0.01504
G1 X97.865 Y57.830 E0.01098
G1 X97.419 Y57.972 E0.01469
G1 X97.131 Y58.005 E0.00910
M204 S1250
G1 X97.087 Y57.630 F9000.000
M204 S800
;TYPE:External perimeter
G1 F1200.000
G1 X96.669 Y57.603 E0.01315
G1 X96.401 Y57.529 E0.00871
G1 X96.046 Y57.353 E0.01241
G1 X95.826 Y57.185 E0.00871
G1 X95.562 Y56.890 E0.01241
G1 X95.422 Y56.654 E0.00858
G1 X95.320 Y56.401 E0.00858
G1 X95.245 Y56.012 E0.01241
G1 X95.245 Y55.734 E0.00871
G1 X95.320 Y55.346 E0.01241
G1 X95.424 Y55.088 E0.00871
G1 X95.641 Y54.752 E0.01254
G1 X95.929 Y54.475 E0.01254
G1 X96.163 Y54.324 E0.00871
G1 X96.533 Y54.174 E0.01254
G1 X96.933 Y54.113 E0.01267
G1 X97.332 Y54.143 E0.01254
G1 X97.599 Y54.217 E0.00871
G1 X97.954 Y54.393 E0.01241
G1 X98.175 Y54.561 E0.00871
G1 X98.438 Y54.857 E0.01241
G1 X98.580 Y55.095 E0.00871
G1 X98.714 Y55.468 E0.01241
G1 X98.756 Y55.742 E0.00871
G1 X98.741 Y56.138 E0.01241
G1 X98.678 Y56.408 E0.00871
G1 X98.514 Y56.773 E0.01254
G1 X98.269 Y57.095 E0.01267
G1 X97.961 Y57.349 E0.01254
G1 X97.717 Y57.482 E0.00871
G1 X97.340 Y57.601 E0.01241
G1 X97.147 Y57.623 E0.00608
M204 S1250
G1 X96.899 Y57.983 F9000.000
G1 E-2.24000 F2400.000
;WIPE_START
G1 F7200.000
G1 X96.669 Y57.603 E-0.15150
G1 X96.401 Y57.529 E-0.08793
G1 X96.046 Y57.353 E-0.12537
G1 X95.826 Y57.185 E-0.08793
G1 X95.562 Y56.890 E-0.12537
G1 X95.422 Y56.654 E-0.08665
G1 X95.320 Y56.401 E-0.08664
G1 X95.245 Y56.012 E-0.12538
G1 X95.245 Y55.901 E-0.03523
;WIPE_END
G1 E-0.04800 F2400.000
G1 Z0.400 F9000.000
G1 X97.082 Y45.513
M73 P0 R64
G1 Z0.200
G1 E3.20000 F1500.000
M204 S800
;TYPE:Perimeter
G1 F1200.000
G1 X96.604 Y45.476 E0.01504
G1 X96.266 Y45.383 E0.01098
G1 X95.847 Y45.175 E0.01469
G1 X95.568 Y44.963 E0.01098
G1 X95.257 Y44.613 E0.01469
G1 X95.083 Y44.322 E0.01062
G1 X94.957 Y44.008 E0.01062
G1 X94.868 Y43.548 E0.01469
G1 X94.868 Y43.198 E0.01098
G1 X94.957 Y42.738 E0.01468
G1 X95.088 Y42.413 E0.01098
G1 X95.348 Y42.011 E0.01504
G1 X95.694 Y41.678 E0.01504
G1 X95.988 Y41.488 E0.01098
G1 X96.433 Y41.308 E0.01504
G1 X96.918 Y41.234 E0.01540
G1 X97.397 Y41.270 E0.01504
G1 X97.734 Y41.363 E0.01098
G1 X98.154 Y41.571 E0.01469
G1 X98.432 Y41.783 E0.01098
G1 X98.744 Y42.133 E0.01469
G1 X98.923 Y42.434 E0.01098
G1 X99.081 Y42.874 E0.01468
G1 X99.135 Y43.221 E0.01098
G1 X99.117 Y43.689 E0.01468
G1 X99.037 Y44.029 E0.01098
G1 X98.845 Y44.457 E0.01468
G1 X98.650 Y44.734 E0.01062
G1 X98.416 Y44.978 E0.01062
G1 X98.023 Y45.254 E0.01504
G1 X97.568 Y45.438 E0.01540
G1 X97.142 Y45.503 E0.01352
M204 S1250
G1 X97.084 Y45.131 F9000.000
M204 S800
;TYPE:External perimeter
G1 F1200.000
G1 X96.669 Y45.103 E0.01304
G1 X96.401 Y45.029 E0.00871
G1 X96.046 Y44.853 E0.01241
G1 X95.826 Y44.685 E0.00871
G1 X95.562 Y44.390 E0.01241
G1 X95.422 Y44.154 E0.00858
G1 X95.320 Y43.901 E0.00858
G1 X95.245 Y43.512 E0.01241
G1 X95.245 Y43.234 E0.00871
G1 X95.320 Y42.846 E0.01241
G1 X95.424 Y42.588 E0.00871
G1 X95.641 Y42.252 E0.01254
G1 X95.929 Y41.975 E0.01254
G1 X96.163 Y41.824 E0.00871
G1 X96.533 Y41.674 E0.01254
G1 X96.933 Y41.613 E0.01267
G1 X97.332 Y41.643 E0.01254
G1 X97.599 Y41.717 E0.00871
G1 X97.954 Y41.893 E0.01241
G1 X98.175 Y42.061 E0.00871
G1 X98.438 Y42.357 E0.01241
G1 X98.580 Y42.595 E0.00871
G1 X98.714 Y42.968 E0.01241
G1 X98.756 Y43.242 E0.00871
G1 X98.741 Y43.638 E0.01241
G1 X98.678 Y43.908 E0.00871
G1 X98.516 Y44.270 E0.01241
G1 X98.359 Y44.493 E0.00858
G1 X98.169 Y44.690 E0.00858
G1 X97.842 Y44.921 E0.01254
G1 X97.467 Y45.072 E0.01267
G1 X97.143 Y45.122 E0.01027
M204 S1250
G1 X96.900 Y45.486 F9000.000
G1 E-2.24000 F2400.000
;WIPE_START
G1 F7200.000
G1 X96.669 Y45.103 E-0.15034
G1 X96.401 Y45.029 E-0.08793
G1 X96.046 Y44.853 E-0.12537
G1 X95.826 Y44.685 E-0.08793
G1 X95.562 Y44.390 E-0.12537
G1 X95.422 Y44.154 E-0.08665
G1 X95.320 Y43.901 E-0.08664
G1 X95.245 Y43.512 E-0.12538
G1 X95.245 Y43.397 E-0.03639
;WIPE_END
G1 E-0.04800 F2400.000
G1 Z0.400 F9000.000
G1 X100.213 Y46.590
G1 Z0.200
G1 E3.20000 F1500.000
M204 S800
;TYPE:Perimeter
G1 F1200.000
G1 X100.213 Y61.665 E0.47268
M73 P1 R64
G1 X102.263 Y61.662 E0.06428
G1 X102.263 Y141.090 E2.49041
G1 X93.843 Y141.090 E0.26401
G1 X93.788 Y38.910 E3.20377
G1 X102.263 Y38.910 E0.26573
G1 X102.263 Y46.590 E0.24079
G1 X100.273 Y46.590 E0.06240
M204 S1250
G1 X100.590 Y46.967 F9000.000
M204 S800
;TYPE:External perimeter
G1 F1200.000
G1 X100.590 Y61.288 E0.44902
G1 X102.640 Y61.284 E0.06428
G1 X102.640 Y141.467 E2.51408
G1 X93.466 Y141.467 E0.28765
G1 X93.411 Y38.533 E3.22742
G1 X102.640 Y38.533 E0.28939
G1 X102.640 Y46.967 E0.26444
G1 X100.650 Y46.967 E0.06240
M204 S1250
G1 X100.229 Y47.139 F9000.000
G1 E-2.24000 F2400.000
;WIPE_START
G1 F7200.000
G1 X100.638 Y49.847 E-0.91200
;WIPE_END
G1 E-0.04800 F2400.000
G1 Z0.400 F9000.000
G1 X101.385 Y39.023
G1 Z0.200
G1 E3.20000 F1500.000
M204 S800
;TYPE:Solid infill
;WIDTH:0.421267
G1 F1200.000
G1 X101.980 Y39.619 E0.02648
G1 X101.980 Y40.154 E0.01683
G1 X101.020 Y39.193 E0.04274
G1 X100.485 Y39.193 E0.01683
G1 X101.980 Y40.689 E0.06655
G1 X101.980 Y41.224 E0.01683
G1 X99.950 Y39.193 E0.09035
G1 X99.415 Y39.193 E0.01683
G1 X101.980 Y41.759 E0.11416
G1 X101.980 Y42.294 E0.01683
G1 X98.879 Y39.193 E0.13796
G1 X98.344 Y39.193 E0.01683
G1 X101.980 Y42.829 E0.16177
G1 X101.980 Y43.364 E0.01683
G1 X97.809 Y39.193 E0.18557
G1 X97.274 Y39.193 E0.01683
G1 X101.980 Y43.899 E0.20938
G1 X101.980 Y44.434 E0.01683
G1 X96.739 Y39.193 E0.23318
G1 X96.204 Y39.193 E0.01683
G1 X101.980 Y44.969 E0.25699
G1 X101.980 Y45.504 E0.01683
G1 X99.370 Y42.894 E0.11612
G1 X99.418 Y43.204 E0.00987
G1 X99.408 Y43.467 E0.00828
G1 X101.980 Y46.039 E0.11444
G1 X101.980 Y46.307 E0.00842
G1 X101.713 Y46.307 E0.00841
G1 X99.348 Y43.942 E0.10523
G1 X99.306 Y44.120 E0.00577
G1 X99.209 Y44.338 E0.00749
G1 X101.178 Y46.307 E0.08762
G1 X100.643 Y46.307 E0.01683
G1 X99.027 Y44.691 E0.07191
G1 X98.794 Y44.993 E0.01200
G1 X100.108 Y46.307 E0.05847
G1 X99.930 Y46.307 E0.00558
G1 X99.930 Y46.665 E0.01125
G1 X98.518 Y45.252 E0.06285
G1 X98.204 Y45.473 E0.01208
G1 X99.930 Y47.200 E0.07683
G1 X99.930 Y47.735 E0.01683
G1 X97.832 Y45.636 E0.09337
G1 X97.643 Y45.712 E0.00640
G1 X97.409 Y45.748 E0.00745
G1 X99.930 Y48.270 E0.11218
G1 X99.930 Y48.805 E0.01683
G1 X96.724 Y45.599 E0.14265
M204 S1250
G1 E-2.24000 F2400.000
;WIPE_START
G1 F7200.000
G1 X98.761 Y47.635 E-0.91200
;WIPE_END
G1 E-0.04800 F2400.000
G1 Z0.400 F9000.000
G1 X97.717 Y41.241
G1 Z0.200
G1 E3.20000 F1500.000
M204 S800
G1 F1200.000
G1 X95.669 Y39.193 E0.09112
G1 X95.134 Y39.193 E0.01683
G1 X96.892 Y40.951 E0.07823
G1 X96.429 Y41.023 E0.01475
G1 X94.599 Y39.193 E0.08142
G1 X94.071 Y39.193 E0.01661
G1 X96.035 Y41.164 E0.08754
G1 X95.857 Y41.236 E0.00603
G1 X95.684 Y41.348 E0.00649
G1 X94.071 Y39.735 E0.07174
G1 X94.072 Y40.271 E0.01684
G1 X95.384 Y41.584 E0.05841
G1 X95.116 Y41.850 E0.01190
G1 X94.072 Y40.806 E0.04644
G1 X94.072 Y41.341 E0.01684
G1 X94.905 Y42.175 E0.03707
G1 X94.836 Y42.283 E0.00404
G1 X94.733 Y42.537 E0.00864
G1 X94.072 Y41.877 E0.02938
G1 X94.073 Y42.412 E0.01684
G1 X94.625 Y42.964 E0.02457
G1 X94.585 Y43.171 E0.00662
G1 X94.585 Y43.459 E0.00907
G1 X94.073 Y42.947 E0.02277
G1 X94.073 Y43.483 E0.01684
G1 X94.688 Y44.097 E0.02735
G1 X94.829 Y44.448 E0.01189
G1 X95.027 Y44.781 E0.01220
G1 X95.375 Y45.171 E0.01644
G1 X95.697 Y45.417 E0.01272
G1 X96.165 Y45.649 E0.01644
G1 X96.267 Y45.677 E0.00332
G1 X99.930 Y49.340 E0.16298
G1 X99.930 Y49.875 E0.01683
G1 X94.074 Y44.018 E0.26057
G1 X94.074 Y44.554 E0.01684
G1 X99.930 Y50.410 E0.26056
G1 X99.930 Y50.945 E0.01683
G1 X94.074 Y45.089 E0.26055
G1 X94.074 Y45.624 E0.01684
G1 X99.930 Y51.480 E0.26054
G1 X99.930 Y52.015 E0.01683
G1 X94.075 Y46.160 E0.26052
G1 X94.075 Y46.695 E0.01684
G1 X99.930 Y52.550 E0.26051
G1 X99.930 Y53.085 E0.01683
