; generated by PrusaSlicer 2.3.0+win64 on 2022-04-07 at 08:59:55 UTC


;
;

;
;
; 

; external perimeters extrusion width = 0.45mm
; perimeters extrusion width = 0.45mm
; infill extrusion width = 0.45mm
; solid infill extrusion width = 0.45mm
; top infill extrusion width = 0.40mm
; first layer extrusion width = 0.42mm

M73 P0 R58
M201 X1250 Y1250 Z400 E5000 ; sets maximum accelerations, mm/sec^2
M203 X180 Y180 Z12 E80 ; sets maximum feedrates, mm/sec
M204 P1250 R1250 T1250 ; sets acceleration (P, T) and retract acceleration (R), mm/sec^2
M205 X8.00 Y8.00 Z2.00 E10.00 ; sets the jerk limits, mm/sec
M205 S0 T0 ; sets the minimum extruding and travel feed rate, mm/sec
M107
;TYPE:Custom
G90 ; use absolute coordinates
M83 ; extruder relative mode
M104 S170 ; set extruder temp for bed leveling
M140 S85 ; set bed temp
M109 R170 ; wait for bed leveling temp
M190 S85 ; wait for bed temp
G28 ; home all without mesh bed level
G29 ; mesh bed leveling 
M104 S240 ; set extruder temp
G92 E0.0
G1 Y-2.0 X179 F2400
G1 Z3 F720
M109 S240 ; wait for extruder temp

; intro line
G1 X170 F1000
G1 Z0.2 F720
G1 X110.0 E8.0 F900
G1 X40.0 E10.0 F700
G92 E0.0

M221 S95 ; set flow
G21 ; set units to millimeters
G90 ; use absolute coordinates
M83 ; use relative distances for extrusion
M900 K0.2 ; Filament gcode
;LAYER_CHANGE
;Z:0.2
;HEIGHT:0.2
;BEFORE_LAYER_CHANGE
G92 E0.0
;0.2


G1 E-3.20000 F2400.000
G1 Z0.200 F9000.000
;AFTER_LAYER_CHANGE
;0.2
G1 Z0.400
G1 X68.809 Y62.870
G1 Z0.200
G1 E3.20000 F1500.000
M204 S800
;TYPE:Skirt
;WIDTH:0.42
G1 F1200.000
G1 X69.446 Y62.141 E0.03036
G1 X97.917 Y41.545 E1.10179
G1 X98.445 Y41.330 E0.01787
G1 X99.009 Y41.247 E0.01787
G1 X109.124 Y41.246 E0.31715
G1 X110.019 Y41.422 E0.02860
G1 X110.781 Y41.923 E0.02860
G1 X111.299 Y42.674 E0.02860
G1 X111.496 Y43.565 E0.02860
G1 X111.484 Y136.624 E2.91781
G1 X111.281 Y137.367 E0.02414
G1 X110.851 Y138.005 E0.02414
G1 X110.240 Y138.473 E0.02414
G1 X109.511 Y138.722 E0.02414
G1 X98.873 Y138.741 E0.33357
G1 X98.281 Y138.601 E0.01906
G1 X97.745 Y138.316 E0.01906
G1 X69.486 Y117.912 E1.09287
G1 X69.007 Y117.450 E0.02083
G1 X68.677 Y116.878 E0.02071
G1 X68.503 Y115.994 E0.02825
G1 X68.516 Y63.789 E1.63684
G1 X68.791 Y62.928 E0.02836
M204 S1250
; printing object Carriage_04_ArmEndRight02 id:1 copy 0
G1 E-2.24000 F2400.000
;WIPE_START
G1 F7200.000
G1 X69.446 Y62.141 E-0.32414
G1 X70.950 Y61.053 E-0.58786
;WIPE_END
G1 E-0.04800 F2400.000
G1 Z0.400 F9000.000
G1 X78.017 Y92.860
G1 Z0.200
G1 E3.20000 F1500.000
M204 S800
;TYPE:Perimeter
G1 F1200.000
G1 X78.013 Y94.980 E0.06647
G1 X77.924 Y95.439 E0.01467
G1 X77.793 Y95.764 E0.01098
G1 X77.538 Y96.157 E0.01469
G1 X77.303 Y96.401 E0.01062
G1 X77.034 Y96.607 E0.01062
G1 X76.614 Y96.815 E0.01469
G1 X76.287 Y96.904 E0.01062
G1 X75.951 Y96.943 E0.01062
G1 X75.484 Y96.907 E0.01469
G1 X75.157 Y96.818 E0.01062
G1 X74.858 Y96.684 E0.01027
G1 X74.584 Y96.506 E0.01027
G1 X74.339 Y96.288 E0.01027
G1 X74.131 Y96.035 E0.01027
G1 X73.963 Y95.754 E0.01027
G1 X73.837 Y95.439 E0.01062
G1 X73.748 Y94.980 E0.01467
G1 X73.744 Y92.860 E0.06647
G1 X73.228 Y92.442 E0.02081
G1 X72.849 Y92.008 E0.01808
G1 X72.628 Y91.678 E0.01245
G1 X72.442 Y91.327 E0.01245
G1 X72.243 Y90.794 E0.01784
G1 X72.151 Y90.400 E0.01269
G1 X72.093 Y89.834 E0.01784
G1 X72.104 Y89.437 E0.01245
G1 X72.155 Y89.051 E0.01221
G1 X72.245 Y88.672 E0.01221
G1 X72.373 Y88.305 E0.01221
G1 X72.539 Y87.952 E0.01221
G1 X72.744 Y87.612 E0.01245
G1 X73.098 Y87.166 E0.01784
G1 X73.382 Y86.889 E0.01245
G1 X73.688 Y86.648 E0.01221
G1 X74.017 Y86.439 E0.01221
G1 X74.365 Y86.265 E0.01221
G1 X74.730 Y86.128 E0.01221
G1 X75.106 Y86.029 E0.01221
G1 X75.491 Y85.969 E0.01220
G1 X75.874 Y85.949 E0.01202
G1 X76.454 Y85.992 E0.01825
G1 X76.844 Y86.073 E0.01247
G1 X77.215 Y86.192 E0.01221
G1 X77.572 Y86.347 E0.01221
G1 X77.911 Y86.539 E0.01221
G1 X78.229 Y86.765 E0.01221
G1 X78.521 Y87.021 E0.01221
G1 X78.786 Y87.307 E0.01220
G1 X79.017 Y87.613 E0.01202
G1 X79.306 Y88.118 E0.01825
G1 X79.456 Y88.487 E0.01247
G1 X79.565 Y88.861 E0.01221
G1 X79.636 Y89.244 E0.01221
G1 X79.667 Y89.640 E0.01245
G1 X79.639 Y90.215 E0.01808
G1 X79.522 Y90.780 E0.01808
G1 X79.390 Y91.162 E0.01269
G1 X79.134 Y91.679 E0.01808
G1 X78.801 Y92.150 E0.01808
G1 X78.527 Y92.447 E0.01269
G1 X78.068 Y92.828 E0.01870
M204 S1250
G1 X77.640 Y92.652 F9000.000
M204 S800
;TYPE:External perimeter
G1 F1200.000
G1 X77.636 Y94.944 E0.07187
G1 X77.560 Y95.332 E0.01241
G1 X77.457 Y95.590 E0.00871
G1 X77.241 Y95.922 E0.01241
G1 X77.052 Y96.119 E0.00858
G1 X76.834 Y96.285 E0.00858
G1 X76.479 Y96.461 E0.01241
G1 X76.215 Y96.533 E0.00858
G1 X75.944 Y96.564 E0.00858
G1 X75.549 Y96.534 E0.01241
G1 X75.285 Y96.462 E0.00858
G1 X75.039 Y96.351 E0.00845
G1 X74.813 Y96.205 E0.00845
G1 X74.612 Y96.026 E0.00845
G1 X74.440 Y95.818 E0.00845
G1 X74.302 Y95.586 E0.00845
G1 X74.200 Y95.332 E0.00858
G1 X74.125 Y94.944 E0.01241
G1 X74.120 Y92.652 E0.07187
G1 X73.894 Y92.509 E0.00838
G1 X73.493 Y92.172 E0.01643
G1 X73.149 Y91.778 E0.01640
G1 X72.952 Y91.485 E0.01108
G1 X72.787 Y91.172 E0.01108
G1 X72.604 Y90.685 E0.01632
G1 X72.523 Y90.338 E0.01117
G1 X72.471 Y89.821 E0.01632
G1 X72.481 Y89.467 E0.01108
G1 X72.526 Y89.120 E0.01100
G1 X72.607 Y88.778 E0.01100
G1 X72.723 Y88.447 E0.01100
G1 X72.872 Y88.130 E0.01100
G1 X73.054 Y87.827 E0.01108
G1 X73.378 Y87.419 E0.01632
G1 X73.631 Y87.173 E0.01108
G1 X73.906 Y86.956 E0.01100
G1 X74.202 Y86.768 E0.01100
G1 X74.516 Y86.611 E0.01100
G1 X74.844 Y86.487 E0.01100
G1 X75.184 Y86.398 E0.01100
G1 X75.530 Y86.344 E0.01099
G1 X75.870 Y86.326 E0.01067
G1 X76.402 Y86.366 E0.01672
G1 X76.748 Y86.438 E0.01109
G1 X77.082 Y86.545 E0.01100
G1 X77.403 Y86.685 E0.01100
G1 X77.709 Y86.858 E0.01100
G1 X77.995 Y87.061 E0.01100
G1 X78.258 Y87.292 E0.01100
G1 X78.497 Y87.549 E0.01099
G1 X78.701 Y87.821 E0.01067
G1 X78.966 Y88.284 E0.01672
G1 X79.100 Y88.611 E0.01109
G1 X79.198 Y88.948 E0.01100
G1 X79.262 Y89.293 E0.01100
G1 X79.290 Y89.645 E0.01108
G1 X79.264 Y90.168 E0.01640
G1 X79.158 Y90.680 E0.01640
G1 X79.042 Y91.016 E0.01117
G1 X78.809 Y91.485 E0.01640
G1 X78.507 Y91.912 E0.01640
G1 X78.266 Y92.174 E0.01117
G1 X77.866 Y92.509 E0.01634
G1 X77.691 Y92.620 E0.00650
M204 S1250
G1 X77.910 Y92.947 F9000.000
G1 E-2.24000 F2400.000
;WIPE_START
G1 F7200.000
G1 X77.636 Y94.944 E-0.73614
G1 X77.560 Y95.332 E-0.12531
G1 X77.501 Y95.480 E-0.05055
;WIPE_END
G1 E-0.04800 F2400.000
G1 Z0.400 F9000.000
G1 X78.017 Y108.860
G1 Z0.200
G1 E3.20000 F1500.000
M204 S800
;TYPE:Perimeter
G1 F1200.000
G1 X78.013 Y110.980 E0.06647
G1 X77.924 Y111.439 E0.01467
G1 X77.793 Y111.764 E0.01098
G1 X77.538 Y112.157 E0.01469
G1 X77.303 Y112.401 E0.01062
G1 X77.034 Y112.607 E0.01062
G1 X76.614 Y112.815 E0.01469
G1 X76.287 Y112.904 E0.01062
G1 X75.951 Y112.943 E0.01062
G1 X75.484 Y112.907 E0.01469
G1 X75.157 Y112.818 E0.01062
G1 X74.858 Y112.684 E0.01027
G1 X74.584 Y112.506 E0.01027
G1 X74.339 Y112.288 E0.01027
G1 X74.131 Y112.035 E0.01027
G1 X73.963 Y111.754 E0.01027
G1 X73.837 Y111.439 E0.01062
G1 X73.748 Y110.980 E0.01467
G1 X73.744 Y108.860 E0.06647
G1 X73.228 Y108.442 E0.02081
G1 X72.849 Y108.008 E0.01808
G1 X72.628 Y107.678 E0.01245
G1 X72.442 Y107.327 E0.01245
G1 X72.243 Y106.794 E0.01784
G1 X72.151 Y106.400 E0.01269
G1 X72.093 Y105.834 E0.01784
G1 X72.104 Y105.437 E0.01245
G1 X72.155 Y105.051 E0.01221
G1 X72.245 Y104.672 E0.01221
G1 X72.373 Y104.305 E0.01221
G1 X72.539 Y103.952 E0.01221
G1 X72.744 Y103.612 E0.01245
G1 X73.098 Y103.166 E0.01784
G1 X73.382 Y102.889 E0.01245
G1 X73.688 Y102.648 E0.01221
G1 X74.017 Y102.439 E0.01221
G1 X74.365 Y102.265 E0.01221
G1 X74.730 Y102.128 E0.01221
G1 X75.106 Y102.029 E0.01221
G1 X75.491 Y101.969 E0.01220
G1 X75.874 Y101.949 E0.01202
G1 X76.454 Y101.992 E0.01825
G1 X76.844 Y102.073 E0.01247
G1 X77.215 Y102.192 E0.01221
G1 X77.572 Y102.347 E0.01221
G1 X77.911 Y102.539 E0.01221
G1 X78.229 Y102.765 E0.01221
G1 X78.521 Y103.021 E0.01221
G1 X78.786 Y103.307 E0.01220
G1 X79.017 Y103.613 E0.01202
G1 X79.306 Y104.118 E0.01825
G1 X79.456 Y104.487 E0.01247
G1 X79.565 Y104.861 E0.01221
G1 X79.636 Y105.244 E0.01221
G1 X79.667 Y105.640 E0.01245
G1 X79.639 Y106.215 E0.01808
G1 X79.522 Y106.780 E0.01808
G1 X79.390 Y107.162 E0.01269
G1 X79.134 Y107.679 E0.01808
G1 X78.801 Y108.150 E0.01808
G1 X78.527 Y108.447 E0.01269
G1 X78.068 Y108.828 E0.01870
M204 S1250
G1 X77.640 Y108.652 F9000.000
M204 S800
;TYPE:External perimeter
G1 F1200.000
G1 X77.636 Y110.944 E0.07187
M73 P0 R57
G1 X77.560 Y111.332 E0.01241
G1 X77.457 Y111.590 E0.00871
G1 X77.241 Y111.922 E0.01241
G1 X77.052 Y112.119 E0.00858
G1 X76.834 Y112.285 E0.00858
G1 X76.479 Y112.461 E0.01241
G1 X76.215 Y112.533 E0.00858
M73 P1 R57
G1 X75.944 Y112.564 E0.00858
G1 X75.549 Y112.534 E0.01241
G1 X75.285 Y112.462 E0.00858
G1 X75.039 Y112.351 E0.00845
G1 X74.813 Y112.205 E0.00845
G1 X74.612 Y112.026 E0.00845
G1 X74.440 Y111.818 E0.00845
G1 X74.302 Y111.586 E0.00845
G1 X74.200 Y111.332 E0.00858
G1 X74.125 Y110.944 E0.01241
G1 X74.120 Y108.652 E0.07187
G1 X73.894 Y108.509 E0.00838
G1 X73.493 Y108.172 E0.01643
G1 X73.149 Y107.778 E0.01640
G1 X72.952 Y107.485 E0.01108
G1 X72.787 Y107.172 E0.01108
G1 X72.604 Y106.685 E0.01632
G1 X72.523 Y106.338 E0.01117
G1 X72.471 Y105.821 E0.01632
G1 X72.481 Y105.467 E0.01108
G1 X72.526 Y105.120 E0.01100
G1 X72.607 Y104.778 E0.01100
G1 X72.723 Y104.447 E0.01100
G1 X72.872 Y104.130 E0.01100
G1 X73.054 Y103.827 E0.01108
G1 X73.378 Y103.419 E0.01632
G1 X73.631 Y103.173 E0.01108
G1 X73.906 Y102.956 E0.01100
G1 X74.202 Y102.768 E0.01100
G1 X74.516 Y102.611 E0.01100
G1 X74.844 Y102.487 E0.01100
G1 X75.184 Y102.398 E0.01100
G1 X75.530 Y102.344 E0.01099
G1 X75.870 Y102.326 E0.01067
G1 X76.402 Y102.366 E0.01672
G1 X76.748 Y102.438 E0.01109
G1 X77.082 Y102.545 E0.01100
G1 X77.403 Y102.685 E0.01100
G1 X77.709 Y102.858 E0.01100
G1 X77.995 Y103.061 E0.01100
G1 X78.258 Y103.292 E0.01100
G1 X78.497 Y103.549 E0.01099
G1 X78.701 Y103.821 E0.01067
G1 X78.966 Y104.284 E0.01672
G1 X79.100 Y104.611 E0.01109
G1 X79.198 Y104.948 E0.01100
G1 X79.262 Y105.293 E0.01100
G1 X79.290 Y105.645 E0.01108
G1 X79.264 Y106.168 E0.01640
G1 X79.158 Y106.680 E0.01640
G1 X79.042 Y107.016 E0.01117
G1 X78.809 Y107.485 E0.01640
G1 X78.507 Y107.912 E0.01640
G1 X78.266 Y108.174 E0.01117
G1 X77.866 Y108.509 E0.01634
G1 X77.691 Y108.620 E0.00650
M204 S1250
G1 X77.910 Y108.947 F9000.000
G1 E-2.24000 F2400.000
;WIPE_START
G1 F7200.000
G1 X77.636 Y110.944 E-0.73614
G1 X77.560 Y111.332 E-0.12531
G1 X77.501 Y111.480 E-0.05055
;WIPE_END
G1 E-0.04800 F2400.000
G1 Z0.400 F9000.000
G1 X80.093 Y85.450
G1 Z0.200
G1 E3.20000 F1500.000
M204 S800
;TYPE:Perimeter
G1 F1200.000
G1 X80.093 Y115.200 E0.93279
G1 X71.667 Y115.200 E0.26419
G1 X71.667 Y64.824 E1.57950
G1 X92.293 Y64.824 E0.64671
G1 X92.293 Y85.450 E0.64671
G1 X80.153 Y85.450 E0.38064
M204 S1250
G1 X80.470 Y85.827 F9000.000
M204 S800
;TYPE:External perimeter
G1 F1200.000
G1 X80.470 Y115.577 E0.93279
G1 X71.290 Y115.577 E0.28783
G1 X71.290 Y64.447 E1.60315
G1 X92.670 Y64.447 E0.67036
G1 X92.670 Y85.827 E0.67035
G1 X80.530 Y85.827 E0.38064
M204 S1250
G1 X80.095 Y85.964 F9000.000
G1 E-2.24000 F2400.000
;WIPE_START
G1 F7200.000
G1 X80.524 Y88.707 E-0.91200
;WIPE_END
G1 E-0.04800 F2400.000
G1 Z0.400 F9000.000
G1 X79.680 Y87.942
G1 Z0.200
G1 E3.20000 F1500.000
M204 S800
;TYPE:Gap fill
;WIDTH:0.37161
G1 F1200.000
G1 X79.764 Y88.371 E0.01195
M204 S1250
M204 S800
;WIDTH:0.240685
G1 X79.825 Y88.795 E0.00703
M204 S1250
M204 S800
;WIDTH:0.124526
G1 X79.880 Y89.636 E0.00572
M204 S1250
G1 X79.880 Y89.653 F9000.000
M204 S800
;WIDTH:0.122
G1 F1200.000
G1 X79.865 Y90.247 E0.00391
M204 S1250
M204 S800
;WIDTH:0.163131
G1 X79.845 Y90.448 E0.00202
M204 S1250
M204 S800
;WIDTH:0.204264
G1 X79.824 Y90.649 E0.00271
M204 S1250
M204 S800
;WIDTH:0.24894
G1 X79.802 Y90.864 E0.00369
M204 S1250
M204 S800
;WIDTH:0.296917
G1 X79.778 Y91.007 E0.00306
M204 S1250
M204 S800
;WIDTH:0.344893
G1 X79.754 Y91.150 E0.00364
M204 S1250
M204 S800
;WIDTH:0.39287
G1 X79.730 Y91.293 E0.00422
M204 S1250
M204 S800
;WIDTH:0.402039
G1 X79.725 Y91.315 E0.00069
M204 S1250
M204 S800
;WIDTH:0.421815
G1 X79.672 Y91.542 E0.00733
M204 S1250
G1 X79.226 Y91.743 F9000.000
M204 S800
;TYPE:Solid infill
;WIDTH:0.420319
G1 F1200.000
G1 X79.810 Y92.328 E0.02592
G1 X79.810 Y92.861 E0.01675
G1 X79.127 Y92.178 E0.03033
G1 X78.888 Y92.472 E0.01191
G1 X79.810 Y93.395 E0.04094
G1 X79.810 Y93.929 E0.01675
G1 X78.618 Y92.737 E0.05290
G1 X78.324 Y92.976 E0.01191
G1 X79.810 Y94.462 E0.06599
G1 X79.810 Y94.996 E0.01675
G1 X78.298 Y93.484 E0.06710
G1 X78.297 Y94.017 E0.01672
G1 X79.810 Y95.530 E0.06715
G1 X79.810 Y96.064 E0.01675
G1 X78.296 Y94.550 E0.06719
G1 X78.283 Y95.070 E0.01635
G1 X79.810 Y96.597 E0.06777
G1 X79.810 Y97.131 E0.01675
G1 X78.197 Y95.517 E0.07161
G1 X78.043 Y95.898 E0.01287
G1 X79.810 Y97.665 E0.07842
G1 X79.810 Y98.199 E0.01675
G1 X77.834 Y96.222 E0.08773
G1 X77.761 Y96.334 E0.00419
G1 X77.590 Y96.512 E0.00774
G1 X79.810 Y98.732 E0.09855
G1 X79.810 Y99.266 E0.01675
G1 X77.302 Y96.758 E0.11131
G1 X77.184 Y96.848 E0.00468
G1 X76.966 Y96.956 E0.00761
G1 X79.810 Y99.800 E0.12621
G1 X79.810 Y100.333 E0.01675
G1 X76.591 Y97.114 E0.14287
G1 X76.341 Y97.183 E0.00813
G1 X76.148 Y97.205 E0.00610
G1 X79.810 Y100.867 E0.16252
G1 X79.810 Y101.401 E0.01675
G1 X75.415 Y97.006 E0.19505
M204 S1250
G1 E-2.24000 F2400.000
;WIPE_START
G1 F7200.000
G1 X77.452 Y99.042 E-0.91200
;WIPE_END
G1 E-0.04800 F2400.000
G1 Z0.400 F9000.000
G1 X73.631 Y93.087
G1 Z0.200
G1 E3.20000 F1500.000
M204 S800
G1 F1200.000
G1 X72.332 Y91.788 E0.05765
G1 X71.950 Y91.857 E0.01218
G1 X71.950 Y91.939 E0.00259
G1 X73.462 Y93.451 E0.06710
G1 X73.463 Y93.986 E0.01678
G1 X71.950 Y92.473 E0.06714
G1 X71.950 Y93.007 E0.01675
G1 X73.464 Y94.521 E0.06719
G1 X73.476 Y95.067 E0.01714
G1 X71.950 Y93.541 E0.06774
G1 X71.950 Y94.074 E0.01675
G1 X79.810 Y101.935 E0.34883
G1 X79.810 Y102.468 E0.01675
G1 X71.950 Y94.608 E0.34883
G1 X71.950 Y95.142 E0.01675
G1 X79.810 Y103.002 E0.34883
G1 X79.810 Y103.536 E0.01675
G1 X71.950 Y95.676 E0.34883
G1 X71.950 Y96.209 E0.01675
G1 X79.586 Y103.845 E0.33889
M204 S1250
G1 E-2.24000 F2400.000
;WIPE_START
G1 F7200.000
G1 X77.550 Y101.809 E-0.91200
;WIPE_END
G1 E-0.04800 F2400.000
G1 Z0.400 F9000.000
G1 X77.322 Y102.115
G1 Z0.200
G1 E3.20000 F1500.000
M204 S800
G1 F1200.000
G1 X71.950 Y96.743 E0.23841
G1 X71.950 Y97.277 E0.01675
G1 X76.376 Y101.703 E0.19642
G1 X75.809 Y101.669 E0.01784
G1 X71.950 Y97.810 E0.17124
G1 X71.950 Y98.344 E0.01675
G1 X75.316 Y101.710 E0.14937
G1 X74.871 Y101.798 E0.01425
G1 X71.950 Y98.878 E0.12960
G1 X71.950 Y99.412 E0.01675
G1 X74.464 Y101.926 E0.11157
G1 X74.091 Y102.086 E0.01275
G1 X71.950 Y99.945 E0.09500
G1 X71.950 Y100.479 E0.01675
G1 X73.747 Y102.275 E0.07972
G1 X73.429 Y102.492 E0.01205
G1 X71.950 Y101.013 E0.06564
G1 X71.950 Y101.546 E0.01675
G1 X73.137 Y102.733 E0.05267
G1 X72.869 Y102.999 E0.01184
G1 X71.950 Y102.080 E0.04078
G1 X71.950 Y102.614 E0.01675
G1 X72.633 Y103.297 E0.03030
G1 X72.414 Y103.612 E0.01203
G1 X71.780 Y102.978 E0.02812
M204 S1250
G1 X72.087 Y103.929 F9000.000
M204 S800
;TYPE:Gap fill
;WIDTH:0.421885
G1 F1200.000
G1 X72.036 Y104.157 E0.00736
M204 S1250
M204 S800
;WIDTH:0.402813
G1 X72.032 Y104.175 E0.00056
M204 S1250
M204 S800
;WIDTH:0.395616
G1 X72.009 Y104.311 E0.00405
M204 S1250
M204 S800
;WIDTH:0.349342
G1 X71.986 Y104.448 E0.00352
M204 S1250
M204 S800
;WIDTH:0.303068
G1 X71.963 Y104.584 E0.00299
M204 S1250
M204 S800
;WIDTH:0.256794
G1 X71.937 Y104.799 E0.00386
M204 S1250
M204 S800
;WIDTH:0.205729
G1 X71.913 Y105.004 E0.00279
M204 S1250
M204 S800
;WIDTH:0.157794
G1 X71.899 Y105.214 E0.00201
M204 S1250
M204 S800
;WIDTH:0.129999
G1 X71.886 Y105.419 E0.00148
M204 S1250
M204 S800
;WIDTH:0.103278
G1 X71.881 Y105.798 E0.00191
M204 S1250
G1 X71.880 Y105.836 F9000.000
M204 S800
;WIDTH:0.122419
G1 F1200.000
G1 X71.895 Y106.136 E0.00199
M204 S1250
M204 S800
;WIDTH:0.15268
G1 X71.911 Y106.444 E0.00281
M204 S1250
M204 S800
;WIDTH:0.202139
G1 X71.935 Y106.658 E0.00286
M204 S1250
M204 S800
;WIDTH:0.255606
G1 X71.962 Y106.886 E0.00406
M204 S1250
M204 S800
;WIDTH:0.298177
