; generated by PrusaSlicer 2.3.0+win64 on 2022-04-06 at 12:22:40 UTC


;
;

;
;
; 

; external perimeters extrusion width = 0.45mm
; perimeters extrusion width = 0.45mm
; infill extrusion width = 0.45mm
; solid infill extrusion width = 0.45mm
; top infill extrusion width = 0.40mm
; first layer extrusion width = 0.42mm

M73 P0 R30
M201 X1250 Y1250 Z400 E5000 ; sets maximum accelerations, mm/sec^2
M203 X180 Y180 Z12 E80 ; sets maximum feedrates, mm/sec
M204 P1250 R1250 T1250 ; sets acceleration (P, T) and retract acceleration (R), mm/sec^2
M205 X8.00 Y8.00 Z2.00 E10.00 ; sets the jerk limits, mm/sec
M205 S0 T0 ; sets the minimum extruding and travel feed rate, mm/sec
M107
;TYPE:Custom
G90 ; use absolute coordinates
M83 ; extruder relative mode
M104 S170 ; set extruder temp for bed leveling
M140 S85 ; set bed temp
M109 R170 ; wait for bed leveling temp
M190 S85 ; wait for bed temp
G28 ; home all without mesh bed level
G29 ; mesh bed leveling 
M104 S240 ; set extruder temp
G92 E0.0
G1 Y-2.0 X179 F2400
G1 Z3 F720
M109 S240 ; wait for extruder temp

; intro line
G1 X170 F1000
G1 Z0.2 F720
G1 X110.0 E8.0 F900
G1 X40.0 E10.0 F700
G92 E0.0

M221 S95 ; set flow
G21 ; set units to millimeters
G90 ; use absolute coordinates
M83 ; use relative distances for extrusion
M900 K0.2 ; Filament gcode
;LAYER_CHANGE
;Z:0.2
;HEIGHT:0.2
;BEFORE_LAYER_CHANGE
G92 E0.0
;0.2


G1 E-3.20000 F2400.000
G1 Z0.200 F9000.000
;AFTER_LAYER_CHANGE
;0.2
G1 Z0.400
G1 X85.177 Y42.605
G1 Z0.200
G1 E3.20000 F1500.000
M204 S800
;TYPE:Skirt
;WIDTH:0.42
G1 F1200.000
G1 X85.488 Y42.114 E0.01823
G1 X85.912 Y41.711 E0.01835
G1 X86.419 Y41.425 E0.01823
G1 X86.979 Y41.271 E0.01823
G1 X94.391 Y41.246 E0.23239
G1 X95.572 Y41.310 E0.03708
G1 X96.045 Y41.476 E0.01574
G1 X96.470 Y41.736 E0.01562
G1 X96.851 Y42.102 E0.01657
G1 X97.140 Y42.540 E0.01645
G1 X97.327 Y43.030 E0.01645
G1 X97.400 Y43.550 E0.01645
G1 X97.340 Y136.610 E2.91785
M73 P1 R30
G1 X97.140 Y137.357 E0.02426
G1 X96.713 Y137.998 E0.02414
G1 X96.101 Y138.470 E0.02426
G1 X95.373 Y138.720 E0.02414
G1 X84.739 Y138.742 E0.33341
G1 X83.920 Y138.507 E0.02673
G1 X83.236 Y137.998 E0.02673
G1 X82.776 Y137.280 E0.02673
G1 X82.599 Y136.447 E0.02673
G1 X82.609 Y66.137 E2.20450
G1 X84.962 Y43.364 E0.71785
G1 X85.160 Y42.663 E0.02285
M204 S1250
; printing object Carriage_04_ArmMid_01_mirrored id:0 copy 0
G1 E-2.24000 F2400.000
;WIPE_START
G1 F7200.000
G1 X85.488 Y42.114 E-0.20237
G1 X85.912 Y41.711 E-0.18528
G1 X86.419 Y41.425 E-0.18408
G1 X86.979 Y41.271 E-0.18408
G1 X87.472 Y41.270 E-0.15618
;WIPE_END
G1 E-0.04800 F2400.000
G1 Z0.400 F9000.000
G1 X87.735 Y44.033
G1 Z0.200
G1 E3.20000 F1500.000
M204 S800
;TYPE:External perimeter
G1 F1200.000
G1 X94.614 Y44.033 E0.21570
G1 X94.565 Y135.967 E2.88252
G1 X85.385 Y135.967 E0.28784
G1 X85.385 Y66.783 E2.16921
M73 P2 R30
G1 X87.735 Y66.783 E0.07368
G1 X87.735 Y44.093 E0.71143
M204 S1250
G1 X88.074 Y44.245 F9000.000
G1 X88.112 Y44.410
M204 S800
;TYPE:Perimeter
G1 F1200.000
G1 X94.237 Y44.410 E0.19205
G1 X94.188 Y135.590 E2.85888
G1 X85.762 Y135.590 E0.26420
G1 X85.762 Y67.160 E2.14557
G1 X88.112 Y67.160 E0.07368
G1 X88.112 Y44.470 E0.71143
M204 S1250
G1 E-2.24000 F2400.000
;WIPE_START
G1 F7200.000
G1 X90.992 Y44.442 E-0.91200
;WIPE_END
G1 E-0.04800 F2400.000
G1 Z0.400 F9000.000
G1 X89.756 Y47.652
G1 Z0.200
G1 E3.20000 F1500.000
M204 S800
;TYPE:External perimeter
G1 F1200.000
G1 X90.064 Y47.397 E0.01254
G1 X90.308 Y47.264 E0.00871
G1 X90.686 Y47.145 E0.01241
G1 X90.961 Y47.113 E0.00871
G1 X91.356 Y47.143 E0.01241
G1 X91.624 Y47.217 E0.00871
G1 X91.979 Y47.393 E0.01241
G1 X92.200 Y47.561 E0.00871
G1 X92.463 Y47.857 E0.01241
G1 X92.603 Y48.092 E0.00858
G1 X92.705 Y48.346 E0.00858
G1 X92.780 Y48.734 E0.01241
G1 X92.780 Y49.012 E0.00871
G1 X92.705 Y49.401 E0.01241
G1 X92.601 Y49.658 E0.00871
G1 X92.384 Y49.994 E0.01254
G1 X92.093 Y50.274 E0.01267
G1 X91.745 Y50.480 E0.01267
G1 X91.364 Y50.601 E0.01254
G1 X91.088 Y50.633 E0.00871
G1 X90.693 Y50.603 E0.01241
G1 X90.426 Y50.529 E0.00871
G1 X90.071 Y50.353 E0.01241
G1 X89.850 Y50.185 E0.00871
G1 X89.587 Y49.890 E0.01241
G1 X89.445 Y49.651 E0.00871
G1 X89.311 Y49.278 E0.01241
G1 X89.269 Y49.004 E0.00871
G1 X89.284 Y48.608 E0.01241
G1 X89.347 Y48.338 E0.00871
G1 X89.511 Y47.973 E0.01254
G1 X89.719 Y47.699 E0.01079
M204 S1250
G1 X89.645 Y47.267 F9000.000
G1 X89.482 Y47.388
M204 S800
;TYPE:Perimeter
G1 F1200.000
G1 X89.852 Y47.083 E0.01504
G1 X90.160 Y46.916 E0.01098
G1 X90.606 Y46.775 E0.01469
G1 X90.954 Y46.734 E0.01098
G1 X91.421 Y46.770 E0.01469
G1 X91.759 Y46.863 E0.01098
G1 X92.178 Y47.071 E0.01469
G1 X92.457 Y47.283 E0.01098
G1 X92.769 Y47.633 E0.01469
G1 X92.942 Y47.924 E0.01062
G1 X93.068 Y48.238 E0.01062
G1 X93.157 Y48.698 E0.01468
G1 X93.157 Y49.048 E0.01098
G1 X93.068 Y49.508 E0.01469
G1 X92.937 Y49.833 E0.01098
G1 X92.677 Y50.235 E0.01504
G1 X92.323 Y50.576 E0.01540
G1 X91.901 Y50.827 E0.01540
G1 X91.443 Y50.972 E0.01504
G1 X91.095 Y51.012 E0.01098
G1 X90.628 Y50.976 E0.01468
G1 X90.291 Y50.883 E0.01098
G1 X89.871 Y50.675 E0.01469
G1 X89.593 Y50.463 E0.01098
G1 X89.281 Y50.113 E0.01469
G1 X89.102 Y49.812 E0.01098
G1 X88.944 Y49.372 E0.01468
G1 X88.890 Y49.026 E0.01098
G1 X88.908 Y48.558 E0.01468
G1 X88.988 Y48.217 E0.01098
G1 X89.184 Y47.779 E0.01504
G1 X89.446 Y47.436 E0.01352
M204 S1250
G1 E-2.24000 F2400.000
;WIPE_START
G1 F7200.000
G1 X89.852 Y47.083 E-0.17047
G1 X90.160 Y46.916 E-0.11088
G1 X90.606 Y46.775 E-0.14832
G1 X90.954 Y46.734 E-0.11087
G1 X91.421 Y46.770 E-0.14831
G1 X91.759 Y46.863 E-0.11088
G1 X92.076 Y47.020 E-0.11228
;WIPE_END
G1 E-0.04800 F2400.000
G1 Z0.400 F9000.000
G1 X90.853 Y59.626
G1 Z0.200
G1 E3.20000 F1500.000
M204 S800
;TYPE:External perimeter
G1 F1200.000
G1 X91.231 Y59.624 E0.01185
G1 X91.620 Y59.715 E0.01254
G1 X91.979 Y59.893 E0.01254
G1 X92.200 Y60.061 E0.00871
G1 X92.463 Y60.357 E0.01241
G1 X92.603 Y60.592 E0.00858
G1 X92.705 Y60.846 E0.00858
G1 X92.780 Y61.234 E0.01241
G1 X92.780 Y61.512 E0.00871
G1 X92.705 Y61.901 E0.01241
G1 X92.601 Y62.158 E0.00871
G1 X92.384 Y62.494 E0.01254
G1 X92.096 Y62.771 E0.01254
G1 X91.863 Y62.922 E0.00871
G1 X91.492 Y63.072 E0.01254
G1 X91.092 Y63.133 E0.01267
G1 X90.693 Y63.103 E0.01254
G1 X90.426 Y63.029 E0.00871
G1 X90.071 Y62.853 E0.01241
G1 X89.850 Y62.685 E0.00871
G1 X89.587 Y62.390 E0.01241
G1 X89.445 Y62.151 E0.00871
G1 X89.311 Y61.778 E0.01241
G1 X89.269 Y61.504 E0.00871
G1 X89.284 Y61.108 E0.01241
G1 X89.347 Y60.838 E0.00871
G1 X89.511 Y60.473 E0.01254
G1 X89.756 Y60.152 E0.01267
G1 X90.064 Y59.897 E0.01254
G1 X90.308 Y59.764 E0.00871
G1 X90.686 Y59.645 E0.01241
G1 X90.793 Y59.633 E0.00340
M204 S1250
G1 X91.013 Y59.283 F9000.000
G1 X90.750 Y59.258
M204 S800
;TYPE:Perimeter
G1 F1200.000
G1 X90.943 Y59.236 E0.00609
G1 X91.281 Y59.249 E0.01062
G1 X91.749 Y59.358 E0.01504
G1 X92.178 Y59.571 E0.01504
G1 X92.457 Y59.783 E0.01098
G1 X92.769 Y60.133 E0.01469
G1 X92.942 Y60.424 E0.01062
G1 X93.068 Y60.738 E0.01062
G1 X93.157 Y61.198 E0.01468
G1 X93.157 Y61.548 E0.01098
G1 X93.068 Y62.008 E0.01469
G1 X92.937 Y62.333 E0.01098
G1 X92.677 Y62.735 E0.01504
G1 X92.331 Y63.068 E0.01504
G1 X92.037 Y63.258 E0.01098
G1 X91.592 Y63.438 E0.01504
G1 X91.107 Y63.513 E0.01540
G1 X90.628 Y63.476 E0.01504
G1 X90.291 Y63.383 E0.01098
G1 X89.871 Y63.175 E0.01469
G1 X89.593 Y62.963 E0.01098
G1 X89.281 Y62.613 E0.01469
G1 X89.102 Y62.312 E0.01098
G1 X88.944 Y61.872 E0.01468
G1 X88.890 Y61.526 E0.01098
G1 X88.908 Y61.058 E0.01468
G1 X88.988 Y60.717 E0.01098
G1 X89.184 Y60.279 E0.01504
G1 X89.482 Y59.888 E0.01540
G1 X89.852 Y59.583 E0.01504
G1 X90.160 Y59.416 E0.01098
G1 X90.606 Y59.275 E0.01469
G1 X90.690 Y59.265 E0.00265
M204 S1250
G1 E-2.24000 F2400.000
;WIPE_START
G1 F7200.000
G1 X90.943 Y59.236 E-0.08048
G1 X91.281 Y59.249 E-0.10729
G1 X91.749 Y59.358 E-0.15192
G1 X92.178 Y59.571 E-0.15192
G1 X92.457 Y59.783 E-0.11087
G1 X92.769 Y60.133 E-0.14832
G1 X92.942 Y60.424 E-0.10729
G1 X93.005 Y60.582 E-0.05393
;WIPE_END
G1 E-0.04800 F2400.000
G1 Z0.400 F9000.000
G1 X89.911 Y131.117
G1 Z0.200
G1 E3.20000 F1500.000
M204 S800
;TYPE:External perimeter
G1 F1200.000
G1 X90.306 Y131.147 E0.01241
G1 X90.574 Y131.221 E0.00871
G1 X90.929 Y131.397 E0.01241
G1 X91.150 Y131.565 E0.00871
G1 X91.413 Y131.860 E0.01241
G1 X91.553 Y132.096 E0.00858
G1 X91.655 Y132.349 E0.00858
G1 X91.731 Y132.742 E0.01254
G1 X91.716 Y133.142 E0.01254
G1 X91.653 Y133.412 E0.00871
G1 X91.491 Y133.773 E0.01241
G1 X91.333 Y133.997 E0.00858
G1 X91.143 Y134.194 E0.00858
G1 X90.816 Y134.424 E0.01254
G1 X90.442 Y134.576 E0.01267
G1 X90.046 Y134.637 E0.01254
G1 X89.769 Y134.626 E0.00871
G1 X89.383 Y134.536 E0.01241
G1 X89.130 Y134.422 E0.00871
G1 X88.806 Y134.194 E0.01241
G1 X88.614 Y133.994 E0.00871
G1 X88.396 Y133.659 E0.01254
G1 X88.261 Y133.282 E0.01254
G1 X88.219 Y133.012 E0.00858
G1 X88.219 Y132.738 E0.00858
G1 X88.295 Y132.349 E0.01241
G1 X88.398 Y132.092 E0.00871
G1 X88.616 Y131.756 E0.01254
G1 X88.907 Y131.476 E0.01267
G1 X89.254 Y131.270 E0.01267
G1 X89.636 Y131.149 E0.01254
G1 X89.852 Y131.124 E0.00682
M204 S1250
G1 X90.101 Y130.769 F9000.000
G1 X89.099 Y130.923
M204 S800
;TYPE:Perimeter
G1 F1200.000
G1 X89.556 Y130.778 E0.01504
G1 X89.904 Y130.738 E0.01098
M73 P2 R29
G1 X90.371 Y130.774 E0.01469
G1 X90.709 Y130.867 E0.01098
G1 X91.128 Y131.075 E0.01468
G1 X91.407 Y131.287 E0.01098
G1 X91.719 Y131.637 E0.01468
G1 X91.892 Y131.928 E0.01062
G1 X92.018 Y132.242 E0.01062
G1 X92.110 Y132.713 E0.01504
G1 X92.091 Y133.192 E0.01504
G1 X92.011 Y133.533 E0.01098
G1 X91.820 Y133.961 E0.01468
G1 X91.625 Y134.238 E0.01062
G1 X91.390 Y134.482 E0.01062
G1 X90.998 Y134.758 E0.01504
G1 X90.542 Y134.942 E0.01540
G1 X90.068 Y135.015 E0.01504
G1 X89.718 Y135.001 E0.01098
G1 X89.262 Y134.895 E0.01469
G1 X88.943 Y134.751 E0.01098
G1 X88.560 Y134.482 E0.01469
G1 X88.317 Y134.230 E0.01098
G1 X88.056 Y133.827 E0.01504
G1 X87.894 Y133.376 E0.01504
G1 X87.842 Y133.041 E0.01062
G1 X87.842 Y132.702 E0.01062
G1 X87.931 Y132.242 E0.01468
G1 X88.062 Y131.917 E0.01098
G1 X88.323 Y131.515 E0.01504
G1 X88.677 Y131.174 E0.01540
G1 X89.047 Y130.954 E0.01352
M204 S1250
G1 E-2.24000 F2400.000
;WIPE_START
G1 F7200.000
G1 X89.556 Y130.778 E-0.17048
G1 X89.904 Y130.738 E-0.11087
G1 X90.371 Y130.774 E-0.14831
G1 X90.709 Y130.867 E-0.11087
G1 X91.128 Y131.075 E-0.14831
G1 X91.407 Y131.287 E-0.11088
G1 X91.643 Y131.552 E-0.11228
;WIPE_END
G1 E-0.04800 F2400.000
G1 Z0.400 F9000.000
G1 X89.769 Y118.626
G1 Z0.200
G1 E3.20000 F1500.000
M204 S800
;TYPE:External perimeter
G1 F1200.000
G1 X89.383 Y118.536 E0.01241
G1 X89.130 Y118.422 E0.00871
G1 X88.806 Y118.194 E0.01241
G1 X88.614 Y117.994 E0.00871
G1 X88.396 Y117.659 E0.01254
G1 X88.261 Y117.282 E0.01254
G1 X88.219 Y117.012 E0.00858
G1 X88.219 Y116.738 E0.00858
G1 X88.295 Y116.345 E0.01254
G1 X88.461 Y115.977 E0.01267
G1 X88.703 Y115.659 E0.01254
G1 X88.910 Y115.474 E0.00871
G1 X89.254 Y115.270 E0.01254
G1 X89.636 Y115.149 E0.01254
G1 X89.911 Y115.117 E0.00871
G1 X90.306 Y115.147 E0.01241
G1 X90.574 Y115.221 E0.00871
G1 X90.929 Y115.397 E0.01241
G1 X91.146 Y115.562 E0.00858
G1 X91.336 Y115.760 E0.00858
G1 X91.551 Y116.092 E0.01241
G1 X91.655 Y116.349 E0.00871
M73 P3 R29
G1 X91.731 Y116.742 E0.01254
G1 X91.716 Y117.142 E0.01254
G1 X91.653 Y117.412 E0.00871
G1 X91.489 Y117.777 E0.01254
G1 X91.246 Y118.095 E0.01254
G1 X91.039 Y118.280 E0.00871
G1 X90.699 Y118.482 E0.01241
G1 X90.438 Y118.576 E0.00871
G1 X90.046 Y118.637 E0.01241
G1 X89.829 Y118.628 E0.00682
M204 S1250
G1 X89.529 Y118.941 F9000.000
G1 X89.718 Y119.001
M204 S800
;TYPE:Perimeter
G1 F1200.000
G1 X89.262 Y118.895 E0.01469
G1 X88.943 Y118.751 E0.01098
G1 X88.560 Y118.482 E0.01468
G1 X88.317 Y118.230 E0.01098
G1 X88.056 Y117.827 E0.01504
G1 X87.894 Y117.376 E0.01504
G1 X87.842 Y117.041 E0.01062
G1 X87.842 Y116.702 E0.01062
G1 X87.933 Y116.231 E0.01504
G1 X88.134 Y115.783 E0.01540
G1 X88.425 Y115.401 E0.01504
G1 X88.687 Y115.168 E0.01098
G1 X89.099 Y114.923 E0.01504
G1 X89.556 Y114.778 E0.01504
G1 X89.904 Y114.738 E0.01098
G1 X90.371 Y114.774 E0.01469
G1 X90.709 Y114.867 E0.01098
G1 X91.128 Y115.075 E0.01468
G1 X91.398 Y115.280 E0.01062
G1 X91.633 Y115.524 E0.01062
G1 X91.887 Y115.917 E0.01468
G1 X92.018 Y116.242 E0.01098
G1 X92.110 Y116.713 E0.01504
G1 X92.091 Y117.192 E0.01504
G1 X92.011 Y117.533 E0.01098
G1 X91.815 Y117.971 E0.01504
G1 X91.524 Y118.353 E0.01504
G1 X91.263 Y118.586 E0.01098
G1 X90.860 Y118.825 E0.01468
G1 X90.531 Y118.943 E0.01098
G1 X90.068 Y119.015 E0.01468
G1 X89.778 Y119.004 E0.00910
M204 S1250
G1 E-2.24000 F2400.000
;WIPE_START
G1 F7200.000
G1 X89.262 Y118.895 E-0.16702
G1 X88.943 Y118.751 E-0.11087
G1 X88.560 Y118.482 E-0.14831
G1 X88.317 Y118.230 E-0.11088
G1 X88.056 Y117.827 E-0.15192
G1 X87.894 Y117.376 E-0.15191
G1 X87.860 Y117.154 E-0.07110
;WIPE_END
G1 E-0.04800 F2400.000
G1 Z0.400 F9000.000
G1 X88.874 Y135.188
G1 Z0.200
G1 E3.20000 F1500.000
M204 S800
;TYPE:Gap fill
;WIDTH:0.335683
G1 F1200.000
G1 X89.500 Y135.274 E0.01538
M204 S1250
M204 S800
;WIDTH:0.241564
G1 X90.094 Y135.302 E0.00982
M204 S1250
M204 S800
;WIDTH:0.281447
G1 X90.354 Y135.282 E0.00517
M204 S1250
M204 S800
;WIDTH:0.321328
G1 X90.614 Y135.262 E0.00603
M204 S1250
M204 S800
;WIDTH:0.330108
G1 X90.646 Y135.258 E0.00078
M204 S1250
M204 S800
;WIDTH:0.376228
G1 X90.859 Y135.216 E0.00600
M204 S1250
M204 S800
;WIDTH:0.422348
G1 X91.071 Y135.175 E0.00683
M204 S1250
G1 E-2.24000 F2400.000
;WIPE_START
G1 F7200.000
G1 X90.859 Y135.216 E-0.06859
;WIPE_END
G1 E-0.89141 F2400.000
G1 Z0.400 F9000.000
G1 X88.541 Y62.075
G1 Z0.200
G1 E3.20000 F1500.000
M204 S800
;WIDTH:0.446162
G1 F1200.000
G1 X88.501 Y61.529 E0.01835
M204 S1250
M204 S800
;WIDTH:0.468719
G1 X88.513 Y60.984 E0.01930
M204 S1250
M204 S800
;WIDTH:0.488338
G1 X88.549 Y60.677 E0.01145
M204 S1250
G1 E-2.24000 F2400.000
;WIPE_START
G1 F7200.000
G1 X88.513 Y60.984 E-0.09793
;WIPE_END
G1 E-0.86207 F2400.000
G1 Z0.400 F9000.000
G1 X88.541 Y49.575
G1 Z0.200
G1 E3.20000 F1500.000
M204 S800
;WIDTH:0.446162
G1 F1200.000
G1 X88.501 Y49.029 E0.01835
M204 S1250
M204 S800
;WIDTH:0.46872
G1 X88.513 Y48.484 E0.01930
M204 S1250
M204 S800
;WIDTH:0.48834
G1 X88.549 Y48.177 E0.01145
M204 S1250
G1 E-2.24000 F2400.000
;WIPE_START
G1 F7200.000
G1 X88.513 Y48.484 E-0.09793
;WIPE_END
G1 E-0.86207 F2400.000
G1 Z0.400 F9000.000
G1 X93.361 Y44.523
G1 Z0.200
G1 E3.20000 F1500.000
M204 S800
;TYPE:Solid infill
;WIDTH:0.420339
G1 F1200.000
G1 X93.954 Y45.116 E0.02632
G1 X93.954 Y45.650 E0.01674
G1 X92.997 Y44.693 E0.04246
G1 X92.463 Y44.693 E0.01675
G1 X93.953 Y46.183 E0.06614
G1 X93.953 Y46.717 E0.01674
G1 X91.929 Y44.693 E0.08981
G1 X91.396 Y44.693 E0.01675
G1 X93.953 Y47.250 E0.11349
G1 X93.952 Y47.784 E0.01674
G1 X90.862 Y44.693 E0.13717
G1 X90.328 Y44.693 E0.01675
G1 X93.952 Y48.317 E0.16084
G1 X93.952 Y48.850 E0.01674
G1 X93.360 Y48.259 E0.02625
G1 X93.341 Y48.158 E0.00324
G1 X93.196 Y47.798 E0.01217
G1 X92.998 Y47.465 E0.01217
G1 X92.650 Y47.075 E0.01640
G1 X92.328 Y46.829 E0.01269
G1 X91.860 Y46.598 E0.01640
G1 X91.638 Y46.537 E0.00722
G1 X89.794 Y44.693 E0.08182
G1 X89.261 Y44.693 E0.01675
G1 X91.024 Y46.456 E0.07825
G1 X90.949 Y46.450 E0.00236
G1 X90.535 Y46.501 E0.01309
G1 X88.727 Y44.693 E0.08023
G1 X88.395 Y44.693 E0.01042
G1 X88.395 Y44.895 E0.00633
G1 X90.129 Y46.629 E0.07697
G1 X90.049 Y46.654 E0.00265
G1 X89.771 Y46.805 E0.00990
G1 X88.395 Y45.428 E0.06110
G1 X88.395 Y45.962 E0.01675
G1 X89.467 Y47.034 E0.04759
G1 X89.277 Y47.191 E0.00773
G1 X89.196 Y47.297 E0.00419
G1 X88.395 Y46.496 E0.03556
G1 X88.395 Y47.030 E0.01675
G1 X88.965 Y47.600 E0.02532
G1 X88.810 Y47.922 E0.01121
G1 X88.746 Y47.915 E0.00203
G1 X88.225 Y47.394 E0.02312
M204 S1250
G1 E-2.24000 F2400.000
;WIPE_START
G1 F7200.000
G1 X88.746 Y47.915 E-0.23331
G1 X88.810 Y47.922 E-0.02050
G1 X88.965 Y47.600 E-0.11315
G1 X88.395 Y47.030 E-0.25546
G1 X88.395 Y46.496 E-0.16902
G1 X88.664 Y46.765 E-0.12055
;WIPE_END
G1 E-0.04800 F2400.000
G1 Z0.400 F9000.000
G1 X93.271 Y48.703
G1 Z0.200
G1 E3.20000 F1500.000
M204 S800
G1 F1200.000
G1 X93.952 Y49.384 E0.03022
G1 X93.951 Y49.917 E0.01674
G1 X93.386 Y49.353 E0.02507
G1 X93.341 Y49.588 E0.00754
