; generated by PrusaSlicer 2.3.0+win64 on 2021-08-08 at 20:29:22 UTC


;
;

;
;
; 

; external perimeters extrusion width = 0.45mm
; perimeters extrusion width = 0.45mm
; infill extrusion width = 0.45mm
; solid infill extrusion width = 0.45mm
; top infill extrusion width = 0.40mm
; first layer extrusion width = 0.42mm

M73 P0 R12
M201 X1250 Y1250 Z400 E5000 ; sets maximum accelerations, mm/sec^2
M203 X180 Y180 Z12 E80 ; sets maximum feedrates, mm/sec
M204 P1250 R1250 T1250 ; sets acceleration (P, T) and retract acceleration (R), mm/sec^2
M205 X8.00 Y8.00 Z2.00 E10.00 ; sets the jerk limits, mm/sec
M205 S0 T0 ; sets the minimum extruding and travel feed rate, mm/sec
M107
;TYPE:Custom
G90 ; use absolute coordinates
M83 ; extruder relative mode
M104 S170 ; set extruder temp for bed leveling
M140 S60 ; set bed temp
M109 R170 ; wait for bed leveling temp
M190 S60 ; wait for bed temp
G28 ; home all without mesh bed level
G29 ; mesh bed leveling 
M104 S215 ; set extruder temp
G92 E0.0
G1 Y-2.0 X179 F2400
G1 Z3 F720
M109 S215 ; wait for extruder temp

; intro line
G1 X170 F1000
G1 Z0.2 F720
G1 X110.0 E8.0 F900
M73 P1 R12
G1 X40.0 E10.0 F700
G92 E0.0

M221 S95 ; set flow
G21 ; set units to millimeters
G90 ; use absolute coordinates
M83 ; use relative distances for extrusion
M900 K0.2 ; Filament gcode LA 1.5
; ; Filament gcode LA 1.0
;LAYER_CHANGE
;Z:0.2
;HEIGHT:0.2
;BEFORE_LAYER_CHANGE
G92 E0.0
;0.2


M73 P2 R12
G1 E-3.20000 F4200.000
G1 Z0.200 F9000.000
;AFTER_LAYER_CHANGE
;0.2
G1 Z0.400
G1 X78.974 Y81.028
G1 Z0.200
G1 E3.20000 F2400.000
M204 S800
;TYPE:Skirt
;WIDTH:0.42
G1 F1200.000
G1 X79.679 Y80.362 E0.03042
G1 X80.565 Y79.802 E0.03287
G1 X81.448 Y79.455 E0.02975
G1 X82.363 Y79.275 E0.02924
G1 X97.087 Y79.246 E0.46165
G1 X97.957 Y79.319 E0.02737
G1 X98.824 Y79.543 E0.02809
G1 X99.631 Y79.906 E0.02775
G1 X100.398 Y80.424 E0.02902
G1 X101.014 Y81.014 E0.02675
G1 X101.567 Y81.762 E0.02914
G1 X102.010 Y82.678 E0.03193
G1 X102.247 Y83.537 E0.02793
G1 X102.337 Y84.477 E0.02962
G1 X102.325 Y95.848 E0.35651
G1 X102.202 Y96.683 E0.02647
G1 X101.935 Y97.515 E0.02740
G1 X101.540 Y98.281 E0.02702
G1 X101.026 Y98.972 E0.02699
G1 X100.193 Y99.734 E0.03542
G1 X99.321 Y100.254 E0.03183
G1 X98.257 Y100.621 E0.03528
G1 X97.147 Y100.753 E0.03507
G1 X82.582 Y100.743 E0.45667
G1 X81.742 Y100.621 E0.02660
G1 X80.908 Y100.355 E0.02744
G1 X80.130 Y99.954 E0.02747
G1 X79.440 Y99.439 E0.02700
G1 X78.679 Y98.605 E0.03537
G1 X78.163 Y97.736 E0.03169
G1 X77.797 Y96.680 E0.03506
G1 X77.664 Y95.576 E0.03485
G1 X77.689 Y83.983 E0.36350
G1 X77.811 Y83.265 E0.02282
G1 X78.081 Y82.447 E0.02702
G1 X78.465 Y81.710 E0.02606
G1 X78.938 Y81.077 E0.02478
M204 S1250
G1 X79.916 Y80.656 F9000.000
M204 S800
G1 F1200.000
G1 X80.749 Y80.132 E0.03086
G1 X81.563 Y79.815 E0.02739
G1 X82.416 Y79.649 E0.02725
G1 X97.087 Y79.623 E0.45999
M73 P3 R12
G1 X97.891 Y79.691 E0.02531
G1 X98.697 Y79.898 E0.02609
G1 X99.446 Y80.234 E0.02574
G1 X100.161 Y80.717 E0.02707
G1 X100.850 Y81.403 E0.03047
G1 X101.317 Y82.080 E0.02579
G1 X101.673 Y82.853 E0.02669
G1 X101.882 Y83.633 E0.02533
G1 X101.960 Y84.480 E0.02668
G1 X101.949 Y95.812 E0.35529
G1 X101.836 Y96.592 E0.02472
G1 X101.587 Y97.372 E0.02566
G1 X101.218 Y98.085 E0.02518
G1 X100.725 Y98.743 E0.02577
G1 X99.957 Y99.440 E0.03252
G1 X99.155 Y99.915 E0.02922
G1 X98.168 Y100.255 E0.03274
G1 X97.133 Y100.377 E0.03268
G1 X82.617 Y100.367 E0.45515
G1 X81.832 Y100.255 E0.02484
G1 X81.051 Y100.006 E0.02570
G1 X80.325 Y99.631 E0.02560
G1 X79.671 Y99.140 E0.02567
G1 X78.979 Y98.376 E0.03234
G1 X78.502 Y97.571 E0.02932
G1 X78.164 Y96.590 E0.03253
G1 X78.041 Y95.558 E0.03259
G1 X78.064 Y84.026 E0.36157
G1 X78.176 Y83.360 E0.02120
G1 X78.430 Y82.590 E0.02542
G1 X78.789 Y81.903 E0.02429
G1 X79.275 Y81.257 E0.02535
G1 X79.872 Y80.697 E0.02567
M204 S1250
; printing object Clips06.stl id:0 copy 1
G1 E-2.24000 F4200.000
;WIPE_START
G1 F7200.000
G1 X80.749 Y80.132 E-0.57805
G1 X81.310 Y79.913 E-0.33395
;WIPE_END
G1 E-0.04800 F4200.000
G1 Z0.400 F9000.000
G1 X84.401 Y93.774
G1 Z0.200
G1 E3.20000 F2400.000
M204 S800
;TYPE:Perimeter
G1 F1200.000
G1 X84.863 Y93.787 E0.01449
G1 X95.587 Y93.774 E0.33625
G1 X95.312 Y94.053 E0.01229
G1 X95.047 Y94.453 E0.01505
G1 X94.910 Y94.779 E0.01108
G1 X94.806 Y95.252 E0.01520
G1 X94.806 Y95.737 E0.01520
G1 X94.869 Y96.083 E0.01103
G1 X95.041 Y96.538 E0.01526
G1 X95.312 Y96.947 E0.01539
G1 X95.587 Y97.226 E0.01227
G1 X84.428 Y97.225 E0.34988
G1 X84.733 Y96.889 E0.01423
G1 X84.924 Y96.602 E0.01082
G1 X85.113 Y96.153 E0.01526
G1 X85.202 Y95.665 E0.01555
G1 X85.184 Y95.170 E0.01552
G1 X85.062 Y94.700 E0.01522
G1 X84.913 Y94.380 E0.01108
G1 X84.633 Y93.988 E0.01512
G1 X84.445 Y93.815 E0.00800
M204 S1250
G1 X83.904 Y93.890 F9000.000
M204 S800
;TYPE:External perimeter
G1 F1200.000
G1 X84.141 Y94.047 E0.00890
G1 X84.349 Y94.239 E0.00887
G1 X84.586 Y94.571 E0.01280
G1 X84.706 Y94.828 E0.00890
G1 X84.809 Y95.225 E0.01286
G1 X84.823 Y95.638 E0.01295
G1 X84.749 Y96.045 E0.01297
G1 X84.590 Y96.423 E0.01286
G1 X84.435 Y96.657 E0.00881
G1 X84.245 Y96.866 E0.00886
G1 X83.908 Y97.109 E0.01301
G1 X83.524 Y97.254 E0.01288
G1 X83.256 Y97.294 E0.00847
G1 X82.880 Y97.311 E0.01182
G1 X82.496 Y97.263 E0.01214
G1 X82.126 Y97.131 E0.01229
G1 X81.794 Y96.923 E0.01229
G1 X81.518 Y96.651 E0.01217
G1 X81.363 Y96.431 E0.00844
G1 X81.200 Y96.079 E0.01217
G1 X81.115 Y95.696 E0.01229
G1 X81.115 Y95.304 E0.01229
G1 X81.200 Y94.921 E0.01229
G1 X81.363 Y94.569 E0.01217
G1 X81.518 Y94.349 E0.00844
G1 X81.794 Y94.077 E0.01217
G1 X82.126 Y93.869 E0.01229
G1 X82.496 Y93.737 E0.01229
G1 X82.878 Y93.689 E0.01210
G1 X83.256 Y93.706 E0.01187
G1 X83.524 Y93.746 E0.00847
G1 X83.848 Y93.869 E0.01088
M204 S1250
G1 X84.144 Y93.738 F9000.000
G1 E-2.24000 F4200.000
;WIPE_START
G1 F7200.000
G1 X84.141 Y94.047 E-0.18978
G1 X84.349 Y94.239 E-0.15673
G1 X84.586 Y94.571 E-0.22625
G1 X84.706 Y94.828 E-0.15731
G1 X84.788 Y95.146 E-0.18192
;WIPE_END
G1 E-0.04800 F4200.000
G1 Z0.400 F9000.000
G1 X95.183 Y95.293
G1 Z0.200
G1 E3.20000 F2400.000
M204 S800
G1 F1200.000
G1 X95.271 Y94.893 E0.01284
G1 X95.381 Y94.632 E0.00890
G1 X95.606 Y94.292 E0.01278
G1 X95.808 Y94.088 E0.00899
G1 X96.153 Y93.858 E0.01303
G1 X96.545 Y93.733 E0.01288
G1 X96.930 Y93.692 E0.01214
G1 X97.312 Y93.702 E0.01200
G1 X97.693 Y93.793 E0.01225
G1 X98.042 Y93.962 E0.01217
G1 X98.256 Y94.119 E0.00832
G1 X98.445 Y94.305 E0.00831
G1 X98.669 Y94.622 E0.01217
G1 X98.820 Y94.984 E0.01229
G1 X98.890 Y95.365 E0.01217
G1 X98.890 Y95.635 E0.00844
G1 X98.820 Y96.016 E0.01217
G1 X98.669 Y96.378 E0.01229
G1 X98.443 Y96.698 E0.01229
G1 X98.156 Y96.960 E0.01217
G1 X97.928 Y97.103 E0.00844
G1 X97.568 Y97.246 E0.01217
G1 X97.184 Y97.309 E0.01219
G1 X96.803 Y97.300 E0.01196
G1 X96.418 Y97.238 E0.01221
G1 X96.150 Y97.140 E0.00898
G1 X95.808 Y96.912 E0.01288
G1 X95.606 Y96.709 E0.00898
G1 X95.379 Y96.365 E0.01291
G1 X95.234 Y95.982 E0.01286
G1 X95.183 Y95.703 E0.00889
G1 X95.183 Y95.353 E0.01096
M204 S1250
G1 X94.863 Y95.053 F9000.000
G1 E-2.24000 F4200.000
;WIPE_START
G1 F7200.000
G1 X95.271 Y94.893 E-0.25955
G1 X95.381 Y94.632 E-0.15728
G1 X95.606 Y94.292 E-0.22588
G1 X95.808 Y94.088 E-0.15898
G1 X95.973 Y93.978 E-0.11031
;WIPE_END
G1 E-0.04800 F4200.000
G1 Z0.400 F9000.000
G1 X97.204 Y93.316
G1 Z0.200
M73 P4 R12
G1 E3.20000 F2400.000
M204 S800
G1 F1200.000
G1 X97.570 Y93.367 E0.01157
G1 X97.920 Y93.479 E0.01153
G1 X98.249 Y93.649 E0.01162
G1 X98.447 Y93.789 E0.00760
G1 X98.628 Y93.951 E0.00760
G1 X98.867 Y94.234 E0.01162
G1 X99.055 Y94.553 E0.01162
G1 X99.148 Y94.777 E0.00761
G1 X99.215 Y95.010 E0.00760
G1 X99.267 Y95.377 E0.01163
G1 X99.257 Y95.745 E0.01153
G1 X99.185 Y96.108 E0.01162
G1 X99.104 Y96.337 E0.00760
G1 X98.999 Y96.556 E0.00760
G1 X98.793 Y96.864 E0.01162
G1 X98.541 Y97.131 E0.01153
G1 X98.245 Y97.354 E0.01162
G1 X98.032 Y97.471 E0.00760
G1 X97.808 Y97.564 E0.00760
G1 X97.449 Y97.657 E0.01162
G1 X97.081 Y97.688 E0.01158
G1 X96.116 Y97.617 E0.03033
G1 X95.132 Y97.591 E0.03088
G1 X84.868 Y97.591 E0.32181
G1 X83.884 Y97.617 E0.03088
G1 X82.916 Y97.688 E0.03042
M73 P4 R11
G1 X82.675 Y97.674 E0.00757
G1 X82.311 Y97.602 E0.01162
G1 X81.968 Y97.471 E0.01153
G1 X81.649 Y97.282 E0.01163
G1 X81.463 Y97.134 E0.00745
G1 X81.208 Y96.865 E0.01163
G1 X81.003 Y96.560 E0.01153
G1 X80.852 Y96.223 E0.01158
G1 X80.760 Y95.864 E0.01162
G1 X80.733 Y95.623 E0.00760
G1 X80.733 Y95.382 E0.00755
G1 X80.784 Y95.013 E0.01168
G1 X80.897 Y94.660 E0.01162
G1 X81.002 Y94.442 E0.00760
G1 X81.133 Y94.234 E0.00769
G1 X81.286 Y94.042 E0.00769
G1 X81.457 Y93.871 E0.00761
G1 X81.753 Y93.648 E0.01162
G1 X82.082 Y93.478 E0.01162
G1 X82.311 Y93.398 E0.00761
G1 X82.548 Y93.343 E0.00760
G1 X82.919 Y93.312 E0.01168
G1 X83.884 Y93.383 E0.03033
G1 X84.868 Y93.409 E0.03088
G1 X95.132 Y93.409 E0.32181
G1 X96.119 Y93.383 E0.03096
G1 X96.608 Y93.335 E0.01541
G1 X97.144 Y93.318 E0.01682
M204 S1250
G1 X97.365 Y93.648 F9000.000
G1 X96.357 Y93.572
M204 S800
;TYPE:Gap fill
;WIDTH:0.135853
G1 F1200.000
G1 X96.075 Y93.627 E0.00222
G1 X95.859 Y93.800 E0.00214
M204 S1250
G1 X95.088 Y93.975 F9000.000
M204 S800
;WIDTH:0.117335
G1 F1200.000
G1 X94.995 Y94.148 E0.00121
M204 S1250
G1 X94.866 Y94.590 F9000.000
M204 S800
;TYPE:Solid infill
;WIDTH:0.432132
G1 F1200.000
G1 X94.335 Y94.058 E0.02435
G1 X93.785 Y94.059 E0.01779
G1 X94.599 Y94.874 E0.03729
G1 X94.523 Y95.222 E0.01152
G1 X94.523 Y95.348 E0.00408
G1 X93.235 Y94.060 E0.05895
G1 X92.685 Y94.060 E0.01779
G1 X94.553 Y95.928 E0.08550
G1 X94.595 Y96.159 E0.00759
G1 X94.759 Y96.591 E0.01494
G1 X94.697 Y96.623 E0.00224
G1 X92.135 Y94.061 E0.11724
G1 X91.586 Y94.062 E0.01779
G1 X94.467 Y96.943 E0.13187
G1 X93.916 Y96.943 E0.01781
G1 X91.036 Y94.062 E0.13184
G1 X90.486 Y94.063 E0.01779
G1 X93.366 Y96.943 E0.13181
G1 X92.815 Y96.943 E0.01781
G1 X89.936 Y94.064 E0.13178
G1 X89.386 Y94.064 E0.01779
G1 X92.265 Y96.943 E0.13175
G1 X91.715 Y96.943 E0.01781
G1 X88.837 Y94.065 E0.13172
G1 X88.287 Y94.065 E0.01779
G1 X91.164 Y96.943 E0.13169
G1 X90.614 Y96.943 E0.01781
G1 X87.737 Y94.066 E0.13166
G1 X87.187 Y94.067 E0.01779
G1 X90.063 Y96.943 E0.13163
G1 X89.513 Y96.943 E0.01781
G1 X86.637 Y94.067 E0.13160
G1 X86.088 Y94.068 E0.01779
G1 X88.962 Y96.943 E0.13157
G1 X88.412 Y96.943 E0.01781
G1 X85.538 Y94.069 E0.13154
G1 X85.039 Y94.069 E0.01615
G1 X85.162 Y94.243 E0.00689
G1 X87.861 Y96.943 E0.12356
G1 X87.311 Y96.943 E0.01781
G1 X85.454 Y95.086 E0.08498
G1 X85.485 Y95.667 E0.01883
G1 X86.761 Y96.943 E0.05839
G1 X86.210 Y96.943 E0.01781
G1 X85.403 Y96.136 E0.03692
G1 X85.385 Y96.234 E0.00324
G1 X85.257 Y96.540 E0.01073
G1 X85.829 Y97.112 E0.02621
M204 S1250
G1 X84.975 Y96.907 F9000.000
M204 S800
;TYPE:Gap fill
;WIDTH:0.106833
G1 F1200.000
G1 X84.912 Y97.025 E0.00071
M204 S1250
G1 X84.211 Y97.151 F9000.000
M204 S800
;WIDTH:0.139912
G1 F1200.000
G1 X83.881 Y97.429 E0.00348
M204 S1250
G1 X83.673 Y97.422 F9000.000
M204 S800
;WIDTH:0.118773
G1 F1200.000
G1 X83.772 Y97.400 E0.00064
M204 S1250
M204 S800
;WIDTH:0.144948
G1 X83.873 Y97.378 E0.00088
M204 S1250
M204 S800
;WIDTH:0.175103
G1 X84.070 Y97.339 E0.00221
M204 S1250
G1 E-2.24000 F4200.000
;WIPE_START
G1 F7200.000
G1 X83.873 Y97.378 E-0.11166
;WIPE_END
G1 E-0.84834 F4200.000
G1 Z0.400 F9000.000
G1 X84.028 Y93.718
G1 Z0.200
G1 E3.20000 F2400.000
M204 S800
;WIDTH:0.0938689
M73 P5 R11
G1 F1200.000
G1 X83.883 Y93.624 E0.00073
G1 X83.673 Y93.578 E0.00091
M204 S1250
G1 E-2.24000 F4200.000
;WIPE_START
G1 F7200.000
G1 X83.883 Y93.624 E-0.11910
G1 X84.028 Y93.718 E-0.09566
;WIPE_END
G1 E-0.74524 F4200.000
G1 Z0.400 F9000.000
G1 X94.964 Y96.804
G1 Z0.200
G1 E3.20000 F2400.000
M204 S800
;WIDTH:0.131959
G1 F1200.000
G1 X95.077 Y97.025 E0.00184
M204 S1250
G1 X95.859 Y97.200 F9000.000
M204 S800
;WIDTH:0.136083
G1 F1200.000
G1 X96.075 Y97.372 E0.00215
G1 X96.304 Y97.420 E0.00181
M204 S1250
; stop printing object Clips06.stl id:0 copy 1
; printing object Clips06.stl id:0 copy 0
G1 E-2.24000 F4200.000
;WIPE_START
G1 F7200.000
G1 X96.075 Y97.372 E-0.12946
G1 X95.859 Y97.200 E-0.15348
;WIPE_END
G1 E-0.67706 F4200.000
G1 Z0.400 F9000.000
G1 X95.587 Y86.226
G1 Z0.200
G1 E3.20000 F2400.000
M204 S800
;TYPE:Perimeter
;WIDTH:0.42
G1 F1200.000
G1 X84.428 Y86.225 E0.34988
G1 X84.733 Y85.889 E0.01423
G1 X84.924 Y85.602 E0.01082
G1 X85.113 Y85.153 E0.01526
G1 X85.202 Y84.665 E0.01555
G1 X85.184 Y84.170 E0.01552
G1 X85.062 Y83.700 E0.01522
G1 X84.913 Y83.380 E0.01108
G1 X84.633 Y82.988 E0.01512
G1 X84.401 Y82.774 E0.00989
G1 X84.863 Y82.787 E0.01449
G1 X95.587 Y82.774 E0.33625
G1 X95.312 Y83.053 E0.01229
G1 X95.047 Y83.453 E0.01505
G1 X94.910 Y83.779 E0.01108
G1 X94.806 Y84.252 E0.01520
G1 X94.806 Y84.737 E0.01520
G1 X94.869 Y85.083 E0.01103
G1 X95.041 Y85.538 E0.01526
G1 X95.312 Y85.947 E0.01539
G1 X95.545 Y86.183 E0.01039
M204 S1250
G1 E-2.24000 F4200.000
;WIPE_START
G1 F7200.000
G1 X93.899 Y86.189 E-0.91200
;WIPE_END
G1 E-0.04800 F4200.000
G1 Z0.400 F9000.000
G1 X84.823 Y84.638
G1 Z0.200
G1 E3.20000 F2400.000
M204 S800
;TYPE:External perimeter
G1 F1200.000
G1 X84.749 Y85.045 E0.01297
G1 X84.590 Y85.423 E0.01286
G1 X84.435 Y85.657 E0.00881
G1 X84.245 Y85.866 E0.00886
G1 X83.908 Y86.109 E0.01301
G1 X83.524 Y86.254 E0.01288
G1 X83.256 Y86.294 E0.00847
G1 X82.880 Y86.311 E0.01182
G1 X82.496 Y86.263 E0.01214
G1 X82.126 Y86.131 E0.01229
G1 X81.794 Y85.923 E0.01229
G1 X81.518 Y85.651 E0.01217
G1 X81.363 Y85.431 E0.00844
G1 X81.200 Y85.079 E0.01217
G1 X81.115 Y84.696 E0.01229
G1 X81.115 Y84.304 E0.01229
G1 X81.200 Y83.921 E0.01229
G1 X81.363 Y83.569 E0.01217
G1 X81.518 Y83.349 E0.00844
G1 X81.794 Y83.077 E0.01217
G1 X82.126 Y82.869 E0.01229
G1 X82.496 Y82.737 E0.01229
G1 X82.878 Y82.689 E0.01210
G1 X83.256 Y82.706 E0.01187
G1 X83.524 Y82.746 E0.00847
G1 X83.904 Y82.890 E0.01276
G1 X84.141 Y83.047 E0.00890
G1 X84.349 Y83.239 E0.00887
G1 X84.586 Y83.571 E0.01280
G1 X84.706 Y83.828 E0.00890
G1 X84.809 Y84.225 E0.01286
G1 X84.821 Y84.578 E0.01107
M204 S1250
G1 X85.155 Y84.862 F9000.000
G1 E-2.24000 F4200.000
;WIPE_START
G1 F7200.000
G1 X84.749 Y85.045 E-0.26182
G1 X84.590 Y85.423 E-0.22728
G1 X84.435 Y85.657 E-0.15574
G1 X84.245 Y85.866 E-0.15664
G1 X84.083 Y85.983 E-0.11052
;WIPE_END
G1 E-0.04800 F4200.000
G1 Z0.400 F9000.000
G1 X95.183 Y84.293
G1 Z0.200
G1 E3.20000 F2400.000
M204 S800
G1 F1200.000
G1 X95.271 Y83.893 E0.01284
G1 X95.381 Y83.632 E0.00890
G1 X95.606 Y83.292 E0.01278
G1 X95.808 Y83.088 E0.00899
G1 X96.153 Y82.858 E0.01303
G1 X96.545 Y82.733 E0.01288
G1 X96.930 Y82.692 E0.01214
G1 X97.312 Y82.702 E0.01200
G1 X97.693 Y82.793 E0.01225
G1 X98.042 Y82.962 E0.01217
G1 X98.256 Y83.119 E0.00832
G1 X98.445 Y83.305 E0.00831
G1 X98.669 Y83.622 E0.01217
G1 X98.820 Y83.984 E0.01229
G1 X98.890 Y84.365 E0.01217
G1 X98.890 Y84.635 E0.00844
G1 X98.820 Y85.016 E0.01217
G1 X98.669 Y85.378 E0.01229
G1 X98.443 Y85.698 E0.01229
G1 X98.156 Y85.960 E0.01217
G1 X97.928 Y86.103 E0.00844
G1 X97.568 Y86.246 E0.01217
G1 X97.184 Y86.309 E0.01219
G1 X96.803 Y86.300 E0.01196
G1 X96.418 Y86.238 E0.01221
G1 X96.150 Y86.140 E0.00898
G1 X95.808 Y85.912 E0.01288
G1 X95.606 Y85.709 E0.00898
G1 X95.379 Y85.365 E0.01291
G1 X95.234 Y84.982 E0.01286
G1 X95.183 Y84.703 E0.00889
G1 X95.183 Y84.353 E0.01096
M204 S1250
G1 X94.863 Y84.053 F9000.000
G1 E-2.24000 F4200.000
;WIPE_START
G1 F7200.000
G1 X95.271 Y83.893 E-0.25955
G1 X95.381 Y83.632 E-0.15728
G1 X95.606 Y83.292 E-0.22588
G1 X95.808 Y83.088 E-0.15898
G1 X95.973 Y82.978 E-0.11031
;WIPE_END
G1 E-0.04800 F4200.000
G1 Z0.400 F9000.000
G1 X97.204 Y82.316
G1 Z0.200
G1 E3.20000 F2400.000
M204 S800
G1 F1200.000
G1 X97.570 Y82.367 E0.01157
G1 X97.920 Y82.479 E0.01153
G1 X98.249 Y82.649 E0.01162
G1 X98.447 Y82.789 E0.00760
G1 X98.628 Y82.951 E0.00760
G1 X98.867 Y83.234 E0.01162
G1 X99.055 Y83.553 E0.01162
G1 X99.148 Y83.777 E0.00761
G1 X99.215 Y84.010 E0.00760
G1 X99.267 Y84.377 E0.01163
G1 X99.257 Y84.745 E0.01153
G1 X99.185 Y85.108 E0.01162
G1 X99.104 Y85.337 E0.00760
G1 X98.999 Y85.556 E0.00760
G1 X98.793 Y85.864 E0.01162
G1 X98.541 Y86.131 E0.01153
G1 X98.245 Y86.354 E0.01162
G1 X98.032 Y86.471 E0.00760
G1 X97.808 Y86.564 E0.00760
G1 X97.449 Y86.657 E0.01162
