; generated by PrusaSlicer 2.3.0+win64 on 2021-08-08 at 19:43:53 UTC


;
;

;
;
; 

; external perimeters extrusion width = 0.45mm
; perimeters extrusion width = 0.45mm
; infill extrusion width = 0.45mm
; solid infill extrusion width = 0.45mm
; top infill extrusion width = 0.40mm
; first layer extrusion width = 0.42mm

M73 P0 R12
M201 X1250 Y1250 Z400 E5000 ; sets maximum accelerations, mm/sec^2
M203 X180 Y180 Z12 E80 ; sets maximum feedrates, mm/sec
M204 P1250 R1250 T1250 ; sets acceleration (P, T) and retract acceleration (R), mm/sec^2
M205 X8.00 Y8.00 Z2.00 E10.00 ; sets the jerk limits, mm/sec
M205 S0 T0 ; sets the minimum extruding and travel feed rate, mm/sec
M107
;TYPE:Custom
G90 ; use absolute coordinates
M83 ; extruder relative mode
M104 S170 ; set extruder temp for bed leveling
M140 S60 ; set bed temp
M109 R170 ; wait for bed leveling temp
M190 S60 ; wait for bed temp
G28 ; home all without mesh bed level
G29 ; mesh bed leveling 
M104 S215 ; set extruder temp
G92 E0.0
G1 Y-2.0 X179 F2400
G1 Z3 F720
M109 S215 ; wait for extruder temp

; intro line
G1 X170 F1000
G1 Z0.2 F720
G1 X110.0 E8.0 F900
M73 P1 R12
G1 X40.0 E10.0 F700
G92 E0.0

M221 S95 ; set flow
G21 ; set units to millimeters
G90 ; use absolute coordinates
M83 ; use relative distances for extrusion
M900 K0.2 ; Filament gcode LA 1.5
; ; Filament gcode LA 1.0
;LAYER_CHANGE
;Z:0.2
;HEIGHT:0.2
;BEFORE_LAYER_CHANGE
G92 E0.0
;0.2


M73 P2 R11
G1 E-3.20000 F4200.000
G1 Z0.200 F9000.000
;AFTER_LAYER_CHANGE
;0.2
G1 Z0.400
G1 X77.674 Y80.612
G1 Z0.200
G1 E3.20000 F2400.000
M204 S800
;TYPE:Skirt
;WIDTH:0.42
G1 F1200.000
G1 X78.396 Y80.062 E0.02845
G1 X79.172 Y79.657 E0.02745
G1 X80.023 Y79.381 E0.02806
G1 X80.890 Y79.256 E0.02745
G1 X98.796 Y79.246 E0.56145
G1 X99.676 Y79.321 E0.02769
G1 X100.577 Y79.558 E0.02919
G1 X101.508 Y80.003 E0.03235
G1 X102.222 Y80.521 E0.02768
G1 X102.877 Y81.195 E0.02946
G1 X103.372 Y81.925 E0.02766
G1 X103.747 Y82.750 E0.02841
G1 X103.968 Y83.597 E0.02745
G1 X104.046 Y84.479 E0.02775
G1 X104.017 Y96.057 E0.36304
G1 X103.843 Y96.946 E0.02839
G1 X103.507 Y97.818 E0.02931
G1 X102.956 Y98.704 E0.03272
G1 X102.333 Y99.381 E0.02885
G1 X101.613 Y99.933 E0.02844
G1 X100.831 Y100.342 E0.02769
G1 X99.984 Y100.617 E0.02791
G1 X99.123 Y100.743 E0.02728
G1 X81.171 Y100.754 E0.56288
G1 X80.050 Y100.625 E0.03538
G1 X79.009 Y100.271 E0.03448
G1 X78.137 Y99.763 E0.03164
G1 X77.326 Y99.041 E0.03404
G1 X76.783 Y98.332 E0.02800
G1 X76.389 Y97.592 E0.02629
G1 X76.144 Y96.898 E0.02308
G1 X75.981 Y96.038 E0.02745
G1 X75.954 Y84.447 E0.36343
G1 X76.083 Y83.342 E0.03488
G1 X76.438 Y82.297 E0.03460
G1 X76.947 Y81.426 E0.03164
G1 X77.634 Y80.656 E0.03233
M204 S1250
M73 P3 R11
G1 X77.915 Y80.909 F9000.000
M204 S800
G1 F1200.000
G1 X78.605 Y80.375 E0.02736
G1 X79.330 Y79.999 E0.02559
G1 X80.113 Y79.747 E0.02580
G1 X80.926 Y79.631 E0.02573
G1 X98.796 Y79.623 E0.56031
G1 X99.623 Y79.694 E0.02601
G1 X100.450 Y79.914 E0.02684
G1 X101.206 Y80.263 E0.02611
G1 X101.992 Y80.820 E0.03020
G1 X102.589 Y81.439 E0.02698
G1 X103.049 Y82.121 E0.02578
G1 X103.394 Y82.885 E0.02628
G1 X103.600 Y83.682 E0.02582
G1 X103.669 Y84.490 E0.02545
G1 X103.642 Y96.010 E0.36119
G1 X103.477 Y96.856 E0.02701
G1 X103.162 Y97.666 E0.02725
G1 X102.639 Y98.497 E0.03080
G1 X102.052 Y99.128 E0.02701
G1 X101.400 Y99.621 E0.02564
G1 X100.673 Y100.000 E0.02571
G1 X99.890 Y100.252 E0.02580
G1 X99.075 Y100.369 E0.02580
G1 X81.173 Y100.377 E0.56130
G1 X80.132 Y100.257 E0.03288
G1 X79.155 Y99.923 E0.03237
G1 X78.350 Y99.452 E0.02925
G1 X77.586 Y98.767 E0.03217
G1 X77.093 Y98.118 E0.02554
G1 X76.728 Y97.427 E0.02451
G1 X76.470 Y96.654 E0.02555
G1 X76.356 Y95.990 E0.02114
G1 X76.331 Y84.451 E0.36181
G1 X76.452 Y83.420 E0.03254
G1 X76.786 Y82.444 E0.03234
G1 X77.256 Y81.642 E0.02915
G1 X77.875 Y80.954 E0.02902
M204 S1250
; printing object Clips05.stl id:0 copy 1
G1 E-2.24000 F4200.000
;WIPE_START
G1 F7200.000
G1 X78.605 Y80.375 E-0.51626
G1 X79.239 Y80.046 E-0.39574
;WIPE_END
G1 E-0.04800 F4200.000
G1 Z0.400 F9000.000
G1 X82.692 Y93.774
G1 Z0.200
G1 E3.20000 F2400.000
M204 S800
;TYPE:Perimeter
G1 F1200.000
G1 X97.245 Y93.782 E0.45631
G1 X96.838 Y94.308 E0.02085
G1 X96.677 Y94.623 E0.01109
G1 X96.539 Y95.089 E0.01523
G1 X96.503 Y95.583 E0.01552
G1 X96.575 Y96.073 E0.01554
G1 X96.750 Y96.538 E0.01557
G1 X97.021 Y96.947 E0.01540
G1 X97.289 Y97.218 E0.01195
G1 X82.719 Y97.225 E0.45684
G1 X83.024 Y96.889 E0.01424
G1 X83.214 Y96.602 E0.01081
G1 X83.403 Y96.153 E0.01526
G1 X83.492 Y95.665 E0.01554
G1 X83.475 Y95.170 E0.01553
G1 X83.353 Y94.701 E0.01521
G1 X83.204 Y94.380 E0.01109
G1 X82.923 Y93.988 E0.01512
G1 X82.736 Y93.815 E0.00801
M204 S1250
G1 X82.195 Y93.890 F9000.000
M204 S800
;TYPE:External perimeter
G1 F1200.000
G1 X82.431 Y94.047 E0.00890
G1 X82.639 Y94.239 E0.00887
G1 X82.877 Y94.571 E0.01280
G1 X82.997 Y94.828 E0.00891
G1 X83.099 Y95.225 E0.01284
G1 X83.114 Y95.638 E0.01296
G1 X83.040 Y96.045 E0.01296
G1 X82.881 Y96.423 E0.01286
G1 X82.726 Y96.657 E0.00880
M73 P4 R11
G1 X82.536 Y96.866 E0.00887
G1 X82.199 Y97.109 E0.01301
G1 X81.814 Y97.254 E0.01288
G1 X81.547 Y97.294 E0.00847
G1 X81.170 Y97.311 E0.01182
G1 X80.786 Y97.263 E0.01214
G1 X80.417 Y97.131 E0.01229
G1 X80.085 Y96.923 E0.01229
G1 X79.808 Y96.651 E0.01217
G1 X79.653 Y96.431 E0.00844
G1 X79.490 Y96.079 E0.01217
G1 X79.406 Y95.696 E0.01229
G1 X79.406 Y95.304 E0.01229
G1 X79.490 Y94.921 E0.01229
G1 X79.653 Y94.569 E0.01217
G1 X79.808 Y94.349 E0.00844
G1 X80.085 Y94.077 E0.01217
G1 X80.417 Y93.869 E0.01229
G1 X80.786 Y93.737 E0.01229
G1 X81.169 Y93.689 E0.01210
G1 X81.547 Y93.706 E0.01187
G1 X81.814 Y93.746 E0.00847
G1 X82.139 Y93.869 E0.01088
M204 S1250
G1 X82.435 Y93.738 F9000.000
G1 E-2.24000 F4200.000
;WIPE_START
G1 F7200.000
G1 X82.431 Y94.047 E-0.18978
G1 X82.639 Y94.239 E-0.15675
G1 X82.877 Y94.571 E-0.22626
G1 X82.997 Y94.828 E-0.15742
G1 X83.079 Y95.146 E-0.18178
;WIPE_END
G1 E-0.04800 F4200.000
G1 Z0.400 F9000.000
G1 X96.912 Y95.157
G1 Z0.200
G1 E3.20000 F2400.000
M204 S800
G1 F1200.000
G1 X97.029 Y94.764 E0.01286
G1 X97.158 Y94.511 E0.00891
G1 X97.411 Y94.184 E0.01296
G1 X97.738 Y93.929 E0.01299
G1 X97.993 Y93.806 E0.00888
G1 X98.258 Y93.733 E0.00863
G1 X98.639 Y93.692 E0.01202
G1 X99.022 Y93.702 E0.01200
G1 X99.402 Y93.793 E0.01226
G1 X99.751 Y93.963 E0.01217
G1 X99.965 Y94.119 E0.00832
G1 X100.155 Y94.305 E0.00831
G1 X100.378 Y94.622 E0.01217
G1 X100.530 Y94.984 E0.01229
G1 X100.599 Y95.366 E0.01217
G1 X100.599 Y95.635 E0.00844
G1 X100.530 Y96.016 E0.01217
G1 X100.378 Y96.378 E0.01229
G1 X100.152 Y96.698 E0.01229
G1 X99.866 Y96.960 E0.01217
G1 X99.638 Y97.103 E0.00843
G1 X99.277 Y97.246 E0.01217
G1 X98.893 Y97.309 E0.01219
G1 X98.512 Y97.300 E0.01196
G1 X98.128 Y97.238 E0.01221
G1 X97.859 Y97.140 E0.00898
G1 X97.517 Y96.912 E0.01288
G1 X97.315 Y96.708 E0.00899
G1 X97.088 Y96.365 E0.01292
G1 X96.942 Y95.978 E0.01296
G1 X96.882 Y95.569 E0.01297
G1 X96.908 Y95.217 E0.01107
M204 S1250
G1 X96.607 Y94.898 F9000.000
G1 E-2.24000 F4200.000
;WIPE_START
G1 F7200.000
G1 X97.029 Y94.764 E-0.25978
G1 X97.158 Y94.511 E-0.15745
G1 X97.411 Y94.184 E-0.22899
G1 X97.738 Y93.929 E-0.22967
G1 X97.797 Y93.901 E-0.03610
;WIPE_END
G1 E-0.04800 F4200.000
G1 Z0.400 F9000.000
G1 X98.918 Y93.316
G1 Z0.200
G1 E3.20000 F2400.000
M204 S800
G1 F1200.000
G1 X99.159 Y93.343 E0.00761
G1 X99.395 Y93.397 E0.00760
G1 X99.741 Y93.529 E0.01162
G1 X100.061 Y93.717 E0.01162
G1 X100.250 Y93.869 E0.00761
G1 X100.424 Y94.042 E0.00769
G1 X100.577 Y94.234 E0.00770
G1 X100.706 Y94.439 E0.00760
G1 X100.857 Y94.778 E0.01162
G1 X100.949 Y95.134 E0.01153
G1 X100.980 Y95.500 E0.01153
G1 X100.949 Y95.866 E0.01153
G1 X100.857 Y96.222 E0.01153
G1 X100.706 Y96.561 E0.01162
G1 X100.577 Y96.766 E0.00760
G1 X100.426 Y96.956 E0.00760
G1 X100.156 Y97.210 E0.01162
G1 X99.850 Y97.415 E0.01153
G1 X99.512 Y97.566 E0.01162
G1 X99.279 Y97.633 E0.00760
G1 X99.037 Y97.674 E0.00770
G1 X98.793 Y97.688 E0.00768
G1 X97.334 Y97.596 E0.04583
G1 X95.862 Y97.590 E0.04615
G1 X83.159 Y97.591 E0.39830
G1 X82.174 Y97.617 E0.03088
G1 X81.207 Y97.688 E0.03042
G1 X80.966 Y97.674 E0.00757
G1 X80.602 Y97.602 E0.01162
G1 X80.258 Y97.471 E0.01153
G1 X79.942 Y97.284 E0.01153
G1 X79.661 Y97.047 E0.01153
G1 X79.423 Y96.766 E0.01153
G1 X79.237 Y96.449 E0.01153
G1 X79.106 Y96.106 E0.01153
G1 X79.033 Y95.742 E0.01162
G1 X79.020 Y95.500 E0.00760
G1 X79.033 Y95.258 E0.00760
G1 X79.106 Y94.894 E0.01162
G1 X79.238 Y94.548 E0.01162
G1 X79.355 Y94.336 E0.00761
G1 X79.497 Y94.136 E0.00769
G1 X79.661 Y93.953 E0.00770
G1 X79.841 Y93.791 E0.00760
G1 X80.152 Y93.584 E0.01172
G1 X80.370 Y93.479 E0.00760
G1 X80.599 Y93.399 E0.00760
G1 X80.966 Y93.326 E0.01172
G1 X81.207 Y93.312 E0.00757
G1 X82.174 Y93.383 E0.03041
G1 X83.159 Y93.409 E0.03088
G1 X96.351 Y93.410 E0.41362
G1 X97.332 Y93.404 E0.03078
G1 X97.830 Y93.382 E0.01563
G1 X98.317 Y93.335 E0.01535
G1 X98.858 Y93.318 E0.01695
M204 S1250
G1 X99.027 Y93.532 F9000.000
G1 X98.036 Y93.575
M204 S800
;TYPE:Gap fill
;WIDTH:0.109964
G1 F1200.000
G1 X97.550 Y93.695 E0.00279
M204 S1250
G1 X97.767 Y93.574 F9000.000
M204 S800
;WIDTH:0.163138
G1 F1200.000
G1 X97.501 Y93.824 E0.00365
M204 S1250
M204 S800
;WIDTH:0.125956
G1 X97.401 Y93.925 E0.00099
M204 S1250
G1 X96.250 Y93.895 F9000.000
M204 S800
;TYPE:Solid infill
;WIDTH:0.430549
G1 F1200.000
G1 X96.569 Y94.214 E0.01454
G1 X96.393 Y94.587 E0.01328
G1 X95.871 Y94.065 E0.02379
G1 X95.323 Y94.065 E0.01766
G1 X96.267 Y95.010 E0.04304
G1 X96.224 Y95.515 E0.01635
G1 X94.775 Y94.066 E0.06606
G1 X94.227 Y94.066 E0.01766
G1 X96.298 Y96.137 E0.09439
G1 X96.468 Y96.591 E0.01562
G1 X96.293 Y96.680 E0.00633
G1 X93.679 Y94.066 E0.11915
G1 X93.131 Y94.066 E0.01766
G1 X96.001 Y96.936 E0.13082
G1 X95.453 Y96.936 E0.01766
G1 X92.583 Y94.066 E0.13082
G1 X92.035 Y94.067 E0.01766
G1 X94.905 Y96.937 E0.13083
G1 X94.357 Y96.937 E0.01766
G1 X91.487 Y94.067 E0.13083
G1 X90.939 Y94.067 E0.01766
G1 X93.809 Y96.937 E0.13083
G1 X93.261 Y96.937 E0.01766
G1 X90.391 Y94.067 E0.13084
G1 X89.843 Y94.067 E0.01766
G1 X92.714 Y96.938 E0.13084
M73 P5 R11
G1 X92.166 Y96.938 E0.01766
G1 X89.295 Y94.067 E0.13085
G1 X88.747 Y94.068 E0.01766
G1 X91.618 Y96.938 E0.13085
G1 X91.070 Y96.938 E0.01766
G1 X88.199 Y94.068 E0.13085
G1 X87.651 Y94.068 E0.01766
G1 X90.522 Y96.939 E0.13086
G1 X89.974 Y96.939 E0.01766
G1 X87.103 Y94.068 E0.13086
G1 X86.555 Y94.068 E0.01766
G1 X89.426 Y96.939 E0.13087
G1 X88.878 Y96.940 E0.01766
G1 X86.007 Y94.068 E0.13087
G1 X85.459 Y94.069 E0.01766
G1 X88.330 Y96.940 E0.13087
G1 X87.782 Y96.940 E0.01766
G1 X84.911 Y94.069 E0.13088
G1 X84.363 Y94.069 E0.01766
G1 X87.234 Y96.940 E0.13088
G1 X86.686 Y96.941 E0.01766
G1 X83.815 Y94.069 E0.13089
G1 X83.330 Y94.069 E0.01564
G1 X83.463 Y94.265 E0.00763
G1 X86.138 Y96.941 E0.12197
G1 X85.590 Y96.941 E0.01766
G1 X83.748 Y95.099 E0.08398
G1 X83.776 Y95.675 E0.01858
G1 X85.043 Y96.941 E0.05775
G1 X84.495 Y96.942 E0.01766
G1 X83.693 Y96.140 E0.03654
G1 X83.676 Y96.234 E0.00308
G1 X83.546 Y96.542 E0.01076
G1 X84.116 Y97.112 E0.02597
M204 S1250
G1 X83.266 Y96.907 F9000.000
M204 S800
;TYPE:Gap fill
;WIDTH:0.106828
G1 F1200.000
G1 X83.202 Y97.025 E0.00071
M204 S1250
G1 X82.501 Y97.151 F9000.000
M204 S800
;WIDTH:0.139959
G1 F1200.000
G1 X82.172 Y97.429 E0.00348
M204 S1250
G1 X81.963 Y97.422 F9000.000
M204 S800
;WIDTH:0.118768
G1 F1200.000
G1 X82.062 Y97.400 E0.00064
M204 S1250
M204 S800
;WIDTH:0.144936
G1 X82.163 Y97.378 E0.00088
M204 S1250
M204 S800
;WIDTH:0.175125
G1 X82.361 Y97.339 E0.00222
M204 S1250
G1 E-2.24000 F4200.000
;WIPE_START
G1 F7200.000
G1 X82.163 Y97.378 E-0.11172
;WIPE_END
G1 E-0.84828 F4200.000
G1 Z0.400 F9000.000
G1 X82.318 Y93.718
G1 Z0.200
G1 E3.20000 F2400.000
M204 S800
;WIDTH:0.0938908
G1 F1200.000
G1 X82.173 Y93.624 E0.00073
G1 X81.963 Y93.578 E0.00091
M204 S1250
G1 E-2.24000 F4200.000
;WIPE_START
G1 F7200.000
G1 X82.173 Y93.624 E-0.11913
G1 X82.318 Y93.718 E-0.09572
;WIPE_END
G1 E-0.74515 F4200.000
G1 Z0.400 F9000.000
G1 X96.673 Y96.803
G1 Z0.200
G1 E3.20000 F2400.000
M204 S800
;WIDTH:0.132647
G1 F1200.000
G1 X96.788 Y97.028 E0.00188
M204 S1250
G1 X97.568 Y97.200 F9000.000
M204 S800
;WIDTH:0.125812
G1 F1200.000
G1 X97.794 Y97.378 E0.00198
G1 X98.039 Y97.430 E0.00173
M204 S1250
; stop printing object Clips05.stl id:0 copy 1
; printing object Clips05.stl id:0 copy 0
G1 E-2.24000 F4200.000
;WIPE_START
G1 F7200.000
G1 X97.794 Y97.378 E-0.13912
G1 X97.568 Y97.200 E-0.15924
;WIPE_END
G1 E-0.66164 F4200.000
G1 Z0.400 F9000.000
G1 X97.289 Y86.218
G1 Z0.200
G1 E3.20000 F2400.000
M204 S800
;TYPE:Perimeter
;WIDTH:0.42
G1 F1200.000
G1 X82.719 Y86.225 E0.45684
G1 X83.024 Y85.889 E0.01424
G1 X83.214 Y85.602 E0.01081
G1 X83.403 Y85.153 E0.01526
G1 X83.492 Y84.665 E0.01554
G1 X83.475 Y84.170 E0.01553
G1 X83.353 Y83.701 E0.01521
G1 X83.204 Y83.380 E0.01109
G1 X82.923 Y82.988 E0.01512
G1 X82.692 Y82.774 E0.00989
G1 X97.245 Y82.782 E0.45631
G1 X96.838 Y83.308 E0.02085
G1 X96.677 Y83.623 E0.01109
G1 X96.539 Y84.089 E0.01523
G1 X96.503 Y84.583 E0.01552
G1 X96.575 Y85.073 E0.01554
G1 X96.750 Y85.538 E0.01557
G1 X97.021 Y85.947 E0.01540
G1 X97.247 Y86.176 E0.01007
M204 S1250
G1 E-2.24000 F4200.000
;WIPE_START
M73 P6 R11
G1 F7200.000
G1 X95.601 Y86.181 E-0.91200
;WIPE_END
G1 E-0.04800 F4200.000
G1 Z0.400 F9000.000
G1 X83.114 Y84.638
G1 Z0.200
G1 E3.20000 F2400.000
M204 S800
;TYPE:External perimeter
G1 F1200.000
G1 X83.040 Y85.045 E0.01296
G1 X82.881 Y85.423 E0.01286
G1 X82.726 Y85.657 E0.00880
G1 X82.536 Y85.866 E0.00887
G1 X82.199 Y86.109 E0.01301
G1 X81.814 Y86.254 E0.01288
G1 X81.547 Y86.294 E0.00847
G1 X81.170 Y86.311 E0.01182
G1 X80.786 Y86.263 E0.01214
G1 X80.417 Y86.131 E0.01229
G1 X80.085 Y85.923 E0.01229
G1 X79.808 Y85.651 E0.01217
G1 X79.653 Y85.431 E0.00844
G1 X79.490 Y85.079 E0.01217
G1 X79.406 Y84.696 E0.01229
G1 X79.406 Y84.304 E0.01229
G1 X79.490 Y83.921 E0.01229
G1 X79.653 Y83.569 E0.01217
G1 X79.808 Y83.349 E0.00844
G1 X80.085 Y83.077 E0.01217
G1 X80.417 Y82.869 E0.01229
G1 X80.786 Y82.737 E0.01229
G1 X81.169 Y82.689 E0.01210
G1 X81.547 Y82.706 E0.01187
G1 X81.814 Y82.746 E0.00847
G1 X82.195 Y82.890 E0.01276
G1 X82.431 Y83.047 E0.00890
G1 X82.639 Y83.239 E0.00887
G1 X82.877 Y83.571 E0.01280
G1 X82.997 Y83.828 E0.00891
G1 X83.099 Y84.225 E0.01284
G1 X83.112 Y84.578 E0.01108
M204 S1250
G1 X83.445 Y84.862 F9000.000
G1 E-2.24000 F4200.000
;WIPE_START
G1 F7200.000
G1 X83.040 Y85.045 E-0.26169
G1 X82.881 Y85.423 E-0.22731
G1 X82.726 Y85.657 E-0.15559
G1 X82.536 Y85.866 E-0.15677
G1 X82.373 Y85.983 E-0.11064
;WIPE_END
G1 E-0.04800 F4200.000
G1 Z0.400 F9000.000
G1 X96.882 Y84.569
G1 Z0.200
G1 E3.20000 F2400.000
M204 S800
G1 F1200.000
G1 X96.912 Y84.157 E0.01295
G1 X97.029 Y83.764 E0.01286
G1 X97.158 Y83.511 E0.00891
G1 X97.411 Y83.184 E0.01296
G1 X97.738 Y82.929 E0.01299
G1 X97.993 Y82.806 E0.00888
G1 X98.258 Y82.733 E0.00863
G1 X98.639 Y82.692 E0.01202
G1 X99.022 Y82.702 E0.01200
G1 X99.402 Y82.793 E0.01226
G1 X99.751 Y82.963 E0.01217
G1 X99.965 Y83.119 E0.00832
G1 X100.155 Y83.305 E0.00831
G1 X100.378 Y83.622 E0.01217
G1 X100.530 Y83.984 E0.01229
G1 X100.599 Y84.366 E0.01217
G1 X100.599 Y84.635 E0.00844
G1 X100.530 Y85.016 E0.01217
G1 X100.378 Y85.378 E0.01229
G1 X100.152 Y85.698 E0.01229
G1 X99.866 Y85.960 E0.01217
G1 X99.638 Y86.103 E0.00843
G1 X99.277 Y86.246 E0.01217
G1 X98.893 Y86.309 E0.01219
G1 X98.512 Y86.300 E0.01196
G1 X98.128 Y86.238 E0.01221
G1 X97.859 Y86.140 E0.00898
G1 X97.517 Y85.912 E0.01288
G1 X97.315 Y85.708 E0.00899
G1 X97.088 Y85.365 E0.01292
G1 X96.942 Y84.978 E0.01296
G1 X96.891 Y84.628 E0.01109
M204 S1250
G1 X96.529 Y84.382 F9000.000
G1 E-2.24000 F4200.000
;WIPE_START
G1 F7200.000
G1 X96.912 Y84.157 E-0.26146
G1 X97.029 Y83.764 E-0.22722
G1 X97.158 Y83.511 E-0.15745
G1 X97.411 Y83.184 E-0.22899
G1 X97.463 Y83.143 E-0.03688
;WIPE_END
G1 E-0.04800 F4200.000
G1 Z0.400 F9000.000
G1 X99.850 Y86.415
G1 Z0.200
G1 E3.20000 F2400.000
M204 S800
G1 F1200.000
G1 X99.512 Y86.566 E0.01162
G1 X99.279 Y86.633 E0.00760
G1 X99.037 Y86.674 E0.00770
G1 X98.793 Y86.688 E0.00768
G1 X97.334 Y86.596 E0.04583
G1 X95.862 Y86.590 E0.04615
G1 X83.159 Y86.591 E0.39830
G1 X82.174 Y86.617 E0.03088
