; generated by PrusaSlicer 2.3.0+win64 on 2021-08-08 at 19:16:59 UTC


;
;

;
;
; 

; external perimeters extrusion width = 0.45mm
; perimeters extrusion width = 0.45mm
; infill extrusion width = 0.45mm
; solid infill extrusion width = 0.45mm
; top infill extrusion width = 0.40mm
; first layer extrusion width = 0.42mm

M73 P0 R13
M201 X1250 Y1250 Z400 E5000 ; sets maximum accelerations, mm/sec^2
M203 X180 Y180 Z12 E80 ; sets maximum feedrates, mm/sec
M204 P1250 R1250 T1250 ; sets acceleration (P, T) and retract acceleration (R), mm/sec^2
M205 X8.00 Y8.00 Z2.00 E10.00 ; sets the jerk limits, mm/sec
M205 S0 T0 ; sets the minimum extruding and travel feed rate, mm/sec
M107
;TYPE:Custom
G90 ; use absolute coordinates
M83 ; extruder relative mode
M104 S170 ; set extruder temp for bed leveling
M140 S60 ; set bed temp
M109 R170 ; wait for bed leveling temp
M190 S60 ; wait for bed temp
G28 ; home all without mesh bed level
G29 ; mesh bed leveling 
M104 S215 ; set extruder temp
G92 E0.0
G1 Y-2.0 X179 F2400
M73 P0 R12
G1 Z3 F720
M109 S215 ; wait for extruder temp

; intro line
G1 X170 F1000
G1 Z0.2 F720
G1 X110.0 E8.0 F900
M73 P1 R12
G1 X40.0 E10.0 F700
G92 E0.0

M221 S95 ; set flow
G21 ; set units to millimeters
G90 ; use absolute coordinates
M83 ; use relative distances for extrusion
M900 K0.2 ; Filament gcode LA 1.5
; ; Filament gcode LA 1.0
;LAYER_CHANGE
;Z:0.2
;HEIGHT:0.2
;BEFORE_LAYER_CHANGE
G92 E0.0
;0.2


M73 P2 R12
G1 E-3.20000 F4200.000
G1 Z0.200 F9000.000
;AFTER_LAYER_CHANGE
;0.2
G1 Z0.400
G1 X77.670 Y80.616
G1 Z0.200
G1 E3.20000 F2400.000
M204 S800
;TYPE:Skirt
;WIDTH:0.42
G1 F1200.000
G1 X78.393 Y80.063 E0.02852
G1 X79.170 Y79.657 E0.02750
G1 X80.024 Y79.381 E0.02811
G1 X80.887 Y79.256 E0.02737
G1 X98.796 Y79.246 E0.56153
G1 X99.676 Y79.321 E0.02768
G1 X100.569 Y79.556 E0.02897
G1 X101.507 Y80.002 E0.03255
G1 X102.228 Y80.526 E0.02794
G1 X102.874 Y81.192 E0.02909
G1 X103.372 Y81.926 E0.02781
G1 X103.746 Y82.749 E0.02836
G1 X103.970 Y83.606 E0.02776
G1 X104.046 Y84.479 E0.02747
G1 X104.016 Y96.064 E0.36326
G1 X103.839 Y96.963 E0.02872
G1 X103.500 Y97.833 E0.02930
G1 X102.953 Y98.707 E0.03231
G1 X102.330 Y99.385 E0.02887
G1 X101.608 Y99.936 E0.02846
G1 X100.826 Y100.345 E0.02769
G1 X99.975 Y100.619 E0.02802
G1 X99.121 Y100.744 E0.02706
G1 X81.171 Y100.754 E0.56282
G1 X80.051 Y100.625 E0.03533
G1 X79.004 Y100.269 E0.03468
G1 X78.139 Y99.765 E0.03140
G1 X77.322 Y99.036 E0.03433
G1 X76.780 Y98.329 E0.02793
G1 X76.387 Y97.588 E0.02630
G1 X76.108 Y96.762 E0.02732
G1 X75.981 Y96.038 E0.02306
G1 X75.954 Y84.447 E0.36344
G1 X76.082 Y83.347 E0.03472
G1 X76.442 Y82.290 E0.03501
G1 X76.947 Y81.426 E0.03139
G1 X77.630 Y80.660 E0.03216
M204 S1250
G1 X77.911 Y80.913 F9000.000
M204 S800
G1 F1200.000
G1 X78.603 Y80.377 E0.02744
G1 X79.328 Y80.000 E0.02561
G1 X80.113 Y79.747 E0.02588
G1 X80.923 Y79.631 E0.02564
G1 X98.796 Y79.623 E0.56040
G1 X99.610 Y79.692 E0.02561
G1 X100.440 Y79.910 E0.02689
G1 X101.320 Y80.330 E0.03057
G1 X101.988 Y80.817 E0.02594
G1 X102.584 Y81.433 E0.02687
G1 X103.048 Y82.118 E0.02594
G1 X103.394 Y82.884 E0.02634
G1 X103.602 Y83.691 E0.02613
G1 X103.669 Y84.482 E0.02488
G1 X103.642 Y96.014 E0.36158
M73 P3 R12
G1 X103.478 Y96.852 E0.02678
G1 X103.163 Y97.664 E0.02732
G1 X102.647 Y98.487 E0.03046
G1 X102.055 Y99.125 E0.02727
G1 X101.399 Y99.622 E0.02582
G1 X100.668 Y100.002 E0.02584
G1 X99.885 Y100.253 E0.02578
G1 X99.086 Y100.368 E0.02531
G1 X81.173 Y100.377 E0.56162
G1 X80.129 Y100.256 E0.03296
G1 X79.154 Y99.923 E0.03231
G1 X78.352 Y99.453 E0.02915
G1 X77.582 Y98.761 E0.03246
G1 X77.091 Y98.115 E0.02543
G1 X76.728 Y97.427 E0.02440
G1 X76.472 Y96.663 E0.02526
G1 X76.356 Y95.990 E0.02141
G1 X76.331 Y84.451 E0.36182
G1 X76.451 Y83.425 E0.03236
G1 X76.787 Y82.440 E0.03264
G1 X77.256 Y81.642 E0.02902
G1 X77.871 Y80.957 E0.02886
M204 S1250
; printing object Clips04.stl id:0 copy 1
G1 E-2.24000 F4200.000
;WIPE_START
G1 F7200.000
G1 X78.603 Y80.377 E-0.51767
G1 X79.234 Y80.049 E-0.39433
;WIPE_END
G1 E-0.04800 F4200.000
G1 Z0.400 F9000.000
G1 X82.692 Y93.774
G1 Z0.200
G1 E3.20000 F2400.000
M204 S800
;TYPE:Perimeter
G1 F1200.000
G1 X97.289 Y93.782 E0.45770
G1 X97.021 Y94.053 E0.01195
G1 X96.756 Y94.453 E0.01504
G1 X96.619 Y94.779 E0.01109
G1 X96.515 Y95.252 E0.01519
G1 X96.515 Y95.737 E0.01521
G1 X96.578 Y96.083 E0.01103
G1 X96.750 Y96.538 E0.01525
G1 X97.021 Y96.947 E0.01539
G1 X97.289 Y97.218 E0.01195
G1 X82.719 Y97.225 E0.45684
G1 X83.024 Y96.889 E0.01424
G1 X83.214 Y96.602 E0.01081
G1 X83.403 Y96.153 E0.01526
G1 X83.492 Y95.665 E0.01554
G1 X83.475 Y95.170 E0.01553
G1 X83.353 Y94.701 E0.01521
G1 X83.204 Y94.380 E0.01109
G1 X82.923 Y93.988 E0.01512
G1 X82.736 Y93.815 E0.00800
M204 S1250
G1 X82.195 Y93.890 F9000.000
M204 S800
;TYPE:External perimeter
G1 F1200.000
G1 X82.431 Y94.047 E0.00890
G1 X82.639 Y94.239 E0.00887
G1 X82.877 Y94.571 E0.01280
G1 X82.997 Y94.828 E0.00891
G1 X83.099 Y95.225 E0.01284
G1 X83.114 Y95.638 E0.01296
G1 X83.040 Y96.045 E0.01296
G1 X82.881 Y96.423 E0.01286
G1 X82.726 Y96.657 E0.00880
G1 X82.536 Y96.866 E0.00887
G1 X82.199 Y97.109 E0.01301
G1 X81.814 Y97.254 E0.01288
G1 X81.547 Y97.294 E0.00847
G1 X81.170 Y97.311 E0.01182
G1 X80.786 Y97.263 E0.01214
G1 X80.417 Y97.131 E0.01229
G1 X80.085 Y96.923 E0.01229
G1 X79.808 Y96.651 E0.01217
G1 X79.653 Y96.431 E0.00844
G1 X79.490 Y96.079 E0.01217
G1 X79.406 Y95.696 E0.01229
G1 X79.406 Y95.304 E0.01229
G1 X79.490 Y94.921 E0.01229
G1 X79.653 Y94.569 E0.01217
G1 X79.808 Y94.349 E0.00844
G1 X80.085 Y94.077 E0.01217
G1 X80.417 Y93.869 E0.01229
G1 X80.786 Y93.737 E0.01229
G1 X81.169 Y93.689 E0.01210
G1 X81.547 Y93.706 E0.01187
G1 X81.814 Y93.746 E0.00847
G1 X82.139 Y93.869 E0.01088
M204 S1250
G1 X82.435 Y93.738 F9000.000
G1 E-2.24000 F4200.000
;WIPE_START
G1 F7200.000
G1 X82.431 Y94.047 E-0.18978
G1 X82.639 Y94.239 E-0.15674
G1 X82.877 Y94.571 E-0.22627
G1 X82.997 Y94.828 E-0.15743
G1 X83.079 Y95.146 E-0.18179
;WIPE_END
G1 E-0.04800 F4200.000
G1 Z0.400 F9000.000
G1 X96.892 Y95.293
G1 Z0.200
G1 E3.20000 F2400.000
M204 S800
G1 F1200.000
G1 X96.980 Y94.893 E0.01283
G1 X97.090 Y94.632 E0.00891
G1 X97.315 Y94.292 E0.01278
G1 X97.517 Y94.088 E0.00899
G1 X97.863 Y93.858 E0.01303
G1 X98.254 Y93.733 E0.01288
G1 X98.639 Y93.692 E0.01214
G1 X99.022 Y93.702 E0.01200
G1 X99.402 Y93.793 E0.01225
G1 X99.751 Y93.962 E0.01217
G1 X99.965 Y94.119 E0.00832
G1 X100.154 Y94.305 E0.00831
G1 X100.378 Y94.622 E0.01217
G1 X100.530 Y94.984 E0.01229
G1 X100.599 Y95.365 E0.01217
G1 X100.599 Y95.635 E0.00844
G1 X100.530 Y96.016 E0.01217
G1 X100.378 Y96.378 E0.01229
G1 X100.152 Y96.698 E0.01229
G1 X99.866 Y96.960 E0.01217
G1 X99.638 Y97.103 E0.00844
G1 X99.277 Y97.246 E0.01217
G1 X98.894 Y97.309 E0.01219
G1 X98.512 Y97.300 E0.01196
G1 X98.128 Y97.238 E0.01221
G1 X97.859 Y97.140 E0.00898
G1 X97.517 Y96.912 E0.01288
G1 X97.315 Y96.708 E0.00899
G1 X97.088 Y96.365 E0.01290
G1 X96.943 Y95.982 E0.01285
G1 X96.892 Y95.703 E0.00889
G1 X96.892 Y95.353 E0.01097
M204 S1250
G1 X96.572 Y95.053 F9000.000
G1 E-2.24000 F4200.000
;WIPE_START
G1 F7200.000
G1 X96.980 Y94.893 E-0.25941
G1 X97.090 Y94.632 E-0.15742
G1 X97.315 Y94.292 E-0.22580
G1 X97.517 Y94.088 E-0.15897
G1 X97.683 Y93.978 E-0.11039
;WIPE_END
G1 E-0.04800 F4200.000
G1 Z0.400 F9000.000
G1 X98.918 Y93.316
G1 Z0.200
G1 E3.20000 F2400.000
M204 S800
G1 F1200.000
G1 X99.159 Y93.343 E0.00760
G1 X99.395 Y93.397 E0.00760
G1 X99.741 Y93.529 E0.01162
G1 X100.061 Y93.717 E0.01162
G1 X100.250 Y93.869 E0.00761
G1 X100.424 Y94.042 E0.00769
G1 X100.577 Y94.234 E0.00770
G1 X100.706 Y94.439 E0.00760
G1 X100.857 Y94.778 E0.01162
G1 X100.949 Y95.134 E0.01153
G1 X100.980 Y95.500 E0.01153
G1 X100.949 Y95.866 E0.01153
G1 X100.857 Y96.222 E0.01153
G1 X100.706 Y96.561 E0.01162
M73 P4 R12
G1 X100.577 Y96.766 E0.00760
G1 X100.426 Y96.956 E0.00761
G1 X100.156 Y97.210 E0.01162
G1 X99.851 Y97.415 E0.01153
G1 X99.512 Y97.566 E0.01163
G1 X99.279 Y97.633 E0.00760
G1 X99.037 Y97.674 E0.00770
G1 X98.793 Y97.688 E0.00768
G1 X97.334 Y97.596 E0.04583
G1 X95.862 Y97.590 E0.04615
G1 X83.159 Y97.591 E0.39830
G1 X82.174 Y97.617 E0.03088
G1 X81.207 Y97.688 E0.03042
G1 X80.966 Y97.674 E0.00757
G1 X80.602 Y97.602 E0.01162
G1 X80.258 Y97.471 E0.01153
G1 X79.942 Y97.284 E0.01153
G1 X79.661 Y97.047 E0.01153
G1 X79.423 Y96.766 E0.01153
G1 X79.237 Y96.449 E0.01153
G1 X79.106 Y96.106 E0.01153
G1 X79.033 Y95.742 E0.01162
G1 X79.020 Y95.500 E0.00760
G1 X79.033 Y95.258 E0.00760
G1 X79.106 Y94.894 E0.01162
G1 X79.238 Y94.548 E0.01162
G1 X79.355 Y94.336 E0.00761
G1 X79.497 Y94.136 E0.00769
G1 X79.661 Y93.953 E0.00770
G1 X79.841 Y93.791 E0.00760
G1 X80.152 Y93.584 E0.01172
G1 X80.370 Y93.479 E0.00760
G1 X80.598 Y93.399 E0.00755
G1 X80.966 Y93.326 E0.01177
G1 X81.207 Y93.312 E0.00757
G1 X82.174 Y93.383 E0.03041
G1 X83.159 Y93.409 E0.03088
G1 X96.351 Y93.410 E0.41362
G1 X97.332 Y93.404 E0.03078
G1 X97.830 Y93.382 E0.01563
G1 X98.317 Y93.335 E0.01535
G1 X98.858 Y93.318 E0.01695
M204 S1250
G1 X99.027 Y93.532 F9000.000
G1 X98.067 Y93.572
M204 S800
;TYPE:Gap fill
;WIDTH:0.135118
G1 F1200.000
G1 X97.784 Y93.628 E0.00221
G1 X97.568 Y93.800 E0.00212
M204 S1250
G1 X96.798 Y93.973 F9000.000
M204 S800
;WIDTH:0.117703
G1 F1200.000
G1 X96.705 Y94.148 E0.00123
M204 S1250
G1 X95.891 Y93.895 F9000.000
M204 S800
;TYPE:Solid infill
;WIDTH:0.421964
G1 F1200.000
G1 X96.449 Y94.453 E0.02487
G1 X96.349 Y94.693 E0.00819
G1 X96.313 Y94.853 E0.00518
G1 X95.525 Y94.065 E0.03513
G1 X94.989 Y94.065 E0.01689
G1 X96.232 Y95.308 E0.05541
G1 X96.232 Y95.763 E0.01432
G1 X96.251 Y95.863 E0.00320
G1 X94.453 Y94.066 E0.08011
G1 X93.917 Y94.066 E0.01689
G1 X96.451 Y96.600 E0.11294
G1 X96.234 Y96.711 E0.00771
G1 X96.349 Y96.936 E0.00796
G1 X96.252 Y96.936 E0.00306
G1 X93.382 Y94.066 E0.12793
G1 X92.846 Y94.066 E0.01689
G1 X95.716 Y96.936 E0.12793
G1 X95.180 Y96.936 E0.01689
G1 X92.310 Y94.066 E0.12793
G1 X91.774 Y94.066 E0.01689
G1 X94.644 Y96.937 E0.12794
G1 X94.109 Y96.937 E0.01689
G1 X91.238 Y94.067 E0.12794
G1 X90.702 Y94.067 E0.01689
G1 X93.573 Y96.937 E0.12794
G1 X93.037 Y96.938 E0.01689
G1 X90.166 Y94.067 E0.12795
G1 X89.631 Y94.067 E0.01689
G1 X92.501 Y96.938 E0.12795
G1 X91.965 Y96.938 E0.01689
G1 X89.095 Y94.067 E0.12795
G1 X88.559 Y94.068 E0.01689
G1 X91.430 Y96.938 E0.12796
G1 X90.894 Y96.939 E0.01689
G1 X88.023 Y94.068 E0.12796
G1 X87.487 Y94.068 E0.01689
G1 X90.358 Y96.939 E0.12796
G1 X89.822 Y96.939 E0.01689
G1 X86.951 Y94.068 E0.12797
G1 X86.415 Y94.068 E0.01689
G1 X89.286 Y96.939 E0.12797
G1 X88.751 Y96.940 E0.01689
G1 X85.879 Y94.068 E0.12798
G1 X85.344 Y94.069 E0.01689
G1 X88.215 Y96.940 E0.12798
G1 X87.679 Y96.940 E0.01689
G1 X84.808 Y94.069 E0.12798
G1 X84.272 Y94.069 E0.01689
G1 X87.143 Y96.940 E0.12799
G1 X86.607 Y96.941 E0.01689
G1 X83.736 Y94.069 E0.12799
M73 P5 R12
G1 X83.330 Y94.069 E0.01281
G1 X83.449 Y94.237 E0.00649
G1 X83.520 Y94.390 E0.00532
G1 X86.072 Y96.941 E0.11371
G1 X85.536 Y96.941 E0.01689
G1 X83.757 Y95.162 E0.07928
G1 X83.771 Y95.713 E0.01734
G1 X85.000 Y96.941 E0.05477
G1 X84.464 Y96.942 E0.01689
G1 X83.688 Y96.166 E0.03458
G1 X83.676 Y96.234 E0.00219
G1 X83.541 Y96.555 E0.01096
G1 X84.098 Y97.112 E0.02483
M204 S1250
G1 X83.266 Y96.907 F9000.000
M204 S800
;TYPE:Gap fill
;WIDTH:0.106828
G1 F1200.000
G1 X83.202 Y97.025 E0.00071
M204 S1250
G1 X82.501 Y97.151 F9000.000
M204 S800
;WIDTH:0.139953
G1 F1200.000
G1 X82.172 Y97.429 E0.00348
M204 S1250
G1 X81.963 Y97.422 F9000.000
M204 S800
;WIDTH:0.118768
G1 F1200.000
G1 X82.062 Y97.400 E0.00064
M204 S1250
M204 S800
;WIDTH:0.144938
G1 X82.163 Y97.378 E0.00088
M204 S1250
M204 S800
;WIDTH:0.175125
G1 X82.361 Y97.339 E0.00222
M204 S1250
G1 E-2.24000 F4200.000
;WIPE_START
G1 F7200.000
G1 X82.163 Y97.378 E-0.11172
;WIPE_END
G1 E-0.84828 F4200.000
G1 Z0.400 F9000.000
G1 X82.318 Y93.718
G1 Z0.200
G1 E3.20000 F2400.000
M204 S800
;WIDTH:0.093864
G1 F1200.000
G1 X82.173 Y93.624 E0.00073
G1 X81.963 Y93.578 E0.00091
M204 S1250
G1 E-2.24000 F4200.000
;WIPE_START
G1 F7200.000
G1 X82.173 Y93.624 E-0.11910
G1 X82.318 Y93.718 E-0.09565
;WIPE_END
G1 E-0.74524 F4200.000
G1 Z0.400 F9000.000
G1 X96.673 Y96.804
G1 Z0.200
G1 E3.20000 F2400.000
M204 S800
;WIDTH:0.132567
G1 F1200.000
G1 X96.788 Y97.028 E0.00188
M204 S1250
G1 X97.568 Y97.200 F9000.000
M204 S800
;WIDTH:0.125805
G1 F1200.000
G1 X97.794 Y97.378 E0.00198
G1 X98.039 Y97.430 E0.00173
M204 S1250
; stop printing object Clips04.stl id:0 copy 1
; printing object Clips04.stl id:0 copy 0
G1 E-2.24000 F4200.000
;WIPE_START
G1 F7200.000
G1 X97.794 Y97.378 E-0.13912
G1 X97.568 Y97.200 E-0.15923
;WIPE_END
G1 E-0.66165 F4200.000
G1 Z0.400 F9000.000
G1 X97.289 Y86.218
G1 Z0.200
G1 E3.20000 F2400.000
M204 S800
;TYPE:Perimeter
;WIDTH:0.42
G1 F1200.000
G1 X82.719 Y86.225 E0.45684
G1 X83.024 Y85.889 E0.01424
G1 X83.214 Y85.602 E0.01081
G1 X83.403 Y85.153 E0.01526
G1 X83.492 Y84.665 E0.01554
G1 X83.475 Y84.170 E0.01553
G1 X83.353 Y83.701 E0.01521
G1 X83.204 Y83.380 E0.01109
G1 X82.923 Y82.988 E0.01512
G1 X82.692 Y82.774 E0.00989
G1 X97.289 Y82.782 E0.45770
G1 X97.021 Y83.053 E0.01195
G1 X96.756 Y83.453 E0.01504
G1 X96.619 Y83.779 E0.01109
G1 X96.515 Y84.252 E0.01519
G1 X96.515 Y84.737 E0.01521
G1 X96.578 Y85.083 E0.01103
G1 X96.750 Y85.538 E0.01525
G1 X97.021 Y85.947 E0.01539
G1 X97.247 Y86.176 E0.01007
M204 S1250
G1 E-2.24000 F4200.000
;WIPE_START
G1 F7200.000
G1 X95.601 Y86.181 E-0.91200
;WIPE_END
G1 E-0.04800 F4200.000
G1 Z0.400 F9000.000
G1 X83.114 Y84.638
G1 Z0.200
G1 E3.20000 F2400.000
M204 S800
;TYPE:External perimeter
G1 F1200.000
G1 X83.040 Y85.045 E0.01296
G1 X82.881 Y85.423 E0.01286
G1 X82.726 Y85.657 E0.00880
G1 X82.536 Y85.866 E0.00887
G1 X82.199 Y86.109 E0.01301
G1 X81.814 Y86.254 E0.01288
G1 X81.547 Y86.294 E0.00847
G1 X81.170 Y86.311 E0.01182
G1 X80.786 Y86.263 E0.01214
G1 X80.417 Y86.131 E0.01229
G1 X80.085 Y85.923 E0.01229
G1 X79.808 Y85.651 E0.01217
G1 X79.653 Y85.431 E0.00844
G1 X79.490 Y85.079 E0.01217
G1 X79.406 Y84.696 E0.01229
G1 X79.406 Y84.304 E0.01229
G1 X79.490 Y83.921 E0.01229
G1 X79.653 Y83.569 E0.01217
G1 X79.808 Y83.349 E0.00844
G1 X80.085 Y83.077 E0.01217
G1 X80.417 Y82.869 E0.01229
G1 X80.786 Y82.737 E0.01229
G1 X81.169 Y82.689 E0.01210
G1 X81.547 Y82.706 E0.01187
G1 X81.814 Y82.746 E0.00847
G1 X82.195 Y82.890 E0.01276
G1 X82.431 Y83.047 E0.00890
G1 X82.639 Y83.239 E0.00887
G1 X82.877 Y83.571 E0.01280
G1 X82.997 Y83.828 E0.00891
G1 X83.099 Y84.225 E0.01284
G1 X83.112 Y84.578 E0.01108
M204 S1250
G1 X83.445 Y84.862 F9000.000
G1 E-2.24000 F4200.000
;WIPE_START
G1 F7200.000
G1 X83.040 Y85.045 E-0.26168
G1 X82.881 Y85.423 E-0.22733
G1 X82.726 Y85.657 E-0.15559
G1 X82.536 Y85.866 E-0.15676
G1 X82.373 Y85.983 E-0.11064
;WIPE_END
G1 E-0.04800 F4200.000
G1 Z0.400 F9000.000
G1 X96.892 Y84.293
G1 Z0.200
G1 E3.20000 F2400.000
M204 S800
G1 F1200.000
G1 X96.980 Y83.893 E0.01283
G1 X97.090 Y83.632 E0.00891
G1 X97.315 Y83.292 E0.01278
G1 X97.517 Y83.088 E0.00899
G1 X97.863 Y82.858 E0.01303
G1 X98.254 Y82.733 E0.01288
G1 X98.639 Y82.692 E0.01214
G1 X99.022 Y82.702 E0.01200
G1 X99.402 Y82.793 E0.01225
G1 X99.751 Y82.962 E0.01217
G1 X99.965 Y83.119 E0.00832
G1 X100.154 Y83.305 E0.00831
G1 X100.378 Y83.622 E0.01217
G1 X100.530 Y83.984 E0.01229
G1 X100.599 Y84.365 E0.01217
G1 X100.599 Y84.635 E0.00844
G1 X100.530 Y85.016 E0.01217
G1 X100.378 Y85.378 E0.01229
G1 X100.152 Y85.698 E0.01229
G1 X99.866 Y85.960 E0.01217
G1 X99.638 Y86.103 E0.00844
G1 X99.277 Y86.246 E0.01217
G1 X98.894 Y86.309 E0.01219
G1 X98.512 Y86.300 E0.01196
G1 X98.128 Y86.238 E0.01221
G1 X97.859 Y86.140 E0.00898
G1 X97.517 Y85.912 E0.01288
G1 X97.315 Y85.708 E0.00899
G1 X97.088 Y85.365 E0.01290
G1 X96.943 Y84.982 E0.01285
G1 X96.892 Y84.703 E0.00889
G1 X96.892 Y84.353 E0.01097
M204 S1250
G1 X96.572 Y84.053 F9000.000
G1 E-2.24000 F4200.000
;WIPE_START
G1 F7200.000
G1 X96.980 Y83.893 E-0.25941
G1 X97.090 Y83.632 E-0.15742
G1 X97.315 Y83.292 E-0.22580
G1 X97.517 Y83.088 E-0.15897
G1 X97.683 Y82.978 E-0.11039
;WIPE_END
G1 E-0.04800 F4200.000
G1 Z0.400 F9000.000
G1 X98.918 Y82.316
G1 Z0.200
G1 E3.20000 F2400.000
M204 S800
G1 F1200.000
G1 X99.159 Y82.343 E0.00760
G1 X99.395 Y82.397 E0.00760
G1 X99.741 Y82.529 E0.01162
