; generated by PrusaSlicer 2.3.0+win64 on 2021-08-08 at 18:36:44 UTC


;
;

;
;
; 

; external perimeters extrusion width = 0.45mm
; perimeters extrusion width = 0.45mm
; infill extrusion width = 0.45mm
; solid infill extrusion width = 0.45mm
; top infill extrusion width = 0.40mm
; first layer extrusion width = 0.42mm

M73 P0 R9
M201 X1250 Y1250 Z400 E5000 ; sets maximum accelerations, mm/sec^2
M203 X180 Y180 Z12 E80 ; sets maximum feedrates, mm/sec
M204 P1250 R1250 T1250 ; sets acceleration (P, T) and retract acceleration (R), mm/sec^2
M205 X8.00 Y8.00 Z2.00 E10.00 ; sets the jerk limits, mm/sec
M205 S0 T0 ; sets the minimum extruding and travel feed rate, mm/sec
M107
;TYPE:Custom
G90 ; use absolute coordinates
M83 ; extruder relative mode
M104 S170 ; set extruder temp for bed leveling
M140 S60 ; set bed temp
M109 R170 ; wait for bed leveling temp
M190 S60 ; wait for bed temp
G28 ; home all without mesh bed level
G29 ; mesh bed leveling 
M104 S215 ; set extruder temp
G92 E0.0
G1 Y-2.0 X179 F2400
G1 Z3 F720
M109 S215 ; wait for extruder temp

; intro line
G1 X170 F1000
G1 Z0.2 F720
M73 P1 R9
G1 X110.0 E8.0 F900
G1 X40.0 E10.0 F700
G92 E0.0

M221 S95 ; set flow
G21 ; set units to millimeters
G90 ; use absolute coordinates
M83 ; use relative distances for extrusion
M900 K0.2 ; Filament gcode LA 1.5
; ; Filament gcode LA 1.0
;LAYER_CHANGE
;Z:0.2
;HEIGHT:0.2
;BEFORE_LAYER_CHANGE
G92 E0.0
;0.2


M73 P2 R9
G1 E-3.20000 F4200.000
G1 Z0.200 F9000.000
;AFTER_LAYER_CHANGE
;0.2
G1 Z0.400
G1 X77.921 Y85.901
M73 P3 R9
G1 Z0.200
G1 E3.20000 F2400.000
M204 S800
;TYPE:Skirt
;WIDTH:0.42
G1 F1200.000
G1 X78.721 Y85.372 E0.03007
G1 X79.720 Y84.961 E0.03387
G1 X80.379 Y84.812 E0.02116
G1 X81.172 Y84.746 E0.02498
G1 X98.796 Y84.746 E0.55259
G1 X99.679 Y84.821 E0.02776
G1 X100.583 Y85.061 E0.02933
G1 X101.515 Y85.507 E0.03242
G1 X102.244 Y86.039 E0.02828
G1 X102.888 Y86.709 E0.02913
G1 X103.386 Y87.450 E0.02800
G1 X103.755 Y88.276 E0.02836
G1 X103.983 Y89.188 E0.02949
G1 X104.042 Y90.211 E0.03211
G1 X103.929 Y91.105 E0.02824
G1 X103.656 Y91.988 E0.02899
G1 X103.240 Y92.797 E0.02851
G1 X102.700 Y93.512 E0.02808
G1 X102.014 Y94.150 E0.02939
G1 X101.142 Y94.699 E0.03233
G1 X100.280 Y95.039 E0.02905
G1 X99.612 Y95.190 E0.02146
G1 X98.819 Y95.254 E0.02493
G1 X81.200 Y95.254 E0.55246
G1 X80.388 Y95.189 E0.02554
G1 X79.708 Y95.035 E0.02186
G1 X78.959 Y94.748 E0.02514
G1 X78.368 Y94.420 E0.02119
G1 X77.731 Y93.939 E0.02502
G1 X77.251 Y93.457 E0.02134
G1 X76.773 Y92.818 E0.02502
G1 X76.448 Y92.224 E0.02122
G1 X76.169 Y91.488 E0.02470
G1 X75.982 Y90.535 E0.03044
G1 X75.984 Y89.433 E0.03454
G1 X76.176 Y88.489 E0.03023
G1 X76.600 Y87.475 E0.03446
G1 X77.230 Y86.568 E0.03460
G1 X77.878 Y85.942 E0.02826
M204 S1250
G1 E-2.24000 F4200.000
;WIPE_START
G1 F7200.000
G1 X78.721 Y85.372 E-0.56417
G1 X79.302 Y85.133 E-0.34783
;WIPE_END
G1 E-0.04800 F4200.000
G1 Z0.400 F9000.000
G1 X79.869 Y85.311
G1 Z0.200
G1 E3.20000 F2400.000
M204 S800
G1 F1200.000
G1 X81.180 Y85.123 E0.04153
G1 X98.796 Y85.123 E0.55235
G1 X99.616 Y85.193 E0.02579
G1 X100.459 Y85.417 E0.02737
G1 X101.334 Y85.838 E0.03043
G1 X102.023 Y86.346 E0.02684
G1 X102.607 Y86.961 E0.02659
G1 X103.077 Y87.671 E0.02670
G1 X103.413 Y88.440 E0.02631
G1 X103.630 Y89.383 E0.03033
G1 X103.663 Y90.242 E0.02697
G1 X103.549 Y91.075 E0.02633
G1 X103.298 Y91.867 E0.02607
M73 P4 R9
G1 X102.896 Y92.635 E0.02719
G1 X102.292 Y93.396 E0.03045
G1 X101.658 Y93.946 E0.02633
G1 X100.925 Y94.386 E0.02679
G1 X100.131 Y94.689 E0.02663
G1 X98.813 Y94.877 E0.04176
G1 X81.200 Y94.877 E0.55223
G1 X80.457 Y94.818 E0.02338
G1 X79.821 Y94.675 E0.02042
G1 X79.119 Y94.407 E0.02356
G1 X77.975 Y93.651 E0.04301
G1 X77.085 Y92.605 E0.04305
G1 X76.519 Y91.340 E0.04347
G1 X76.343 Y90.342 E0.03176
G1 X76.361 Y89.462 E0.02761
G1 X76.583 Y88.453 E0.03237
G1 X76.941 Y87.638 E0.02793
G1 X77.526 Y86.802 E0.03199
G1 X78.170 Y86.184 E0.02797
G1 X79.037 Y85.633 E0.03222
G1 X79.813 Y85.332 E0.02608
M204 S1250
; printing object Clips02.stl id:0 copy 0
G1 E-2.24000 F4200.000
;WIPE_START
G1 F7200.000
G1 X81.180 Y85.123 E-0.76640
G1 X81.442 Y85.123 E-0.14560
;WIPE_END
G1 E-0.04800 F4200.000
G1 Z0.400 F9000.000
G1 X82.692 Y88.274
G1 Z0.200
G1 E3.20000 F2400.000
M204 S800
;TYPE:Perimeter
G1 F1200.000
G1 X97.289 Y88.282 E0.45770
G1 X97.021 Y88.553 E0.01195
G1 X96.756 Y88.953 E0.01505
G1 X96.619 Y89.279 E0.01107
G1 X96.515 Y89.752 E0.01521
G1 X96.515 Y90.237 E0.01520
G1 X96.578 Y90.583 E0.01103
G1 X96.750 Y91.038 E0.01525
G1 X97.021 Y91.447 E0.01540
G1 X97.289 Y91.718 E0.01194
G1 X82.719 Y91.725 E0.45684
G1 X83.024 Y91.389 E0.01424
G1 X83.215 Y91.102 E0.01082
G1 X83.403 Y90.653 E0.01525
G1 X83.492 Y90.165 E0.01555
G1 X83.474 Y89.670 E0.01554
G1 X83.353 Y89.201 E0.01520
G1 X83.204 Y88.880 E0.01110
G1 X82.923 Y88.488 E0.01512
G1 X82.736 Y88.315 E0.00800
M204 S1250
G1 X82.195 Y88.390 F9000.000
M204 S800
;TYPE:External perimeter
G1 F1200.000
G1 X82.431 Y88.547 E0.00890
G1 X82.639 Y88.739 E0.00887
G1 X82.877 Y89.071 E0.01280
G1 X82.997 Y89.328 E0.00891
G1 X83.099 Y89.725 E0.01283
G1 X83.114 Y90.138 E0.01296
G1 X83.040 Y90.545 E0.01297
G1 X82.881 Y90.923 E0.01285
G1 X82.725 Y91.157 E0.00881
G1 X82.535 Y91.366 E0.00886
G1 X82.199 Y91.609 E0.01301
G1 X81.814 Y91.754 E0.01288
G1 X81.547 Y91.794 E0.00847
G1 X81.170 Y91.811 E0.01182
G1 X80.786 Y91.763 E0.01214
G1 X80.417 Y91.631 E0.01229
G1 X80.085 Y91.423 E0.01229
G1 X79.808 Y91.151 E0.01217
G1 X79.653 Y90.931 E0.00844
G1 X79.490 Y90.579 E0.01217
G1 X79.406 Y90.196 E0.01229
G1 X79.406 Y89.804 E0.01229
G1 X79.489 Y89.425 E0.01217
G1 X79.594 Y89.177 E0.00844
G1 X79.805 Y88.852 E0.01217
G1 X80.085 Y88.577 E0.01229
G1 X80.417 Y88.369 E0.01229
G1 X80.786 Y88.237 E0.01229
G1 X81.169 Y88.189 E0.01210
G1 X81.547 Y88.206 E0.01187
G1 X81.814 Y88.246 E0.00847
G1 X82.139 Y88.369 E0.01088
M204 S1250
G1 X82.435 Y88.238 F9000.000
G1 E-2.24000 F4200.000
;WIPE_START
G1 F7200.000
G1 X82.431 Y88.547 E-0.18978
G1 X82.639 Y88.739 E-0.15673
G1 X82.877 Y89.071 E-0.22629
G1 X82.997 Y89.328 E-0.15751
G1 X83.079 Y89.646 E-0.18169
;WIPE_END
G1 E-0.04800 F4200.000
G1 Z0.400 F9000.000
G1 X96.892 Y89.793
G1 Z0.200
G1 E3.20000 F2400.000
M204 S800
G1 F1200.000
G1 X96.980 Y89.393 E0.01285
G1 X97.090 Y89.132 E0.00889
G1 X97.315 Y88.792 E0.01279
G1 X97.517 Y88.588 E0.00899
G1 X97.863 Y88.358 E0.01303
G1 X98.254 Y88.233 E0.01288
G1 X98.639 Y88.192 E0.01214
G1 X99.022 Y88.202 E0.01200
M73 P5 R9
G1 X99.402 Y88.293 E0.01225
G1 X99.751 Y88.462 E0.01217
G1 X99.965 Y88.619 E0.00832
G1 X100.154 Y88.805 E0.00831
G1 X100.378 Y89.122 E0.01217
G1 X100.530 Y89.484 E0.01229
G1 X100.599 Y89.865 E0.01217
G1 X100.599 Y90.135 E0.00844
G1 X100.530 Y90.516 E0.01217
G1 X100.378 Y90.878 E0.01229
G1 X100.152 Y91.198 E0.01229
G1 X99.866 Y91.460 E0.01217
G1 X99.638 Y91.603 E0.00844
G1 X99.277 Y91.746 E0.01217
G1 X98.894 Y91.809 E0.01219
G1 X98.512 Y91.800 E0.01196
G1 X98.128 Y91.738 E0.01221
G1 X97.859 Y91.640 E0.00898
G1 X97.517 Y91.412 E0.01288
G1 X97.315 Y91.209 E0.00898
G1 X97.088 Y90.865 E0.01291
G1 X96.943 Y90.482 E0.01285
G1 X96.892 Y90.203 E0.00889
G1 X96.892 Y89.853 E0.01096
M204 S1250
G1 X96.572 Y89.553 F9000.000
G1 E-2.24000 F4200.000
;WIPE_START
G1 F7200.000
G1 X96.980 Y89.393 E-0.25966
G1 X97.090 Y89.132 E-0.15718
G1 X97.315 Y88.792 E-0.22598
G1 X97.517 Y88.588 E-0.15886
G1 X97.683 Y88.478 E-0.11031
;WIPE_END
G1 E-0.04800 F4200.000
G1 Z0.400 F9000.000
G1 X98.914 Y87.816
G1 Z0.200
G1 E3.20000 F2400.000
M204 S800
G1 F1200.000
G1 X99.279 Y87.867 E0.01157
G1 X99.629 Y87.979 E0.01153
G1 X99.959 Y88.149 E0.01162
G1 X100.156 Y88.289 E0.00760
G1 X100.340 Y88.453 E0.00770
G1 X100.502 Y88.634 E0.00763
G1 X100.643 Y88.834 E0.00766
G1 X100.813 Y89.163 E0.01162
G1 X100.926 Y89.516 E0.01162
G1 X100.966 Y89.755 E0.00760
G1 X100.980 Y89.997 E0.00760
G1 X100.949 Y90.366 E0.01162
G1 X100.857 Y90.722 E0.01153
G1 X100.706 Y91.061 E0.01162
G1 X100.578 Y91.265 E0.00755
G1 X100.426 Y91.456 E0.00766
G1 X100.156 Y91.710 E0.01162
G1 X99.851 Y91.915 E0.01153
G1 X99.512 Y92.066 E0.01162
G1 X99.279 Y92.133 E0.00760
G1 X99.037 Y92.174 E0.00770
G1 X98.793 Y92.188 E0.00768
G1 X97.334 Y92.096 E0.04583
G1 X95.862 Y92.090 E0.04615
G1 X83.159 Y92.091 E0.39830
G1 X82.174 Y92.117 E0.03088
G1 X81.207 Y92.188 E0.03042
G1 X80.966 Y92.174 E0.00757
G1 X80.602 Y92.102 E0.01162
G1 X80.258 Y91.971 E0.01153
G1 X79.942 Y91.784 E0.01153
G1 X79.661 Y91.547 E0.01153
G1 X79.423 Y91.266 E0.01153
G1 X79.237 Y90.949 E0.01153
G1 X79.106 Y90.606 E0.01153
G1 X79.033 Y90.242 E0.01162
G1 X79.020 Y90.002 E0.00755
G1 X79.033 Y89.758 E0.00766
G1 X79.106 Y89.394 E0.01162
G1 X79.238 Y89.048 E0.01162
G1 X79.355 Y88.836 E0.00761
G1 X79.497 Y88.636 E0.00769
G1 X79.661 Y88.453 E0.00770
G1 X79.841 Y88.291 E0.00760
G1 X80.152 Y88.084 E0.01172
G1 X80.370 Y87.979 E0.00760
G1 X80.598 Y87.899 E0.00755
G1 X80.966 Y87.826 E0.01177
G1 X81.207 Y87.812 E0.00757
G1 X82.174 Y87.883 E0.03041
G1 X83.159 Y87.909 E0.03088
G1 X96.351 Y87.910 E0.41362
G1 X97.332 Y87.904 E0.03078
G1 X97.830 Y87.882 E0.01563
G1 X98.317 Y87.835 E0.01535
G1 X98.854 Y87.818 E0.01682
M204 S1250
G1 X99.074 Y88.148 F9000.000
G1 X98.067 Y88.072
M204 S800
;TYPE:Gap fill
;WIDTH:0.135116
G1 F1200.000
G1 X97.784 Y88.128 E0.00221
G1 X97.568 Y88.300 E0.00212
M204 S1250
G1 X96.798 Y88.473 F9000.000
M204 S800
;WIDTH:0.117708
G1 F1200.000
G1 X96.705 Y88.648 E0.00123
M204 S1250
G1 X95.891 Y88.395 F9000.000
M204 S800
;TYPE:Solid infill
;WIDTH:0.421965
G1 F1200.000
G1 X96.449 Y88.953 E0.02487
G1 X96.349 Y89.193 E0.00818
G1 X96.313 Y89.353 E0.00519
G1 X95.525 Y88.565 E0.03513
G1 X94.989 Y88.565 E0.01689
G1 X96.232 Y89.808 E0.05540
G1 X96.232 Y90.263 E0.01432
G1 X96.251 Y90.363 E0.00321
G1 X94.453 Y88.566 E0.08010
G1 X93.918 Y88.566 E0.01689
G1 X96.451 Y91.099 E0.11293
G1 X96.233 Y91.211 E0.00771
G1 X96.349 Y91.436 E0.00797
G1 X96.252 Y91.436 E0.00306
G1 X93.382 Y88.566 E0.12793
G1 X92.846 Y88.566 E0.01689
G1 X95.716 Y91.436 E0.12793
G1 X95.180 Y91.436 E0.01689
G1 X92.310 Y88.566 E0.12793
G1 X91.774 Y88.566 E0.01689
G1 X94.644 Y91.437 E0.12794
G1 X94.109 Y91.437 E0.01689
G1 X91.238 Y88.567 E0.12794
G1 X90.702 Y88.567 E0.01689
G1 X93.573 Y91.437 E0.12794
M73 P6 R9
G1 X93.037 Y91.438 E0.01689
G1 X90.166 Y88.567 E0.12795
M73 P6 R8
G1 X89.631 Y88.567 E0.01689
G1 X92.501 Y91.438 E0.12795
G1 X91.965 Y91.438 E0.01689
G1 X89.095 Y88.567 E0.12795
G1 X88.559 Y88.568 E0.01689
G1 X91.430 Y91.438 E0.12796
G1 X90.894 Y91.439 E0.01689
G1 X88.023 Y88.568 E0.12796
G1 X87.487 Y88.568 E0.01689
G1 X90.358 Y91.439 E0.12797
G1 X89.822 Y91.439 E0.01689
G1 X86.951 Y88.568 E0.12797
G1 X86.415 Y88.568 E0.01689
G1 X89.286 Y91.439 E0.12797
G1 X88.751 Y91.440 E0.01689
G1 X85.879 Y88.568 E0.12798
G1 X85.344 Y88.569 E0.01689
G1 X88.215 Y91.440 E0.12798
G1 X87.679 Y91.440 E0.01689
G1 X84.808 Y88.569 E0.12798
G1 X84.272 Y88.569 E0.01689
G1 X87.143 Y91.440 E0.12799
G1 X86.607 Y91.441 E0.01689
G1 X83.736 Y88.569 E0.12799
G1 X83.330 Y88.569 E0.01281
G1 X83.449 Y88.737 E0.00649
G1 X83.520 Y88.890 E0.00532
G1 X86.072 Y91.441 E0.11372
G1 X85.536 Y91.441 E0.01689
G1 X83.757 Y89.662 E0.07928
G1 X83.771 Y90.213 E0.01734
G1 X85.000 Y91.441 E0.05477
G1 X84.464 Y91.442 E0.01689
G1 X83.688 Y90.666 E0.03458
G1 X83.676 Y90.734 E0.00220
G1 X83.541 Y91.055 E0.01095
G1 X84.098 Y91.612 E0.02483
M204 S1250
G1 X83.266 Y91.407 F9000.000
M204 S800
;TYPE:Gap fill
;WIDTH:0.106824
G1 F1200.000
G1 X83.202 Y91.525 E0.00071
M204 S1250
G1 X82.501 Y91.651 F9000.000
M204 S800
;WIDTH:0.139917
G1 F1200.000
G1 X82.172 Y91.929 E0.00348
M204 S1250
G1 X81.963 Y91.922 F9000.000
M204 S800
;WIDTH:0.118769
G1 F1200.000
G1 X82.062 Y91.900 E0.00064
M204 S1250
M204 S800
;WIDTH:0.144938
G1 X82.163 Y91.878 E0.00088
M204 S1250
M204 S800
;WIDTH:0.175107
G1 X82.361 Y91.839 E0.00222
M204 S1250
G1 E-2.24000 F4200.000
;WIPE_START
G1 F7200.000
G1 X82.163 Y91.878 E-0.11168
;WIPE_END
G1 E-0.84832 F4200.000
G1 Z0.400 F9000.000
G1 X82.318 Y88.218
G1 Z0.200
G1 E3.20000 F2400.000
M204 S800
;WIDTH:0.0938734
G1 F1200.000
G1 X82.173 Y88.124 E0.00073
G1 X81.963 Y88.078 E0.00091
M204 S1250
G1 E-2.24000 F4200.000
;WIPE_START
G1 F7200.000
G1 X82.173 Y88.124 E-0.11911
G1 X82.318 Y88.218 E-0.09568
;WIPE_END
G1 E-0.74521 F4200.000
G1 Z0.400 F9000.000
G1 X96.673 Y91.303
G1 Z0.200
G1 E3.20000 F2400.000
M204 S800
;WIDTH:0.132624
G1 F1200.000
G1 X96.788 Y91.528 E0.00188
M204 S1250
G1 X97.568 Y91.700 F9000.000
M204 S800
;WIDTH:0.125802
G1 F1200.000
G1 X97.794 Y91.878 E0.00198
G1 X98.039 Y91.930 E0.00173
M204 S1250
; stop printing object Clips02.stl id:0 copy 0
M106 S84.15
;LAYER_CHANGE
;Z:0.4
;HEIGHT:0.2
;BEFORE_LAYER_CHANGE
G92 E0.0
;0.4


G1 E-2.24000 F4200.000
;WIPE_START
G1 F7200.000
G1 X97.794 Y91.878 E-0.13911
G1 X97.568 Y91.700 E-0.15922
;WIPE_END
G1 E-0.66167 F4200.000
G1 Z0.400 F9000.000
;AFTER_LAYER_CHANGE
;0.4
M104 S210 ; set temperature
G1 Z0.600
G1 X101.142 Y94.699
M73 P7 R8
G1 Z0.400
G1 E3.20000 F2400.000
;TYPE:Skirt
;WIDTH:0.42
G1 F1714
G1 X100.280 Y95.039 E0.02905
G1 X99.612 Y95.190 E0.02146
G1 X98.819 Y95.254 E0.02493
G1 X81.200 Y95.254 E0.55246
G1 X80.388 Y95.189 E0.02554
G1 X79.708 Y95.035 E0.02186
G1 X78.959 Y94.748 E0.02514
G1 X78.368 Y94.420 E0.02119
G1 X77.731 Y93.939 E0.02502
G1 X77.251 Y93.457 E0.02134
G1 X76.773 Y92.818 E0.02502
G1 X76.448 Y92.224 E0.02122
G1 X76.169 Y91.488 E0.02470
G1 X75.982 Y90.535 E0.03044
G1 X75.984 Y89.433 E0.03454
G1 X76.176 Y88.489 E0.03023
G1 X76.600 Y87.475 E0.03446
G1 X77.230 Y86.568 E0.03460
G1 X77.921 Y85.901 E0.03014
G1 X78.721 Y85.372 E0.03007
G1 X79.720 Y84.961 E0.03387
G1 X80.379 Y84.812 E0.02116
G1 X81.172 Y84.746 E0.02498
G1 X98.796 Y84.746 E0.55259
G1 X99.679 Y84.821 E0.02776
G1 X100.583 Y85.061 E0.02933
G1 X101.515 Y85.507 E0.03242
G1 X102.244 Y86.039 E0.02828
G1 X102.888 Y86.709 E0.02913
G1 X103.386 Y87.450 E0.02800
G1 X103.755 Y88.276 E0.02836
G1 X103.983 Y89.188 E0.02949
G1 X104.042 Y90.211 E0.03211
G1 X103.929 Y91.105 E0.02824
G1 X103.656 Y91.988 E0.02899
G1 X103.240 Y92.797 E0.02851
G1 X102.700 Y93.512 E0.02808
G1 X102.014 Y94.150 E0.02939
G1 X101.192 Y94.667 E0.03045
G1 X100.131 Y94.689 F9000.000
G1 F1714
G1 X98.813 Y94.877 E0.04176
G1 X81.200 Y94.877 E0.55223
G1 X80.457 Y94.818 E0.02338
G1 X79.821 Y94.675 E0.02042
G1 X79.119 Y94.407 E0.02356
G1 X77.975 Y93.651 E0.04301
G1 X77.085 Y92.605 E0.04305
G1 X76.519 Y91.340 E0.04347
G1 X76.343 Y90.342 E0.03176
G1 X76.361 Y89.462 E0.02761
G1 X76.583 Y88.453 E0.03237
G1 X76.941 Y87.638 E0.02793
G1 X77.526 Y86.802 E0.03199
G1 X78.170 Y86.184 E0.02797
G1 X79.037 Y85.633 E0.03222
G1 X79.869 Y85.311 E0.02796
G1 X81.180 Y85.123 E0.04153
G1 X98.796 Y85.123 E0.55235
G1 X99.616 Y85.193 E0.02579
G1 X100.459 Y85.417 E0.02737
G1 X101.334 Y85.838 E0.03043
G1 X102.023 Y86.346 E0.02684
G1 X102.607 Y86.961 E0.02659
G1 X103.077 Y87.671 E0.02670
G1 X103.413 Y88.440 E0.02631
G1 X103.630 Y89.383 E0.03033
G1 X103.663 Y90.242 E0.02697
G1 X103.549 Y91.075 E0.02633
G1 X103.298 Y91.867 E0.02607
G1 X102.896 Y92.635 E0.02719
G1 X102.292 Y93.396 E0.03045
G1 X101.658 Y93.946 E0.02633
G1 X100.925 Y94.386 E0.02679
G1 X100.187 Y94.668 E0.02475
; printing object Clips02.stl id:0 copy 0
G1 E-2.24000 F4200.000
;WIPE_START
G1 F7200.000
G1 X98.813 Y94.877 E-0.77061
G1 X98.557 Y94.877 E-0.14140
;WIPE_END
G1 E-0.04800 F4200.000
G1 Z0.600 F9000.000
G1 X97.712 Y91.868
G1 Z0.400
G1 E3.20000 F2400.000
M204 S800
;TYPE:Perimeter
;WIDTH:0.45
G1 F1500.000
G1 X82.533 Y91.868 E0.51377
M73 P8 R8
G1 X82.476 Y91.704 E0.00588
G1 X82.696 Y91.531 E0.00946
G1 X82.917 Y91.279 E0.01134
G1 X83.147 Y90.896 E0.01513
G1 X83.294 Y90.459 E0.01561
G1 X83.343 Y90.000 E0.01563
G1 X83.293 Y89.540 E0.01565
G1 X83.151 Y89.116 E0.01513
G1 X82.989 Y88.824 E0.01130
G1 X82.704 Y88.476 E0.01524
G1 X82.477 Y88.297 E0.00981
G1 X82.534 Y88.132 E0.00588
G1 X97.707 Y88.136 E0.51362
G1 X97.250 Y88.524 E0.02030
G1 X97.040 Y88.780 E0.01123
G1 X96.823 Y89.174 E0.01522
G1 X96.694 Y89.606 E0.01528
G1 X96.659 Y89.938 E0.01128
G1 X96.691 Y90.384 E0.01516
G1 X96.818 Y90.812 E0.01511
G1 X96.969 Y91.111 E0.01132
G1 X97.242 Y91.469 E0.01523
G1 X97.666 Y91.829 E0.01884
M204 S1250
G1 X97.878 Y91.460 F9000.000
M204 S800
;TYPE:External perimeter
