; generated by PrusaSlicer 2.3.0+win64 on 2021-08-08 at 15:16:42 UTC


;
;

;
;
; 

; external perimeters extrusion width = 0.45mm
; perimeters extrusion width = 0.45mm
; infill extrusion width = 0.45mm
; solid infill extrusion width = 0.45mm
; top infill extrusion width = 0.40mm
; first layer extrusion width = 0.42mm

M73 P0 R9
M201 X1250 Y1250 Z400 E5000 ; sets maximum accelerations, mm/sec^2
M203 X180 Y180 Z12 E80 ; sets maximum feedrates, mm/sec
M204 P1250 R1250 T1250 ; sets acceleration (P, T) and retract acceleration (R), mm/sec^2
M205 X8.00 Y8.00 Z2.00 E10.00 ; sets the jerk limits, mm/sec
M205 S0 T0 ; sets the minimum extruding and travel feed rate, mm/sec
M107
;TYPE:Custom
G90 ; use absolute coordinates
M83 ; extruder relative mode
M104 S170 ; set extruder temp for bed leveling
M140 S60 ; set bed temp
M109 R170 ; wait for bed leveling temp
M190 S60 ; wait for bed temp
G28 ; home all without mesh bed level
G29 ; mesh bed leveling 
M104 S215 ; set extruder temp
G92 E0.0
G1 Y-2.0 X179 F2400
G1 Z3 F720
M109 S215 ; wait for extruder temp

; intro line
G1 X170 F1000
G1 Z0.2 F720
M73 P1 R9
G1 X110.0 E8.0 F900
G1 X40.0 E10.0 F700
G92 E0.0

M221 S95 ; set flow
G21 ; set units to millimeters
G90 ; use absolute coordinates
M83 ; use relative distances for extrusion
M900 K0.2 ; Filament gcode LA 1.5
; ; Filament gcode LA 1.0
;LAYER_CHANGE
;Z:0.2
;HEIGHT:0.2
;BEFORE_LAYER_CHANGE
G92 E0.0
;0.2


M73 P2 R9
G1 E-3.20000 F4200.000
G1 Z0.200 F9000.000
;AFTER_LAYER_CHANGE
;0.2
G1 Z0.400
G1 X69.744 Y84.796
G1 Z0.200
G1 E3.20000 F2400.000
M204 S800
;TYPE:Skirt
;WIDTH:0.42
G1 F1200.000
G1 X110.461 Y84.746 E1.27667
M73 P3 R9
G1 X111.482 Y84.943 E0.03258
G1 X112.356 Y85.505 E0.03258
G1 X112.960 Y86.351 E0.03258
G1 X113.208 Y87.364 E0.03271
G1 X113.211 Y92.549 E0.16258
G1 X113.106 Y93.253 E0.02231
G1 X112.802 Y93.945 E0.02371
G1 X112.321 Y94.528 E0.02371
G1 X111.695 Y94.960 E0.02383
G1 X110.979 Y95.204 E0.02371
G1 X70.127 Y95.251 E1.28091
G1 X69.238 Y95.055 E0.02854
G1 X68.461 Y94.580 E0.02854
G1 X67.880 Y93.875 E0.02866
G1 X67.562 Y93.022 E0.02854
G1 X67.512 Y87.484 E0.17367
G1 X67.604 Y86.795 E0.02180
G1 X67.902 Y86.087 E0.02409
G1 X68.387 Y85.486 E0.02422
G1 X69.017 Y85.045 E0.02409
G1 X69.687 Y84.815 E0.02221
M204 S1250
G1 X69.807 Y85.172 F9000.000
M204 S800
G1 F1200.000
G1 X110.461 Y85.123 E1.27468
M73 P4 R9
G1 X111.345 Y85.295 E0.02825
G1 X112.102 Y85.784 E0.02825
G1 X112.623 Y86.520 E0.02825
G1 X112.832 Y87.396 E0.02825
G1 X112.834 Y92.530 E0.16098
G1 X112.757 Y93.103 E0.01811
G1 X112.496 Y93.722 E0.02107
G1 X112.075 Y94.241 E0.02095
G1 X111.523 Y94.625 E0.02107
G1 X110.886 Y94.838 E0.02107
G1 X70.159 Y94.875 E1.27697
G1 X69.381 Y94.706 E0.02496
G1 X68.702 Y94.290 E0.02496
G1 X68.199 Y93.674 E0.02496
G1 X67.928 Y92.929 E0.02484
G1 X67.889 Y87.489 E0.17059
G1 X67.957 Y86.934 E0.01752
G1 X68.214 Y86.301 E0.02142
G1 X68.637 Y85.769 E0.02130
G1 X69.193 Y85.379 E0.02130
G1 X69.750 Y85.191 E0.01844
M204 S1250
; printing object Clips01.stl id:0 copy 0
G1 E-2.24000 F4200.000
;WIPE_START
G1 F7200.000
G1 X71.396 Y85.188 E-0.91200
;WIPE_END
G1 E-0.04800 F4200.000
G1 Z0.400 F9000.000
G1 X72.101 Y88.287
G1 Z0.200
G1 E3.20000 F2400.000
M204 S800
;TYPE:Perimeter
M73 P5 R9
G1 F1200.000
G1 X108.781 Y88.287 E1.15009
G1 X108.781 Y91.713 E0.10741
G1 X72.101 Y91.713 E1.15009
G1 X72.101 Y88.347 E0.10553
M204 S1250
G1 X71.724 Y87.910 F9000.000
M204 S800
;TYPE:External perimeter
G1 F1200.000
G1 X109.158 Y87.910 E1.17374
M73 P6 R9
G1 X109.158 Y92.090 E0.13106
G1 X71.724 Y92.090 E1.17374
G1 X71.724 Y87.970 E0.12918
M204 S1250
G1 X72.123 Y87.925 F9000.000
G1 E-2.24000 F4200.000
;WIPE_START
G1 F7200.000
G1 X73.369 Y87.967 E-0.91200
;WIPE_END
G1 E-0.04800 F4200.000
G1 Z0.400 F9000.000
G1 X107.900 Y88.400
G1 Z0.200
G1 E3.20000 F2400.000
M204 S800
;TYPE:Solid infill
;WIDTH:0.422553
G1 F1200.000
G1 X108.498 Y88.998 E0.02670
G1 X108.498 Y89.535 E0.01695
G1 X107.533 Y88.570 E0.04309
G1 X106.996 Y88.570 E0.01695
G1 X108.498 Y90.072 E0.06706
G1 X108.498 Y90.609 E0.01695
G1 X106.459 Y88.570 E0.09102
G1 X105.923 Y88.570 E0.01695
G1 X108.498 Y91.146 E0.11499
G1 X108.498 Y91.430 E0.00898
G1 X108.246 Y91.430 E0.00797
G1 X105.386 Y88.570 E0.12769
G1 X104.849 Y88.570 E0.01695
G1 X107.709 Y91.430 E0.12769
G1 X107.172 Y91.430 E0.01695
G1 X104.312 Y88.570 E0.12769
G1 X103.775 Y88.570 E0.01695
G1 X106.635 Y91.430 E0.12769
G1 X106.098 Y91.430 E0.01695
G1 X103.238 Y88.570 E0.12769
G1 X102.701 Y88.570 E0.01695
G1 X105.561 Y91.430 E0.12769
M73 P7 R9
G1 X105.025 Y91.430 E0.01695
G1 X102.164 Y88.570 E0.12769
G1 X101.627 Y88.570 E0.01695
G1 X104.488 Y91.430 E0.12769
G1 X103.951 Y91.430 E0.01695
G1 X101.091 Y88.570 E0.12769
G1 X100.554 Y88.570 E0.01695
G1 X103.414 Y91.430 E0.12769
G1 X102.877 Y91.430 E0.01695
G1 X100.017 Y88.570 E0.12769
G1 X99.480 Y88.570 E0.01695
G1 X102.340 Y91.430 E0.12769
G1 X101.803 Y91.430 E0.01695
G1 X98.943 Y88.570 E0.12769
G1 X98.406 Y88.570 E0.01695
G1 X101.266 Y91.430 E0.12769
G1 X100.730 Y91.430 E0.01695
G1 X97.869 Y88.570 E0.12769
G1 X97.332 Y88.570 E0.01695
G1 X100.193 Y91.430 E0.12769
G1 X99.656 Y91.430 E0.01695
G1 X96.796 Y88.570 E0.12769
M73 P7 R8
G1 X96.259 Y88.570 E0.01695
G1 X99.119 Y91.430 E0.12769
G1 X98.582 Y91.430 E0.01695
G1 X95.722 Y88.570 E0.12769
G1 X95.185 Y88.570 E0.01695
G1 X98.045 Y91.430 E0.12769
G1 X97.508 Y91.430 E0.01695
G1 X94.648 Y88.570 E0.12769
G1 X94.111 Y88.570 E0.01695
G1 X96.971 Y91.430 E0.12769
G1 X96.434 Y91.430 E0.01695
G1 X93.574 Y88.570 E0.12769
G1 X93.037 Y88.570 E0.01695
G1 X95.898 Y91.430 E0.12769
G1 X95.361 Y91.430 E0.01695
G1 X92.500 Y88.570 E0.12769
G1 X91.964 Y88.570 E0.01695
G1 X94.824 Y91.430 E0.12769
G1 X94.287 Y91.430 E0.01695
G1 X91.427 Y88.570 E0.12769
G1 X90.890 Y88.570 E0.01695
G1 X93.750 Y91.430 E0.12769
G1 X93.213 Y91.430 E0.01695
G1 X90.353 Y88.570 E0.12769
M73 P8 R8
G1 X89.816 Y88.570 E0.01695
G1 X92.676 Y91.430 E0.12769
G1 X92.139 Y91.430 E0.01695
G1 X89.279 Y88.570 E0.12769
G1 X88.742 Y88.570 E0.01695
G1 X91.603 Y91.430 E0.12769
G1 X91.066 Y91.430 E0.01695
G1 X88.205 Y88.570 E0.12769
G1 X87.669 Y88.570 E0.01695
G1 X90.529 Y91.430 E0.12769
G1 X89.992 Y91.430 E0.01695
G1 X87.132 Y88.570 E0.12769
G1 X86.595 Y88.570 E0.01695
G1 X89.455 Y91.430 E0.12769
G1 X88.918 Y91.430 E0.01695
G1 X86.058 Y88.570 E0.12769
G1 X85.521 Y88.570 E0.01695
G1 X88.381 Y91.430 E0.12769
G1 X87.844 Y91.430 E0.01695
G1 X84.984 Y88.570 E0.12769
G1 X84.447 Y88.570 E0.01695
G1 X87.307 Y91.430 E0.12769
G1 X86.771 Y91.430 E0.01695
G1 X83.910 Y88.570 E0.12769
G1 X83.373 Y88.570 E0.01695
G1 X86.234 Y91.430 E0.12769
G1 X85.697 Y91.430 E0.01695
G1 X82.837 Y88.570 E0.12769
G1 X82.300 Y88.570 E0.01695
G1 X85.160 Y91.430 E0.12769
G1 X84.623 Y91.430 E0.01695
G1 X81.763 Y88.570 E0.12769
G1 X81.226 Y88.570 E0.01695
G1 X84.086 Y91.430 E0.12769
G1 X83.549 Y91.430 E0.01695
G1 X80.689 Y88.570 E0.12769
G1 X80.152 Y88.570 E0.01695
G1 X83.012 Y91.430 E0.12769
G1 X82.476 Y91.430 E0.01695
G1 X79.615 Y88.570 E0.12769
G1 X79.078 Y88.570 E0.01695
G1 X81.939 Y91.430 E0.12769
G1 X81.402 Y91.430 E0.01695
G1 X78.542 Y88.570 E0.12769
G1 X78.005 Y88.570 E0.01695
M73 P9 R8
G1 X80.865 Y91.430 E0.12769
G1 X80.328 Y91.430 E0.01695
G1 X77.468 Y88.570 E0.12769
G1 X76.931 Y88.570 E0.01695
G1 X79.791 Y91.430 E0.12769
G1 X79.254 Y91.430 E0.01695
G1 X76.394 Y88.570 E0.12769
G1 X75.857 Y88.570 E0.01695
G1 X78.717 Y91.430 E0.12769
G1 X78.180 Y91.430 E0.01695
G1 X75.320 Y88.570 E0.12769
G1 X74.783 Y88.570 E0.01695
G1 X77.644 Y91.430 E0.12769
G1 X77.107 Y91.430 E0.01695
G1 X74.246 Y88.570 E0.12769
G1 X73.710 Y88.570 E0.01695
G1 X76.570 Y91.430 E0.12769
G1 X76.033 Y91.430 E0.01695
G1 X73.173 Y88.570 E0.12769
G1 X72.636 Y88.570 E0.01695
G1 X75.496 Y91.430 E0.12769
G1 X74.959 Y91.430 E0.01695
G1 X72.383 Y88.854 E0.11499
G1 X72.383 Y89.391 E0.01695
G1 X74.422 Y91.430 E0.09102
G1 X73.885 Y91.430 E0.01695
G1 X72.383 Y89.928 E0.06705
G1 X72.383 Y90.465 E0.01695
G1 X73.349 Y91.430 E0.04308
G1 X72.812 Y91.430 E0.01695
G1 X72.214 Y90.832 E0.02669
M204 S1250
; stop printing object Clips01.stl id:0 copy 0
M106 S84.15
;LAYER_CHANGE
;Z:0.4
;HEIGHT:0.2
;BEFORE_LAYER_CHANGE
G92 E0.0
;0.4


G1 E-2.24000 F4200.000
;WIPE_START
G1 F7200.000
G1 X72.812 Y91.430 E-0.46859
G1 X73.349 Y91.430 E-0.29752
G1 X73.162 Y91.244 E-0.14589
;WIPE_END
G1 E-0.04800 F4200.000
G1 Z0.400 F9000.000
;AFTER_LAYER_CHANGE
;0.4
M104 S210 ; set temperature
G1 Z0.600
G1 X69.238 Y95.055
G1 Z0.400
G1 E3.20000 F2400.000
;TYPE:Skirt
;WIDTH:0.42
G1 X68.461 Y94.580 E0.02854
G1 X67.880 Y93.875 E0.02866
G1 X67.562 Y93.022 E0.02854
G1 X67.512 Y87.484 E0.17367
G1 X67.604 Y86.795 E0.02180
G1 X67.902 Y86.087 E0.02409
G1 X68.387 Y85.486 E0.02422
G1 X69.017 Y85.045 E0.02409
G1 X69.744 Y84.796 E0.02409
G1 X110.461 Y84.746 E1.27667
G1 X111.482 Y84.943 E0.03258
G1 X112.356 Y85.505 E0.03258
G1 X112.960 Y86.351 E0.03258
G1 X113.208 Y87.364 E0.03271
G1 X113.211 Y92.549 E0.16258
G1 X113.106 Y93.253 E0.02231
G1 X112.802 Y93.945 E0.02371
M73 P10 R8
G1 X112.321 Y94.528 E0.02371
G1 X111.695 Y94.960 E0.02383
G1 X110.979 Y95.204 E0.02371
G1 X70.127 Y95.251 E1.28091
G1 X69.296 Y95.068 E0.02665
G1 X69.381 Y94.706 F9000.000
G1 F2400.000
G1 X68.702 Y94.290 E0.02496
G1 X68.199 Y93.674 E0.02496
G1 X67.928 Y92.929 E0.02484
G1 X67.889 Y87.489 E0.17059
G1 X67.957 Y86.934 E0.01752
G1 X68.214 Y86.301 E0.02142
G1 X68.637 Y85.769 E0.02130
G1 X69.193 Y85.379 E0.02130
G1 X69.837 Y85.162 E0.02130
G1 X110.461 Y85.123 E1.27374
G1 X111.345 Y85.295 E0.02825
G1 X112.102 Y85.784 E0.02825
G1 X112.623 Y86.520 E0.02825
G1 X112.832 Y87.396 E0.02825
G1 X112.834 Y92.530 E0.16098
G1 X112.757 Y93.103 E0.01811
G1 X112.496 Y93.722 E0.02107
G1 X112.075 Y94.241 E0.02095
G1 X111.523 Y94.625 E0.02107
G1 X110.886 Y94.838 E0.02107
G1 X70.159 Y94.875 E1.27697
G1 X69.440 Y94.719 E0.02308
; printing object Clips01.stl id:0 copy 0
G1 E-2.24000 F4200.000
;WIPE_START
G1 F7200.000
G1 X68.702 Y94.290 E-0.47270
G1 X68.201 Y93.676 E-0.43930
;WIPE_END
G1 E-0.04800 F4200.000
G1 Z0.600 F9000.000
G1 X109.474 Y91.868
G1 Z0.400
G1 E3.20000 F2400.000
M204 S800
;TYPE:Perimeter
;WIDTH:0.45
G1 X71.313 Y91.868 E1.29170
G1 X71.313 Y88.132 E0.12645
M73 P11 R8
G1 X109.474 Y88.132 E1.29170
G1 X109.474 Y91.808 E0.12442
M204 S1250
G1 X109.768 Y92.275 F9000.000
M204 S800
;TYPE:External perimeter
G1 F1800.000
G1 X71.114 Y92.275 E1.30841
;TYPE:Overhang perimeter
;WIDTH:0.389872
;HEIGHT:0.389872
G1
G1 X70.906 Y92.275 E0.01029
G1 X70.906 Y87.725 E0.22583
G1 X71.114 Y87.725 E0.01029
;TYPE:External perimeter
;WIDTH:0.45
;HEIGHT:0.2
G1 X109.768 Y87.725 E1.30841
;TYPE:Overhang perimeter
;WIDTH:0.389872
;HEIGHT:0.389872
G1
G1 X109.881 Y87.725 E0.00562
G1 X109.881 Y92.275 E0.22583
G1 X109.828 Y92.275 E0.00264
M204 S1250
G1 E-2.24000 F4200.000
;WIPE_START
G1 F7200.000
G1 X108.183 Y92.275 E-0.91200
;WIPE_END
G1 E-0.04800 F4200.000
G1 Z0.600 F9000.000
G1 X71.435 Y89.078
G1 Z0.400
G1 E3.20000 F2400.000
M204 S1000
;TYPE:Solid infill
;WIDTH:0.450387
;HEIGHT:0.2
G1 F4800.000
G1 X72.076 Y88.437 E0.03069
G1 X72.652 Y88.437 E0.01952
G1 X71.619 Y89.471 E0.04952
G1 X71.619 Y90.047 E0.01952
G1 X73.228 Y88.437 E0.07713
G1 X73.805 Y88.437 E0.01952
G1 X71.619 Y90.623 E0.10474
G1 X71.619 Y91.200 E0.01952
G1 X74.381 Y88.437 E0.13236
G1 X74.957 Y88.437 E0.01952
G1 X71.832 Y91.563 E0.14975
M73 P12 R8
G1 X72.408 Y91.563 E0.01952
G1 X75.533 Y88.437 E0.14975
G1 X76.110 Y88.437 E0.01952
G1 X72.984 Y91.563 E0.14975
G1 X73.561 Y91.563 E0.01952
G1 X76.686 Y88.437 E0.14975
G1 X77.262 Y88.437 E0.01952
G1 X74.137 Y91.563 E0.14975
G1 X74.713 Y91.563 E0.01952
G1 X77.838 Y88.437 E0.14975
G1 X78.415 Y88.437 E0.01952
G1 X75.289 Y91.563 E0.14975
G1 X75.866 Y91.563 E0.01952
G1 X78.991 Y88.437 E0.14975
G1 X79.567 Y88.437 E0.01952
G1 X76.442 Y91.563 E0.14975
G1 X77.018 Y91.563 E0.01952
G1 X80.143 Y88.437 E0.14975
G1 X80.720 Y88.437 E0.01952
G1 X77.594 Y91.563 E0.14975
G1 X78.171 Y91.563 E0.01952
G1 X81.296 Y88.437 E0.14975
G1 X81.872 Y88.437 E0.01952
G1 X78.747 Y91.563 E0.14975
G1 X79.323 Y91.563 E0.01952
G1 X82.448 Y88.437 E0.14975
G1 X83.025 Y88.437 E0.01952
G1 X79.899 Y91.563 E0.14975
G1 X80.476 Y91.563 E0.01952
G1 X83.601 Y88.437 E0.14975
G1 X84.177 Y88.437 E0.01952
G1 X81.052 Y91.563 E0.14975
G1 X81.628 Y91.563 E0.01952
G1 X84.753 Y88.437 E0.14975
G1 X85.330 Y88.437 E0.01952
G1 X82.204 Y91.563 E0.14975
G1 X82.781 Y91.563 E0.01952
G1 X85.906 Y88.437 E0.14975
G1 X86.482 Y88.437 E0.01952
G1 X83.357 Y91.563 E0.14975
G1 X83.933 Y91.563 E0.01952
G1 X87.058 Y88.437 E0.14975
G1 X87.635 Y88.437 E0.01952
G1 X84.509 Y91.563 E0.14975
G1 X85.086 Y91.563 E0.01952
G1 X88.211 Y88.437 E0.14975
G1 X88.787 Y88.437 E0.01952
G1 X85.662 Y91.563 E0.14975
G1 X86.238 Y91.563 E0.01952
G1 X89.363 Y88.437 E0.14975
G1 X89.940 Y88.437 E0.01952
G1 X86.814 Y91.563 E0.14975
G1 X87.391 Y91.563 E0.01952
G1 X90.516 Y88.437 E0.14975
G1 X91.092 Y88.437 E0.01952
G1 X87.967 Y91.563 E0.14975
G1 X88.543 Y91.563 E0.01952
G1 X91.668 Y88.437 E0.14975
G1 X92.245 Y88.437 E0.01952
G1 X89.119 Y91.563 E0.14975
G1 X89.696 Y91.563 E0.01952
G1 X92.821 Y88.437 E0.14975
G1 X93.397 Y88.437 E0.01952
G1 X90.272 Y91.563 E0.14975
G1 X90.848 Y91.563 E0.01952
G1 X93.973 Y88.437 E0.14975
G1 X94.550 Y88.437 E0.01952
G1 X91.424 Y91.563 E0.14975
G1 X92.001 Y91.563 E0.01952
G1 X95.126 Y88.437 E0.14975
G1 X95.702 Y88.437 E0.01952
G1 X92.577 Y91.563 E0.14975
G1 X93.153 Y91.563 E0.01952
G1 X96.278 Y88.437 E0.14975
G1 X96.855 Y88.437 E0.01952
M73 P13 R8
G1 X93.729 Y91.563 E0.14975
G1 X94.306 Y91.563 E0.01952
G1 X97.431 Y88.437 E0.14975
G1 X98.007 Y88.437 E0.01952
G1 X94.882 Y91.563 E0.14975
G1 X95.458 Y91.563 E0.01952
G1 X98.583 Y88.437 E0.14975
G1 X99.160 Y88.437 E0.01952
G1 X96.034 Y91.563 E0.14975
G1 X96.611 Y91.563 E0.01952
G1 X99.736 Y88.437 E0.14975
G1 X100.312 Y88.437 E0.01952
G1 X97.187 Y91.563 E0.14975
G1 X97.763 Y91.563 E0.01952
G1 X100.888 Y88.437 E0.14975
G1 X101.465 Y88.437 E0.01952
G1 X98.339 Y91.563 E0.14975
G1 X98.916 Y91.563 E0.01952
G1 X102.041 Y88.437 E0.14975
G1 X102.617 Y88.437 E0.01952
G1 X99.492 Y91.563 E0.14975
G1 X100.068 Y91.563 E0.01952
G1 X103.193 Y88.437 E0.14975
G1 X103.769 Y88.437 E0.01952
G1 X100.644 Y91.563 E0.14975
G1 X101.221 Y91.563 E0.01952
G1 X104.346 Y88.437 E0.14975
G1 X104.922 Y88.437 E0.01952
G1 X101.797 Y91.563 E0.14975
G1 X102.373 Y91.563 E0.01952
G1 X105.498 Y88.437 E0.14975
G1 X106.074 Y88.437 E0.01952
G1 X102.949 Y91.563 E0.14975
G1 X103.525 Y91.563 E0.01952
G1 X106.651 Y88.437 E0.14975
G1 X107.227 Y88.437 E0.01952
G1 X104.102 Y91.563 E0.14975
G1 X104.678 Y91.563 E0.01952
G1 X107.803 Y88.437 E0.14975
G1 X108.379 Y88.437 E0.01952
G1 X105.254 Y91.563 E0.14975
G1 X105.830 Y91.563 E0.01952
G1 X108.956 Y88.437 E0.14975
G1 X109.169 Y88.437 E0.00723
G1 X109.169 Y88.800 E0.01229
G1 X106.407 Y91.563 E0.13236
G1 X106.983 Y91.563 E0.01952
G1 X109.169 Y89.377 E0.10475
G1 X109.169 Y89.953 E0.01952
G1 X107.559 Y91.563 E0.07714
G1 X108.135 Y91.563 E0.01952
G1 X109.169 Y90.529 E0.04953
G1 X109.169 Y91.105 E0.01952
G1 X108.529 Y91.746 E0.03069
M204 S1250
; stop printing object Clips01.stl id:0 copy 0
M106 S170.85
;LAYER_CHANGE
;Z:0.6
;HEIGHT:0.2
;BEFORE_LAYER_CHANGE
G92 E0.0
;0.6


G1 E-2.24000 F4200.000
;WIPE_START
G1 F7200.000
G1 X109.169 Y91.105 E-0.50200
G1 X109.169 Y90.529 E-0.31934
G1 X109.053 Y90.645 E-0.09066
;WIPE_END
G1 E-0.04800 F4200.000
G1 Z0.600 F9000.000
;AFTER_LAYER_CHANGE
;0.6
G1 Z0.800
G1 X112.960 Y86.351
G1 Z0.600
G1 E3.20000 F2400.000
;TYPE:Skirt
;WIDTH:0.42
G1 X113.208 Y87.364 E0.03271
G1 X113.211 Y92.549 E0.16258
G1 X113.106 Y93.253 E0.02231
G1 X112.802 Y93.945 E0.02371
G1 X112.321 Y94.528 E0.02371
G1 X111.695 Y94.960 E0.02383
G1 X110.979 Y95.204 E0.02371
G1 X70.127 Y95.251 E1.28091
M73 P14 R8
G1 X69.238 Y95.055 E0.02854
G1 X68.461 Y94.580 E0.02854
G1 X67.880 Y93.875 E0.02866
G1 X67.562 Y93.022 E0.02854
G1 X67.512 Y87.484 E0.17367
G1 X67.604 Y86.795 E0.02180
G1 X67.902 Y86.087 E0.02409
G1 X68.387 Y85.486 E0.02422
G1 X69.017 Y85.045 E0.02409
G1 X69.744 Y84.796 E0.02409
G1 X110.461 Y84.746 E1.27667
G1 X111.482 Y84.943 E0.03258
G1 X112.356 Y85.505 E0.03258
G1 X112.925 Y86.302 E0.03070
G1 X112.621 Y86.517 F9000.000
G1 F2400.000
