; generated by PrusaSlicer 2.3.0+win64 on 2021-06-05 at 15:00:39 UTC


;
;

;
;
; 

; external perimeters extrusion width = 0.45mm
; perimeters extrusion width = 0.45mm
; infill extrusion width = 0.45mm
; solid infill extrusion width = 0.45mm
; top infill extrusion width = 0.40mm
; first layer extrusion width = 0.42mm

M73 P0 R34
M201 X1250 Y1250 Z400 E5000 ; sets maximum accelerations, mm/sec^2
M203 X180 Y180 Z12 E80 ; sets maximum feedrates, mm/sec
M204 P1250 R1250 T1250 ; sets acceleration (P, T) and retract acceleration (R), mm/sec^2
M205 X8.00 Y8.00 Z2.00 E10.00 ; sets the jerk limits, mm/sec
M205 S0 T0 ; sets the minimum extruding and travel feed rate, mm/sec
M107
;TYPE:Custom
G90 ; use absolute coordinates
M83 ; extruder relative mode
M104 S170 ; set extruder temp for bed leveling
M140 S60 ; set bed temp
M109 R170 ; wait for bed leveling temp
M190 S60 ; wait for bed temp
G28 ; home all without mesh bed level
G29 ; mesh bed leveling 
M104 S215 ; set extruder temp
G92 E0.0
G1 Y-2.0 X179 F2400
G1 Z3 F720
M109 S215 ; wait for extruder temp

; intro line
G1 X170 F1000
G1 Z0.2 F720
G1 X110.0 E8.0 F900
G1 X40.0 E10.0 F700
G92 E0.0

M221 S95 ; set flow
G21 ; set units to millimeters
G90 ; use absolute coordinates
M83 ; use relative distances for extrusion
M900 K0.2 ; Filament gcode LA 1.5
; ; Filament gcode LA 1.0
;LAYER_CHANGE
;Z:0.2
;HEIGHT:0.2
;BEFORE_LAYER_CHANGE
G92 E0.0
;0.2


G1 E-3.20000 F4200.000
G1 Z0.200 F9000.000
;AFTER_LAYER_CHANGE
;0.2
G1 Z0.400
G1 X60.366 Y69.842
G1 Z0.200
G1 E3.20000 F2400.000
M204 S800
;TYPE:Skirt
;WIDTH:0.42
G1 F1200.000
G1 X61.341 Y68.869 E0.04320
G1 X62.061 Y68.368 E0.02750
G1 X62.825 Y67.978 E0.02688
G1 X63.634 Y67.694 E0.02690
G1 X64.433 Y67.528 E0.02557
G1 X79.368 Y66.130 E0.47032
M73 P0 R33
G1 X114.670 Y66.123 E1.10689
G1 X115.805 Y66.226 E0.03573
G1 X116.935 Y66.541 E0.03678
G1 X118.085 Y67.118 E0.04034
G1 X119.013 Y67.834 E0.03674
G1 X119.794 Y68.709 E0.03678
G1 X120.388 Y69.685 E0.03583
G1 X120.799 Y70.751 E0.03583
G1 X121.014 Y71.886 E0.03622
G1 X121.028 Y107.948 E1.13070
M73 P1 R33
G1 X120.824 Y109.157 E0.03845
G1 X120.329 Y110.433 E0.04291
G1 X119.570 Y111.577 E0.04303
G1 X118.717 Y112.426 E0.03773
G1 X117.835 Y113.034 E0.03360
G1 X116.978 Y113.444 E0.02977
G1 X115.936 Y113.750 E0.03405
G1 X114.849 Y113.875 E0.03432
G1 X79.494 Y113.875 E1.10854
G1 X64.111 Y112.576 E0.48402
G1 X63.028 Y112.263 E0.03535
G1 X62.161 Y111.849 E0.03014
G1 X61.257 Y111.222 E0.03448
G1 X60.436 Y110.402 E0.03638
G1 X59.810 Y109.506 E0.03428
G1 X59.349 Y108.521 E0.03410
G1 X59.093 Y107.627 E0.02917
G1 X58.960 Y106.546 E0.03416
G1 X58.957 Y73.747 E1.02838
G1 X59.131 Y72.359 E0.04387
G1 X59.609 Y71.032 E0.04422
G1 X60.334 Y69.893 E0.04234
M204 S1250
; printing object SwitchCradleWithSupport.stl id:0 copy 0
G1 E-2.24000 F4200.000
;WIPE_START
G1 F7200.000
G1 X61.341 Y68.869 E-0.79608
G1 X61.513 Y68.749 E-0.11592
;WIPE_END
G1 E-0.04800 F4200.000
G1 Z0.400 F9000.000
G1 X93.795 Y82.101
G1 Z0.200
G1 E3.20000 F2400.000
M204 S800
;TYPE:External perimeter
;WIDTH:0.24292
G1 F1200.000
G1 X100.538 Y82.101 E0.11215
M204 S1250
G1 E-2.24000 F4200.000
;WIPE_START
G1 F7200.000
G1 X98.893 Y82.101 E-0.91200
;WIPE_END
G1 E-0.04800 F4200.000
G1 Z0.400 F9000.000
G1 X81.301 Y105.895
G1 Z0.200
G1 E3.20000 F2400.000
M204 S800
;TYPE:Perimeter
;WIDTH:0.42
G1 F1200.000
G1 X81.608 Y106.284 E0.01553
G1 X81.819 Y106.720 E0.01520
G1 X81.913 Y107.059 E0.01103
G1 X81.956 Y107.531 E0.01486
G1 X81.924 Y107.881 E0.01103
G1 X81.795 Y108.348 E0.01520
G1 X81.563 Y108.786 E0.01553
G1 X81.249 Y109.155 E0.01520
G1 X80.977 Y109.378 E0.01103
G1 X80.553 Y109.613 E0.01520
G1 X80.083 Y109.752 E0.01536
G1 X79.669 Y109.790 E0.01303
G1 X79.250 Y109.752 E0.01318
G1 X78.781 Y109.613 E0.01535
G1 X78.368 Y109.385 E0.01480
G1 X78.085 Y109.156 E0.01140
G1 X77.771 Y108.786 E0.01524
G1 X77.539 Y108.349 E0.01551
G1 X77.412 Y107.894 E0.01480
G1 X77.377 Y107.532 E0.01141
G1 X77.421 Y107.048 E0.01523
G1 X77.571 Y106.576 E0.01553
G1 X77.813 Y106.157 E0.01520
G1 X78.034 Y105.897 E0.01069
G1 X78.290 Y105.671 E0.01069
G1 X78.705 Y105.422 E0.01520
G1 X79.174 Y105.264 E0.01551
G1 X79.643 Y105.211 E0.01480
G1 X80.005 Y105.236 E0.01140
G1 X80.476 Y105.358 E0.01524
G1 X80.918 Y105.582 E0.01553
G1 X81.255 Y105.857 E0.01365
M204 S1250
G1 X81.016 Y106.149 F9000.000
M204 S800
;TYPE:External perimeter
G1 F1200.000
G1 X81.286 Y106.486 E0.01354
G1 X81.465 Y106.854 E0.01284
G1 X81.541 Y107.127 E0.00889
G1 X81.577 Y107.531 E0.01272
G1 X81.552 Y107.813 E0.00889
G1 X81.442 Y108.208 E0.01284
G1 X81.249 Y108.573 E0.01296
G1 X80.984 Y108.885 E0.01284
G1 X80.764 Y109.065 E0.00889
G1 X80.406 Y109.263 E0.01284
G1 X80.012 Y109.380 E0.01290
G1 X79.669 Y109.411 E0.01079
G1 X79.322 Y109.380 E0.01093
G1 X78.927 Y109.263 E0.01289
G1 X78.579 Y109.071 E0.01247
G1 X78.350 Y108.886 E0.00924
G1 X78.085 Y108.573 E0.01285
G1 X77.891 Y108.208 E0.01295
G1 X77.784 Y107.825 E0.01247
G1 X77.756 Y107.531 E0.00926
G1 X77.793 Y107.123 E0.01284
G1 X77.918 Y106.729 E0.01296
G1 X78.122 Y106.375 E0.01284
G1 X78.303 Y106.162 E0.00877
G1 X78.513 Y105.977 E0.00877
G1 X78.864 Y105.766 E0.01284
G1 X79.256 Y105.634 E0.01295
G1 X79.651 Y105.590 E0.01247
G1 X79.945 Y105.610 E0.00924
G1 X80.342 Y105.712 E0.01285
G1 X80.711 Y105.899 E0.01296
G1 X80.969 Y106.111 E0.01048
M204 S1250
G1 X81.402 Y106.046 F9000.000
G1 E-2.24000 F4200.000
;WIPE_START
G1 F7200.000
G1 X81.286 Y106.486 E-0.27196
G1 X81.465 Y106.854 E-0.22692
G1 X81.541 Y107.127 E-0.15704
G1 X81.577 Y107.531 E-0.22480
G1 X81.572 Y107.587 E-0.03129
;WIPE_END
G1 E-0.04800 F4200.000
G1 Z0.400 F9000.000
G1 X79.669 Y74.790
G1 Z0.200
G1 E3.20000 F2400.000
M204 S800
;TYPE:Perimeter
G1 F1200.000
G1 X79.250 Y74.752 E0.01318
G1 X78.781 Y74.613 E0.01535
G1 X78.368 Y74.385 E0.01480
G1 X78.085 Y74.156 E0.01140
G1 X77.771 Y73.786 E0.01524
G1 X77.539 Y73.349 E0.01551
G1 X77.412 Y72.894 E0.01480
G1 X77.377 Y72.532 E0.01141
G1 X77.421 Y72.048 E0.01523
G1 X77.571 Y71.576 E0.01553
G1 X77.813 Y71.157 E0.01520
G1 X78.041 Y70.889 E0.01103
G1 X78.407 Y70.588 E0.01486
G1 X78.715 Y70.418 E0.01103
G1 X79.174 Y70.264 E0.01517
G1 X79.643 Y70.211 E0.01480
G1 X80.005 Y70.236 E0.01140
G1 X80.476 Y70.358 E0.01524
G1 X80.918 Y70.582 E0.01553
G1 X81.293 Y70.889 E0.01519
G1 X81.520 Y71.157 E0.01103
G1 X81.763 Y71.576 E0.01520
G1 X81.912 Y72.049 E0.01553
G1 X81.956 Y72.531 E0.01520
G1 X81.924 Y72.881 E0.01103
G1 X81.795 Y73.348 E0.01520
G1 X81.563 Y73.786 E0.01553
G1 X81.242 Y74.164 E0.01553
G1 X80.856 Y74.457 E0.01520
G1 X80.543 Y74.616 E0.01103
G1 X80.083 Y74.752 E0.01503
G1 X79.729 Y74.785 E0.01115
M204 S1250
G1 X80.012 Y74.380 F9000.000
M204 S800
;TYPE:External perimeter
G1 F1200.000
G1 X79.669 Y74.411 E0.01079
G1 X79.322 Y74.380 E0.01093
G1 X78.927 Y74.263 E0.01289
G1 X78.579 Y74.071 E0.01247
G1 X78.350 Y73.886 E0.00924
G1 X78.085 Y73.573 E0.01285
G1 X77.891 Y73.208 E0.01295
G1 X77.784 Y72.825 E0.01247
G1 X77.756 Y72.531 E0.00926
G1 X77.793 Y72.123 E0.01284
G1 X77.918 Y71.729 E0.01296
G1 X78.122 Y71.375 E0.01284
G1 X78.306 Y71.159 E0.00889
G1 X78.620 Y70.902 E0.01272
G1 X78.868 Y70.765 E0.00888
G1 X79.256 Y70.634 E0.01283
G1 X79.651 Y70.590 E0.01247
G1 X79.945 Y70.610 E0.00924
G1 X80.342 Y70.712 E0.01285
G1 X80.711 Y70.899 E0.01296
G1 X81.027 Y71.159 E0.01284
G1 X81.211 Y71.375 E0.00889
G1 X81.416 Y71.729 E0.01284
G1 X81.540 Y72.123 E0.01296
G1 X81.577 Y72.531 E0.01284
G1 X81.552 Y72.813 E0.00889
G1 X81.442 Y73.208 E0.01284
G1 X81.249 Y73.573 E0.01296
G1 X80.981 Y73.888 E0.01296
G1 X80.655 Y74.136 E0.01284
G1 X80.402 Y74.264 E0.00889
G1 X80.069 Y74.363 E0.01090
M204 S1250
G1 X79.896 Y74.704 F9000.000
G1 E-2.24000 F4200.000
;WIPE_START
G1 F7200.000
G1 X79.669 Y74.411 E-0.22345
G1 X79.322 Y74.380 E-0.19319
G1 X78.927 Y74.263 E-0.22791
G1 X78.579 Y74.071 E-0.22044
G1 X78.513 Y74.018 E-0.04701
;WIPE_END
G1 E-0.04800 F4200.000
G1 Z0.400 F9000.000
G1 X112.377 Y72.532
G1 Z0.200
G1 E3.20000 F2400.000
M204 S800
;TYPE:Perimeter
G1 F1200.000
G1 X112.421 Y72.048 E0.01523
G1 X112.571 Y71.576 E0.01553
G1 X112.813 Y71.157 E0.01520
G1 X113.041 Y70.889 E0.01103
G1 X113.407 Y70.588 E0.01486
G1 X113.715 Y70.418 E0.01103
G1 X114.174 Y70.264 E0.01517
G1 X114.643 Y70.211 E0.01480
G1 X115.005 Y70.236 E0.01140
G1 X115.476 Y70.358 E0.01524
G1 X115.918 Y70.582 E0.01553
G1 X116.301 Y70.895 E0.01553
G1 X116.608 Y71.284 E0.01553
G1 X116.819 Y71.720 E0.01520
G1 X116.913 Y72.059 E0.01103
G1 X116.957 Y72.542 E0.01520
G1 X116.894 Y73.033 E0.01553
G1 X116.731 Y73.490 E0.01519
G1 X116.556 Y73.794 E0.01103
G1 X116.249 Y74.155 E0.01486
G1 X115.977 Y74.378 E0.01103
G1 X115.553 Y74.613 E0.01520
G1 X115.083 Y74.752 E0.01536
G1 X114.669 Y74.790 E0.01303
G1 X114.250 Y74.752 E0.01318
G1 X113.781 Y74.613 E0.01535
G1 X113.368 Y74.385 E0.01480
G1 X113.085 Y74.156 E0.01140
G1 X112.771 Y73.786 E0.01524
G1 X112.539 Y73.349 E0.01551
G1 X112.412 Y72.894 E0.01480
G1 X112.383 Y72.592 E0.00953
M204 S1250
G1 X112.793 Y72.123 F9000.000
M204 S800
;TYPE:External perimeter
G1 F1200.000
G1 X112.918 Y71.729 E0.01296
G1 X113.122 Y71.375 E0.01284
G1 X113.306 Y71.159 E0.00888
G1 X113.620 Y70.902 E0.01272
G1 X113.868 Y70.765 E0.00889
G1 X114.256 Y70.634 E0.01283
G1 X114.651 Y70.590 E0.01247
G1 X114.945 Y70.610 E0.00924
G1 X115.342 Y70.712 E0.01285
G1 X115.711 Y70.899 E0.01296
G1 X116.030 Y71.161 E0.01296
G1 X116.286 Y71.486 E0.01296
G1 X116.465 Y71.854 E0.01284
G1 X116.541 Y72.127 E0.00889
G1 X116.578 Y72.535 E0.01284
G1 X116.526 Y72.945 E0.01296
G1 X116.388 Y73.331 E0.01284
G1 X116.246 Y73.576 E0.00889
G1 X115.984 Y73.885 E0.01272
G1 X115.764 Y74.065 E0.00889
G1 X115.406 Y74.263 E0.01284
G1 X115.012 Y74.380 E0.01290
G1 X114.669 Y74.411 E0.01079
G1 X114.322 Y74.380 E0.01093
G1 X113.927 Y74.263 E0.01289
G1 X113.579 Y74.071 E0.01247
G1 X113.350 Y73.886 E0.00924
G1 X113.085 Y73.573 E0.01285
G1 X112.891 Y73.208 E0.01295
G1 X112.784 Y72.825 E0.01247
G1 X112.756 Y72.531 E0.00926
G1 X112.787 Y72.183 E0.01096
M204 S1250
G1 X112.495 Y71.856 F9000.000
G1 E-2.24000 F4200.000
;WIPE_START
G1 F7200.000
G1 X112.918 Y71.729 E-0.26161
G1 X113.122 Y71.375 E-0.22692
G1 X113.306 Y71.159 E-0.15704
G1 X113.620 Y70.902 E-0.22480
G1 X113.686 Y70.865 E-0.04164
;WIPE_END
G1 E-0.04800 F4200.000
G1 Z0.400 F9000.000
G1 X114.174 Y105.264
G1 Z0.200
G1 E3.20000 F2400.000
M204 S800
;TYPE:Perimeter
G1 F1200.000
G1 X114.643 Y105.211 E0.01480
G1 X115.005 Y105.236 E0.01140
G1 X115.476 Y105.358 E0.01524
G1 X115.918 Y105.582 E0.01553
G1 X116.301 Y105.895 E0.01553
G1 X116.608 Y106.284 E0.01553
G1 X116.819 Y106.720 E0.01520
G1 X116.913 Y107.059 E0.01103
G1 X116.957 Y107.542 E0.01520
G1 X116.894 Y108.033 E0.01553
G1 X116.731 Y108.490 E0.01519
G1 X116.556 Y108.794 E0.01103
G1 X116.249 Y109.155 E0.01486
G1 X115.977 Y109.378 E0.01103
G1 X115.553 Y109.613 E0.01520
G1 X115.083 Y109.752 E0.01536
G1 X114.669 Y109.790 E0.01303
G1 X114.250 Y109.752 E0.01318
G1 X113.781 Y109.613 E0.01535
G1 X113.368 Y109.385 E0.01480
G1 X113.085 Y109.156 E0.01140
G1 X112.771 Y108.786 E0.01524
G1 X112.539 Y108.349 E0.01551
G1 X112.412 Y107.894 E0.01480
G1 X112.377 Y107.532 E0.01141
G1 X112.421 Y107.048 E0.01523
G1 X112.571 Y106.576 E0.01553
G1 X112.813 Y106.157 E0.01520
G1 X113.041 Y105.889 E0.01103
G1 X113.407 Y105.588 E0.01486
G1 X113.715 Y105.418 E0.01103
G1 X114.117 Y105.283 E0.01329
M204 S1250
G1 X114.237 Y105.640 F9000.000
M204 S800
;TYPE:External perimeter
G1 F1200.000
G1 X114.651 Y105.590 E0.01307
G1 X114.945 Y105.610 E0.00924
G1 X115.342 Y105.712 E0.01285
G1 X115.711 Y105.899 E0.01296
G1 X116.030 Y106.161 E0.01296
G1 X116.286 Y106.486 E0.01296
G1 X116.465 Y106.854 E0.01284
G1 X116.541 Y107.127 E0.00889
G1 X116.578 Y107.535 E0.01284
G1 X116.526 Y107.945 E0.01296
G1 X116.388 Y108.331 E0.01284
G1 X116.246 Y108.576 E0.00889
G1 X115.984 Y108.885 E0.01272
G1 X115.764 Y109.065 E0.00889
G1 X115.406 Y109.263 E0.01284
G1 X115.012 Y109.380 E0.01290
G1 X114.669 Y109.411 E0.01079
G1 X114.322 Y109.380 E0.01093
G1 X113.927 Y109.263 E0.01289
G1 X113.579 Y109.071 E0.01247
G1 X113.350 Y108.886 E0.00924
G1 X113.085 Y108.573 E0.01285
G1 X112.891 Y108.208 E0.01295
G1 X112.784 Y107.825 E0.01247
G1 X112.756 Y107.531 E0.00926
G1 X112.793 Y107.123 E0.01284
G1 X112.918 Y106.729 E0.01296
G1 X113.122 Y106.375 E0.01284
G1 X113.306 Y106.159 E0.00889
G1 X113.620 Y105.902 E0.01272
G1 X113.868 Y105.765 E0.00889
G1 X114.180 Y105.659 E0.01034
M204 S1250
G1 X114.359 Y105.259 F9000.000
G1 E-2.24000 F4200.000
;WIPE_START
G1 F7200.000
G1 X114.651 Y105.590 E-0.26360
G1 X114.945 Y105.610 E-0.16336
G1 X115.342 Y105.712 E-0.22720
G1 X115.711 Y105.899 E-0.22905
G1 X115.751 Y105.932 E-0.02879
;WIPE_END
G1 E-0.04800 F4200.000
G1 Z0.400 F9000.000
G1 X113.880 Y75.729
G1 Z0.200
G1 E3.20000 F2400.000
M204 S800
;TYPE:Perimeter
G1 F1200.000
G1 X113.880 Y104.252 E0.89431
G1 X115.098 Y104.318 E0.03827
G1 X115.515 Y104.403 E0.01333
G1 X115.920 Y104.544 E0.01345
G1 X116.303 Y104.737 E0.01345
G1 X116.657 Y104.980 E0.01345
G1 X116.975 Y105.268 E0.01345
G1 X117.256 Y105.600 E0.01366
G1 X117.546 Y106.078 E0.01752
G1 X117.712 Y106.481 E0.01366
G1 X117.822 Y106.902 E0.01366
G1 X117.863 Y107.179 E0.00877
G1 X117.878 Y107.458 E0.00877
G1 X117.854 Y107.900 E0.01386
G1 X117.807 Y108.175 E0.00877
G1 X117.736 Y108.446 E0.00877
G1 X117.577 Y108.858 E0.01386
G1 X117.449 Y109.107 E0.00877
G1 X117.298 Y109.342 E0.00877
G1 X117.020 Y109.686 E0.01386
G1 X116.821 Y109.883 E0.00877
G1 X116.601 Y110.065 E0.00897
G1 X116.365 Y110.227 E0.00897
G1 X116.115 Y110.368 E0.00897
G1 X115.854 Y110.485 E0.00897
G1 X115.590 Y110.577 E0.00877
G1 X115.159 Y110.675 E0.01386
G1 X114.881 Y110.706 E0.00877
G1 X114.595 Y110.712 E0.00897
G1 X114.310 Y110.693 E0.00897
G1 X114.027 Y110.648 E0.00897
G1 X113.749 Y110.579 E0.00897
G1 X113.487 Y110.488 E0.00870
G1 X113.086 Y110.297 E0.01393
G1 X112.849 Y110.149 E0.00876
G1 X112.620 Y109.977 E0.00897
G1 X112.408 Y109.785 E0.00897
G1 X112.214 Y109.574 E0.00897
G1 X112.039 Y109.348 E0.00897
G1 X111.888 Y109.112 E0.00877
G1 X111.693 Y108.715 E0.01386
G1 X111.599 Y108.452 E0.00877
G1 X111.526 Y108.175 E0.00897
G1 X111.478 Y107.893 E0.00897
G1 X111.456 Y107.608 E0.00897
G1 X111.459 Y107.322 E0.00897
G1 X111.487 Y107.045 E0.00873
G1 X111.779 Y105.713 E0.04273
G1 X102.339 Y105.713 E0.29598
G1 X102.339 Y103.294 E0.07586
G1 X102.322 Y102.876 E0.01313
G1 X102.267 Y102.440 E0.01377
G1 X102.120 Y101.814 E0.02017
G1 X101.896 Y101.211 E0.02017
G1 X101.698 Y100.812 E0.01396
G1 X101.353 Y100.269 E0.02017
G1 X100.940 Y99.768 E0.02036
G1 X100.471 Y99.328 E0.02017
G1 X100.121 Y99.062 E0.01377
G1 X99.750 Y98.826 E0.01377
G1 X99.174 Y98.540 E0.02017
G1 X98.567 Y98.328 E0.02018
G1 X98.080 Y98.214 E0.01567
G1 X96.253 Y98.214 E0.05730
G1 X95.766 Y98.328 E0.01567
G1 X95.159 Y98.540 E0.02018
G1 X94.577 Y98.829 E0.02036
G1 X94.037 Y99.189 E0.02036
G1 X93.549 Y99.610 E0.02020
G1 X93.230 Y99.953 E0.01469
G1 X92.856 Y100.447 E0.01943
G1 X92.535 Y101.004 E0.02015
G1 X92.356 Y101.406 E0.01380
G1 X92.206 Y101.843 E0.01449
G1 X92.067 Y102.441 E0.01924
G1 X92.012 Y102.876 E0.01375
G1 X91.994 Y103.294 E0.01313
G1 X91.994 Y105.713 E0.07586
G1 X82.554 Y105.713 E0.29598
M73 P2 R33
G1 X82.846 Y107.045 E0.04273
G1 X82.874 Y107.322 E0.00873
G1 X82.877 Y107.608 E0.00897
G1 X82.855 Y107.893 E0.00897
G1 X82.808 Y108.169 E0.00877
G1 X82.687 Y108.594 E0.01386
G1 X82.452 Y109.101 E0.01752
G1 X82.205 Y109.468 E0.01386
G1 X82.025 Y109.682 E0.00877
G1 X81.821 Y109.883 E0.00897
G1 X81.601 Y110.065 E0.00897
G1 X81.365 Y110.227 E0.00897
G1 X81.115 Y110.368 E0.00897
G1 X80.854 Y110.485 E0.00897
G1 X80.584 Y110.579 E0.00897
G1 X80.306 Y110.648 E0.00897
G1 X80.024 Y110.693 E0.00897
G1 X79.747 Y110.711 E0.00870
G1 X79.303 Y110.692 E0.01393
G1 X78.756 Y110.581 E0.01751
G1 X78.341 Y110.426 E0.01386
G1 X78.092 Y110.300 E0.00877
G1 X77.856 Y110.153 E0.00870
G1 X77.512 Y109.882 E0.01372
G1 X77.210 Y109.569 E0.01365
G1 X77.039 Y109.348 E0.00877
G1 X76.885 Y109.107 E0.00897
G1 X76.753 Y108.853 E0.00897
G1 X76.646 Y108.594 E0.00877
G1 X76.527 Y108.175 E0.01366
G1 X76.464 Y107.744 E0.01366
G1 X76.455 Y107.465 E0.00877
G1 X76.470 Y107.179 E0.00897
G1 X76.512 Y106.896 E0.00897
G1 X76.577 Y106.624 E0.00877
