; generated by PrusaSlicer 2.3.0+win64 on 2021-03-28 at 20:14:22 UTC


;
;

;
;
; 

; external perimeters extrusion width = 0.45mm
; perimeters extrusion width = 0.45mm
; infill extrusion width = 0.45mm
; solid infill extrusion width = 0.45mm
; top infill extrusion width = 0.40mm
; first layer extrusion width = 0.42mm

M73 P0 R20
M201 X1250 Y1250 Z400 E5000 ; sets maximum accelerations, mm/sec^2
M203 X180 Y180 Z12 E80 ; sets maximum feedrates, mm/sec
M204 P1250 R1250 T1250 ; sets acceleration (P, T) and retract acceleration (R), mm/sec^2
M205 X8.00 Y8.00 Z2.00 E10.00 ; sets the jerk limits, mm/sec
M205 S0 T0 ; sets the minimum extruding and travel feed rate, mm/sec
M107
;TYPE:Custom
G90 ; use absolute coordinates
M83 ; extruder relative mode
M104 S170 ; set extruder temp for bed leveling
M140 S60 ; set bed temp
M109 R170 ; wait for bed leveling temp
M190 S60 ; wait for bed temp
G28 ; home all without mesh bed level
G29 ; mesh bed leveling 
M104 S215 ; set extruder temp
G92 E0.0
G1 Y-2.0 X179 F2400
G1 Z3 F720
M109 S215 ; wait for extruder temp

; intro line
G1 X170 F1000
G1 Z0.2 F720
G1 X110.0 E8.0 F900
M73 P0 R19
G1 X40.0 E10.0 F700
G92 E0.0

M221 S95 ; set flow
G21 ; set units to millimeters
G90 ; use absolute coordinates
M83 ; use relative distances for extrusion
M900 K0.2 ; Filament gcode LA 1.5
; ; Filament gcode LA 1.0
;LAYER_CHANGE
;Z:0.2
;HEIGHT:0.2
;BEFORE_LAYER_CHANGE
G92 E0.0
;0.2


M73 P1 R19
G1 E-3.20000 F4200.000
G1 Z0.200 F9000.000
;AFTER_LAYER_CHANGE
;0.2
G1 Z0.400
G1 X78.128 Y72.251
G1 Z0.200
G1 E3.20000 F2400.000
M204 S800
;TYPE:Skirt
;WIDTH:0.42
G1 F1200.000
G1 X78.502 Y71.608 E0.02333
G1 X79.031 Y71.091 E0.02320
G1 X79.682 Y70.731 E0.02333
G1 X80.406 Y70.559 E0.02333
G1 X95.379 Y70.546 E0.46948
G1 X96.084 Y70.639 E0.02231
G1 X96.739 Y70.907 E0.02218
G1 X97.303 Y71.334 E0.02218
G1 X97.741 Y71.890 E0.02218
G1 X101.677 Y80.386 E0.29361
G1 X102.119 Y81.841 E0.04766
G1 X102.229 Y83.025 E0.03730
G1 X102.229 Y102.799 E0.62000
G1 X102.076 Y104.174 E0.04338
G1 X101.707 Y105.343 E0.03841
G1 X100.924 Y106.723 E0.04976
G1 X100.370 Y107.384 E0.02705
G1 X99.713 Y107.985 E0.02789
G1 X98.978 Y108.497 E0.02810
G1 X98.221 Y108.888 E0.02670
G1 X96.718 Y109.347 E0.04928
G1 X95.542 Y109.454 E0.03704
G1 X80.509 Y109.454 E0.47135
G1 X79.983 Y109.400 E0.01656
G1 X79.478 Y109.247 E0.01656
G1 X78.799 Y108.846 E0.02473
G1 X78.264 Y108.272 E0.02460
G1 X77.912 Y107.571 E0.02460
G1 X77.773 Y106.799 E0.02460
G1 X77.771 Y79.071 E0.86939
G1 X77.925 Y73.155 E0.18556
G1 X78.115 Y72.310 E0.02716
M204 S1250
G1 X78.479 Y72.392 F9000.000
M204 S800
G1 F1200.000
G1 X78.805 Y71.833 E0.02029
G1 X79.268 Y71.384 E0.02024
G1 X79.839 Y71.075 E0.02036
G1 X80.469 Y70.932 E0.02024
G1 X95.379 Y70.923 E0.46749
G1 X95.993 Y71.005 E0.01941
G1 X96.564 Y71.242 E0.01941
G1 X97.055 Y71.619 E0.01941
G1 X97.433 Y72.110 E0.01941
G1 X101.331 Y80.537 E0.29112
M73 P2 R19
G1 X101.751 Y81.927 E0.04555
G1 X101.852 Y83.027 E0.03461
G1 X101.852 Y102.788 E0.61960
G1 X101.705 Y104.103 E0.04147
G1 X101.355 Y105.208 E0.03636
G1 X100.621 Y106.499 E0.04654
G1 X100.097 Y107.123 E0.02557
G1 X99.472 Y107.695 E0.02657
G1 X98.777 Y108.178 E0.02653
G1 X98.058 Y108.548 E0.02535
G1 X96.636 Y108.978 E0.04657
G1 X95.540 Y109.077 E0.03451
G1 X80.514 Y109.077 E0.47115
G1 X79.612 Y108.895 E0.02884
G1 X79.031 Y108.549 E0.02119
G1 X78.569 Y108.051 E0.02130
G1 X78.267 Y107.443 E0.02130
G1 X78.149 Y106.773 E0.02130
G1 X78.148 Y79.077 E0.86840
G1 X78.301 Y73.181 E0.18492
G1 X78.465 Y72.450 E0.02350
M204 S1250
; printing object CuttingGuideBlocks_v2.stl id:0 copy 1
G1 E-2.24000 F4200.000
;WIPE_START
G1 F7200.000
G1 X78.805 Y71.833 E-0.39046
G1 X79.268 Y71.384 E-0.35773
G1 X79.528 Y71.243 E-0.16381
;WIPE_END
G1 E-0.04800 F4200.000
G1 Z0.400 F9000.000
G1 X94.592 Y100.659
G1 Z0.200
G1 E3.20000 F2400.000
M204 S800
;TYPE:Perimeter
G1 F1200.000
G1 X94.923 Y100.541 E0.01103
G1 X95.401 Y100.463 E0.01520
G1 X95.885 Y100.489 E0.01519
G1 X96.227 Y100.571 E0.01103
G1 X96.670 Y100.766 E0.01519
G1 X97.061 Y101.052 E0.01519
G1 X97.303 Y101.308 E0.01103
G1 X97.568 Y101.714 E0.01519
G1 X97.743 Y102.177 E0.01553
G1 X97.814 Y102.667 E0.01553
G1 X97.779 Y103.151 E0.01519
G1 X97.691 Y103.491 E0.01103
G1 X97.488 Y103.931 E0.01520
G1 X97.194 Y104.317 E0.01519
G1 X96.935 Y104.554 E0.01103
G1 X96.524 Y104.811 E0.01519
G1 X96.058 Y104.978 E0.01553
G1 X95.566 Y105.040 E0.01553
G1 X95.084 Y104.997 E0.01519
G1 X94.745 Y104.903 E0.01103
G1 X94.309 Y104.691 E0.01519
G1 X93.928 Y104.391 E0.01519
G1 X93.696 Y104.127 E0.01103
G1 X93.446 Y103.712 E0.01520
G1 X93.288 Y103.242 E0.01553
G1 X93.234 Y102.750 E0.01553
G1 X93.288 Y102.258 E0.01553
G1 X93.446 Y101.788 E0.01553
G1 X93.696 Y101.373 E0.01520
G1 X93.921 Y101.117 E0.01069
G1 X94.181 Y100.896 E0.01069
G1 X94.540 Y100.689 E0.01298
M204 S1250
G1 X94.728 Y101.016 F9000.000
M204 S800
;TYPE:External perimeter
G1 F1200.000
G1 X95.017 Y100.908 E0.00968
G1 X95.422 Y100.841 E0.01284
G1 X95.830 Y100.864 E0.01284
G1 X96.106 Y100.930 E0.00889
G1 X96.481 Y101.095 E0.01284
G1 X96.811 Y101.337 E0.01284
G1 X97.006 Y101.542 E0.00889
G1 X97.230 Y101.885 E0.01284
G1 X97.376 Y102.272 E0.01296
G1 X97.435 Y102.681 E0.01296
G1 X97.406 Y103.089 E0.01284
G1 X97.335 Y103.364 E0.00889
G1 X97.163 Y103.735 E0.01284
G1 X96.915 Y104.061 E0.01284
G1 X96.706 Y104.253 E0.00889
G1 X96.359 Y104.470 E0.01284
G1 X95.970 Y104.609 E0.01296
G1 X95.560 Y104.661 E0.01296
G1 X95.152 Y104.624 E0.01284
G1 X94.879 Y104.548 E0.00889
G1 X94.510 Y104.370 E0.01284
G1 X94.189 Y104.116 E0.01284
G1 X94.001 Y103.903 E0.00889
G1 X93.790 Y103.553 E0.01284
G1 X93.658 Y103.161 E0.01296
G1 X93.614 Y102.750 E0.01296
G1 X93.658 Y102.339 E0.01296
G1 X93.790 Y101.947 E0.01296
G1 X94.001 Y101.597 E0.01284
G1 X94.186 Y101.387 E0.00877
G1 X94.399 Y101.206 E0.00877
G1 X94.676 Y101.046 E0.01003
M204 S1250
G1 X94.754 Y100.708 F9000.000
G1 E-2.24000 F4200.000
;WIPE_START
G1 F7200.000
G1 X95.017 Y100.908 E-0.20403
G1 X95.422 Y100.841 E-0.22692
G1 X95.830 Y100.864 E-0.22692
G1 X96.106 Y100.930 E-0.15705
G1 X96.266 Y101.000 E-0.09708
;WIPE_END
G1 E-0.04800 F4200.000
G1 Z0.400 F9000.000
G1 X89.738 Y96.913
G1 Z0.200
G1 E3.20000 F2400.000
M204 S800
;TYPE:Perimeter
G1 F1200.000
G1 X89.738 Y99.587 E0.08385
G1 X95.503 Y99.587 E0.18076
G1 X95.949 Y99.617 E0.01403
G1 X96.373 Y99.704 E0.01354
G1 X96.891 Y99.898 E0.01736
G1 X97.272 Y100.115 E0.01375
G1 X97.705 Y100.460 E0.01736
G1 X98.001 Y100.784 E0.01375
G1 X98.306 Y101.246 E0.01736
G1 X98.488 Y101.645 E0.01375
G1 X98.571 Y101.902 E0.00848
G1 X98.659 Y102.332 E0.01375
G1 X98.684 Y102.602 E0.00848
G1 X98.674 Y103.040 E0.01375
G1 X98.637 Y103.308 E0.00848
G1 X98.530 Y103.733 E0.01375
G1 X98.435 Y103.987 E0.00848
G1 X98.239 Y104.372 E0.01354
G1 X97.997 Y104.721 E0.01334
G1 X97.705 Y105.040 E0.01354
G1 X97.502 Y105.218 E0.00848
G1 X97.147 Y105.464 E0.01354
G1 X96.762 Y105.660 E0.01354
G1 X96.508 Y105.755 E0.00848
G1 X96.090 Y105.861 E0.01354
G1 X95.660 Y105.909 E0.01355
G1 X81.312 Y105.913 E0.44988
G1 X81.312 Y99.587 E0.19834
G1 X86.312 Y99.587 E0.15677
G1 X86.312 Y96.913 E0.08385
G1 X81.462 Y96.913 E0.15207
G1 X81.462 Y93.787 E0.09801
G1 X94.588 Y93.787 E0.41155
G1 X94.588 Y96.913 E0.09801
G1 X89.798 Y96.913 E0.15019
M204 S1250
G1 X90.115 Y97.290 F9000.000
M204 S800
;TYPE:External perimeter
G1 F1200.000
G1 X90.115 Y99.210 E0.06020
G1 X95.516 Y99.210 E0.16934
G1 X96.000 Y99.243 E0.01522
G1 X96.469 Y99.339 E0.01500
G1 X96.769 Y99.436 E0.00988
G1 X97.059 Y99.560 E0.00988
G1 X97.477 Y99.797 E0.01508
G1 X97.732 Y99.983 E0.00988
G1 X97.969 Y100.190 E0.00988
G1 X98.294 Y100.545 E0.01508
G1 X98.479 Y100.800 E0.00988
G1 X98.641 Y101.071 E0.00988
G1 X98.840 Y101.508 E0.01508
G1 X98.936 Y101.806 E0.00981
G1 X99.033 Y102.277 E0.01508
G1 X99.061 Y102.589 E0.00981
G1 X99.050 Y103.070 E0.01508
G1 X99.008 Y103.380 E0.00981
G1 X98.891 Y103.846 E0.01508
G1 X98.781 Y104.139 E0.00981
G1 X98.563 Y104.565 E0.01500
G1 X98.292 Y104.957 E0.01493
G1 X97.969 Y105.310 E0.01500
G1 X97.734 Y105.516 E0.00981
G1 X97.340 Y105.788 E0.01500
G1 X96.914 Y106.006 E0.01500
M73 P3 R19
G1 X96.621 Y106.116 E0.00981
G1 X96.157 Y106.233 E0.01500
G1 X95.681 Y106.286 E0.01501
G1 X80.935 Y106.290 E0.46236
G1 X80.935 Y99.210 E0.22199
G1 X85.935 Y99.210 E0.15677
G1 X85.935 Y97.290 E0.06020
G1 X81.085 Y97.290 E0.15207
G1 X81.085 Y93.410 E0.12165
G1 X94.965 Y93.410 E0.43520
G1 X94.965 Y97.290 E0.12165
G1 X90.175 Y97.290 E0.15019
M204 S1250
G1 X89.725 Y97.379 F9000.000
G1 E-2.24000 F4200.000
;WIPE_START
G1 F7200.000
G1 X90.124 Y98.935 E-0.91200
;WIPE_END
G1 E-0.04800 F4200.000
G1 Z0.400 F9000.000
G1 X98.461 Y101.929
G1 Z0.200
G1 E3.20000 F2400.000
M204 S800
;TYPE:Solid infill
;WIDTH:0.427593
G1 F1200.000
G1 X96.624 Y100.092 E0.08310
G1 X96.300 Y99.978 E0.01097
G1 X95.884 Y99.896 E0.01356
G1 X96.281 Y100.293 E0.01795
G1 X96.813 Y100.520 E0.01849
G1 X97.249 Y100.839 E0.01730
G1 X97.526 Y101.132 E0.01289
G1 X97.822 Y101.585 E0.01730
G1 X97.972 Y101.984 E0.01364
G1 X98.568 Y102.580 E0.02695
M204 S1250
G1 X97.897 Y102.453 F9000.000
M204 S800
G1 F1200.000
G1 X98.393 Y102.949 E0.02241
G1 X98.359 Y103.254 E0.00984
G1 X98.318 Y103.418 E0.00539
G1 X98.062 Y103.162 E0.01158
G1 X97.954 Y103.598 E0.01436
G1 X98.190 Y103.834 E0.01070
G1 X98.010 Y104.198 E0.01299
G1 X97.782 Y103.969 E0.01034
G1 X97.732 Y104.078 E0.00381
G1 X97.565 Y104.297 E0.00881
G1 X97.790 Y104.522 E0.01020
G1 X97.533 Y104.809 E0.01232
G1 X97.314 Y104.590 E0.00990
G1 X97.107 Y104.780 E0.00900
G1 X97.017 Y104.836 E0.00340
G1 X97.237 Y105.057 E0.00998
G1 X97.001 Y105.221 E0.00919
G1 X96.906 Y105.269 E0.00343
G1 X96.682 Y105.046 E0.01011
G1 X96.288 Y105.196 E0.01349
G1 X96.535 Y105.443 E0.01118
G1 X96.112 Y105.564 E0.01408
G1 X95.839 Y105.291 E0.01234
G1 X95.571 Y105.325 E0.00862
G1 X95.305 Y105.301 E0.00857
G1 X95.785 Y105.781 E0.02174
M204 S1250
G1 E-2.24000 F4200.000
;WIPE_START
G1 F7200.000
G1 X95.305 Y105.301 E-0.37667
G1 X95.571 Y105.325 E-0.14849
G1 X95.839 Y105.291 E-0.14934
G1 X96.112 Y105.564 E-0.21378
G1 X96.153 Y105.552 E-0.02372
;WIPE_END
G1 E-0.04800 F4200.000
G1 Z0.400 F9000.000
G1 X95.816 Y100.372
G1 Z0.200
G1 E3.20000 F2400.000
M204 S800
G1 F1200.000
G1 X95.314 Y99.870 E0.02271
G1 X94.770 Y99.870 E0.01740
G1 X95.122 Y100.222 E0.01592
G1 X94.852 Y100.266 E0.00876
G1 X94.683 Y100.327 E0.00574
G1 X94.226 Y99.870 E0.02066
G1 X93.682 Y99.870 E0.01740
G1 X94.308 Y100.496 E0.02834
G1 X93.971 Y100.703 E0.01265
G1 X93.138 Y99.870 E0.03770
G1 X92.594 Y99.870 E0.01740
G1 X93.683 Y100.959 E0.04928
G1 X93.436 Y101.256 E0.01235
G1 X92.050 Y99.870 E0.06270
G1 X91.506 Y99.870 E0.01740
G1 X93.232 Y101.596 E0.07807
G1 X93.188 Y101.669 E0.00273
G1 X93.080 Y101.988 E0.01078
G1 X90.962 Y99.870 E0.09582
G1 X90.418 Y99.870 E0.01740
G1 X93.138 Y102.590 E0.12304
M204 S1250
G1 E-2.24000 F4200.000
;WIPE_START
G1 F7200.000
G1 X91.974 Y101.426 E-0.91200
;WIPE_END
G1 E-0.04800 F4200.000
G1 Z0.400 F9000.000
G1 X93.696 Y93.900
G1 Z0.200
G1 E3.20000 F2400.000
M204 S800
G1 F1200.000
G1 X94.305 Y94.509 E0.02753
G1 X94.305 Y95.053 E0.01740
G1 X93.322 Y94.070 E0.04447
G1 X92.778 Y94.070 E0.01740
G1 X94.305 Y95.597 E0.06907
G1 X94.305 Y96.141 E0.01740
G1 X92.234 Y94.070 E0.09368
G1 X91.690 Y94.070 E0.01740
G1 X94.250 Y96.630 E0.11581
G1 X93.706 Y96.630 E0.01740
G1 X91.146 Y94.070 E0.11581
G1 X90.602 Y94.070 E0.01740
G1 X93.162 Y96.630 E0.11581
G1 X92.618 Y96.630 E0.01740
G1 X90.058 Y94.070 E0.11581
G1 X89.514 Y94.070 E0.01740
G1 X92.074 Y96.630 E0.11581
G1 X91.530 Y96.630 E0.01740
G1 X88.970 Y94.070 E0.11581
G1 X88.426 Y94.070 E0.01740
G1 X90.986 Y96.630 E0.11581
G1 X90.442 Y96.630 E0.01740
G1 X87.882 Y94.070 E0.11581
G1 X87.338 Y94.070 E0.01740
G1 X89.898 Y96.630 E0.11581
G1 X89.455 Y96.630 E0.01417
G1 X89.455 Y96.731 E0.00323
G1 X86.794 Y94.070 E0.12038
G1 X86.250 Y94.070 E0.01740
G1 X89.455 Y97.275 E0.14498
G1 X89.455 Y97.819 E0.01740
G1 X85.706 Y94.070 E0.16959
G1 X85.162 Y94.070 E0.01740
G1 X89.455 Y98.363 E0.19420
G1 X89.455 Y98.907 E0.01740
G1 X84.618 Y94.070 E0.21881
G1 X84.074 Y94.070 E0.01740
G1 X89.455 Y99.451 E0.24342
G1 X89.455 Y99.870 E0.01340
G1 X89.874 Y99.870 E0.01340
G1 X93.165 Y103.161 E0.14888
M204 S1250
G1 E-2.24000 F4200.000
;WIPE_START
G1 F7200.000
G1 X92.002 Y101.998 E-0.91200
;WIPE_END
G1 E-0.04800 F4200.000
G1 Z0.400 F9000.000
G1 X95.256 Y105.796
G1 Z0.200
G1 E3.20000 F2400.000
M204 S800
M73 P4 R19
G1 F1200.000
G1 X94.613 Y105.153 E0.02910
G1 X94.158 Y104.932 E0.01618
G1 X93.733 Y104.597 E0.01730
G1 X93.467 Y104.295 E0.01289
G1 X93.188 Y103.831 E0.01730
G1 X93.135 Y103.675 E0.00527
G1 X86.595 Y97.135 E0.29585
G1 X86.595 Y96.630 E0.01614
G1 X86.090 Y96.630 E0.01614
G1 X83.530 Y94.070 E0.11581
G1 X82.986 Y94.070 E0.01740
G1 X85.546 Y96.630 E0.11581
G1 X85.002 Y96.630 E0.01740
G1 X82.442 Y94.070 E0.11581
G1 X81.898 Y94.070 E0.01740
G1 X84.458 Y96.630 E0.11581
G1 X83.914 Y96.630 E0.01740
G1 X81.745 Y94.461 E0.09813
G1 X81.745 Y95.005 E0.01740
G1 X83.370 Y96.630 E0.07352
G1 X82.826 Y96.630 E0.01740
G1 X81.745 Y95.549 E0.04891
G1 X81.745 Y96.093 E0.01740
G1 X82.452 Y96.800 E0.03198
M204 S1250
G1 E-2.24000 F4200.000
;WIPE_START
G1 F7200.000
G1 X81.745 Y96.093 E-0.55402
G1 X81.745 Y95.549 E-0.30147
G1 X81.817 Y95.621 E-0.05651
;WIPE_END
G1 E-0.04800 F4200.000
G1 Z0.400 F9000.000
G1 X86.425 Y97.509
G1 Z0.200
G1 E3.20000 F2400.000
M204 S800
G1 F1200.000
G1 X94.543 Y105.627 E0.36719
G1 X93.999 Y105.627 E0.01740
G1 X86.595 Y98.223 E0.33491
G1 X86.595 Y98.767 E0.01740
G1 X93.455 Y105.627 E0.31031
G1 X92.911 Y105.627 E0.01740
G1 X86.595 Y99.311 E0.28571
G1 X86.595 Y99.855 E0.01740
G1 X92.367 Y105.627 E0.26111
G1 X91.823 Y105.627 E0.01740
G1 X86.066 Y99.870 E0.26043
G1 X85.522 Y99.870 E0.01740
G1 X91.279 Y105.627 E0.26044
G1 X90.736 Y105.628 E0.01740
G1 X84.978 Y99.870 E0.26045
G1 X84.434 Y99.870 E0.01740
G1 X90.192 Y105.628 E0.26045
G1 X89.648 Y105.628 E0.01740
G1 X83.890 Y99.870 E0.26046
G1 X83.346 Y99.870 E0.01740
G1 X89.104 Y105.628 E0.26047
G1 X88.560 Y105.628 E0.01740
G1 X82.802 Y99.870 E0.26047
G1 X82.258 Y99.870 E0.01740
G1 X88.016 Y105.628 E0.26048
G1 X87.472 Y105.628 E0.01740
G1 X81.714 Y99.870 E0.26048
G1 X81.595 Y99.870 E0.00380
G1 X81.595 Y100.295 E0.01360
G1 X86.928 Y105.629 E0.24126
G1 X86.385 Y105.629 E0.01740
G1 X81.595 Y100.839 E0.21666
G1 X81.595 Y101.383 E0.01740
G1 X85.841 Y105.629 E0.19206
G1 X85.297 Y105.629 E0.01740
G1 X81.595 Y101.927 E0.16746
G1 X81.595 Y102.471 E0.01740
G1 X84.753 Y105.629 E0.14285
G1 X84.209 Y105.629 E0.01740
G1 X81.595 Y103.015 E0.11825
G1 X81.595 Y103.559 E0.01740
G1 X83.665 Y105.629 E0.09365
G1 X83.121 Y105.630 E0.01740
G1 X81.595 Y104.103 E0.06905
G1 X81.595 Y104.647 E0.01740
G1 X82.577 Y105.630 E0.04445
G1 X82.034 Y105.630 E0.01740
G1 X81.425 Y105.021 E0.02752
M204 S1250
; stop printing object CuttingGuideBlocks_v2.stl id:0 copy 1
; printing object CuttingGuideBlocks_v2.stl id:0 copy 0
G1 E-2.24000 F4200.000
;WIPE_START
M73 P5 R19
G1 F7200.000
G1 X82.034 Y105.630 E-0.47682
G1 X82.577 Y105.630 E-0.30140
G1 X82.407 Y105.459 E-0.13378
;WIPE_END
G1 E-0.04800 F4200.000
G1 Z0.400 F9000.000
G1 X94.309 Y84.991
G1 Z0.200
G1 E3.20000 F2400.000
M204 S800
;TYPE:Perimeter
;WIDTH:0.42
G1 F1200.000
G1 X93.928 Y84.691 E0.01519
G1 X93.696 Y84.427 E0.01103
G1 X93.446 Y84.012 E0.01520
G1 X93.288 Y83.542 E0.01553
G1 X93.234 Y83.050 E0.01553
G1 X93.288 Y82.558 E0.01553
G1 X93.446 Y82.088 E0.01553
G1 X93.696 Y81.673 E0.01520
G1 X93.921 Y81.417 E0.01069
G1 X94.181 Y81.196 E0.01069
G1 X94.592 Y80.959 E0.01486
G1 X94.923 Y80.841 E0.01103
G1 X95.401 Y80.763 E0.01520
G1 X95.885 Y80.789 E0.01519
G1 X96.227 Y80.871 E0.01103
G1 X96.670 Y81.066 E0.01519
G1 X97.061 Y81.352 E0.01519
G1 X97.303 Y81.608 E0.01103
G1 X97.568 Y82.014 E0.01519
G1 X97.743 Y82.477 E0.01553
G1 X97.814 Y82.967 E0.01553
G1 X97.779 Y83.451 E0.01519
G1 X97.691 Y83.791 E0.01103
G1 X97.488 Y84.231 E0.01520
G1 X97.194 Y84.617 E0.01519
G1 X96.935 Y84.854 E0.01103
G1 X96.524 Y85.111 E0.01519
G1 X96.058 Y85.278 E0.01553
G1 X95.566 Y85.340 E0.01553
G1 X95.084 Y85.297 E0.01519
G1 X94.745 Y85.203 E0.01103
G1 X94.363 Y85.017 E0.01331
M204 S1250
G1 X94.527 Y84.678 F9000.000
M204 S800
;TYPE:External perimeter
