; generated by PrusaSlicer 2.3.0+win64 on 2021-03-25 at 08:31:40 UTC


;
;

;
;
; 

; external perimeters extrusion width = 0.45mm
; perimeters extrusion width = 0.45mm
; infill extrusion width = 0.45mm
; solid infill extrusion width = 0.45mm
; top infill extrusion width = 0.40mm
; first layer extrusion width = 0.42mm

M73 P0 R37
M201 X1250 Y1250 Z400 E5000 ; sets maximum accelerations, mm/sec^2
M203 X180 Y180 Z12 E80 ; sets maximum feedrates, mm/sec
M204 P1250 R1250 T1250 ; sets acceleration (P, T) and retract acceleration (R), mm/sec^2
M205 X8.00 Y8.00 Z2.00 E10.00 ; sets the jerk limits, mm/sec
M205 S0 T0 ; sets the minimum extruding and travel feed rate, mm/sec
M107
;TYPE:Custom
G90 ; use absolute coordinates
M83 ; extruder relative mode
M104 S170 ; set extruder temp for bed leveling
M140 S60 ; set bed temp
M109 R170 ; wait for bed leveling temp
M190 S60 ; wait for bed temp
G28 ; home all without mesh bed level
G29 ; mesh bed leveling 
M104 S215 ; set extruder temp
G92 E0.0
G1 Y-2.0 X179 F2400
G1 Z3 F720
M109 S215 ; wait for extruder temp

; intro line
G1 X170 F1000
G1 Z0.2 F720
G1 X110.0 E8.0 F900
G1 X40.0 E10.0 F700
G92 E0.0

M221 S95 ; set flow
G21 ; set units to millimeters
G90 ; use absolute coordinates
M83 ; use relative distances for extrusion
M900 K0.2 ; Filament gcode LA 1.5
; ; Filament gcode LA 1.0
;LAYER_CHANGE
;Z:0.2
;HEIGHT:0.2
;BEFORE_LAYER_CHANGE
G92 E0.0
;0.2


G1 E-3.20000 F4200.000
G1 Z0.200 F9000.000
;AFTER_LAYER_CHANGE
;0.2
G1 Z0.400
G1 X63.217 Y75.839
G1 Z0.200
G1 E3.20000 F2400.000
M204 S800
;TYPE:Skirt
;WIDTH:0.42
G1 F1200.000
G1 X63.761 Y75.383 E0.02225
G1 X64.415 Y75.107 E0.02225
G1 X64.995 Y75.034 E0.01835
G1 X115.004 Y75.034 E1.56799
G1 X115.860 Y75.195 E0.02731
G1 X116.603 Y75.656 E0.02743
G1 X117.130 Y76.355 E0.02743
G1 X117.367 Y77.193 E0.02731
G1 X117.355 Y87.395 E0.31987
G1 X117.047 Y88.767 E0.04407
G1 X116.378 Y90.032 E0.04487
G1 X115.699 Y90.814 E0.03249
G1 X114.870 Y91.458 E0.03290
G1 X93.747 Y104.613 E0.78023
G1 X93.083 Y104.893 E0.02260
G1 X92.529 Y104.966 E0.01752
G1 X87.424 Y104.965 E0.16007
G1 X86.875 Y104.882 E0.01740
G1 X86.357 Y104.673 E0.01752
G1 X64.930 Y91.325 E0.79153
M73 P1 R37
G1 X64.146 Y90.660 E0.03224
G1 X63.594 Y89.993 E0.02713
G1 X63.084 Y89.088 E0.03260
G1 X62.794 Y88.257 E0.02759
G1 X62.623 Y86.947 E0.04141
G1 X62.641 Y77.122 E0.30804
G1 X62.832 Y76.435 E0.02237
G1 X63.185 Y75.889 E0.02037
M204 S1250
; printing object CuttingGuidev2.stl id:0 copy 0
G1 E-2.24000 F4200.000
;WIPE_START
G1 F7200.000
G1 X63.761 Y75.383 E-0.42513
G1 X64.415 Y75.107 E-0.39325
G1 X64.582 Y75.086 E-0.09362
;WIPE_END
G1 E-0.04800 F4200.000
G1 Z0.400 F9000.000
G1 X83.537 Y94.376
G1 Z0.200
G1 E3.20000 F2400.000
M204 S800
;TYPE:Perimeter
G1 F1200.000
G1 X96.463 Y94.376 E0.40528
M73 P1 R36
G1 X96.463 Y97.302 E0.09174
G1 X91.713 Y97.302 E0.14893
G1 X91.713 Y101.802 E0.14109
G1 X88.287 Y101.802 E0.10741
G1 X88.287 Y97.302 E0.14109
G1 X83.537 Y97.302 E0.14893
G1 X83.537 Y94.436 E0.08986
M204 S1250
G1 E-2.24000 F4200.000
;WIPE_START
G1 F7200.000
G1 X85.183 Y94.428 E-0.91200
;WIPE_END
G1 E-0.04800 F4200.000
G1 Z0.400 F9000.000
G1 X92.090 Y97.679
G1 Z0.200
G1 E3.20000 F2400.000
M204 S800
;TYPE:External perimeter
G1 F1200.000
G1 X92.090 Y102.179 E0.14109
G1 X87.910 Y102.179 E0.13106
G1 X87.910 Y97.679 E0.14109
G1 X83.160 Y97.679 E0.14893
G1 X83.160 Y93.999 E0.11538
G1 X96.840 Y93.999 E0.42893
G1 X96.840 Y97.679 E0.11538
G1 X92.150 Y97.679 E0.14705
M204 S1250
G1 X91.700 Y97.766 F9000.000
G1 E-2.24000 F4200.000
;WIPE_START
G1 F7200.000
G1 X92.128 Y99.324 E-0.91200
;WIPE_END
G1 E-0.04800 F4200.000
G1 Z0.400 F9000.000
G1 X95.587 Y94.489
G1 Z0.200
G1 E3.20000 F2400.000
M204 S800
;TYPE:Solid infill
;WIDTH:0.420239
G1 F1200.000
G1 X96.180 Y95.082 E0.02632
G1 X96.180 Y95.616 E0.01674
G1 X95.223 Y94.659 E0.04246
G1 X94.690 Y94.659 E0.01674
G1 X96.180 Y96.149 E0.06614
G1 X96.180 Y96.683 E0.01674
G1 X94.156 Y94.659 E0.08981
G1 X93.622 Y94.659 E0.01674
G1 X95.983 Y97.019 E0.10472
G1 X95.449 Y97.019 E0.01674
G1 X93.089 Y94.659 E0.10472
G1 X92.555 Y94.659 E0.01674
G1 X94.915 Y97.019 E0.10472
G1 X94.382 Y97.019 E0.01674
G1 X92.021 Y94.659 E0.10472
G1 X91.488 Y94.659 E0.01674
G1 X93.848 Y97.019 E0.10472
G1 X93.315 Y97.019 E0.01674
G1 X90.954 Y94.659 E0.10472
G1 X90.421 Y94.659 E0.01674
G1 X92.781 Y97.019 E0.10472
G1 X92.247 Y97.019 E0.01674
G1 X89.887 Y94.659 E0.10472
G1 X89.353 Y94.659 E0.01674
G1 X91.714 Y97.019 E0.10472
G1 X91.430 Y97.019 E0.00890
G1 X91.430 Y97.269 E0.00785
G1 X88.820 Y94.659 E0.11582
G1 X88.286 Y94.659 E0.01674
G1 X91.430 Y97.803 E0.13950
G1 X91.430 Y98.336 E0.01674
G1 X87.753 Y94.659 E0.16317
G1 X87.219 Y94.659 E0.01674
G1 X91.430 Y98.870 E0.18685
G1 X91.430 Y99.403 E0.01674
G1 X86.685 Y94.659 E0.21052
G1 X86.152 Y94.659 E0.01674
G1 X91.430 Y99.937 E0.23420
G1 X91.430 Y100.471 E0.01674
G1 X88.570 Y97.610 E0.12691
G1 X88.570 Y98.144 E0.01674
G1 X91.430 Y101.004 E0.12691
G1 X91.430 Y101.519 E0.01615
G1 X91.411 Y101.519 E0.00059
G1 X88.570 Y98.678 E0.12607
G1 X88.570 Y99.211 E0.01674
G1 X90.878 Y101.519 E0.10239
G1 X90.344 Y101.519 E0.01674
G1 X88.570 Y99.745 E0.07872
G1 X88.570 Y100.278 E0.01674
G1 X89.810 Y101.519 E0.05504
G1 X89.277 Y101.519 E0.01674
G1 X88.570 Y100.812 E0.03136
G1 X88.570 Y101.346 E0.01674
G1 X88.913 Y101.689 E0.01522
M204 S1250
G1 E-2.24000 F4200.000
;WIPE_START
G1 F7200.000
G1 X88.570 Y101.346 E-0.26878
G1 X88.570 Y100.812 E-0.29571
G1 X89.013 Y101.255 E-0.34751
;WIPE_END
G1 E-0.04800 F4200.000
G1 Z0.400 F9000.000
G1 X88.148 Y97.189
G1 Z0.200
G1 E3.20000 F2400.000
M204 S800
G1 F1200.000
G1 X85.618 Y94.659 E0.11225
G1 X85.085 Y94.659 E0.01674
G1 X87.445 Y97.019 E0.10472
G1 X86.911 Y97.019 E0.01674
G1 X84.551 Y94.659 E0.10472
G1 X84.017 Y94.659 E0.01674
G1 X86.378 Y97.019 E0.10472
G1 X85.844 Y97.019 E0.01674
G1 X83.820 Y94.995 E0.08981
G1 X83.820 Y95.528 E0.01674
G1 X85.310 Y97.019 E0.06613
G1 X84.777 Y97.019 E0.01674
G1 X83.820 Y96.062 E0.04246
G1 X83.820 Y96.596 E0.01674
G1 X84.413 Y97.189 E0.02631
M204 S1250
G1 E-2.24000 F4200.000
;WIPE_START
G1 F7200.000
G1 X83.820 Y96.596 E-0.46471
G1 X83.820 Y96.062 E-0.29571
G1 X84.013 Y96.255 E-0.15158
;WIPE_END
G1 E-0.04800 F4200.000
G1 Z0.400 F9000.000
G1 X108.081 Y86.162
G1 Z0.200
G1 E3.20000 F2400.000
M204 S800
;TYPE:Perimeter
;WIDTH:0.42
G1 F1200.000
G1 X107.862 Y85.730 E0.01520
G1 X107.762 Y85.393 E0.01103
G1 X107.709 Y84.911 E0.01519
G1 X107.762 Y84.429 E0.01519
G1 X107.862 Y84.092 E0.01103
G1 X108.081 Y83.660 E0.01520
G1 X108.388 Y83.285 E0.01519
G1 X108.656 Y83.058 E0.01103
G1 X109.076 Y82.815 E0.01520
G1 X109.547 Y82.666 E0.01551
G1 X110.019 Y82.622 E0.01486
G1 X110.380 Y82.653 E0.01134
G1 X110.848 Y82.783 E0.01523
G1 X111.285 Y83.015 E0.01553
G1 X111.655 Y83.329 E0.01520
G1 X111.878 Y83.601 E0.01103
G1 X112.112 Y84.025 E0.01520
G1 X112.252 Y84.495 E0.01536
G1 X112.289 Y84.910 E0.01306
G1 X112.252 Y85.328 E0.01315
G1 X112.112 Y85.797 E0.01537
G1 X111.878 Y86.221 E0.01520
G1 X111.655 Y86.493 E0.01103
G1 X111.285 Y86.807 E0.01520
G1 X110.848 Y87.039 E0.01553
G1 X110.381 Y87.169 E0.01519
G1 X110.031 Y87.201 E0.01103
G1 X109.548 Y87.157 E0.01520
G1 X109.076 Y87.007 E0.01553
G1 X108.656 Y86.765 E0.01520
G1 X108.388 Y86.537 E0.01103
G1 X108.119 Y86.209 E0.01331
M204 S1250
G1 X108.411 Y85.970 F9000.000
M204 S800
;TYPE:External perimeter
G1 F1200.000
G1 X108.214 Y85.590 E0.01342
G1 X108.133 Y85.318 E0.00889
G1 X108.089 Y84.911 E0.01284
G1 X108.133 Y84.504 E0.01284
G1 X108.214 Y84.233 E0.00889
G1 X108.399 Y83.867 E0.01284
G1 X108.658 Y83.551 E0.01284
G1 X108.874 Y83.367 E0.00888
G1 X109.229 Y83.162 E0.01284
G1 X109.623 Y83.038 E0.01295
G1 X110.020 Y83.001 E0.01252
G1 X110.312 Y83.026 E0.00919
G1 X110.707 Y83.136 E0.01285
G1 X111.073 Y83.329 E0.01296
G1 X111.385 Y83.594 E0.01284
G1 X111.564 Y83.814 E0.00888
G1 X111.763 Y84.172 E0.01284
G1 X111.880 Y84.566 E0.01290
G1 X111.911 Y84.910 E0.01082
G1 X111.880 Y85.256 E0.01090
G1 X111.763 Y85.651 E0.01290
G1 X111.564 Y86.009 E0.01284
G1 X111.385 Y86.228 E0.00888
G1 X111.073 Y86.493 E0.01284
G1 X110.707 Y86.687 E0.01296
G1 X110.313 Y86.796 E0.01284
G1 X110.031 Y86.822 E0.00889
G1 X109.623 Y86.785 E0.01284
G1 X109.229 Y86.660 E0.01296
G1 X108.874 Y86.455 E0.01284
G1 X108.658 Y86.272 E0.00888
G1 X108.449 Y86.016 E0.01036
M204 S1250
G1 X108.011 Y85.990 F9000.000
G1 E-2.24000 F4200.000
;WIPE_START
G1 F7200.000
G1 X108.214 Y85.590 E-0.26984
G1 X108.133 Y85.318 E-0.15704
G1 X108.089 Y84.911 E-0.22692
G1 X108.133 Y84.504 E-0.22692
G1 X108.149 Y84.450 E-0.03128
;WIPE_END
G1 E-0.04800 F4200.000
G1 Z0.400 F9000.000
G1 X72.289 Y84.910
G1 Z0.200
G1 E3.20000 F2400.000
M204 S800
;TYPE:Perimeter
G1 F1200.000
G1 X72.252 Y85.328 E0.01315
G1 X72.112 Y85.797 E0.01537
G1 X71.878 Y86.221 E0.01520
G1 X71.655 Y86.493 E0.01103
G1 X71.285 Y86.807 E0.01520
G1 X70.848 Y87.039 E0.01553
G1 X70.381 Y87.169 E0.01519
G1 X70.031 Y87.201 E0.01103
G1 X69.548 Y87.157 E0.01520
G1 X69.076 Y87.007 E0.01553
G1 X68.656 Y86.765 E0.01520
G1 X68.388 Y86.537 E0.01103
G1 X68.081 Y86.162 E0.01519
G1 X67.862 Y85.730 E0.01520
G1 X67.762 Y85.393 E0.01103
G1 X67.709 Y84.911 E0.01519
G1 X67.762 Y84.429 E0.01519
G1 X67.862 Y84.092 E0.01103
G1 X68.081 Y83.660 E0.01520
G1 X68.388 Y83.285 E0.01519
G1 X68.656 Y83.058 E0.01103
G1 X69.076 Y82.815 E0.01520
G1 X69.547 Y82.666 E0.01551
G1 X70.019 Y82.622 E0.01486
G1 X70.380 Y82.653 E0.01134
G1 X70.848 Y82.783 E0.01523
G1 X71.285 Y83.015 E0.01553
G1 X71.663 Y83.336 E0.01551
G1 X71.950 Y83.712 E0.01486
G1 X72.115 Y84.034 E0.01134
G1 X72.252 Y84.495 E0.01506
G1 X72.284 Y84.850 E0.01118
M204 S1250
G1 X71.880 Y84.566 F9000.000
M204 S800
;TYPE:External perimeter
G1 F1200.000
G1 X71.911 Y84.910 E0.01082
G1 X71.880 Y85.256 E0.01090
G1 X71.763 Y85.651 E0.01290
G1 X71.564 Y86.009 E0.01284
G1 X71.385 Y86.228 E0.00888
G1 X71.073 Y86.493 E0.01284
G1 X70.707 Y86.687 E0.01296
G1 X70.313 Y86.796 E0.01284
G1 X70.031 Y86.822 E0.00889
G1 X69.623 Y86.785 E0.01284
G1 X69.229 Y86.660 E0.01296
G1 X68.874 Y86.455 E0.01284
G1 X68.658 Y86.272 E0.00888
G1 X68.399 Y85.955 E0.01284
G1 X68.214 Y85.590 E0.01284
G1 X68.133 Y85.318 E0.00889
G1 X68.089 Y84.911 E0.01284
G1 X68.133 Y84.504 E0.01284
G1 X68.214 Y84.233 E0.00889
G1 X68.399 Y83.867 E0.01284
G1 X68.658 Y83.551 E0.01284
G1 X68.874 Y83.367 E0.00888
G1 X69.229 Y83.162 E0.01284
G1 X69.623 Y83.038 E0.01295
G1 X70.020 Y83.001 E0.01252
G1 X70.312 Y83.026 E0.00919
G1 X70.707 Y83.136 E0.01285
G1 X71.073 Y83.329 E0.01296
G1 X71.387 Y83.597 E0.01295
G1 X71.630 Y83.914 E0.01253
G1 X71.764 Y84.175 E0.00919
G1 X71.863 Y84.509 E0.01091
M204 S1250
G1 X72.205 Y84.682 F9000.000
G1 E-2.24000 F4200.000
;WIPE_START
G1 F7200.000
G1 X71.911 Y84.910 E-0.22394
G1 X71.880 Y85.256 E-0.19271
G1 X71.763 Y85.651 E-0.22802
G1 X71.564 Y86.009 E-0.22692
G1 X71.518 Y86.065 E-0.04040
;WIPE_END
G1 E-0.04800 F4200.000
G1 Z0.400 F9000.000
G1 X88.948 Y79.698
G1 Z0.200
G1 E3.20000 F2400.000
M204 S800
;TYPE:Perimeter
G1 F1200.000
G1 X91.052 Y79.698 E0.06597
G1 X91.052 Y78.198 E0.04703
G1 X114.213 Y78.198 E0.72619
G1 X114.213 Y86.886 E0.27241
G1 X114.185 Y87.254 E0.01154
G1 X114.141 Y87.466 E0.00679
G1 X114.077 Y87.672 E0.00679
G1 X113.933 Y87.984 E0.01076
G1 X113.749 Y88.265 E0.01053
G1 X113.523 Y88.514 E0.01053
G1 X113.263 Y88.726 E0.01053
G1 X112.974 Y88.896 E0.01053
G1 X112.662 Y89.021 E0.01053
G1 X112.335 Y89.097 E0.01053
G1 X111.975 Y89.124 E0.01131
G1 X67.895 Y89.121 E1.38209
M73 P2 R36
G1 X67.547 Y89.076 E0.01100
G1 X67.345 Y89.024 E0.00656
G1 X67.026 Y88.896 E0.01076
G1 X66.737 Y88.726 E0.01053
G1 X66.477 Y88.514 E0.01053
G1 X66.251 Y88.265 E0.01053
G1 X66.067 Y87.984 E0.01053
G1 X65.923 Y87.672 E0.01076
G1 X65.815 Y87.254 E0.01356
G1 X65.787 Y86.886 E0.01154
G1 X65.787 Y78.198 E0.27241
G1 X88.948 Y78.198 E0.72619
G1 X88.948 Y79.638 E0.04515
M204 S1250
G1 X89.325 Y79.321 F9000.000
M204 S800
;TYPE:External perimeter
G1 F1200.000
G1 X90.675 Y79.321 E0.04233
G1 X90.675 Y77.821 E0.04703
G1 X114.590 Y77.821 E0.74984
G1 X114.590 Y86.901 E0.28468
G1 X114.559 Y87.306 E0.01274
G1 X114.507 Y87.560 E0.00814
G1 X114.429 Y87.808 E0.00814
G1 X114.264 Y88.168 E0.01241
G1 X114.048 Y88.496 E0.01233
G1 X113.784 Y88.788 E0.01233
G1 X113.479 Y89.036 E0.01233
G1 X113.140 Y89.236 E0.01233
G1 X112.775 Y89.382 E0.01233
G1 X112.392 Y89.471 E0.01233
G1 X111.990 Y89.501 E0.01266
G1 X67.872 Y89.498 E1.38329
G1 X67.476 Y89.447 E0.01250
G1 X67.227 Y89.383 E0.00806
G1 X66.860 Y89.236 E0.01241
G1 X66.521 Y89.036 E0.01233
G1 X66.216 Y88.788 E0.01233
G1 X65.952 Y88.496 E0.01233
G1 X65.736 Y88.168 E0.01233
G1 X65.571 Y87.808 E0.01241
G1 X65.493 Y87.560 E0.00814
G1 X65.441 Y87.306 E0.00814
G1 X65.410 Y86.901 E0.01274
G1 X65.410 Y77.821 E0.28468
G1 X89.325 Y77.821 E0.74984
G1 X89.325 Y79.261 E0.04515
M204 S1250
G1 X89.518 Y79.672 F9000.000
G1 E-2.24000 F4200.000
;WIPE_START
G1 F7200.000
G1 X90.675 Y79.321 E-0.74886
G1 X90.675 Y79.027 E-0.16314
;WIPE_END
G1 E-0.04800 F4200.000
G1 Z0.400 F9000.000
G1 X113.336 Y78.311
G1 Z0.200
G1 E3.20000 F2400.000
M204 S800
;TYPE:Solid infill
;WIDTH:0.420893
G1 F1200.000
G1 X113.930 Y78.906 E0.02642
G1 X113.930 Y79.440 E0.01680
G1 X112.971 Y78.481 E0.04264
G1 X112.436 Y78.481 E0.01680
G1 X113.930 Y79.975 E0.06640
G1 X113.930 Y80.510 E0.01680
G1 X111.902 Y78.481 E0.09016
G1 X111.367 Y78.481 E0.01680
G1 X113.930 Y81.044 E0.11391
G1 X113.930 Y81.579 E0.01680
G1 X110.833 Y78.481 E0.13767
G1 X110.298 Y78.481 E0.01680
G1 X113.930 Y82.113 E0.16143
G1 X113.930 Y82.648 E0.01680
G1 X109.764 Y78.481 E0.18519
G1 X109.229 Y78.481 E0.01680
G1 X113.930 Y83.182 E0.20895
G1 X113.930 Y83.717 E0.01680
G1 X108.695 Y78.481 E0.23271
G1 X108.160 Y78.481 E0.01680
G1 X113.930 Y84.251 E0.25646
G1 X113.930 Y84.786 E0.01680
G1 X107.625 Y78.481 E0.28022
G1 X107.091 Y78.481 E0.01680
G1 X113.930 Y85.320 E0.30398
G1 X113.930 Y85.855 E0.01680
G1 X112.532 Y84.457 E0.06212
G1 X112.573 Y84.910 E0.01428
G1 X112.563 Y85.023 E0.00356
G1 X113.930 Y86.389 E0.06075
G1 X113.927 Y86.921 E0.01669
G1 X112.498 Y85.492 E0.06350
G1 X112.376 Y85.904 E0.01351
G1 X113.867 Y87.395 E0.06629
G1 X113.812 Y87.571 E0.00577
G1 X113.716 Y87.779 E0.00721
G1 X112.186 Y86.249 E0.06803
G1 X112.113 Y86.381 E0.00475
G1 X111.964 Y86.562 E0.00735
G1 X113.510 Y88.107 E0.06869
G1 X113.244 Y88.376 E0.01188
G1 X111.697 Y86.829 E0.06879
G1 X111.400 Y87.067 E0.01195
G1 X112.928 Y88.595 E0.06793
G1 X112.849 Y88.642 E0.00290
G1 X112.555 Y88.756 E0.00992
G1 X111.051 Y87.252 E0.06684
G1 X110.953 Y87.303 E0.00347
G1 X110.652 Y87.387 E0.00983
G1 X112.096 Y88.831 E0.06419
G1 X111.571 Y88.841 E0.01649
G1 X110.199 Y87.469 E0.06098
G1 X110.031 Y87.485 E0.00532
G1 X109.645 Y87.450 E0.01217
G1 X111.206 Y89.011 E0.06940
M204 S1250
G1 E-2.24000 F4200.000
;WIPE_START
G1 F7200.000
G1 X110.043 Y87.847 E-0.91200
;WIPE_END
G1 E-0.04800 F4200.000
G1 Z0.400 F9000.000
G1 X106.387 Y78.311
G1 Z0.200
G1 E3.20000 F2400.000
M204 S800
G1 F1200.000
G1 X110.456 Y82.381 E0.18088
G1 X110.018 Y82.338 E0.01383
G1 X109.891 Y82.350 E0.00403
G1 X106.022 Y78.481 E0.17196
G1 X105.487 Y78.481 E0.01680
G1 X109.417 Y82.411 E0.17465
G1 X109.011 Y82.539 E0.01338
G1 X104.953 Y78.481 E0.18037
G1 X104.418 Y78.481 E0.01680
G1 X108.664 Y82.727 E0.18870
G1 X108.493 Y82.825 E0.00621
G1 X108.350 Y82.947 E0.00590
G1 X103.884 Y78.481 E0.19849
G1 X103.349 Y78.481 E0.01680
G1 X108.081 Y83.213 E0.21033
G1 X107.841 Y83.508 E0.01194
G1 X102.815 Y78.481 E0.22342
G1 X102.280 Y78.481 E0.01680
G1 X107.661 Y83.862 E0.23918
G1 X107.598 Y83.987 E0.00440
G1 X107.519 Y84.254 E0.00875
G1 X101.746 Y78.481 E0.25660
G1 X101.211 Y78.481 E0.01680
G1 X107.446 Y84.716 E0.27713
G1 X107.425 Y84.911 E0.00617
G1 X107.464 Y85.268 E0.01129
G1 X100.677 Y78.481 E0.30167
G1 X100.142 Y78.481 E0.01680
G1 X110.502 Y88.841 E0.46047
G1 X109.968 Y88.841 E0.01680
G1 X99.607 Y78.481 E0.46047
G1 X99.073 Y78.481 E0.01680
M73 P3 R36
G1 X109.433 Y88.841 E0.46047
G1 X108.898 Y88.841 E0.01680
G1 X98.538 Y78.481 E0.46047
G1 X98.004 Y78.481 E0.01680
G1 X108.364 Y88.841 E0.46047
G1 X107.829 Y88.841 E0.01680
G1 X97.469 Y78.481 E0.46046
G1 X96.935 Y78.481 E0.01680
G1 X107.295 Y88.841 E0.46046
G1 X106.760 Y88.841 E0.01680
G1 X96.400 Y78.481 E0.46046
