; generated by PrusaSlicer 2.3.0+win64 on 2021-04-29 at 17:40:23 UTC


;
;

;
;
; 

; external perimeters extrusion width = 0.45mm
; perimeters extrusion width = 0.45mm
; infill extrusion width = 0.45mm
; solid infill extrusion width = 0.45mm
; top infill extrusion width = 0.40mm
; first layer extrusion width = 0.42mm

M73 P0 R16
M201 X1250 Y1250 Z400 E5000 ; sets maximum accelerations, mm/sec^2
M203 X180 Y180 Z12 E80 ; sets maximum feedrates, mm/sec
M204 P1250 R1250 T1250 ; sets acceleration (P, T) and retract acceleration (R), mm/sec^2
M205 X8.00 Y8.00 Z2.00 E10.00 ; sets the jerk limits, mm/sec
M205 S0 T0 ; sets the minimum extruding and travel feed rate, mm/sec
M107
;TYPE:Custom
G90 ; use absolute coordinates
M83 ; extruder relative mode
M104 S170 ; set extruder temp for bed leveling
M140 S60 ; set bed temp
M109 R170 ; wait for bed leveling temp
M190 S60 ; wait for bed temp
G28 ; home all without mesh bed level
G29 ; mesh bed leveling 
M104 S215 ; set extruder temp
G92 E0.0
G1 Y-2.0 X179 F2400
G1 Z3 F720
M109 S215 ; wait for extruder temp

; intro line
G1 X170 F1000
G1 Z0.2 F720
G1 X110.0 E8.0 F900
G1 X40.0 E10.0 F700
G92 E0.0

M221 S95 ; set flow
G21 ; set units to millimeters
G90 ; use absolute coordinates
M83 ; use relative distances for extrusion
M900 K0.2 ; Filament gcode LA 1.5
; ; Filament gcode LA 1.0
;LAYER_CHANGE
;Z:0.2
;HEIGHT:0.2
;BEFORE_LAYER_CHANGE
G92 E0.0
;0.2


M73 P1 R16
G1 E-3.20000 F4200.000
G1 Z0.200 F9000.000
;AFTER_LAYER_CHANGE
;0.2
G1 Z0.400
G1 X60.879 Y82.972
G1 Z0.200
G1 E3.20000 F2400.000
M204 S800
;TYPE:Skirt
;WIDTH:0.42
G1 F1200.000
G1 X79.328 Y72.057 E0.67210
G1 X81.198 Y71.069 E0.06632
G1 X83.210 Y70.258 E0.06803
G1 X85.306 Y69.658 E0.06834
G1 X87.811 Y69.238 E0.07965
G1 X89.994 Y69.123 E0.06855
G1 X92.167 Y69.236 E0.06822
G1 X94.683 Y69.655 E0.07998
G1 X96.770 Y70.251 E0.06803
G1 X98.794 Y71.066 E0.06842
G1 X100.675 Y72.059 E0.06670
G1 X119.108 Y82.964 E0.67152
M73 P2 R16
G1 X119.894 Y83.539 E0.03052
G1 X120.739 Y84.341 E0.03654
G1 X121.338 Y85.074 E0.02969
G1 X121.944 Y86.038 E0.03570
G1 X122.353 Y86.921 E0.03052
G1 X122.700 Y88.010 E0.03582
G1 X122.873 Y88.945 E0.02980
G1 X122.939 Y89.892 E0.02977
G1 X122.878 Y91.013 E0.03521
G1 X122.709 Y91.955 E0.03000
G1 X122.360 Y93.061 E0.03636
G1 X121.963 Y93.926 E0.02985
G1 X121.347 Y94.914 E0.03649
G1 X120.744 Y95.653 E0.02992
G1 X119.900 Y96.457 E0.03655
G1 X119.121 Y97.028 E0.03029
G1 X100.672 Y107.943 E0.67210
G1 X98.804 Y108.930 E0.06624
G1 X96.793 Y109.741 E0.06799
G1 X94.694 Y110.342 E0.06846
G1 X92.189 Y110.762 E0.07965
G1 X90.009 Y110.877 E0.06843
G1 X87.833 Y110.764 E0.06834
G1 X85.327 Y110.347 E0.07966
G1 X83.230 Y109.749 E0.06835
G1 X81.206 Y108.934 E0.06842
G1 X79.325 Y107.941 E0.06670
G1 X60.892 Y97.036 E0.67152
G1 X60.106 Y96.461 E0.03052
G1 X59.261 Y95.659 E0.03654
G1 X58.662 Y94.926 E0.02969
G1 X58.056 Y93.962 E0.03570
G1 X57.647 Y93.079 E0.03052
G1 X57.300 Y91.990 E0.03582
G1 X57.127 Y91.055 E0.02980
G1 X57.061 Y90.108 E0.02977
G1 X57.122 Y88.987 E0.03521
G1 X57.291 Y88.045 E0.03000
G1 X57.640 Y86.939 E0.03636
G1 X58.037 Y86.074 E0.02985
G1 X58.653 Y85.086 E0.03649
G1 X59.256 Y84.347 E0.02992
G1 X60.100 Y83.543 E0.03655
G1 X60.831 Y83.007 E0.02840
M204 S1250
; printing object DeskLightMountPart1.stl id:0 copy 0
G1 E-2.24000 F4200.000
;WIPE_START
G1 F7200.000
G1 X62.247 Y82.169 E-0.91200
;WIPE_END
G1 E-0.04800 F4200.000
G1 Z0.400 F9000.000
G1 X97.483 Y89.658
G1 Z0.200
G1 E3.20000 F2400.000
M204 S800
;TYPE:Perimeter
G1 F1200.000
G1 X97.603 Y89.158 E0.01612
G1 X97.822 Y88.693 E0.01612
G1 X98.130 Y88.281 E0.01612
G1 X98.514 Y87.940 E0.01612
G1 X98.959 Y87.683 E0.01612
G1 X99.446 Y87.521 E0.01608
G1 X99.921 Y87.463 E0.01502
G1 X100.307 Y87.479 E0.01211
G1 X100.801 Y87.589 E0.01588
G1 X101.270 Y87.800 E0.01612
G1 X101.687 Y88.101 E0.01612
G1 X102.035 Y88.479 E0.01612
G1 X102.299 Y88.920 E0.01612
G1 X102.470 Y89.405 E0.01611
G1 X102.537 Y89.902 E0.01574
G1 X102.525 Y90.267 E0.01143
G1 X102.424 Y90.760 E0.01581
G1 X102.221 Y91.233 E0.01612
G1 X101.927 Y91.655 E0.01612
G1 X101.555 Y92.009 E0.01612
G1 X101.119 Y92.281 E0.01612
G1 X100.637 Y92.459 E0.01612
G1 X100.129 Y92.537 E0.01612
G1 X99.625 Y92.511 E0.01580
G1 X99.271 Y92.432 E0.01137
G1 X98.805 Y92.242 E0.01580
G1 X98.378 Y91.955 E0.01612
G1 X98.018 Y91.589 E0.01612
G1 X97.739 Y91.157 E0.01612
G1 X97.552 Y90.678 E0.01612
G1 X97.466 Y90.171 E0.01612
G1 X97.481 Y89.718 E0.01423
M204 S1250
G1 X97.858 Y89.731 F9000.000
M204 S800
;TYPE:External perimeter
G1 F1200.000
G1 X97.961 Y89.284 E0.01438
G1 X98.147 Y88.888 E0.01371
G1 X98.409 Y88.538 E0.01371
G1 X98.736 Y88.247 E0.01371
G1 X99.114 Y88.029 E0.01371
G1 X99.529 Y87.891 E0.01370
G1 X99.936 Y87.841 E0.01287
G1 X100.258 Y87.854 E0.01009
G1 X100.682 Y87.949 E0.01363
G1 X101.081 Y88.128 E0.01371
G1 X101.435 Y88.384 E0.01371
G1 X101.731 Y88.706 E0.01371
G1 X101.956 Y89.081 E0.01371
G1 X102.101 Y89.494 E0.01371
G1 X102.159 Y89.922 E0.01354
G1 X102.149 Y90.222 E0.00942
G1 X102.062 Y90.647 E0.01360
G1 X101.890 Y91.049 E0.01371
G1 X101.640 Y91.408 E0.01371
G1 X101.323 Y91.709 E0.01371
G1 X100.952 Y91.940 E0.01371
G1 X100.542 Y92.092 E0.01371
G1 X100.109 Y92.158 E0.01371
G1 X99.676 Y92.136 E0.01360
G1 X99.385 Y92.071 E0.00937
G1 X98.983 Y91.907 E0.01360
G1 X98.620 Y91.663 E0.01371
G1 X98.314 Y91.352 E0.01371
G1 X98.076 Y90.984 E0.01371
G1 X97.917 Y90.577 E0.01371
G1 X97.844 Y90.146 E0.01371
G1 X97.856 Y89.790 E0.01115
M204 S1250
G1 X97.540 Y89.488 F9000.000
G1 E-2.24000 F4200.000
;WIPE_START
G1 F7200.000
G1 X97.961 Y89.284 E-0.28680
G1 X98.147 Y88.888 E-0.24233
G1 X98.409 Y88.538 E-0.24233
G1 X98.598 Y88.369 E-0.14054
;WIPE_END
G1 E-0.04800 F4200.000
G1 Z0.400 F9000.000
G1 X111.773 Y90.000
G1 Z0.200
G1 E3.20000 F2400.000
M204 S800
;TYPE:Perimeter
G1 F1200.000
G1 X111.822 Y89.477 E0.01646
G1 X111.969 Y88.973 E0.01646
G1 X112.207 Y88.505 E0.01646
G1 X112.529 Y88.090 E0.01646
G1 X112.923 Y87.743 E0.01646
G1 X113.375 Y87.476 E0.01646
G1 X113.860 Y87.301 E0.01617
G1 X114.213 Y87.234 E0.01126
G1 X114.561 Y87.211 E0.01094
G1 X115.085 Y87.259 E0.01648
G1 X115.590 Y87.406 E0.01649
G1 X116.058 Y87.644 E0.01646
G1 X116.465 Y87.961 E0.01617
G1 X116.711 Y88.222 E0.01126
G1 X116.916 Y88.504 E0.01094
G1 X117.156 Y88.972 E0.01648
G1 X117.303 Y89.477 E0.01649
G1 X117.353 Y90.000 E0.01646
G1 X117.303 Y90.523 E0.01646
G1 X117.157 Y91.027 E0.01646
G1 X116.918 Y91.495 E0.01646
G1 X116.596 Y91.910 E0.01646
G1 X116.209 Y92.251 E0.01617
G1 X115.906 Y92.443 E0.01127
G1 X115.581 Y92.596 E0.01127
G1 X115.085 Y92.740 E0.01617
G1 X114.563 Y92.790 E0.01646
G1 X114.049 Y92.741 E0.01617
G1 X113.701 Y92.652 E0.01126
G1 X113.377 Y92.524 E0.01094
G1 X112.924 Y92.258 E0.01648
G1 X112.529 Y91.910 E0.01649
G1 X112.207 Y91.495 E0.01646
G1 X111.969 Y91.027 E0.01646
G1 X111.822 Y90.523 E0.01646
G1 X111.779 Y90.060 E0.01458
M204 S1250
G1 X112.154 Y90.024 F9000.000
M204 S800
;TYPE:External perimeter
G1 F1200.000
G1 X112.194 Y89.548 E0.01498
G1 X112.321 Y89.112 E0.01423
G1 X112.527 Y88.708 E0.01423
G1 X112.805 Y88.350 E0.01423
G1 X113.146 Y88.049 E0.01423
G1 X113.536 Y87.818 E0.01423
G1 X113.960 Y87.666 E0.01412
G1 X114.260 Y87.609 E0.00959
G1 X114.556 Y87.590 E0.00928
G1 X115.014 Y87.632 E0.01443
G1 X115.450 Y87.758 E0.01424
G1 X115.855 Y87.964 E0.01423
G1 X116.211 Y88.240 E0.01412
G1 X116.420 Y88.463 E0.00959
G1 X116.594 Y88.703 E0.00928
G1 X116.804 Y89.112 E0.01443
G1 X116.931 Y89.548 E0.01424
G1 X116.974 Y90.000 E0.01423
G1 X116.931 Y90.452 E0.01423
G1 X116.804 Y90.888 E0.01423
G1 X116.598 Y91.292 E0.01423
G1 X116.320 Y91.650 E0.01423
G1 X115.982 Y91.948 E0.01412
G1 X115.724 Y92.112 E0.00960
G1 X115.447 Y92.243 E0.00960
G1 X115.014 Y92.368 E0.01412
G1 X114.563 Y92.411 E0.01423
G1 X114.114 Y92.369 E0.01412
G1 X113.818 Y92.293 E0.00959
G1 X113.543 Y92.184 E0.00928
G1 X113.146 Y91.951 E0.01443
G1 X112.805 Y91.650 E0.01424
G1 X112.527 Y91.292 E0.01423
G1 X112.321 Y90.888 E0.01423
G1 X112.194 Y90.452 E0.01423
G1 X112.160 Y90.084 E0.01158
M204 S1250
G1 X111.806 Y89.827 F9000.000
G1 E-2.24000 F4200.000
;WIPE_START
M73 P3 R16
G1 F7200.000
G1 X112.194 Y89.548 E-0.29753
G1 X112.321 Y89.112 E-0.25148
G1 X112.527 Y88.708 E-0.25148
G1 X112.650 Y88.549 E-0.11151
;WIPE_END
G1 E-0.04800 F4200.000
G1 Z0.400 F9000.000
G1 X82.470 Y89.405
G1 Z0.200
G1 E3.20000 F2400.000
M204 S800
;TYPE:Perimeter
G1 F1200.000
G1 X82.537 Y89.902 E0.01574
G1 X82.525 Y90.267 E0.01143
G1 X82.424 Y90.760 E0.01581
G1 X82.221 Y91.233 E0.01612
G1 X81.927 Y91.655 E0.01612
G1 X81.555 Y92.009 E0.01612
G1 X81.119 Y92.281 E0.01612
G1 X80.637 Y92.459 E0.01612
G1 X80.129 Y92.537 E0.01612
G1 X79.625 Y92.511 E0.01580
G1 X79.271 Y92.432 E0.01137
G1 X78.805 Y92.242 E0.01580
G1 X78.378 Y91.955 E0.01612
G1 X78.018 Y91.589 E0.01612
G1 X77.739 Y91.157 E0.01612
G1 X77.552 Y90.678 E0.01612
G1 X77.466 Y90.171 E0.01612
G1 X77.483 Y89.658 E0.01612
G1 X77.603 Y89.158 E0.01612
G1 X77.822 Y88.693 E0.01612
G1 X78.130 Y88.281 E0.01612
G1 X78.514 Y87.940 E0.01612
G1 X78.959 Y87.683 E0.01612
G1 X79.446 Y87.521 E0.01608
G1 X79.921 Y87.463 E0.01502
G1 X80.307 Y87.479 E0.01211
G1 X80.801 Y87.589 E0.01588
G1 X81.270 Y87.800 E0.01612
G1 X81.687 Y88.101 E0.01612
G1 X82.035 Y88.479 E0.01612
G1 X82.299 Y88.920 E0.01612
G1 X82.450 Y89.348 E0.01423
M204 S1250
G1 X82.094 Y89.473 F9000.000
M204 S800
;TYPE:External perimeter
G1 F1200.000
G1 X82.159 Y89.922 E0.01421
G1 X82.149 Y90.222 E0.00942
G1 X82.062 Y90.647 E0.01360
G1 X81.890 Y91.049 E0.01371
G1 X81.640 Y91.408 E0.01371
G1 X81.323 Y91.709 E0.01371
G1 X80.952 Y91.940 E0.01371
G1 X80.542 Y92.092 E0.01371
G1 X80.109 Y92.158 E0.01371
G1 X79.676 Y92.136 E0.01360
G1 X79.385 Y92.071 E0.00937
G1 X78.983 Y91.907 E0.01360
G1 X78.620 Y91.663 E0.01371
G1 X78.314 Y91.352 E0.01371
G1 X78.076 Y90.984 E0.01371
G1 X77.917 Y90.577 E0.01371
G1 X77.844 Y90.146 E0.01371
G1 X77.859 Y89.709 E0.01371
G1 X77.961 Y89.284 E0.01371
G1 X78.147 Y88.888 E0.01371
G1 X78.409 Y88.538 E0.01371
G1 X78.736 Y88.247 E0.01371
G1 X79.114 Y88.029 E0.01371
G1 X79.529 Y87.891 E0.01370
G1 X79.936 Y87.841 E0.01287
G1 X80.258 Y87.854 E0.01009
G1 X80.682 Y87.949 E0.01363
G1 X81.081 Y88.128 E0.01371
G1 X81.435 Y88.384 E0.01371
G1 X81.731 Y88.706 E0.01371
G1 X81.956 Y89.081 E0.01371
G1 X82.074 Y89.417 E0.01115
M204 S1250
G1 X82.478 Y89.584 F9000.000
G1 E-2.24000 F4200.000
;WIPE_START
G1 F7200.000
G1 X82.159 Y89.922 E-0.28388
G1 X82.149 Y90.222 E-0.16657
G1 X82.062 Y90.647 E-0.24039
G1 X81.905 Y91.014 E-0.22117
;WIPE_END
G1 E-0.04800 F4200.000
G1 Z0.400 F9000.000
G1 X68.227 Y90.000
G1 Z0.200
G1 E3.20000 F2400.000
M204 S800
;TYPE:Perimeter
G1 F1200.000
G1 X68.178 Y90.523 E0.01646
G1 X68.031 Y91.027 E0.01646
G1 X67.793 Y91.495 E0.01646
G1 X67.471 Y91.910 E0.01646
G1 X67.077 Y92.257 E0.01646
G1 X66.633 Y92.520 E0.01617
G1 X66.299 Y92.652 E0.01127
G1 X65.951 Y92.741 E0.01127
G1 X65.437 Y92.790 E0.01617
G1 X64.915 Y92.740 E0.01646
G1 X64.419 Y92.596 E0.01617
G1 X64.094 Y92.443 E0.01127
G1 X63.791 Y92.251 E0.01127
G1 X63.404 Y91.910 E0.01617
G1 X63.082 Y91.495 E0.01646
G1 X62.843 Y91.027 E0.01646
G1 X62.697 Y90.523 E0.01646
G1 X62.647 Y90.000 E0.01646
G1 X62.697 Y89.477 E0.01646
G1 X62.843 Y88.973 E0.01646
G1 X63.082 Y88.505 E0.01646
G1 X63.404 Y88.090 E0.01646
G1 X63.797 Y87.743 E0.01646
G1 X64.249 Y87.476 E0.01646
G1 X64.735 Y87.301 E0.01617
G1 X65.087 Y87.234 E0.01126
G1 X65.436 Y87.211 E0.01094
G1 X65.959 Y87.259 E0.01648
G1 X66.464 Y87.406 E0.01649
G1 X66.932 Y87.644 E0.01646
G1 X67.347 Y87.966 E0.01646
G1 X67.694 Y88.360 E0.01646
G1 X67.957 Y88.804 E0.01617
G1 X68.089 Y89.138 E0.01127
G1 X68.179 Y89.486 E0.01127
G1 X68.221 Y89.940 E0.01429
M204 S1250
G1 X67.846 Y89.976 F9000.000
M204 S800
;TYPE:External perimeter
G1 F1200.000
G1 X67.806 Y90.452 E0.01498
G1 X67.679 Y90.888 E0.01423
G1 X67.473 Y91.292 E0.01423
G1 X67.195 Y91.650 E0.01423
G1 X66.854 Y91.951 E0.01423
G1 X66.467 Y92.180 E0.01412
G1 X66.182 Y92.293 E0.00960
G1 X65.886 Y92.369 E0.00960
G1 X65.437 Y92.411 E0.01412
G1 X64.986 Y92.368 E0.01423
G1 X64.553 Y92.243 E0.01412
G1 X64.276 Y92.112 E0.00960
G1 X64.018 Y91.948 E0.00960
G1 X63.680 Y91.650 E0.01412
G1 X63.402 Y91.292 E0.01423
G1 X63.196 Y90.888 E0.01423
G1 X63.069 Y90.452 E0.01423
G1 X63.026 Y90.000 E0.01423
G1 X63.069 Y89.548 E0.01423
G1 X63.196 Y89.112 E0.01423
G1 X63.402 Y88.708 E0.01423
G1 X63.680 Y88.350 E0.01423
G1 X64.020 Y88.049 E0.01423
G1 X64.411 Y87.818 E0.01423
G1 X64.835 Y87.666 E0.01412
G1 X65.135 Y87.609 E0.00959
G1 X65.431 Y87.590 E0.00928
G1 X65.889 Y87.632 E0.01443
G1 X66.325 Y87.758 E0.01424
G1 X66.729 Y87.964 E0.01423
G1 X67.088 Y88.242 E0.01423
G1 X67.388 Y88.583 E0.01423
G1 X67.617 Y88.971 E0.01412
G1 X67.730 Y89.255 E0.00960
G1 X67.806 Y89.552 E0.00960
G1 X67.840 Y89.916 E0.01148
M204 S1250
G1 X68.192 Y90.177 F9000.000
G1 E-2.24000 F4200.000
;WIPE_START
G1 F7200.000
G1 X67.806 Y90.452 E-0.29753
G1 X67.679 Y90.888 E-0.25148
G1 X67.473 Y91.292 E-0.25148
G1 X67.350 Y91.451 E-0.11151
;WIPE_END
G1 E-0.04800 F4200.000
G1 Z0.400 F9000.000
G1 X106.952 Y84.787
G1 Z0.200
G1 E3.20000 F2400.000
M204 S800
;TYPE:Perimeter
G1 F1200.000
G1 X114.545 Y84.787 E0.23808
G1 X115.126 Y84.819 E0.01825
G1 X115.688 Y84.911 E0.01786
G1 X116.048 Y85.003 E0.01163
G1 X116.404 Y85.124 E0.01180
G1 X116.751 Y85.269 E0.01180
G1 X117.087 Y85.440 E0.01180
G1 X117.410 Y85.634 E0.01180
G1 X117.713 Y85.847 E0.01163
G1 X118.147 Y86.216 E0.01786
G1 X118.539 Y86.630 E0.01786
G1 X118.765 Y86.917 E0.01147
G1 X119.076 Y87.394 E0.01786
G1 X119.332 Y87.897 E0.01769
G1 X119.531 Y88.425 E0.01769
G1 X119.674 Y88.977 E0.01786
G1 X119.734 Y89.343 E0.01163
G1 X119.767 Y89.713 E0.01163
G1 X119.767 Y90.282 E0.01786
G1 X119.706 Y90.848 E0.01786
G1 X119.632 Y91.212 E0.01163
G1 X119.533 Y91.570 E0.01163
G1 X119.332 Y92.103 E0.01786
G1 X119.076 Y92.606 E0.01769
G1 X118.765 Y93.083 E0.01786
G1 X118.539 Y93.370 E0.01147
G1 X118.147 Y93.784 E0.01786
G1 X117.717 Y94.149 E0.01769
G1 X117.245 Y94.469 E0.01786
G1 X116.925 Y94.646 E0.01147
G1 X116.404 Y94.876 E0.01786
G1 X115.861 Y95.048 E0.01786
G1 X115.504 Y95.127 E0.01147
G1 X114.934 Y95.199 E0.01803
G1 X114.550 Y95.213 E0.01202
G1 X106.952 Y95.213 E0.23824
G1 X106.366 Y96.776 E0.05233
G1 X106.073 Y97.443 E0.02285
G1 X105.752 Y98.101 E0.02296
G1 X105.403 Y98.745 E0.02296
G1 X105.029 Y99.375 E0.02296
G1 X104.628 Y99.988 E0.02296
G1 X104.203 Y100.584 E0.02296
G1 X103.753 Y101.162 E0.02296
G1 X103.282 Y101.719 E0.02287
G1 X102.526 Y102.524 E0.03463
G1 X102.000 Y103.029 E0.02287
G1 X101.451 Y103.514 E0.02296
G1 X100.882 Y103.976 E0.02296
G1 X100.295 Y104.413 E0.02296
G1 X99.691 Y104.827 E0.02296
G1 X99.079 Y105.209 E0.02262
G1 X98.106 Y105.749 E0.03489
G1 X97.451 Y106.069 E0.02287
G1 X96.780 Y106.364 E0.02296
G1 X96.098 Y106.630 E0.02296
G1 X95.406 Y106.868 E0.02296
G1 X94.704 Y107.077 E0.02296
G1 X93.994 Y107.257 E0.02296
G1 X93.277 Y107.407 E0.02296
G1 X92.558 Y107.527 E0.02287
G1 X91.460 Y107.652 E0.03463
G1 X90.732 Y107.698 E0.02287
G1 X90.000 Y107.713 E0.02296
G1 X89.268 Y107.698 E0.02296
G1 X88.540 Y107.652 E0.02287
G1 X87.442 Y107.527 E0.03463
G1 X86.723 Y107.407 E0.02287
G1 X86.006 Y107.257 E0.02296
G1 X85.296 Y107.077 E0.02296
G1 X84.594 Y106.868 E0.02296
G1 X83.902 Y106.630 E0.02296
G1 X83.220 Y106.364 E0.02296
G1 X82.549 Y106.069 E0.02296
G1 X81.894 Y105.749 E0.02287
G1 X80.928 Y105.213 E0.03463
G1 X80.309 Y104.827 E0.02287
G1 X79.705 Y104.413 E0.02296
G1 X79.118 Y103.976 E0.02296
G1 X78.549 Y103.514 E0.02296
G1 X78.000 Y103.029 E0.02296
G1 X77.474 Y102.524 E0.02287
G1 X76.718 Y101.719 E0.03463
G1 X76.247 Y101.162 E0.02287
G1 X75.797 Y100.584 E0.02296
G1 X75.372 Y99.988 E0.02296
G1 X74.971 Y99.375 E0.02296
G1 X74.597 Y98.745 E0.02296
G1 X74.248 Y98.101 E0.02296
G1 X73.927 Y97.443 E0.02296
G1 X73.634 Y96.776 E0.02285
G1 X73.048 Y95.213 E0.05233
G1 X65.450 Y95.213 E0.23824
G1 X65.066 Y95.199 E0.01202
G1 X64.496 Y95.127 E0.01803
G1 X64.139 Y95.048 E0.01147
G1 X63.591 Y94.874 E0.01803
G1 X63.254 Y94.733 E0.01147
G1 X62.750 Y94.466 E0.01786
G1 X62.283 Y94.149 E0.01769
G1 X61.853 Y93.784 E0.01769
G1 X61.461 Y93.370 E0.01786
G1 X61.235 Y93.083 E0.01147
G1 X60.924 Y92.606 E0.01786
G1 X60.668 Y92.103 E0.01769
