; generated by PrusaSlicer 2.2.0+win64 on 2020-10-11 at 19:37:46 UTC


;
;

;
;
; 

; external perimeters extrusion width = 0.45mm
; perimeters extrusion width = 0.45mm
; infill extrusion width = 0.45mm
; solid infill extrusion width = 0.45mm
; top infill extrusion width = 0.40mm
; first layer extrusion width = 0.42mm

M73 P0 R44
M201 X1250 Y1250 Z400 E5000 ; sets maximum accelerations, mm/sec^2
M203 X180 Y180 Z12 E80 ; sets maximum feedrates, mm/sec
M204 P1250 R1250 T1250 ; sets acceleration (P, T) and retract acceleration (R), mm/sec^2
M205 X8.00 Y8.00 Z2.00 E10.00 ; sets the jerk limits, mm/sec
M205 S0 T0 ; sets the minimum extruding and travel feed rate, mm/sec
M107
G90 ; use absolute coordinates
M83 ; extruder relative mode
M104 S170 ; set extruder temp for bed leveling
M140 S60 ; set bed temp
M109 R170 ; wait for bed leveling temp
M190 S60 ; wait for bed temp
G28 ; home all without mesh bed level
G29 ; mesh bed leveling 
M104 S215 ; set extruder temp
G92 E0.0
G1 Y-2.0 X179 F2400
G1 Z3 F720
M109 S215 ; wait for extruder temp

; intro line
G1 X170 F1000
G1 Z0.2 F720
G1 X110.0 E8.0 F900
M73 P0 R44
G1 X40.0 E10.0 F700
G92 E0.0

M221 S95 ; set flow
G21 ; set units to millimeters
G90 ; use absolute coordinates
M83 ; use relative distances for extrusion
M900 K0.2 ; Filament gcode LA 1.5
; ; Filament gcode LA 1.0
;BEFORE_LAYER_CHANGE
G92 E0.0
;0.2


G1 Z0.200 F9000.000
;AFTER_LAYER_CHANGE
;0.2
G1 E-3.20000 F4200.00000
G1 Z0.400 F9000.000
G1 X64.858 Y56.847
G1 Z0.200
G1 E3.20000 F2400.00000
M204 S800
G1 F1200.000
G1 X65.216 Y56.306 E0.02036
G1 X65.707 Y55.881 E0.02036
G1 X66.294 Y55.605 E0.02036
G1 X66.935 Y55.498 E0.02036
G1 X113.005 Y55.497 E1.44451
G1 X113.747 Y55.617 E0.02355
G1 X114.411 Y55.960 E0.02343
G1 X114.935 Y56.492 E0.02343
G1 X115.269 Y57.161 E0.02343
G1 X122.337 Y84.323 E0.88002
G1 X122.525 Y85.683 E0.04305
G1 X122.417 Y87.056 E0.04317
G1 X122.064 Y88.263 E0.03945
G1 X114.955 Y103.753 E0.53437
G1 X114.577 Y104.399 E0.02347
G1 X114.165 Y104.899 E0.02033
G1 X99.070 Y120.301 E0.67616
G1 X98.464 Y120.745 E0.02355
G1 X93.122 Y122.706 E0.17845
G1 X92.282 Y122.848 E0.02668
G1 X87.384 Y122.799 E0.15358
G1 X81.754 Y120.773 E0.18762
G1 X81.098 Y120.309 E0.02520
G1 X65.461 Y104.448 E0.69836
G1 X65.037 Y103.730 E0.02615
G1 X58.038 Y88.496 E0.52565
G1 X57.672 Y87.447 E0.03482
G1 X57.476 Y85.987 E0.04620
G1 X57.513 Y85.173 E0.02553
G1 X57.653 Y84.375 E0.02541
G1 X64.843 Y56.905 E0.89030
M204 S1250
G1 E-2.24000 F4200.00000
G1 F7200.000
G1 X65.216 Y56.306 E-0.39145
G1 X65.707 Y55.881 E-0.35982
G1 X65.969 Y55.758 E-0.16073
G1 E-0.04800 F4200.00000
G1 Z0.400 F9000.000
G1 X88.468 Y112.276
G1 Z0.200
G1 E3.20000 F2400.00000
M204 S800
G1 F1200.000
G1 X91.694 Y112.276 E0.10114
G1 X91.694 Y116.416 E0.12982
G1 X96.594 Y116.416 E0.15364
G1 X96.594 Y117.843 E0.04473
G1 X91.670 Y117.848 E0.15437
G1 X91.733 Y119.154 E0.04097
G1 X91.459 Y119.025 E0.00949
G1 X91.103 Y118.902 E0.01181
G1 X90.729 Y118.814 E0.01205
G1 X90.182 Y118.757 E0.01723
G1 X89.798 Y118.767 E0.01205
G1 X89.425 Y118.815 E0.01181
G1 X89.058 Y118.902 E0.01181
G1 X88.702 Y119.025 E0.01181
G1 X88.428 Y119.154 E0.00949
G1 X88.491 Y117.848 E0.04097
G1 X83.568 Y117.843 E0.15437
G1 X83.568 Y116.416 E0.04473
G1 X88.468 Y116.416 E0.15364
G1 X88.468 Y112.336 E0.12794
M204 S1250
G1 E-2.24000 F4200.00000
G1 F7200.000
G1 X90.113 Y112.305 E-0.91200
G1 E-0.04800 F4200.00000
G1 Z0.400 F9000.000
G1 X92.071 Y116.039
G1 Z0.200
G1 E3.20000 F2400.00000
M204 S800
G1 F1200.000
G1 X96.971 Y116.039 E0.15364
G1 X96.971 Y118.219 E0.06836
G1 X92.066 Y118.225 E0.15378
G1 X92.106 Y119.062 E0.02628
G1 X92.173 Y119.450 E0.01233
G1 X92.106 Y119.837 E0.01232
G1 X91.913 Y119.692 E0.00759
G1 X91.623 Y119.518 E0.01059
G1 X91.317 Y119.375 E0.01059
G1 X90.998 Y119.264 E0.01059
G1 X90.666 Y119.186 E0.01068
G1 X90.168 Y119.135 E0.01571
G1 X89.827 Y119.144 E0.01068
G1 X89.492 Y119.187 E0.01059
G1 X89.164 Y119.264 E0.01059
G1 X88.844 Y119.375 E0.01059
G1 X88.538 Y119.518 E0.01059
G1 X88.249 Y119.692 E0.01059
G1 X88.055 Y119.837 E0.00759
G1 X87.989 Y119.450 E0.01232
G1 X88.055 Y119.062 E0.01233
G1 X88.095 Y118.225 E0.02628
G1 X83.191 Y118.219 E0.15378
G1 X83.191 Y116.039 E0.06836
G1 X88.091 Y116.039 E0.15364
G1 X88.091 Y111.899 E0.12982
G1 X92.071 Y111.899 E0.12479
G1 X92.071 Y115.979 E0.12794
M204 S1250
G1 X92.172 Y116.426 F9000.000
G1 E-2.24000 F4200.00000
G1 F7200.000
G1 X93.716 Y115.999 E-0.91200
G1 E-0.04800 F4200.00000
G1 Z0.400 F9000.000
G1 X92.039 Y117.735
G1 Z0.200
G1 E3.20000 F2400.00000
M204 S800
G1 F1200.000
G1 X88.751 Y114.446 E0.14805
G1 X88.751 Y114.987 E0.01723
G1 X91.376 Y117.613 E0.11817
G1 X91.403 Y118.181 E0.01813
G1 X88.751 Y115.529 E0.11941
G1 X88.751 Y116.070 E0.01723
G1 X91.379 Y118.698 E0.11830
G1 X91.182 Y118.630 E0.00662
G1 X90.662 Y118.522 E0.01692
G1 X88.751 Y116.611 E0.08602
G1 X88.751 Y116.699 E0.00279
G1 X88.297 Y116.699 E0.01445
G1 X90.075 Y118.477 E0.08005
G1 X89.776 Y118.485 E0.00950
G1 X89.568 Y118.512 E0.00669
G1 X87.755 Y116.699 E0.08160
G1 X87.214 Y116.699 E0.01723
G1 X88.080 Y117.565 E0.03899
G1 X87.538 Y117.564 E0.01725
G1 X86.673 Y116.699 E0.03896
G1 X86.131 Y116.699 E0.01723
G1 X86.996 Y117.564 E0.03893
G1 X86.454 Y117.563 E0.01725
G1 X85.590 Y116.699 E0.03890
G1 X85.048 Y116.699 E0.01723
G1 X85.912 Y117.563 E0.03888
G1 X85.370 Y117.562 E0.01725
G1 X84.507 Y116.699 E0.03885
G1 X83.966 Y116.699 E0.01723
G1 X84.828 Y117.561 E0.03882
G1 X84.286 Y117.561 E0.01725
G1 X83.681 Y116.955 E0.02725
M204 S1250
G1 E-2.24000 F4200.00000
G1 F7200.000
G1 X84.286 Y117.561 E-0.47439
G1 X84.828 Y117.561 E-0.30035
G1 X84.653 Y117.386 E-0.13725
G1 E-0.04800 F4200.00000
G1 Z0.400 F9000.000
G1 X88.593 Y118.078
G1 Z0.200
G1 E3.20000 F2400.00000
M204 S800
G1 F1200.000
G1 X89.254 Y118.739 E0.02977
M204 S1250
G1 E-2.24000 F4200.00000
G1 F7200.000
G1 X88.593 Y118.078 E-0.51822
G1 E-0.44178 F4200.00000
G1 Z0.400 F9000.000
G1 X91.580 Y112.945
G1 Z0.200
G1 E3.20000 F2400.00000
M204 S800
G1 F1200.000
G1 X91.194 Y112.559 E0.01740
G1 X90.653 Y112.559 E0.01723
G1 X91.411 Y113.317 E0.03413
G1 X91.411 Y113.858 E0.01723
G1 X90.111 Y112.559 E0.05850
G1 X89.570 Y112.559 E0.01723
G1 X91.411 Y114.399 E0.08286
G1 X91.411 Y114.941 E0.01723
G1 X89.029 Y112.559 E0.10723
G1 X88.751 Y112.559 E0.00885
G1 X88.751 Y112.822 E0.00838
G1 X91.411 Y115.482 E0.11975
G1 X91.411 Y116.023 E0.01723
G1 X88.751 Y113.363 E0.11975
G1 X88.751 Y113.905 E0.01723
G1 X92.411 Y117.565 E0.16476
G1 X92.951 Y117.564 E0.01721
G1 X92.086 Y116.699 E0.03894
G1 X92.628 Y116.699 E0.01723
G1 X93.492 Y117.563 E0.03892
G1 X94.033 Y117.563 E0.01721
G1 X93.169 Y116.699 E0.03889
G1 X93.710 Y116.699 E0.01723
G1 X94.574 Y117.562 E0.03886
G1 X95.114 Y117.562 E0.01721
G1 X94.252 Y116.699 E0.03883
G1 X94.793 Y116.699 E0.01723
G1 X95.655 Y117.561 E0.03880
G1 X96.196 Y117.560 E0.01721
G1 X95.334 Y116.699 E0.03877
G1 X95.876 Y116.699 E0.01723
G1 X96.480 Y117.304 E0.02722
M204 S1250
G1 E-2.24000 F4200.00000
G1 F7200.000
G1 X95.876 Y116.699 E-0.47393
G1 X95.334 Y116.699 E-0.30000
G1 X95.511 Y116.875 E-0.13807
G1 E-0.04800 F4200.00000
G1 Z0.400 F9000.000
G1 X99.332 Y87.205
G1 Z0.200
G1 E3.20000 F2400.00000
M204 S800
G1 F1200.000
G1 X99.269 Y87.652 E0.01415
G1 X99.070 Y88.489 E0.02697
G1 X98.796 Y89.299 E0.02681
G1 X98.570 Y89.830 E0.01810
G1 X98.314 Y90.343 E0.01796
G1 X98.028 Y90.839 E0.01796
G1 X97.709 Y91.320 E0.01810
G1 X97.185 Y91.995 E0.02680
G1 X96.602 Y92.620 E0.02680
G1 X96.177 Y93.011 E0.01810
G1 X95.729 Y93.375 E0.01810
G1 X95.031 Y93.860 E0.02666
G1 X94.533 Y94.153 E0.01810
G1 X94.020 Y94.413 E0.01803
G1 X93.229 Y94.743 E0.02686
G1 X92.410 Y95.000 E0.02694
G1 X91.574 Y95.180 E0.02680
G1 X91.002 Y95.259 E0.01810
G1 X90.427 Y95.302 E0.01810
G1 X89.574 Y95.302 E0.02673
G1 X88.716 Y95.224 E0.02701
G1 X87.871 Y95.069 E0.02694
G1 X87.044 Y94.837 E0.02694
G1 X86.241 Y94.531 E0.02694
G1 X85.474 Y94.155 E0.02680
G1 X84.976 Y93.862 E0.01810
G1 X84.497 Y93.540 E0.01810
G1 X83.830 Y93.014 E0.02666
G1 X83.405 Y92.623 E0.01810
G1 X83.006 Y92.209 E0.01803
G1 X82.460 Y91.548 E0.02686
G1 X81.975 Y90.839 E0.02694
G1 X81.557 Y90.089 E0.02694
G1 X81.209 Y89.303 E0.02694
G1 X80.933 Y88.489 E0.02695
G1 X80.736 Y87.660 E0.02673
G1 X80.658 Y87.197 E0.01471
G1 X80.487 Y87.409 E0.00853
G1 X80.099 Y87.711 E0.01543
G1 X79.649 Y87.915 E0.01549
G1 X79.177 Y88.007 E0.01508
G1 X78.826 Y88.007 E0.01098
G1 X78.355 Y87.916 E0.01504
G1 X77.918 Y87.719 E0.01504
G1 X77.631 Y87.518 E0.01098
G1 X77.299 Y87.172 E0.01504
G1 X77.054 Y86.760 E0.01504
G1 X76.935 Y86.430 E0.01098
G1 X76.864 Y85.968 E0.01468
G1 X76.877 Y85.618 E0.01098
G1 X76.986 Y85.151 E0.01504
G1 X77.199 Y84.721 E0.01504
G1 X77.412 Y84.442 E0.01098
G1 X77.761 Y84.131 E0.01468
G1 X78.052 Y83.958 E0.01062
G1 X78.367 Y83.831 E0.01062
G1 X78.838 Y83.740 E0.01504
G1 X79.317 Y83.758 E0.01505
G1 X79.647 Y83.835 E0.01063
G1 X79.964 Y83.963 E0.01070
G1 X80.362 Y84.226 E0.01496
G1 X80.666 Y84.539 E0.01368
G1 X80.761 Y83.956 E0.01852
G1 X80.974 Y83.122 E0.02698
G1 X81.260 Y82.317 E0.02680
G1 X81.494 Y81.789 E0.01810
G1 X81.758 Y81.280 E0.01796
G1 X82.052 Y80.789 E0.01796
G1 X82.377 Y80.312 E0.01810
G1 X82.909 Y79.648 E0.02666
G1 X83.303 Y79.227 E0.01810
G1 X83.720 Y78.831 E0.01803
G1 X84.385 Y78.290 E0.02686
G1 X85.094 Y77.813 E0.02680
G1 X85.596 Y77.528 E0.01810
G1 X86.113 Y77.275 E0.01803
G1 X86.909 Y76.958 E0.02686
G1 X87.728 Y76.715 E0.02680
G1 X88.292 Y76.593 E0.01810
G1 X88.863 Y76.506 E0.01810
G1 X89.715 Y76.441 E0.02680
G1 X90.574 Y76.454 E0.02694
G1 X91.428 Y76.545 E0.02694
G1 X92.266 Y76.713 E0.02680
G1 X92.822 Y76.868 E0.01810
G1 X93.366 Y77.057 E0.01803
G1 X94.150 Y77.397 E0.02680
G1 X94.905 Y77.811 E0.02701
G1 X95.618 Y78.290 E0.02694
G1 X96.285 Y78.832 E0.02694
G1 X96.899 Y79.433 E0.02694
G1 X97.455 Y80.085 E0.02687
G1 X97.952 Y80.788 E0.02701
G1 X98.381 Y81.532 E0.02694
G1 X98.741 Y82.312 E0.02694
G1 X99.029 Y83.122 E0.02694
G1 X99.241 Y83.954 E0.02691
G1 X99.340 Y84.558 E0.01920
G1 X99.516 Y84.340 E0.00879
G1 X99.904 Y84.037 E0.01543
G1 X100.354 Y83.833 E0.01549
G1 X100.826 Y83.742 E0.01508
G1 X101.177 Y83.742 E0.01098
G1 X101.648 Y83.833 E0.01504
G1 X102.085 Y84.029 E0.01504
G1 X102.372 Y84.231 E0.01098
G1 X102.696 Y84.568 E0.01469
G1 X102.887 Y84.862 E0.01098
G1 X103.062 Y85.296 E0.01469
G1 X103.126 Y85.629 E0.01063
G1 X103.139 Y85.970 E0.01069
G1 X103.068 Y86.431 E0.01462
G1 X102.949 Y86.760 E0.01097
G1 X102.704 Y87.172 E0.01504
G1 X102.372 Y87.518 E0.01504
G1 X102.085 Y87.719 E0.01098
G1 X101.648 Y87.916 E0.01504
G1 X101.165 Y88.009 E0.01540
G1 X100.686 Y87.991 E0.01505
G1 X100.356 Y87.913 E0.01063
G1 X100.039 Y87.785 E0.01070
G1 X99.641 Y87.523 E0.01496
G1 X99.374 Y87.248 E0.01200
M204 S1250
G1 X98.994 Y86.747 F9000.000
M204 S800
G1 F1200.000
G1 X98.976 Y87.033 E0.00899
G1 X98.898 Y87.582 E0.01740
G1 X98.707 Y88.385 E0.02587
G1 X98.443 Y89.165 E0.02581
G1 X98.227 Y89.672 E0.01729
G1 X97.982 Y90.164 E0.01724
G1 X97.707 Y90.640 E0.01724
G1 X97.402 Y91.100 E0.01729
G1 X96.898 Y91.751 E0.02581
G1 X96.336 Y92.352 E0.02581
G1 X95.930 Y92.726 E0.01729
G1 X95.502 Y93.074 E0.01729
G1 X94.827 Y93.542 E0.02576
G1 X94.352 Y93.822 E0.01729
G1 X93.862 Y94.071 E0.01722
G1 X93.100 Y94.388 E0.02588
G1 X92.313 Y94.635 E0.02586
G1 X91.509 Y94.808 E0.02581
G1 X90.962 Y94.883 E0.01729
G1 X90.412 Y94.925 E0.01729
G1 X89.591 Y94.925 E0.02574
G1 X88.768 Y94.850 E0.02593
G1 X87.957 Y94.701 E0.02586
G1 X87.163 Y94.478 E0.02586
G1 X86.392 Y94.185 E0.02586
G1 X85.653 Y93.823 E0.02581
G1 X85.177 Y93.543 E0.01729
G1 X84.719 Y93.235 E0.01729
G1 X84.074 Y92.727 E0.02576
G1 X83.668 Y92.353 E0.01729
G1 X83.287 Y91.958 E0.01723
G1 X82.762 Y91.321 E0.02588
G1 X82.296 Y90.641 E0.02586
G1 X81.895 Y89.920 E0.02586
G1 X81.560 Y89.166 E0.02586
G1 X81.296 Y88.385 E0.02586
G1 X81.105 Y87.585 E0.02579
G1 X81.058 Y87.305 E0.00890
G1 X81.009 Y86.749 E0.01750
G1 X81.039 Y85.941 E0.02536
G1 X81.011 Y85.138 E0.02519
G1 X81.041 Y84.581 E0.01748
G1 X81.131 Y84.033 E0.01741
G1 X81.335 Y83.232 E0.02592
G1 X81.611 Y82.456 E0.02581
G1 X81.834 Y81.952 E0.01729
G1 X82.087 Y81.464 E0.01724
G1 X82.370 Y80.992 E0.01724
G1 X82.681 Y80.537 E0.01729
G1 X83.194 Y79.895 E0.02576
G1 X83.571 Y79.492 E0.01729
G1 X83.969 Y79.114 E0.01722
G1 X84.609 Y78.593 E0.02588
G1 X85.293 Y78.134 E0.02581
G1 X85.772 Y77.862 E0.01729
G1 X86.266 Y77.620 E0.01722
G1 X87.032 Y77.314 E0.02588
G1 X87.821 Y77.080 E0.02581
G1 X88.361 Y76.964 E0.01729
G1 X88.906 Y76.881 E0.01729
G1 X89.727 Y76.818 E0.02581
G1 X90.551 Y76.831 E0.02586
G1 X91.371 Y76.918 E0.02586
G1 X92.178 Y77.080 E0.02581
G1 X92.710 Y77.228 E0.01729
G1 X93.229 Y77.408 E0.01722
G1 X93.984 Y77.736 E0.02581
G1 X94.709 Y78.133 E0.02593
G1 X95.393 Y78.593 E0.02586
G1 X96.033 Y79.114 E0.02586
G1 X96.623 Y79.690 E0.02586
G1 X97.157 Y80.316 E0.02579
G1 X97.634 Y80.992 E0.02593
G1 X98.046 Y81.706 E0.02586
G1 X98.392 Y82.455 E0.02586
G1 X98.668 Y83.232 E0.02586
G1 X98.872 Y84.031 E0.02585
G1 X98.961 Y84.577 E0.01737
G1 X98.987 Y84.864 E0.00903
G1 X98.964 Y85.873 E0.03163
G1 X98.992 Y86.687 E0.02553
M204 S1250
G1 X99.236 Y86.900 F9000.000
G1 E-2.24000 F4200.00000
G1 F7200.000
G1 X98.976 Y87.033 E-0.19206
G1 X98.898 Y87.582 E-0.30746
G1 X98.726 Y88.306 E-0.41248
G1 E-0.04800 F4200.00000
G1 Z0.400 F9000.000
G1 X80.616 Y86.425
G1 Z0.200
G1 E3.20000 F2400.00000
M204 S800
G1 F1200.000
G1 X80.530 Y86.687 E0.00862
G1 X80.395 Y86.923 E0.00854
G1 X80.221 Y87.138 E0.00868
G1 X79.902 Y87.387 E0.01266
G1 X79.533 Y87.554 E0.01270
G1 X79.140 Y87.630 E0.01255
G1 X78.863 Y87.630 E0.00871
G1 X78.470 Y87.554 E0.01254
G1 X78.105 Y87.390 E0.01254
G1 X77.878 Y87.230 E0.00871
G1 X77.601 Y86.942 E0.01254
G1 X77.396 Y86.598 E0.01254
G1 X77.302 Y86.337 E0.00871
G1 X77.242 Y85.946 E0.01241
G1 X77.252 Y85.668 E0.00871
G1 X77.344 Y85.279 E0.01254
G1 X77.521 Y84.920 E0.01254
G1 X77.689 Y84.700 E0.00871
G1 X77.985 Y84.436 E0.01241
G1 X78.220 Y84.296 E0.00858
G1 X78.474 Y84.194 E0.00858
G1 X78.867 Y84.118 E0.01254
G1 X79.266 Y84.133 E0.01254
G1 X79.533 Y84.196 E0.00858
G1 X79.787 Y84.299 E0.00860
G1 X80.120 Y84.518 E0.01250
G1 X80.316 Y84.720 E0.00882
G1 X80.529 Y85.058 E0.01252
G1 X80.615 Y85.321 E0.00869
G1 X80.650 Y85.579 E0.00816
G1 X80.659 Y86.052 E0.01481
G1 X80.623 Y86.366 E0.00992
M204 S1250
G1 X80.817 Y86.613 F9000.000
G1 E-2.24000 F4200.00000
G1 F7200.000
G1 X80.530 Y86.687 E-0.18500
G1 X80.395 Y86.923 E-0.15085
G1 X80.221 Y87.138 E-0.15339
G1 X79.902 Y87.387 E-0.22383
G1 X79.575 Y87.535 E-0.19893
G1 E-0.04800 F4200.00000
G1 Z0.400 F9000.000
G1 X99.474 Y86.691
G1 Z0.200
G1 E3.20000 F2400.00000
M204 S800
G1 F1200.000
G1 X99.388 Y86.428 E0.00868
G1 X99.352 Y86.170 E0.00816
G1 X99.344 Y85.697 E0.01482
G1 X99.387 Y85.323 E0.01180
G1 X99.473 Y85.062 E0.00862
G1 X99.608 Y84.826 E0.00854
G1 X99.782 Y84.611 E0.00868
G1 X100.101 Y84.362 E0.01267
G1 X100.470 Y84.195 E0.01270
G1 X100.863 Y84.119 E0.01255
G1 X101.140 Y84.119 E0.00871
G1 X101.533 Y84.195 E0.01254
G1 X101.898 Y84.359 E0.01254
G1 X102.125 Y84.518 E0.00871
G1 X102.400 Y84.804 E0.01241
G1 X102.551 Y85.037 E0.00871
G1 X102.699 Y85.404 E0.01241
G1 X102.751 Y85.673 E0.00858
G1 X102.761 Y85.948 E0.00864
G1 X102.701 Y86.337 E0.01235
G1 X102.607 Y86.598 E0.00870
G1 X102.402 Y86.942 E0.01254
G1 X102.125 Y87.230 E0.01254
G1 X101.898 Y87.390 E0.00871
G1 X101.533 Y87.554 E0.01254
G1 X101.136 Y87.631 E0.01267
G1 X100.737 Y87.615 E0.01254
G1 X100.470 Y87.553 E0.00858
G1 X100.216 Y87.450 E0.00861
G1 X99.883 Y87.230 E0.01250
G1 X99.687 Y87.029 E0.00882
G1 X99.506 Y86.741 E0.01064
M204 S1250
G1 X99.199 Y86.664 F9000.000
G1 E-2.24000 F4200.00000
G1 F7200.000
G1 X99.388 Y86.428 E-0.18593
G1 X99.352 Y86.170 E-0.14427
G1 X99.344 Y85.697 E-0.26190
G1 X99.387 Y85.323 E-0.20848
G1 X99.450 Y85.132 E-0.11141
G1 E-0.04800 F4200.00000
G1 Z0.400 F9000.000
G1 X65.990 Y85.802
G1 Z0.200
G1 E3.20000 F2400.00000
M204 S800
G1 F1200.000
G1 X65.954 Y86.271 E0.01474
G1 X65.865 Y86.597 E0.01062
G1 X65.726 Y86.907 E0.01062
G1 X65.450 Y87.299 E0.01504
G1 X65.092 Y87.618 E0.01504
G1 X64.791 Y87.797 E0.01098
G1 X64.339 Y87.959 E0.01504
G1 X63.863 Y88.014 E0.01504
G1 X63.514 Y87.987 E0.01098
G1 X63.051 Y87.860 E0.01504
