; generated by PrusaSlicer 2.2.0+win64 on 2020-09-29 at 17:23:36 UTC


;
;

;
;
; 

; external perimeters extrusion width = 0.45mm
; perimeters extrusion width = 0.45mm
; infill extrusion width = 0.45mm
; solid infill extrusion width = 0.45mm
; top infill extrusion width = 0.40mm
; first layer extrusion width = 0.42mm

M73 P0 R49
M201 X1250 Y1250 Z400 E5000 ; sets maximum accelerations, mm/sec^2
M203 X180 Y180 Z12 E80 ; sets maximum feedrates, mm/sec
M204 P1250 R1250 T1250 ; sets acceleration (P, T) and retract acceleration (R), mm/sec^2
M205 X8.00 Y8.00 Z2.00 E10.00 ; sets the jerk limits, mm/sec
M205 S0 T0 ; sets the minimum extruding and travel feed rate, mm/sec
M107
G90 ; use absolute coordinates
M83 ; extruder relative mode
M104 S170 ; set extruder temp for bed leveling
M140 S60 ; set bed temp
M109 R170 ; wait for bed leveling temp
M190 S60 ; wait for bed temp
G28 ; home all without mesh bed level
G29 ; mesh bed leveling 
M104 S215 ; set extruder temp
G92 E0.0
G1 Y-2.0 X179 F2400
G1 Z3 F720
M109 S215 ; wait for extruder temp

; intro line
G1 X170 F1000
G1 Z0.2 F720
G1 X110.0 E8.0 F900
M73 P0 R49
G1 X40.0 E10.0 F700
G92 E0.0

M221 S95 ; set flow
G21 ; set units to millimeters
G90 ; use absolute coordinates
M83 ; use relative distances for extrusion
M900 K0.2 ; Filament gcode LA 1.5
; ; Filament gcode LA 1.0
;BEFORE_LAYER_CHANGE
G92 E0.0
;0.2


G1 Z0.200 F9000.000
;AFTER_LAYER_CHANGE
;0.2
G1 E-3.20000 F4200.00000
G1 Z0.400 F9000.000
G1 X68.945 Y75.579
G1 Z0.200
G1 E3.20000 F2400.00000
M204 S800
G1 F1200.000
G1 X69.609 Y75.477 E0.02107
G1 X110.371 Y75.477 E1.27807
G1 X111.255 Y75.649 E0.02825
G1 X112.010 Y76.136 E0.02813
G1 X112.531 Y76.870 E0.02825
G1 X112.742 Y77.746 E0.02825
G1 X112.742 Y102.241 E0.76802
G1 X112.654 Y102.796 E0.01763
G1 X112.435 Y103.319 E0.01775
G1 X112.101 Y103.772 E0.01763
G1 X111.668 Y104.136 E0.01775
G1 X111.055 Y104.421 E0.02119
G1 X110.391 Y104.523 E0.02107
G1 X69.595 Y104.523 E1.27915
G1 X69.023 Y104.443 E0.01811
G1 X68.487 Y104.228 E0.01811
G1 X68.018 Y103.891 E0.01811
G1 X67.643 Y103.446 E0.01823
G1 X67.360 Y102.841 E0.02095
G1 X67.256 Y102.181 E0.02095
G1 X67.256 Y77.793 E0.76467
G1 X67.339 Y77.229 E0.01787
G1 X67.556 Y76.698 E0.01799
G1 X67.893 Y76.234 E0.01799
G1 X68.332 Y75.864 E0.01799
G1 X68.890 Y75.604 E0.01931
M204 S1250
G1 E-2.24000 F4200.00000
G1 F7200.000
G1 X69.609 Y75.477 E-0.40439
G1 X70.525 Y75.477 E-0.50761
G1 E-0.04800 F4200.00000
G1 Z0.400 F9000.000
G1 X72.016 Y91.284
G1 Z0.200
G1 E3.20000 F2400.00000
M204 S800
G1 F1200.000
G1 X72.415 Y91.222 E0.01267
G1 X72.814 Y91.253 E0.01254
G1 X73.078 Y91.325 E0.00858
G1 X73.328 Y91.437 E0.00858
G1 X73.651 Y91.665 E0.01241
G1 X73.844 Y91.865 E0.00871
G1 X74.059 Y92.197 E0.01241
G1 X74.163 Y92.455 E0.00871
G1 X74.238 Y92.843 E0.01241
G1 X74.238 Y93.121 E0.00871
G1 X74.163 Y93.510 E0.01241
G1 X74.059 Y93.767 E0.00871
G1 X73.842 Y94.103 E0.01254
G1 X73.551 Y94.383 E0.01267
G1 X73.203 Y94.590 E0.01267
G1 X72.822 Y94.710 E0.01254
G1 X72.550 Y94.742 E0.00858
G1 X72.277 Y94.731 E0.00858
G1 X71.887 Y94.640 E0.01254
G1 X71.529 Y94.463 E0.01254
G1 X71.308 Y94.294 E0.00871
G1 X71.045 Y93.999 E0.01241
G1 X70.905 Y93.763 E0.00858
G1 X70.803 Y93.510 E0.00858
G1 X70.727 Y93.121 E0.01241
G1 X70.727 Y92.843 E0.00871
G1 X70.803 Y92.451 E0.01254
G1 X70.967 Y92.086 E0.01254
G1 X71.127 Y91.859 E0.00871
G1 X71.412 Y91.584 E0.01241
G1 X71.645 Y91.433 E0.00871
G1 X71.960 Y91.306 E0.01066
M204 S1250
G1 X72.122 Y90.898 F9000.000
G1 E-2.24000 F4200.00000
G1 F7200.000
G1 X72.415 Y91.222 E-0.25639
G1 X72.814 Y91.253 E-0.22164
G1 X73.078 Y91.325 E-0.15163
G1 X73.328 Y91.437 E-0.15164
G1 X73.521 Y91.573 E-0.13070
G1 E-0.04800 F4200.00000
G1 Z0.400 F9000.000
G1 X70.441 Y92.336
G1 Z0.200
G1 E3.20000 F2400.00000
M204 S800
G1 F1200.000
G1 X70.420 Y92.447 E0.00355
G1 X70.420 Y81.517 E0.34272
G1 X70.439 Y81.617 E0.00320
G1 X70.570 Y81.942 E0.01098
G1 X70.831 Y82.344 E0.01504
G1 X71.185 Y82.685 E0.01540
G1 X71.597 Y82.930 E0.01504
G1 X71.916 Y83.045 E0.01062
G1 X72.249 Y83.109 E0.01063
G1 X72.719 Y83.109 E0.01473
G1 X73.065 Y83.040 E0.01108
G1 X73.523 Y82.849 E0.01557
G1 X73.897 Y82.548 E0.01503
G1 X73.881 Y82.837 E0.00908
G1 X73.876 Y86.879 E0.12671
G1 X73.917 Y87.420 E0.01704
G1 X73.996 Y87.804 E0.01226
G1 X74.113 Y88.177 E0.01227
G1 X74.347 Y88.686 E0.01757
G1 X74.554 Y89.018 E0.01226
G1 X74.789 Y89.321 E0.01203
G1 X75.058 Y89.605 E0.01226
G1 X75.493 Y89.959 E0.01757
G1 X75.825 Y90.166 E0.01226
G1 X76.176 Y90.338 E0.01227
G1 X76.706 Y90.520 E0.01757
G1 X77.096 Y90.600 E0.01250
G1 X77.638 Y90.641 E0.01703
G1 X94.876 Y90.641 E0.54050
G1 X94.876 Y101.359 E0.33605
G1 X70.420 Y101.359 E0.76681
G1 X70.420 Y93.517 E0.24588
G1 X70.439 Y93.617 E0.00320
G1 X70.566 Y93.931 E0.01062
G1 X70.739 Y94.223 E0.01062
G1 X71.051 Y94.572 E0.01469
G1 X71.329 Y94.784 E0.01098
G1 X71.759 Y94.997 E0.01504
G1 X72.226 Y95.107 E0.01504
G1 X72.565 Y95.120 E0.01062
G1 X72.901 Y95.081 E0.01062
G1 X73.359 Y94.936 E0.01504
G1 X73.781 Y94.685 E0.01540
G1 X74.135 Y94.344 E0.01540
G1 X74.395 Y93.942 E0.01504
G1 X74.526 Y93.617 E0.01098
G1 X74.615 Y93.157 E0.01468
G1 X74.615 Y92.807 E0.01098
G1 X74.526 Y92.347 E0.01468
G1 X74.395 Y92.023 E0.01098
G1 X74.141 Y91.629 E0.01469
G1 X73.898 Y91.377 E0.01098
G1 X73.515 Y91.108 E0.01469
G1 X73.206 Y90.969 E0.01062
G1 X72.879 Y90.879 E0.01062
G1 X72.401 Y90.843 E0.01504
G1 X71.915 Y90.918 E0.01540
G1 X71.470 Y91.097 E0.01504
G1 X71.177 Y91.287 E0.01098
G1 X70.839 Y91.612 E0.01469
G1 X70.638 Y91.898 E0.01098
G1 X70.466 Y92.281 E0.01316
M204 S1250
G1 E-2.24000 F4200.00000
G1 F7200.000
G1 X70.420 Y92.447 E-0.09548
G1 X70.420 Y90.974 E-0.81652
G1 E-0.04800 F4200.00000
G1 Z0.400 F9000.000
G1 X72.285 Y82.732
G1 Z0.200
G1 E3.20000 F2400.00000
M204 S800
G1 F1200.000
G1 X72.016 Y82.680 E0.00858
G1 X71.759 Y82.588 E0.00858
G1 X71.415 Y82.383 E0.01254
G1 X71.124 Y82.103 E0.01267
G1 X70.906 Y81.767 E0.01254
G1 X70.803 Y81.510 E0.00871
G1 X70.727 Y81.121 E0.01241
G1 X70.727 Y80.843 E0.00871
G1 X70.803 Y80.451 E0.01254
G1 X70.967 Y80.086 E0.01254
G1 X71.127 Y79.859 E0.00871
G1 X71.412 Y79.584 E0.01241
G1 X71.645 Y79.433 E0.00871
G1 X72.012 Y79.285 E0.01241
G1 X72.285 Y79.232 E0.00871
G1 X72.681 Y79.233 E0.01243
G1 X72.951 Y79.286 E0.00861
G1 X73.206 Y79.381 E0.00854
G1 X73.446 Y79.523 E0.00873
G1 X73.739 Y79.801 E0.01267
G1 X73.881 Y80.042 E0.00877
G1 X73.973 Y80.288 E0.00825
G1 X74.040 Y80.643 E0.01133
G1 X74.058 Y81.093 E0.01412
G1 X74.023 Y81.439 E0.01090
G1 X73.936 Y81.800 E0.01165
G1 X73.815 Y82.045 E0.00855
G1 X73.647 Y82.266 E0.00872
G1 X73.329 Y82.521 E0.01278
G1 X72.955 Y82.677 E0.01271
G1 X72.681 Y82.732 E0.00874
G1 X72.345 Y82.732 E0.01055
M204 S1250
G1 X72.125 Y82.954 F9000.000
G1 E-2.24000 F4200.00000
G1 F7200.000
G1 X72.016 Y82.680 E-0.18442
G1 X71.759 Y82.588 E-0.15163
G1 X71.415 Y82.383 E-0.22165
G1 X71.124 Y82.103 E-0.22391
G1 X70.996 Y81.905 E-0.13039
G1 E-0.04800 F4200.00000
G1 Z0.400 F9000.000
G1 X70.420 Y80.447
G1 Z0.200
G1 E3.20000 F2400.00000
M204 S800
G1 F1200.000
G1 X70.420 Y78.641 E0.05663
G1 X73.881 Y78.641 E0.10852
G1 X73.899 Y79.433 E0.02482
G1 X73.674 Y79.220 E0.00971
G1 X73.369 Y79.040 E0.01110
G1 X73.054 Y78.922 E0.01053
G1 X72.719 Y78.855 E0.01073
G1 X72.249 Y78.855 E0.01473
G1 X71.905 Y78.922 E0.01099
G1 X71.470 Y79.097 E0.01468
G1 X71.177 Y79.287 E0.01098
G1 X70.839 Y79.612 E0.01469
G1 X70.638 Y79.898 E0.01098
G1 X70.431 Y80.389 E0.01667
M204 S1250
G1 E-2.24000 F4200.00000
G1 F7200.000
G1 X70.421 Y78.743 E-0.91200
G1 E-0.04800 F4200.00000
G1 Z0.400 F9000.000
G1 X70.043 Y78.264
G1 Z0.200
G1 E3.20000 F2400.00000
M204 S800
G1 F1200.000
G1 X74.253 Y78.264 E0.13201
G1 X74.271 Y79.367 E0.03460
G1 X74.434 Y80.863 E0.04716
G1 X74.421 Y81.337 E0.01488
G1 X74.287 Y82.334 E0.03155
G1 X74.258 Y82.848 E0.01614
G1 X74.253 Y86.864 E0.12593
G1 X74.291 Y87.368 E0.01583
G1 X74.361 Y87.709 E0.01091
G1 X74.466 Y88.041 E0.01092
G1 X74.680 Y88.507 E0.01607
G1 X74.864 Y88.802 E0.01092
G1 X75.075 Y89.075 E0.01083
G1 X75.315 Y89.328 E0.01092
G1 X75.712 Y89.652 E0.01607
G1 X76.008 Y89.836 E0.01091
G1 X76.320 Y89.989 E0.01092
G1 X76.805 Y90.155 E0.01607
G1 X77.149 Y90.226 E0.01100
G1 X77.652 Y90.264 E0.01583
G1 X95.253 Y90.264 E0.55187
G1 X95.253 Y101.736 E0.35969
G1 X70.043 Y101.736 E0.79046
G1 X70.043 Y78.324 E0.73406
M204 S1250
G1 X70.430 Y78.363 F9000.000
G1 X70.533 Y79.153
M204 S800
G1 F1200.000
G1 X70.837 Y79.457 E0.01618
M204 S1250
G1 X71.246 Y78.991 F9000.000
M204 S800
G1 F1200.000
G1 X71.369 Y78.893 E0.00100
M204 S1250
M204 S800
G1 X71.524 Y78.850 E0.00120
M204 S1250
G1 E-2.24000 F4200.00000
G1 F7200.000
G1 X71.369 Y78.893 E-0.08921
G1 E-0.87079 F4200.00000
G1 Z0.400 F9000.000
G1 X70.402 Y80.635
G1 Z0.200
G1 E3.20000 F2400.00000
M204 S800
G1 F1200.000
G1 X70.385 Y80.825 E0.00494
G1 X70.402 Y81.329 E0.01305
M204 S1250
G1 E-2.24000 F4200.00000
G1 F7200.000
G1 X70.385 Y80.825 E-0.27947
G1 X70.402 Y80.635 E-0.10578
G1 E-0.57476 F4200.00000
G1 Z0.400 F9000.000
G1 X73.984 Y79.803
G1 Z0.200
G1 E3.20000 F2400.00000
M204 S800
G1 F1200.000
G1 X74.096 Y79.944 E0.00143
G1 X74.144 Y80.142 E0.00161
M204 S1250
G1 E-2.24000 F4200.00000
G1 F7200.000
G1 X74.096 Y79.944 E-0.11280
G1 X73.984 Y79.803 E-0.10016
G1 E-0.74703 F4200.00000
G1 Z0.400 F9000.000
G1 X74.138 Y81.865
G1 Z0.200
G1 E3.20000 F2400.00000
M204 S800
G1 F1200.000
G1 X74.038 Y82.193 E0.00242
M204 S1250
G1 X73.910 Y82.267 F9000.000
M204 S800
G1 F1200.000
G1 X74.139 Y82.019 E0.00225
M204 S1250
G1 X73.413 Y83.017 F9000.000
M204 S800
G1 F1200.000
G1 X73.598 Y83.202 E0.00824
G1 X73.597 Y83.737 E0.01683
G1 X73.165 Y83.305 E0.01925
G1 X72.716 Y83.392 E0.01438
G1 X73.596 Y84.272 E0.03917
G1 X73.596 Y84.806 E0.01683
G1 X72.172 Y83.382 E0.06339
G1 X71.841 Y83.318 E0.01061
G1 X71.476 Y83.187 E0.01220
G1 X71.390 Y83.136 E0.00314
G1 X73.595 Y85.341 E0.09815
G1 X73.594 Y85.876 E0.01683
G1 X70.703 Y82.984 E0.12872
G1 X70.703 Y83.519 E0.01685
G1 X73.594 Y86.410 E0.12869
G1 X73.598 Y86.950 E0.01698
G1 X70.703 Y84.055 E0.12886
G1 X70.703 Y84.590 E0.01685
G1 X73.653 Y87.540 E0.13134
G1 X73.722 Y87.874 E0.01073
G1 X73.845 Y88.268 E0.01298
G1 X70.703 Y85.125 E0.13988
G1 X70.703 Y85.661 E0.01685
G1 X86.118 Y101.076 E0.68620
G1 X86.653 Y101.076 E0.01685
G1 X76.235 Y90.657 E0.46378
G1 X76.632 Y90.793 E0.01321
G1 X76.976 Y90.864 E0.01108
G1 X87.189 Y101.076 E0.45459
G1 X87.724 Y101.076 E0.01685
G1 X77.567 Y90.919 E0.45211
G1 X78.107 Y90.924 E0.01699
G1 X88.259 Y101.076 E0.45191
G1 X88.795 Y101.076 E0.01685
G1 X78.643 Y90.924 E0.45191
G1 X79.178 Y90.924 E0.01685
G1 X89.330 Y101.076 E0.45191
G1 X89.865 Y101.076 E0.01685
G1 X79.713 Y90.924 E0.45191
G1 X80.249 Y90.924 E0.01685
G1 X90.401 Y101.076 E0.45191
G1 X90.936 Y101.076 E0.01685
G1 X80.784 Y90.924 E0.45191
G1 X81.319 Y90.924 E0.01685
G1 X91.471 Y101.076 E0.45191
G1 X92.007 Y101.076 E0.01685
G1 X81.855 Y90.924 E0.45191
G1 X82.390 Y90.924 E0.01685
G1 X92.542 Y101.076 E0.45191
G1 X93.077 Y101.076 E0.01685
G1 X82.925 Y90.924 E0.45191
G1 X83.461 Y90.924 E0.01685
G1 X93.613 Y101.076 E0.45191
G1 X94.148 Y101.076 E0.01685
G1 X83.996 Y90.924 E0.45191
G1 X84.531 Y90.924 E0.01685
G1 X94.594 Y100.986 E0.44790
G1 X94.594 Y100.451 E0.01685
G1 X85.067 Y90.924 E0.42407
G1 X85.602 Y90.924 E0.01685
G1 X94.594 Y99.915 E0.40024
G1 X94.594 Y99.380 E0.01685
G1 X86.137 Y90.924 E0.37641
G1 X86.673 Y90.924 E0.01685
G1 X94.594 Y98.845 E0.35258
G1 X94.594 Y98.309 E0.01685
G1 X87.208 Y90.924 E0.32875
G1 X87.743 Y90.924 E0.01685
G1 X94.594 Y97.774 E0.30492
G1 X94.594 Y97.239 E0.01685
G1 X88.279 Y90.924 E0.28109
G1 X88.814 Y90.924 E0.01685
G1 X94.594 Y96.703 E0.25726
G1 X94.594 Y96.168 E0.01685
G1 X89.349 Y90.924 E0.23343
G1 X89.885 Y90.924 E0.01685
G1 X94.594 Y95.633 E0.20960
G1 X94.594 Y95.097 E0.01685
G1 X90.420 Y90.924 E0.18577
G1 X90.955 Y90.924 E0.01685
G1 X94.594 Y94.562 E0.16194
G1 X94.594 Y94.027 E0.01685
G1 X91.491 Y90.924 E0.13811
G1 X92.026 Y90.924 E0.01685
G1 X94.594 Y93.491 E0.11428
G1 X94.594 Y92.956 E0.01685
G1 X92.561 Y90.924 E0.09045
G1 X93.097 Y90.924 E0.01685
G1 X94.594 Y92.421 E0.06662
G1 X94.594 Y91.885 E0.01685
G1 X93.632 Y90.924 E0.04279
G1 X94.167 Y90.924 E0.01685
G1 X94.763 Y91.520 E0.02652
M204 S1250
G1 E-2.24000 F4200.00000
G1 F7200.000
G1 X94.167 Y90.924 E-0.46685
G1 X93.632 Y90.924 E-0.29667
G1 X93.822 Y91.113 E-0.14848
G1 E-0.04800 F4200.00000
G1 Z0.400 F9000.000
G1 X85.752 Y101.246
G1 Z0.200
G1 E3.20000 F2400.00000
M204 S800
G1 F1200.000
G1 X70.703 Y86.196 E0.66992
G1 X70.703 Y86.731 E0.01685
G1 X85.047 Y101.076 E0.63854
G1 X84.512 Y101.076 E0.01685
G1 X70.703 Y87.267 E0.61471
G1 X70.703 Y87.802 E0.01685
G1 X83.977 Y101.076 E0.59088
G1 X83.441 Y101.076 E0.01685
G1 X74.839 Y92.474 E0.38293
G1 X74.898 Y92.780 E0.00982
G1 X74.898 Y93.068 E0.00908
G1 X82.906 Y101.076 E0.35646
G1 X82.371 Y101.076 E0.01685
G1 X74.830 Y93.536 E0.33566
G1 X74.799 Y93.698 E0.00519
G1 X74.700 Y93.941 E0.00827
G1 X81.835 Y101.076 E0.31760
G1 X81.300 Y101.076 E0.01685
G1 X74.510 Y94.286 E0.30227
G1 X74.354 Y94.526 E0.00900
G1 X74.283 Y94.594 E0.00312
G1 X80.765 Y101.076 E0.28853
G1 X80.229 Y101.076 E0.01685
G1 X74.010 Y94.857 E0.27684
G1 X73.953 Y94.911 E0.00248
G1 X73.687 Y95.070 E0.00974
G1 X79.694 Y101.076 E0.26737
M73 P2 R48
G1 X79.159 Y101.076 E0.01685
G1 X73.326 Y95.243 E0.25965
G1 X72.911 Y95.364 E0.01358
G1 X78.623 Y101.076 E0.25426
G1 X78.088 Y101.076 E0.01685
G1 X72.408 Y95.397 E0.25282
G1 X72.188 Y95.388 E0.00694
G1 X71.766 Y95.289 E0.01365
G1 X77.553 Y101.076 E0.25759
G1 X77.017 Y101.076 E0.01685
G1 X70.824 Y94.883 E0.27570
G1 X70.723 Y94.991 E0.00465
G1 X70.703 Y94.972 E0.00088
G1 X70.703 Y95.297 E0.01022
G1 X76.482 Y101.076 E0.25726
G1 X75.947 Y101.076 E0.01685
G1 X70.703 Y95.832 E0.23343
G1 X70.703 Y96.367 E0.01685
G1 X75.411 Y101.076 E0.20960
G1 X74.876 Y101.076 E0.01685
G1 X70.703 Y96.903 E0.18577
G1 X70.703 Y97.438 E0.01685
G1 X74.341 Y101.076 E0.16194
G1 X73.805 Y101.076 E0.01685
G1 X70.703 Y97.973 E0.13811
G1 X70.703 Y98.509 E0.01685
G1 X73.270 Y101.076 E0.11428
G1 X72.735 Y101.076 E0.01685
G1 X70.703 Y99.044 E0.09045
G1 X70.703 Y99.580 E0.01685
G1 X72.199 Y101.076 E0.06662
G1 X71.664 Y101.076 E0.01685
G1 X70.703 Y100.115 E0.04279
G1 X70.703 Y100.650 E0.01685
G1 X71.298 Y101.246 E0.02651
M204 S1250
G1 E-2.24000 F4200.00000
G1 F7200.000
G1 X70.703 Y100.650 E-0.46675
G1 X70.703 Y100.115 E-0.29667
G1 X70.892 Y100.304 E-0.14859
G1 E-0.04800 F4200.00000
G1 Z0.400 F9000.000
G1 X70.747 Y94.549
G1 Z0.200
G1 E3.20000 F2400.00000
M204 S800
G1 F1200.000
G1 X70.608 Y94.421 E0.00114
M204 S1250
G1 X70.402 Y93.329 F9000.000
M204 S800
G1 F1200.000
G1 X70.385 Y92.825 E0.01305
G1 X70.402 Y92.635 E0.00494
M204 S1250
G1 X70.994 Y91.306 F9000.000
M204 S800
G1 F1200.000
G1 X70.703 Y91.014 E0.01298
G1 X70.703 Y90.479 E0.01685
G1 X71.175 Y90.951 E0.02103
G1 X71.340 Y90.845 E0.00616
G1 X71.528 Y90.769 E0.00640
G1 X70.703 Y89.943 E0.03674
G1 X70.703 Y89.408 E0.01685
G1 X71.925 Y90.630 E0.05440
G1 X72.388 Y90.558 E0.01477
G1 X70.703 Y88.873 E0.07504
G1 X70.703 Y88.337 E0.01685
G1 X73.221 Y90.856 E0.11212
M204 S1250
G1 E-2.24000 F4200.00000
G1 F7200.000
G1 X72.058 Y89.692 E-0.91200
G1 E-0.04800 F4200.00000
G1 Z0.400 F9000.000
G1 X105.803 Y92.451
G1 Z0.200
G1 E3.20000 F2400.00000
M204 S800
G1 F1200.000
G1 X105.967 Y92.086 E0.01254
G1 X106.127 Y91.859 E0.00871
G1 X106.415 Y91.581 E0.01254
G1 X106.759 Y91.377 E0.01254
G1 X107.020 Y91.283 E0.00871
G1 X107.415 Y91.222 E0.01254
G1 X107.814 Y91.253 E0.01254
G1 X108.078 Y91.325 E0.00858
G1 X108.328 Y91.437 E0.00858
G1 X108.655 Y91.667 E0.01254
G1 X108.921 Y91.966 E0.01254
G1 X109.061 Y92.201 E0.00858
G1 X109.163 Y92.455 E0.00858
G1 X109.238 Y92.843 E0.01241
G1 X109.238 Y93.121 E0.00871
G1 X109.162 Y93.514 E0.01254
G1 X108.997 Y93.882 E0.01267
G1 X108.754 Y94.200 E0.01254
G1 X108.547 Y94.385 E0.00871
G1 X108.203 Y94.590 E0.01254
G1 X107.822 Y94.710 E0.01254
G1 X107.550 Y94.742 E0.00858
G1 X107.277 Y94.731 E0.00858
G1 X106.887 Y94.640 E0.01254
G1 X106.529 Y94.463 E0.01254
G1 X106.308 Y94.294 E0.00871
G1 X106.045 Y93.999 E0.01241
G1 X105.905 Y93.763 E0.00858
G1 X105.803 Y93.510 E0.00858
G1 X105.727 Y93.121 E0.01241
G1 X105.727 Y92.843 E0.00871
