; generated by PrusaSlicer 2.3.0+win64 on 2021-08-08 at 12:02:27 UTC


;
;

;
;
; 

; external perimeters extrusion width = 0.45mm
; perimeters extrusion width = 0.45mm
; infill extrusion width = 0.45mm
; solid infill extrusion width = 0.45mm
; top infill extrusion width = 0.40mm
; first layer extrusion width = 0.42mm

M73 P0 R20
M201 X1250 Y1250 Z400 E5000 ; sets maximum accelerations, mm/sec^2
M203 X180 Y180 Z12 E80 ; sets maximum feedrates, mm/sec
M204 P1250 R1250 T1250 ; sets acceleration (P, T) and retract acceleration (R), mm/sec^2
M205 X8.00 Y8.00 Z2.00 E10.00 ; sets the jerk limits, mm/sec
M205 S0 T0 ; sets the minimum extruding and travel feed rate, mm/sec
M107
;TYPE:Custom
G90 ; use absolute coordinates
M83 ; extruder relative mode
M104 S170 ; set extruder temp for bed leveling
M140 S60 ; set bed temp
M109 R170 ; wait for bed leveling temp
M190 S60 ; wait for bed temp
G28 ; home all without mesh bed level
G29 ; mesh bed leveling 
M104 S215 ; set extruder temp
G92 E0.0
G1 Y-2.0 X179 F2400
G1 Z3 F720
M109 S215 ; wait for extruder temp

; intro line
G1 X170 F1000
G1 Z0.2 F720
G1 X110.0 E8.0 F900
M73 P0 R19
G1 X40.0 E10.0 F700
G92 E0.0

M221 S95 ; set flow
G21 ; set units to millimeters
G90 ; use absolute coordinates
M83 ; use relative distances for extrusion
M900 K0.2 ; Filament gcode LA 1.5
; ; Filament gcode LA 1.0
;LAYER_CHANGE
;Z:0.2
;HEIGHT:0.2
;BEFORE_LAYER_CHANGE
G92 E0.0
;0.2


M73 P1 R19
G1 E-3.20000 F4200.000
G1 Z0.200 F9000.000
;AFTER_LAYER_CHANGE
;0.2
G1 Z0.400
G1 X126.771 Y52.801
G1 Z0.200
G1 E3.20000 F2400.000
M204 S800
;TYPE:Skirt
;WIDTH:0.42
G1 F1200.000
G1 X127.532 Y53.303 E0.02860
G1 X128.049 Y54.055 E0.02860
G1 X128.245 Y54.949 E0.02872
G1 X128.245 Y125.027 E2.19722
G1 X128.187 Y125.525 E0.01574
G1 X128.023 Y126.004 E0.01585
G1 X127.764 Y126.434 E0.01574
G1 X127.421 Y126.800 E0.01574
G1 X126.708 Y127.224 E0.02602
G1 X125.892 Y127.377 E0.02602
G1 X73.798 Y127.353 E1.63338
G1 X73.046 Y127.115 E0.02473
G1 X53.031 Y116.703 E0.70739
M73 P2 R19
G1 X52.334 Y116.150 E0.02790
G1 X51.909 Y115.437 E0.02602
G1 X51.755 Y114.622 E0.02602
G1 X51.755 Y65.393 E1.54353
G1 X51.811 Y64.891 E0.01585
G1 X51.974 Y64.408 E0.01597
G1 X52.233 Y63.974 E0.01585
G1 X52.579 Y63.605 E0.01585
G1 X53.028 Y63.299 E0.01704
G1 X73.042 Y52.888 E0.70733
G1 X73.778 Y52.649 E0.02426
G1 X125.872 Y52.623 E1.63339
G1 X126.712 Y52.789 E0.02684
M204 S1250
; printing object DoveTail-1.stl id:0 copy 0
G1 E-2.24000 F4200.000
;WIPE_START
G1 F7200.000
G1 X127.532 Y53.303 E-0.53649
G1 X127.916 Y53.861 E-0.37551
;WIPE_END
G1 E-0.04800 F4200.000
G1 Z0.400 F9000.000
G1 X81.095 Y55.787
G1 Z0.200
G1 E3.20000 F2400.000
M204 S800
;TYPE:Perimeter
G1 F1200.000
G1 X81.095 Y124.213 E2.14544
G1 X74.919 Y124.213 E0.19364
G1 X74.919 Y103.322 E0.65502
M73 P3 R19
G1 X54.919 Y113.322 E0.70110
G1 X54.919 Y66.678 E1.46249
G1 X74.919 Y76.678 E0.70110
G1 X74.919 Y55.787 E0.65502
G1 X81.035 Y55.787 E0.19176
M204 S1250
G1 E-2.24000 F4200.000
;WIPE_START
G1 F7200.000
G1 X81.036 Y57.433 E-0.91200
;WIPE_END
G1 E-0.04800 F4200.000
G1 Z0.400 F9000.000
G1 X74.542 Y103.932
G1 Z0.200
G1 E3.20000 F2400.000
M204 S800
;TYPE:External perimeter
G1 F1200.000
G1 X54.542 Y113.932 E0.70110
G1 X54.542 Y66.068 E1.50075
G1 X74.542 Y76.068 E0.70110
M73 P4 R19
G1 X74.542 Y55.410 E0.64771
G1 X81.472 Y55.410 E0.21729
G1 X81.472 Y124.590 E2.16909
G1 X74.542 Y124.590 E0.21729
G1 X74.542 Y103.992 E0.64583
M204 S1250
G1 X74.380 Y103.566 F9000.000
G1 E-2.24000 F4200.000
;WIPE_START
G1 F7200.000
G1 X73.068 Y104.725 E-0.91200
;WIPE_END
G1 E-0.04800 F4200.000
G1 Z0.400 F9000.000
G1 X80.219 Y55.900
G1 Z0.200
G1 E3.20000 F2400.000
M204 S800
;TYPE:Solid infill
;WIDTH:0.420385
G1 F1200.000
G1 X80.812 Y56.494 E0.02634
G1 X80.812 Y57.027 E0.01675
G1 X79.854 Y56.070 E0.04250
G1 X79.321 Y56.070 E0.01675
G1 X80.812 Y57.561 E0.06620
G1 X80.812 Y58.095 E0.01675
G1 X78.787 Y56.070 E0.08989
G1 X78.253 Y56.070 E0.01675
G1 X80.812 Y58.629 E0.11359
G1 X80.812 Y59.163 E0.01675
G1 X77.719 Y56.070 E0.13728
G1 X77.185 Y56.070 E0.01675
G1 X80.812 Y59.696 E0.16097
G1 X80.812 Y60.230 E0.01675
G1 X76.652 Y56.070 E0.18467
G1 X76.118 Y56.070 E0.01675
G1 X80.812 Y60.764 E0.20836
G1 X80.812 Y61.298 E0.01675
G1 X75.584 Y56.070 E0.23206
G1 X75.202 Y56.070 E0.01200
G1 X75.202 Y56.221 E0.00476
G1 X80.812 Y61.832 E0.24902
G1 X80.812 Y62.366 E0.01675
G1 X75.202 Y56.755 E0.24902
G1 X75.202 Y57.289 E0.01675
G1 X80.812 Y62.899 E0.24902
G1 X80.812 Y63.433 E0.01675
G1 X75.202 Y57.823 E0.24902
G1 X75.202 Y58.357 E0.01675
G1 X80.812 Y63.967 E0.24902
M73 P5 R19
G1 X80.812 Y64.501 E0.01675
G1 X75.202 Y58.891 E0.24902
G1 X75.202 Y59.424 E0.01675
G1 X80.812 Y65.035 E0.24902
G1 X80.812 Y65.568 E0.01675
G1 X75.202 Y59.958 E0.24902
G1 X75.202 Y60.492 E0.01675
G1 X80.812 Y66.102 E0.24902
G1 X80.812 Y66.636 E0.01675
G1 X75.202 Y61.026 E0.24902
G1 X75.202 Y61.560 E0.01675
G1 X80.812 Y67.170 E0.24902
G1 X80.812 Y67.704 E0.01675
G1 X75.202 Y62.093 E0.24902
G1 X75.202 Y62.627 E0.01675
G1 X80.812 Y68.238 E0.24902
G1 X80.812 Y68.771 E0.01675
G1 X75.202 Y63.161 E0.24902
G1 X75.202 Y63.695 E0.01675
G1 X80.812 Y69.305 E0.24902
G1 X80.812 Y69.839 E0.01675
G1 X75.202 Y64.229 E0.24902
G1 X75.202 Y64.763 E0.01675
G1 X80.812 Y70.373 E0.24902
G1 X80.812 Y70.907 E0.01675
G1 X75.202 Y65.296 E0.24902
G1 X75.202 Y65.830 E0.01675
G1 X80.812 Y71.440 E0.24902
G1 X80.812 Y71.974 E0.01675
G1 X75.202 Y66.364 E0.24902
G1 X75.202 Y66.898 E0.01675
G1 X80.812 Y72.508 E0.24902
G1 X80.812 Y73.042 E0.01675
G1 X75.202 Y67.432 E0.24902
G1 X75.202 Y67.965 E0.01675
G1 X80.812 Y73.576 E0.24902
G1 X80.812 Y74.110 E0.01675
G1 X75.202 Y68.499 E0.24902
G1 X75.202 Y69.033 E0.01675
G1 X80.812 Y74.643 E0.24902
G1 X80.812 Y75.177 E0.01675
G1 X75.202 Y69.567 E0.24902
M73 P5 R18
G1 X75.202 Y70.101 E0.01675
G1 X80.812 Y75.711 E0.24902
G1 X80.812 Y76.245 E0.01675
G1 X75.202 Y70.635 E0.24902
G1 X75.202 Y71.168 E0.01675
G1 X80.812 Y76.779 E0.24902
G1 X80.812 Y77.312 E0.01675
G1 X75.202 Y71.702 E0.24902
G1 X75.202 Y72.236 E0.01675
G1 X80.812 Y77.846 E0.24902
G1 X80.812 Y78.380 E0.01675
G1 X75.202 Y72.770 E0.24902
M73 P6 R18
G1 X75.202 Y73.304 E0.01675
G1 X80.812 Y78.914 E0.24902
G1 X80.812 Y79.448 E0.01675
G1 X75.202 Y73.837 E0.24902
G1 X75.202 Y74.371 E0.01675
G1 X80.812 Y79.981 E0.24902
G1 X80.812 Y80.515 E0.01675
G1 X75.202 Y74.905 E0.24902
G1 X75.202 Y75.439 E0.01675
G1 X80.812 Y81.049 E0.24902
G1 X80.812 Y81.583 E0.01675
G1 X75.202 Y75.973 E0.24902
G1 X75.202 Y76.506 E0.01675
G1 X80.812 Y82.117 E0.24902
G1 X80.812 Y82.651 E0.01675
G1 X75.202 Y77.040 E0.24902
G1 X75.202 Y77.136 E0.00299
G1 X74.325 Y76.697 E0.03078
G1 X80.812 Y83.184 E0.28795
G1 X80.812 Y83.718 E0.01675
G1 X73.257 Y76.163 E0.33534
G1 X72.189 Y75.629 E0.03746
G1 X80.812 Y84.252 E0.38273
G1 X80.812 Y84.786 E0.01675
G1 X71.122 Y75.096 E0.43012
G1 X70.054 Y74.562 E0.03746
G1 X80.812 Y85.320 E0.47751
G1 X80.812 Y85.853 E0.01675
G1 X68.986 Y74.028 E0.52490
G1 X67.919 Y73.494 E0.03746
G1 X80.812 Y86.387 E0.57229
G1 X80.812 Y86.921 E0.01675
G1 X66.851 Y72.960 E0.61968
G1 X65.784 Y72.427 E0.03746
G1 X80.812 Y87.455 E0.66706
G1 X80.812 Y87.989 E0.01675
G1 X64.716 Y71.893 E0.71445
M73 P7 R18
G1 X63.648 Y71.359 E0.03746
G1 X80.812 Y88.523 E0.76184
G1 X80.812 Y89.056 E0.01675
G1 X62.581 Y70.825 E0.80923
G1 X61.513 Y70.291 E0.03746
G1 X80.812 Y89.590 E0.85662
G1 X80.812 Y90.124 E0.01675
G1 X60.445 Y69.757 E0.90401
G1 X59.378 Y69.224 E0.03746
G1 X80.812 Y90.658 E0.95140
G1 X80.812 Y91.192 E0.01675
G1 X58.310 Y68.690 E0.99879
G1 X57.243 Y68.156 E0.03746
G1 X80.812 Y91.725 E1.04618
G1 X80.812 Y92.259 E0.01675
G1 X56.175 Y67.622 E1.09357
M73 P8 R18
G1 X55.202 Y67.136 E0.03415
G1 X55.202 Y67.183 E0.00148
G1 X80.812 Y92.793 E1.13676
G1 X80.812 Y93.327 E0.01675
G1 X55.202 Y67.717 E1.13676
G1 X55.202 Y68.250 E0.01675
G1 X80.812 Y93.861 E1.13676
G1 X80.812 Y94.395 E0.01675
G1 X55.202 Y68.784 E1.13676
G1 X55.202 Y69.318 E0.01675
G1 X80.812 Y94.928 E1.13676
G1 X80.812 Y95.462 E0.01675
G1 X55.202 Y69.852 E1.13676
M73 P9 R18
G1 X55.202 Y70.386 E0.01675
G1 X80.812 Y95.996 E1.13676
G1 X80.812 Y96.530 E0.01675
G1 X55.202 Y70.920 E1.13676
G1 X55.202 Y71.453 E0.01675
G1 X80.812 Y97.064 E1.13676
G1 X80.812 Y97.597 E0.01675
G1 X55.202 Y71.987 E1.13676
G1 X55.202 Y72.521 E0.01675
G1 X80.812 Y98.131 E1.13676
G1 X80.812 Y98.665 E0.01675
G1 X55.202 Y73.055 E1.13676
G1 X55.202 Y73.589 E0.01675
G1 X80.812 Y99.199 E1.13676
M73 P10 R18
G1 X80.812 Y99.733 E0.01675
G1 X55.202 Y74.122 E1.13676
G1 X55.202 Y74.656 E0.01675
G1 X80.812 Y100.267 E1.13676
G1 X80.812 Y100.800 E0.01675
G1 X55.202 Y75.190 E1.13676
G1 X55.202 Y75.724 E0.01675
G1 X80.812 Y101.334 E1.13676
G1 X80.812 Y101.868 E0.01675
G1 X55.202 Y76.258 E1.13676
M73 P10 R17
G1 X55.202 Y76.792 E0.01675
G1 X80.812 Y102.402 E1.13676
M73 P11 R17
G1 X80.812 Y102.936 E0.01675
G1 X55.202 Y77.325 E1.13676
G1 X55.202 Y77.859 E0.01675
G1 X80.812 Y103.469 E1.13676
G1 X80.812 Y104.003 E0.01675
G1 X55.202 Y78.393 E1.13676
G1 X55.202 Y78.927 E0.01675
G1 X80.812 Y104.537 E1.13676
G1 X80.812 Y105.071 E0.01675
G1 X55.202 Y79.461 E1.13676
G1 X55.202 Y79.994 E0.01675
G1 X80.812 Y105.605 E1.13676
M73 P12 R17
G1 X80.812 Y106.138 E0.01675
G1 X55.202 Y80.528 E1.13676
G1 X55.202 Y81.062 E0.01675
G1 X80.812 Y106.672 E1.13676
G1 X80.812 Y107.206 E0.01675
G1 X55.202 Y81.596 E1.13676
G1 X55.202 Y82.130 E0.01675
G1 X80.812 Y107.740 E1.13676
G1 X80.812 Y108.274 E0.01675
G1 X55.202 Y82.663 E1.13676
G1 X55.202 Y83.197 E0.01675
G1 X80.812 Y108.808 E1.13676
G1 X80.812 Y109.341 E0.01675
G1 X75.202 Y103.731 E0.24902
G1 X75.202 Y104.265 E0.01675
G1 X80.812 Y109.875 E0.24902
M73 P13 R17
G1 X80.812 Y110.409 E0.01675
G1 X75.202 Y104.799 E0.24902
G1 X75.202 Y105.333 E0.01675
G1 X80.812 Y110.943 E0.24902
G1 X80.812 Y111.477 E0.01675
G1 X75.202 Y105.866 E0.24902
G1 X75.202 Y106.400 E0.01675
G1 X80.812 Y112.010 E0.24902
G1 X80.812 Y112.544 E0.01675
G1 X75.202 Y106.934 E0.24902
G1 X75.202 Y107.468 E0.01675
G1 X80.812 Y113.078 E0.24902
G1 X80.812 Y113.612 E0.01675
G1 X75.202 Y108.002 E0.24902
G1 X75.202 Y108.535 E0.01675
G1 X80.812 Y114.146 E0.24902
G1 X80.812 Y114.680 E0.01675
G1 X75.202 Y109.069 E0.24902
G1 X75.202 Y109.603 E0.01675
G1 X80.812 Y115.213 E0.24902
G1 X80.812 Y115.747 E0.01675
G1 X75.202 Y110.137 E0.24902
G1 X75.202 Y110.671 E0.01675
G1 X80.812 Y116.281 E0.24902
G1 X80.812 Y116.815 E0.01675
G1 X75.202 Y111.205 E0.24902
G1 X75.202 Y111.738 E0.01675
G1 X80.812 Y117.349 E0.24902
G1 X80.812 Y117.882 E0.01675
G1 X75.202 Y112.272 E0.24902
G1 X75.202 Y112.806 E0.01675
G1 X80.812 Y118.416 E0.24902
G1 X80.812 Y118.950 E0.01675
G1 X75.202 Y113.340 E0.24902
G1 X75.202 Y113.874 E0.01675
G1 X80.812 Y119.484 E0.24902
G1 X80.812 Y120.018 E0.01675
G1 X75.202 Y114.407 E0.24902
G1 X75.202 Y114.941 E0.01675
G1 X80.812 Y120.552 E0.24902
G1 X80.812 Y121.085 E0.01675
G1 X75.202 Y115.475 E0.24902
G1 X75.202 Y116.009 E0.01675
G1 X80.812 Y121.619 E0.24902
G1 X80.812 Y122.153 E0.01675
G1 X75.202 Y116.543 E0.24902
G1 X75.202 Y117.077 E0.01675
G1 X80.812 Y122.687 E0.24902
G1 X80.812 Y123.221 E0.01675
G1 X75.202 Y117.610 E0.24902
G1 X75.202 Y118.144 E0.01675
G1 X80.812 Y123.754 E0.24902
G1 X80.812 Y123.930 E0.00552
G1 X80.454 Y123.930 E0.01124
G1 X75.202 Y118.678 E0.23313
M73 P14 R17
G1 X75.202 Y119.212 E0.01675
G1 X79.920 Y123.930 E0.20943
G1 X79.386 Y123.930 E0.01675
G1 X75.202 Y119.746 E0.18574
G1 X75.202 Y120.279 E0.01675
G1 X78.852 Y123.930 E0.16204
G1 X78.319 Y123.930 E0.01675
G1 X75.202 Y120.813 E0.13835
G1 X75.202 Y121.347 E0.01675
G1 X77.785 Y123.930 E0.11466
G1 X77.251 Y123.930 E0.01675
G1 X75.202 Y121.881 E0.09096
G1 X75.202 Y122.415 E0.01675
G1 X76.717 Y123.930 E0.06727
G1 X76.183 Y123.930 E0.01675
G1 X75.202 Y122.948 E0.04357
G1 X75.202 Y123.482 E0.01675
G1 X75.819 Y124.100 E0.02741
M204 S1250
G1 E-2.24000 F4200.000
;WIPE_START
G1 F7200.000
G1 X75.202 Y123.482 E-0.48395
G1 X75.202 Y122.948 E-0.29582
G1 X75.370 Y123.117 E-0.13223
;WIPE_END
G1 E-0.04800 F4200.000
G1 Z0.400 F9000.000
G1 X74.750 Y103.280
G1 Z0.200
G1 E3.20000 F2400.000
M204 S800
G1 F1200.000
G1 X55.202 Y83.731 E0.86771
G1 X55.202 Y84.265 E0.01675
G1 X74.268 Y103.331 E0.84630
G1 X73.912 Y103.509 E0.01249
G1 X55.202 Y84.799 E0.83050
G1 X55.202 Y85.333 E0.01675
G1 X73.556 Y103.687 E0.81470
G1 X73.200 Y103.865 E0.01249
G1 X55.202 Y85.866 E0.79891
G1 X55.202 Y86.400 E0.01675
G1 X72.844 Y104.043 E0.78311
G1 X72.489 Y104.221 E0.01249
G1 X55.202 Y86.934 E0.76732
M73 P15 R17
G1 X55.202 Y87.468 E0.01675
G1 X72.133 Y104.399 E0.75152
G1 X71.777 Y104.577 E0.01249
G1 X55.202 Y88.002 E0.73572
G1 X55.202 Y88.535 E0.01675
G1 X71.421 Y104.755 E0.71993
G1 X71.065 Y104.933 E0.01249
G1 X55.202 Y89.069 E0.70413
G1 X55.202 Y89.603 E0.01675
G1 X70.709 Y105.111 E0.68833
G1 X70.353 Y105.289 E0.01249
G1 X55.202 Y90.137 E0.67254
G1 X55.202 Y90.671 E0.01675
G1 X69.997 Y105.467 E0.65674
G1 X69.642 Y105.644 E0.01249
G1 X55.202 Y91.205 E0.64094
G1 X55.202 Y91.738 E0.01675
G1 X69.286 Y105.822 E0.62515
G1 X68.930 Y106.000 E0.01249
G1 X55.202 Y92.272 E0.60935
M73 P15 R16
G1 X55.202 Y92.806 E0.01675
G1 X68.574 Y106.178 E0.59356
M73 P16 R16
G1 X68.218 Y106.356 E0.01249
G1 X55.202 Y93.340 E0.57776
G1 X55.202 Y93.874 E0.01675
G1 X67.862 Y106.534 E0.56196
G1 X67.506 Y106.712 E0.01249
G1 X55.202 Y94.407 E0.54617
G1 X55.202 Y94.941 E0.01675
G1 X67.150 Y106.890 E0.53037
G1 X66.795 Y107.068 E0.01249
G1 X55.202 Y95.475 E0.51457
G1 X55.202 Y96.009 E0.01675
G1 X66.439 Y107.246 E0.49878
G1 X66.083 Y107.424 E0.01249
G1 X55.202 Y96.543 E0.48298
G1 X55.202 Y97.077 E0.01675
G1 X65.727 Y107.602 E0.46718
G1 X65.371 Y107.780 E0.01249
G1 X55.202 Y97.610 E0.45139
G1 X55.202 Y98.144 E0.01675
G1 X65.015 Y107.958 E0.43559
G1 X64.659 Y108.136 E0.01249
G1 X55.202 Y98.678 E0.41980
G1 X55.202 Y99.212 E0.01675
G1 X64.303 Y108.314 E0.40400
G1 X63.948 Y108.491 E0.01249
G1 X55.202 Y99.746 E0.38820
G1 X55.202 Y100.279 E0.01675
G1 X63.592 Y108.669 E0.37241
M73 P17 R16
G1 X63.236 Y108.847 E0.01249
G1 X55.202 Y100.813 E0.35661
G1 X55.202 Y101.347 E0.01675
G1 X62.880 Y109.025 E0.34081
G1 X62.524 Y109.203 E0.01249
G1 X55.202 Y101.881 E0.32502
G1 X55.202 Y102.415 E0.01675
G1 X62.168 Y109.381 E0.30922
G1 X61.812 Y109.559 E0.01249
G1 X55.202 Y102.948 E0.29343
G1 X55.202 Y103.482 E0.01675
G1 X61.456 Y109.737 E0.27763
G1 X61.101 Y109.915 E0.01249
G1 X55.202 Y104.016 E0.26183
G1 X55.202 Y104.550 E0.01675
G1 X60.745 Y110.093 E0.24604
G1 X60.389 Y110.271 E0.01249
G1 X55.202 Y105.084 E0.23024
G1 X55.202 Y105.618 E0.01675
G1 X60.033 Y110.449 E0.21444
G1 X59.677 Y110.627 E0.01249
G1 X55.202 Y106.151 E0.19865
G1 X55.202 Y106.685 E0.01675
G1 X59.321 Y110.805 E0.18285
G1 X58.965 Y110.983 E0.01249
G1 X55.202 Y107.219 E0.16705
G1 X55.202 Y107.753 E0.01675
G1 X58.609 Y111.161 E0.15126
G1 X58.254 Y111.338 E0.01249
G1 X55.202 Y108.287 E0.13546
G1 X55.202 Y108.820 E0.01675
G1 X57.898 Y111.516 E0.11967
G1 X57.542 Y111.694 E0.01249
G1 X55.202 Y109.354 E0.10387
G1 X55.202 Y109.888 E0.01675
G1 X57.186 Y111.872 E0.08807
G1 X56.830 Y112.050 E0.01249
G1 X55.202 Y110.422 E0.07228
G1 X55.202 Y110.956 E0.01675
G1 X56.474 Y112.228 E0.05648
G1 X56.118 Y112.406 E0.01249
G1 X55.202 Y111.490 E0.04068
G1 X55.202 Y112.023 E0.01675
G1 X55.762 Y112.584 E0.02489
G1 X55.407 Y112.762 E0.01249
G1 X55.032 Y112.387 E0.01662
M204 S1250
G1 E-2.24000 F4200.000
;WIPE_START
G1 F7200.000
G1 X55.407 Y112.762 E-0.29350
G1 X55.762 Y112.584 E-0.22049
G1 X55.255 Y112.076 E-0.39800
;WIPE_END
G1 E-0.04800 F4200.000
G1 Z0.400 F9000.000
G1 X109.155 Y116.274
G1 Z0.200
G1 E3.20000 F2400.000
M204 S800
;TYPE:Perimeter
;WIDTH:0.42
G1 F1200.000
G1 X109.155 Y63.726 E1.64758
G1 X89.155 Y73.726 E0.70110
M73 P18 R16
G1 X89.155 Y55.787 E0.56248
G1 X125.081 Y55.787 E1.12643
G1 X125.081 Y124.213 E2.14544
G1 X89.155 Y124.213 E1.12643
G1 X89.155 Y106.274 E0.56248
G1 X109.102 Y116.247 E0.69922
M204 S1250
G1 X108.778 Y115.663 F9000.000
M204 S800
;TYPE:External perimeter
G1 F1200.000
G1 X108.778 Y64.337 E1.60932
M73 P19 R16
G1 X88.778 Y74.337 E0.70110
G1 X88.778 Y55.410 E0.59343
G1 X125.458 Y55.410 E1.15008
G1 X125.458 Y124.590 E2.16909
G1 X88.778 Y124.590 E1.15008
G1 X88.778 Y105.663 E0.59343
