; generated by PrusaSlicer 2.2.0+win64 on 2020-11-11 at 09:40:14 UTC


;
;

;
;
; 

; external perimeters extrusion width = 0.45mm
; perimeters extrusion width = 0.45mm
; infill extrusion width = 0.45mm
; solid infill extrusion width = 0.45mm
; top infill extrusion width = 0.40mm
; first layer extrusion width = 0.42mm

M73 P0 R32
M201 X1250 Y1250 Z400 E5000 ; sets maximum accelerations, mm/sec^2
M203 X180 Y180 Z12 E80 ; sets maximum feedrates, mm/sec
M204 P1250 R1250 T1250 ; sets acceleration (P, T) and retract acceleration (R), mm/sec^2
M205 X8.00 Y8.00 Z2.00 E10.00 ; sets the jerk limits, mm/sec
M205 S0 T0 ; sets the minimum extruding and travel feed rate, mm/sec
M107
G90 ; use absolute coordinates
M83 ; extruder relative mode
M104 S170 ; set extruder temp for bed leveling
M140 S60 ; set bed temp
M109 R170 ; wait for bed leveling temp
M190 S60 ; wait for bed temp
G28 ; home all without mesh bed level
G29 ; mesh bed leveling 
M104 S215 ; set extruder temp
G92 E0.0
G1 Y-2.0 X179 F2400
G1 Z3 F720
M109 S215 ; wait for extruder temp

; intro line
G1 X170 F1000
G1 Z0.2 F720
G1 X110.0 E8.0 F900
M73 P0 R32
G1 X40.0 E10.0 F700
G92 E0.0

M221 S95 ; set flow
G21 ; set units to millimeters
G90 ; use absolute coordinates
M83 ; use relative distances for extrusion
M900 K0.2 ; Filament gcode LA 1.5
; ; Filament gcode LA 1.0
;BEFORE_LAYER_CHANGE
G92 E0.0
;0.2


G1 Z0.200 F9000.000
;AFTER_LAYER_CHANGE
;0.2
G1 E-3.20000 F4200.00000
G1 Z0.400 F9000.000
G1 X58.724 Y85.252
G1 Z0.200
G1 E3.20000 F2400.00000
M204 S800
G1 F1200.000
G1 X59.261 Y84.487 E0.02931
G1 X83.272 Y62.630 E1.01805
G1 X88.830 Y57.678 E0.23340
G1 X89.708 Y57.160 E0.03198
G1 X90.606 Y56.996 E0.02862
G1 X91.412 Y57.137 E0.02563
G1 X92.154 Y57.546 E0.02658
G1 X94.779 Y60.277 E0.11875
G1 X120.843 Y88.776 E1.21094
G1 X121.320 Y89.575 E0.02918
G1 X121.476 Y90.506 E0.02958
G1 X121.405 Y91.069 E0.01781
G1 X121.228 Y91.590 E0.01722
G1 X120.558 Y92.608 E0.03823
G1 X94.846 Y120.754 E1.19528
G1 X93.725 Y121.703 E0.04606
G1 X92.258 Y122.486 E0.05216
G1 X90.822 Y122.893 E0.04680
G1 X89.372 Y123.002 E0.04557
G1 X87.864 Y122.811 E0.04767
G1 X86.288 Y122.248 E0.05249
G1 X85.017 Y121.454 E0.04700
G1 X83.931 Y120.417 E0.04708
G1 X58.992 Y87.626 E1.29170
G1 X58.637 Y86.934 E0.02437
G1 X58.524 Y86.165 E0.02437
G1 X58.711 Y85.311 E0.02743
M204 S1250
G1 E-2.24000 F4200.00000
G1 F7200.000
G1 X59.261 Y84.487 E-0.54881
G1 X59.746 Y84.046 E-0.36319
G1 E-0.04800 F4200.00000
G1 Z0.400 F9000.000
G1 X106.197 Y99.969
G1 Z0.200
G1 E3.20000 F2400.00000
M204 S800
G1 F1200.000
G1 X105.800 Y100.362 E0.01752
G1 X105.453 Y100.522 E0.01197
G1 X105.008 Y100.609 E0.01424
G1 X104.571 Y100.658 E0.01378
G1 X103.550 Y100.720 E0.03206
G1 X101.900 Y100.756 E0.05176
G1 X99.761 Y100.745 E0.06707
G1 X98.458 Y100.697 E0.04086
G1 X97.453 Y100.608 E0.03165
G1 X96.933 Y100.495 E0.01670
G1 X96.684 Y100.367 E0.00877
G1 X96.234 Y99.962 E0.01897
G1 X96.379 Y99.351 E0.01969
G1 X96.539 Y99.083 E0.00980
G1 X96.771 Y98.884 E0.00959
G1 X97.109 Y98.725 E0.01171
G1 X97.557 Y98.624 E0.01438
G1 X98.176 Y98.590 E0.01946
G1 X98.568 Y98.540 E0.01238
G1 X98.896 Y98.463 E0.01056
G1 X99.056 Y98.401 E0.00540
G1 X99.121 Y98.057 E0.01096
G1 X99.177 Y97.397 E0.02080
G1 X99.224 Y96.133 E0.03965
G1 X99.265 Y92.053 E0.12791
G1 X99.259 Y81.642 E0.32645
G1 X99.223 Y78.252 E0.10627
G1 X99.170 Y76.328 E0.06038
G1 X99.128 Y75.486 E0.02641
G1 X99.058 Y74.664 E0.02587
G1 X98.987 Y74.200 E0.01472
G1 X98.929 Y73.977 E0.00722
G1 X98.759 Y73.618 E0.01246
G1 X98.547 Y73.305 E0.01184
G1 X98.328 Y73.081 E0.00983
G1 X98.110 Y72.932 E0.00828
G1 X97.895 Y72.843 E0.00729
G1 X97.677 Y72.805 E0.00695
G1 X97.435 Y72.815 E0.00758
G1 X97.251 Y72.858 E0.00593
G1 X96.902 Y73.016 E0.01202
G1 X96.156 Y73.543 E0.02863
G1 X95.700 Y73.804 E0.01648
G1 X95.142 Y74.028 E0.01885
G1 X94.842 Y74.101 E0.00966
G1 X94.487 Y74.144 E0.01121
G1 X94.199 Y74.140 E0.00904
G1 X93.796 Y74.074 E0.01279
G1 X93.298 Y73.874 E0.01684
G1 X92.851 Y73.553 E0.01726
G1 X92.584 Y73.285 E0.01187
G1 X92.318 Y72.959 E0.01317
G1 X92.177 Y72.731 E0.00842
G1 X92.058 Y72.447 E0.00964
G1 X91.998 Y72.087 E0.01146
G1 X92.023 Y71.804 E0.00892
G1 X92.111 Y71.530 E0.00902
G1 X92.246 Y71.293 E0.00854
G1 X92.420 Y71.082 E0.00857
G1 X92.637 Y70.885 E0.00920
G1 X92.996 Y70.634 E0.01374
G1 X93.323 Y70.445 E0.01183
G1 X93.724 Y70.243 E0.01410
G1 X94.063 Y70.102 E0.01152
G1 X94.569 Y69.944 E0.01663
G1 X94.938 Y69.863 E0.01184
G1 X95.657 Y69.786 E0.02266
G1 X96.213 Y69.795 E0.01744
G1 X96.780 Y69.861 E0.01790
G1 X97.353 Y69.985 E0.01838
G1 X97.928 Y70.169 E0.01892
G1 X98.500 Y70.411 E0.01949
G1 X99.038 Y70.694 E0.01905
G1 X99.594 Y71.048 E0.02069
G1 X100.137 Y71.458 E0.02132
G1 X100.659 Y71.921 E0.02190
G1 X101.158 Y72.435 E0.02244
G1 X101.625 Y72.993 E0.02284
G1 X101.925 Y73.397 E0.01577
G1 X102.337 Y74.026 E0.02357
G1 X102.712 Y74.695 E0.02404
G1 X103.025 Y75.349 E0.02274
G1 X103.214 Y75.835 E0.01634
G1 X103.392 Y76.538 E0.02274
G1 X103.497 Y77.271 E0.02323
G1 X103.580 Y78.318 E0.03292
G1 X103.628 Y79.308 E0.03109
G1 X103.721 Y83.041 E0.11710
G1 X103.885 Y93.446 E0.32626
G1 X103.975 Y96.044 E0.08152
G1 X104.079 Y97.420 E0.04327
G1 X104.133 Y97.832 E0.01301
G1 X104.216 Y98.254 E0.01349
G1 X104.286 Y98.478 E0.00737
G1 X104.342 Y98.584 E0.00373
G1 X104.870 Y98.604 E0.01658
G1 X105.135 Y98.643 E0.00838
G1 X105.394 Y98.716 E0.00843
G1 X105.700 Y98.869 E0.01074
G1 X105.915 Y99.057 E0.00897
G1 X106.093 Y99.335 E0.01034
G1 X106.187 Y99.910 E0.01827
M204 S1250
G1 X105.793 Y99.838 F9000.000
M204 S800
G1 F1200.000
G1 X105.582 Y100.048 E0.00933
G1 X105.337 Y100.160 E0.00847
G1 X104.950 Y100.236 E0.01234
G1 X104.539 Y100.282 E0.01299
G1 X103.535 Y100.343 E0.03154
G1 X101.897 Y100.379 E0.05137
G1 X99.769 Y100.368 E0.06672
G1 X98.482 Y100.321 E0.04037
G1 X97.510 Y100.235 E0.03059
G1 X97.061 Y100.137 E0.01441
G1 X96.900 Y100.054 E0.00570
G1 X96.652 Y99.832 E0.01042
G1 X96.732 Y99.495 E0.01084
G1 X96.831 Y99.330 E0.00605
G1 X96.978 Y99.204 E0.00606
G1 X97.233 Y99.084 E0.00881
G1 X97.609 Y98.999 E0.01211
G1 X98.211 Y98.966 E0.01889
G1 X98.635 Y98.911 E0.01340
G1 X99.007 Y98.825 E0.01200
G1 X99.301 Y98.711 E0.00986
G1 X99.350 Y98.674 E0.00194
G1 X99.397 Y98.589 E0.00304
G1 X99.457 Y98.361 E0.00739
G1 X99.496 Y98.102 E0.00823
G1 X99.553 Y97.419 E0.02146
G1 X99.601 Y96.142 E0.04009
G1 X99.642 Y92.055 E0.12814
G1 X99.636 Y81.640 E0.32657
G1 X99.600 Y78.245 E0.10643
G1 X99.547 Y76.313 E0.06061
G1 X99.504 Y75.461 E0.02675
G1 X99.433 Y74.620 E0.02646
G1 X99.357 Y74.124 E0.01574
G1 X99.285 Y73.848 E0.00894
G1 X99.088 Y73.430 E0.01448
G1 X98.840 Y73.066 E0.01382
G1 X98.571 Y72.791 E0.01204
G1 X98.291 Y72.598 E0.01068
G1 X98.001 Y72.479 E0.00983
G1 X97.701 Y72.426 E0.00955
G1 X97.383 Y72.440 E0.00997
G1 X97.138 Y72.497 E0.00791
G1 X96.876 Y72.602 E0.00883
G1 X96.702 Y72.695 E0.00619
G1 X95.953 Y73.225 E0.02877
G1 X95.535 Y73.464 E0.01510
G1 X95.026 Y73.668 E0.01720
G1 X94.775 Y73.730 E0.00811
G1 X94.467 Y73.767 E0.00971
G1 X94.232 Y73.764 E0.00737
G1 X93.898 Y73.709 E0.01061
G1 X93.481 Y73.541 E0.01411
G1 X93.096 Y73.265 E0.01485
G1 X92.864 Y73.032 E0.01030
G1 X92.626 Y72.741 E0.01180
G1 X92.514 Y72.558 E0.00674
G1 X92.422 Y72.342 E0.00735
G1 X92.378 Y72.073 E0.00854
G1 X92.395 Y71.879 E0.00611
G1 X92.458 Y71.682 E0.00648
G1 X92.557 Y71.508 E0.00628
G1 X92.693 Y71.343 E0.00670
G1 X92.873 Y71.180 E0.00760
G1 X93.198 Y70.952 E0.01246
G1 X93.502 Y70.777 E0.01098
G1 X93.881 Y70.586 E0.01333
G1 X94.192 Y70.457 E0.01055
G1 X94.666 Y70.308 E0.01557
G1 X94.999 Y70.236 E0.01068
G1 X95.674 Y70.164 E0.02130
G1 X96.188 Y70.171 E0.01612
G1 X96.718 Y70.233 E0.01672
G1 X97.255 Y70.350 E0.01724
G1 X97.797 Y70.523 E0.01782
G1 X98.339 Y70.752 E0.01844
G1 X98.848 Y71.020 E0.01806
G1 X99.379 Y71.358 E0.01972
G1 X99.897 Y71.750 E0.02038
G1 X100.398 Y72.194 E0.02099
G1 X100.877 Y72.688 E0.02157
G1 X101.329 Y73.227 E0.02205
G1 X101.615 Y73.613 E0.01507
G1 X102.014 Y74.222 E0.02282
G1 X102.377 Y74.869 E0.02325
G1 X102.679 Y75.499 E0.02190
G1 X102.854 Y75.950 E0.01517
G1 X103.022 Y76.611 E0.02139
G1 X103.122 Y77.313 E0.02223
G1 X103.204 Y78.342 E0.03236
G1 X103.251 Y79.322 E0.03077
G1 X103.344 Y83.049 E0.11691
G1 X103.508 Y93.455 E0.32632
G1 X103.598 Y96.065 E0.08187
G1 X103.704 Y97.459 E0.04384
G1 X103.761 Y97.892 E0.01370
G1 X103.850 Y98.347 E0.01452
G1 X103.936 Y98.624 E0.00911
G1 X104.041 Y98.822 E0.00703
G1 X104.101 Y98.884 E0.00269
G1 X104.199 Y98.935 E0.00348
G1 X104.329 Y98.961 E0.00415
G1 X104.835 Y98.980 E0.01588
G1 X105.056 Y99.013 E0.00699
G1 X105.257 Y99.069 E0.00655
G1 X105.488 Y99.184 E0.00810
G1 X105.627 Y99.305 E0.00575
G1 X105.733 Y99.472 E0.00622
G1 X105.784 Y99.779 E0.00974
M204 S1250
G1 X105.967 Y100.080 F9000.000
G1 E-2.24000 F4200.00000
G1 F7200.000
G1 X105.582 Y100.048 E-0.18619
G1 X105.337 Y100.160 E-0.14964
G1 X104.950 Y100.236 E-0.21804
G1 X104.539 Y100.282 E-0.22962
G1 X104.307 Y100.296 E-0.12851
G1 E-0.04800 F4200.00000
G1 Z0.400 F9000.000
G1 X90.886 Y113.183
G1 Z0.200
G1 E3.20000 F2400.00000
M204 S800
G1 F1200.000
G1 X91.318 Y113.478 E0.01640
G1 X91.572 Y113.717 E0.01094
G1 X91.801 Y113.992 E0.01122
G1 X92.066 Y114.439 E0.01630
G1 X92.244 Y114.934 E0.01647
G1 X92.326 Y115.452 E0.01645
G1 X92.310 Y115.976 E0.01645
G1 X92.195 Y116.488 E0.01644
G1 X91.990 Y116.963 E0.01623
G1 X91.798 Y117.266 E0.01125
G1 X91.571 Y117.540 E0.01114
G1 X91.182 Y117.884 E0.01631
G1 X90.730 Y118.152 E0.01647
G1 X90.236 Y118.329 E0.01646
G1 X89.716 Y118.412 E0.01651
G1 X89.194 Y118.395 E0.01638
G1 X88.680 Y118.281 E0.01652
G1 X88.198 Y118.072 E0.01647
G1 X87.764 Y117.777 E0.01645
G1 X87.391 Y117.404 E0.01654
G1 X87.098 Y116.971 E0.01638
G1 X86.949 Y116.654 E0.01100
G1 X86.838 Y116.312 E0.01126
G1 X86.758 Y115.807 E0.01604
G1 X86.774 Y115.277 E0.01665
G1 X86.888 Y114.766 E0.01642
G1 X87.097 Y114.284 E0.01645
G1 X87.392 Y113.849 E0.01649
G1 X87.757 Y113.484 E0.01618
G1 X88.047 Y113.273 E0.01124
G1 X88.361 Y113.101 E0.01122
G1 X88.848 Y112.925 E0.01623
G1 X89.366 Y112.843 E0.01647
G1 X89.891 Y112.860 E0.01645
G1 X90.403 Y112.974 E0.01645
G1 X90.831 Y113.159 E0.01462
M204 S1250
G1 X90.681 Y113.505 F9000.000
M204 S800
G1 F1200.000
G1 X91.081 Y113.773 E0.01508
G1 X91.297 Y113.975 E0.00928
G1 X91.491 Y114.210 E0.00956
G1 X91.723 Y114.601 E0.01425
G1 X91.877 Y115.028 E0.01423
G1 X91.948 Y115.476 E0.01421
G1 X91.934 Y115.929 E0.01421
G1 X91.835 Y116.371 E0.01420
G1 X91.656 Y116.786 E0.01418
G1 X91.492 Y117.044 E0.00958
G1 X91.300 Y117.277 E0.00948
G1 X90.959 Y117.578 E0.01425
G1 X90.568 Y117.809 E0.01423
G1 X90.142 Y117.963 E0.01422
G1 X89.692 Y118.034 E0.01427
G1 X89.241 Y118.020 E0.01414
G1 X88.797 Y117.920 E0.01429
G1 X88.380 Y117.740 E0.01423
G1 X88.005 Y117.485 E0.01422
G1 X87.683 Y117.163 E0.01429
G1 X87.427 Y116.785 E0.01433
G1 X87.300 Y116.515 E0.00934
G1 X87.206 Y116.224 E0.00960
G1 X87.136 Y115.783 E0.01399
G1 X87.150 Y115.324 E0.01441
G1 X87.249 Y114.883 E0.01418
G1 X87.429 Y114.466 E0.01422
G1 X87.684 Y114.090 E0.01425
G1 X88.003 Y113.772 E0.01413
G1 X88.250 Y113.592 E0.00957
G1 X88.517 Y113.445 E0.00955
G1 X88.942 Y113.292 E0.01418
G1 X89.390 Y113.221 E0.01423
G1 X89.843 Y113.235 E0.01422
G1 X90.286 Y113.334 E0.01422
G1 X90.626 Y113.481 E0.01162
M204 S1250
G1 X91.022 Y113.296 F9000.000
G1 E-2.24000 F4200.00000
G1 F7200.000
G1 X91.081 Y113.773 E-0.29932
G1 X91.297 Y113.975 E-0.16404
G1 X91.491 Y114.210 E-0.16890
G1 X91.723 Y114.601 E-0.25179
G1 X91.740 Y114.648 E-0.02795
G1 E-0.04800 F4200.00000
G1 Z0.400 F9000.000
G1 X93.154 Y113.337
G1 Z0.200
G1 E3.20000 F2400.00000
M204 S800
G1 F1200.000
G1 X93.554 Y114.348 E0.03408
G1 X93.678 Y114.831 E0.01565
G1 X93.743 Y115.328 E0.01572
G1 X93.749 Y115.830 E0.01572
G1 X93.695 Y116.328 E0.01572
G1 X93.582 Y116.817 E0.01572
G1 X93.410 Y117.294 E0.01591
G1 X93.269 Y117.591 E0.01030
G1 X93.104 Y117.875 E0.01030
G1 X92.804 Y118.292 E0.01609
G1 X92.587 Y118.538 E0.01030
G1 X92.350 Y118.766 E0.01030
G1 X91.953 Y119.081 E0.01591
G1 X91.525 Y119.343 E0.01572
G1 X91.064 Y119.555 E0.01591
G1 X90.753 Y119.662 E0.01030
G1 X90.436 Y119.744 E0.01027
G1 X89.934 Y119.821 E0.01594
G1 X89.433 Y119.838 E0.01572
G1 X88.933 Y119.795 E0.01572
G1 X88.442 Y119.693 E0.01572
G1 X87.967 Y119.534 E0.01572
G1 X87.509 Y119.317 E0.01588
G1 X87.232 Y119.150 E0.01015
G1 X86.825 Y118.846 E0.01590
G1 X86.462 Y118.501 E0.01572
G1 X86.139 Y118.110 E0.01591
G1 X85.955 Y117.837 E0.01030
G1 X85.791 Y117.546 E0.01049
G1 X85.651 Y117.242 E0.01049
G1 X85.537 Y116.934 E0.01030
G1 X85.408 Y116.437 E0.01609
G1 X85.357 Y116.112 E0.01030
G1 X85.332 Y115.779 E0.01049
G1 X85.333 Y115.444 E0.01049
G1 X85.361 Y115.111 E0.01049
G1 X85.415 Y114.781 E0.01049
G1 X85.495 Y114.456 E0.01049
G1 X85.601 Y114.139 E0.01049
G1 X85.728 Y113.839 E0.01023
G1 X86.271 Y112.865 E0.03494
G1 X81.170 Y107.258 E0.23767
G1 X76.650 Y102.228 E0.21204
G1 X76.247 Y101.820 E0.01797
G1 X76.838 Y101.854 E0.01855
G1 X79.815 Y101.894 E0.09334
G1 X81.200 Y101.873 E0.04344
G1 X82.242 Y101.814 E0.03272
G1 X82.902 Y101.734 E0.02087
G1 X83.417 Y101.602 E0.01665
G1 X83.675 Y101.458 E0.00929
G1 X83.889 Y101.222 E0.01000
G1 X84.115 Y100.672 E0.01863
G1 X83.713 Y100.125 E0.02127
G1 X83.368 Y99.931 E0.01243
G1 X82.804 Y99.774 E0.01833
G1 X81.669 Y99.558 E0.03623
G1 X81.557 Y99.522 E0.00370
G1 X81.403 Y99.437 E0.00550
G1 X81.294 Y99.221 E0.00761
G1 X81.209 Y98.805 E0.01330
G1 X81.144 Y98.008 E0.02507
G1 X81.117 Y96.907 E0.03452
G1 X81.115 Y94.407 E0.07838
G1 X81.129 Y93.267 E0.03576
G1 X81.171 Y92.217 E0.03294
G1 X81.688 Y92.594 E0.02005
G1 X82.494 Y93.286 E0.03333
G1 X82.882 Y93.660 E0.01690
G1 X83.314 Y94.117 E0.01971
G1 X83.947 Y94.921 E0.03208
G1 X85.103 Y96.539 E0.06236
G1 X86.212 Y98.213 E0.06295
G1 X86.701 Y99.052 E0.03045
G1 X86.716 Y99.101 E0.00162
G1 X86.708 Y99.194 E0.00294
G1 X86.642 Y99.343 E0.00507
G1 X86.496 Y99.529 E0.00742
G1 X86.325 Y99.669 E0.00693
G1 X86.161 Y99.750 E0.00574
G1 X85.640 Y99.805 E0.01644
G1 X85.364 Y99.868 E0.00888
G1 X85.114 Y99.967 E0.00842
G1 X84.888 Y100.112 E0.00842
G1 X84.665 Y100.356 E0.01037
G1 X84.398 Y101.160 E0.02657
G1 X85.002 Y101.570 E0.02289
G1 X85.331 Y101.678 E0.01086
G1 X85.838 Y101.754 E0.01608
G1 X86.393 Y101.805 E0.01745
G1 X88.189 Y101.893 E0.05640
G1 X90.439 Y101.923 E0.07056
G1 X92.203 Y101.899 E0.05531
G1 X93.562 Y101.824 E0.04269
G1 X93.955 Y101.777 E0.01240
G1 X94.318 Y101.699 E0.01163
G1 X94.573 Y101.583 E0.00881
G1 X95.141 Y101.100 E0.02335
G1 X94.779 Y100.341 E0.02636
G1 X94.553 Y100.133 E0.00965
G1 X94.226 Y99.952 E0.01169
G1 X93.628 Y99.754 E0.01976
G1 X92.445 Y99.521 E0.03781
G1 X91.893 Y99.351 E0.01811
G1 X91.547 Y99.195 E0.01189
G1 X91.212 Y99.000 E0.01218
G1 X90.866 Y98.749 E0.01340
G1 X90.634 Y98.552 E0.00954
G1 X90.088 Y98.004 E0.02425
G1 X89.611 Y97.445 E0.02304
G1 X89.027 Y96.685 E0.03005
G1 X87.862 Y95.051 E0.06293
G1 X86.881 Y93.741 E0.05132
G1 X86.109 Y92.775 E0.03875
G1 X85.138 Y91.697 E0.04549
G1 X85.573 Y91.201 E0.02070
G1 X87.606 Y89.084 E0.09203
G1 X88.697 Y87.891 E0.05068
G1 X90.198 Y86.139 E0.07232
G1 X91.814 Y84.095 E0.08171
G1 X92.386 Y83.481 E0.02630
G1 X92.619 Y83.268 E0.00990
G1 X92.970 Y82.997 E0.01391
G1 X93.334 Y82.768 E0.01350
G1 X93.591 Y82.633 E0.00908
G1 X94.275 Y82.345 E0.02326
G1 X95.721 Y81.889 E0.04754
G1 X96.461 Y81.551 E0.02553
G1 X96.409 Y80.498 E0.03304
G1 X95.736 Y80.254 E0.02246
G1 X95.386 Y80.190 E0.01115
G1 X94.350 Y80.129 E0.03254
G1 X92.574 Y80.100 E0.05570
G1 X89.245 Y80.101 E0.10436
G1 X87.721 Y80.134 E0.04782
G1 X87.000 Y80.182 E0.02265
G1 X86.524 Y80.280 E0.01525
G1 X85.225 Y80.950 E0.04583
G1 X86.460 Y81.837 E0.04767
G1 X87.395 Y82.206 E0.03149
G1 X87.543 Y82.286 E0.00528
G1 X87.430 Y82.507 E0.00778
G1 X86.849 Y83.303 E0.03091
G1 X85.573 Y84.858 E0.06306
G1 X84.233 Y86.391 E0.06383
G1 X82.983 Y87.717 E0.05715
G1 X82.080 Y88.566 E0.03888
G1 X81.427 Y89.083 E0.02608
G1 X81.224 Y89.216 E0.00762
G1 X81.173 Y88.540 E0.02125
G1 X81.126 Y87.187 E0.04246
G1 X81.122 Y84.965 E0.06967
G1 X81.165 Y83.640 E0.04156
G1 X81.223 Y82.840 E0.02514
G1 X81.275 Y82.500 E0.01081
G1 X81.613 Y82.313 E0.01211
G1 X82.068 Y82.122 E0.01546
G1 X82.784 Y81.883 E0.02366
G1 X83.110 Y81.740 E0.01117
