; generated by PrusaSlicer 2.3.0+win64 on 2021-04-09 at 15:22:22 UTC


;
;

;
;
; 

; external perimeters extrusion width = 0.45mm
; perimeters extrusion width = 0.45mm
; infill extrusion width = 0.45mm
; solid infill extrusion width = 0.45mm
; top infill extrusion width = 0.40mm
; first layer extrusion width = 0.42mm

M73 P0 R2
M201 X1250 Y1250 Z400 E5000 ; sets maximum accelerations, mm/sec^2
M203 X180 Y180 Z12 E80 ; sets maximum feedrates, mm/sec
M204 P1250 R1250 T1250 ; sets acceleration (P, T) and retract acceleration (R), mm/sec^2
M205 X8.00 Y8.00 Z2.00 E10.00 ; sets the jerk limits, mm/sec
M205 S0 T0 ; sets the minimum extruding and travel feed rate, mm/sec
M107
;TYPE:Custom
G90 ; use absolute coordinates
M83 ; extruder relative mode
M104 S170 ; set extruder temp for bed leveling
M140 S60 ; set bed temp
M109 R170 ; wait for bed leveling temp
M190 S60 ; wait for bed temp
G28 ; home all without mesh bed level
G29 ; mesh bed leveling 
M104 S215 ; set extruder temp
G92 E0.0
G1 Y-2.0 X179 F2400
M73 P3 R2
G1 Z3 F720
M109 S215 ; wait for extruder temp

; intro line
M73 P4 R2
G1 X170 F1000
G1 Z0.2 F720
G1 X110.0 E8.0 F900
M73 P8 R2
G1 X40.0 E10.0 F700
G92 E0.0

M221 S95 ; set flow
G21 ; set units to millimeters
G90 ; use absolute coordinates
M83 ; use relative distances for extrusion
M900 K0.2 ; Filament gcode LA 1.5
; ; Filament gcode LA 1.0
;LAYER_CHANGE
;Z:0.2
;HEIGHT:0.2
;BEFORE_LAYER_CHANGE
G92 E0.0
;0.2


M73 P13 R2
G1 E-3.20000 F4200.000
G1 Z0.200 F9000.000
;AFTER_LAYER_CHANGE
;0.2
G1 Z0.400
G1 X80.846 Y65.793
M73 P14 R2
G1 Z0.200
G1 E3.20000 F2400.000
M204 S800
;TYPE:Skirt
;WIDTH:0.42
G1 F1200.000
G1 X81.356 Y65.416 E0.01989
G1 X88.085 Y62.426 E0.23087
G1 X88.961 Y62.177 E0.02856
G1 X90.005 Y62.077 E0.03286
G1 X91.040 Y62.178 E0.03262
G1 X91.913 Y62.425 E0.02844
M73 P15 R2
G1 X98.572 Y65.378 E0.22841
G1 X99.023 Y65.675 E0.01692
G1 X99.396 Y66.066 E0.01692
G1 X99.670 Y66.530 E0.01692
G1 X99.833 Y67.045 E0.01692
G1 X99.877 Y112.500 E1.42522
M73 P17 R2
G1 X99.792 Y113.129 E0.01989
G1 X99.545 Y113.712 E0.01989
G1 X99.154 Y114.207 E0.01977
G1 X98.644 Y114.584 E0.01989
G1 X91.915 Y117.574 E0.23087
G1 X91.039 Y117.823 E0.02856
G1 X89.999 Y117.923 E0.03274
G1 X88.960 Y117.822 E0.03274
M73 P18 R2
G1 X88.087 Y117.575 E0.02844
G1 X81.428 Y114.622 E0.22841
G1 X80.977 Y114.325 E0.01692
G1 X80.604 Y113.934 E0.01692
G1 X80.330 Y113.470 E0.01692
G1 X80.167 Y112.955 E0.01692
G1 X80.123 Y67.500 E1.42522
M73 P20 R2
G1 X80.208 Y66.871 E0.01989
G1 X80.455 Y66.288 E0.01989
G1 X80.809 Y65.840 E0.01789
M204 S1250
; printing object dressing_guide.stl id:0 copy 0
G1 E-2.24000 F4200.000
;WIPE_START
G1 F7200.000
G1 X81.356 Y65.416 E-0.38363
M73 P20 R1
G1 X82.227 Y65.029 E-0.52837
;WIPE_END
G1 E-0.04800 F4200.000
G1 Z0.400 F9000.000
G1 X88.463 Y66.713
G1 Z0.200
G1 E3.20000 F2400.000
M204 S800
;TYPE:Perimeter
G1 F1200.000
G1 X91.537 Y66.713 E0.09639
M73 P21 R1
G1 X91.537 Y113.287 E1.46030
M73 P23 R1
G1 X88.463 Y113.287 E0.09639
G1 X88.463 Y66.773 E1.45842
M204 S1250
M73 P25 R1
G1 X88.840 Y67.090 F9000.000
M204 S800
;TYPE:External perimeter
G1 F1200.000
G1 X91.160 Y67.090 E0.07274
G1 X91.160 Y112.910 E1.43665
M73 P27 R1
G1 X88.840 Y112.910 E0.07274
G1 X88.840 Y67.150 E1.43477
M204 S1250
M73 P29 R1
G1 X88.833 Y66.690 F9000.000
G1 E-2.24000 F4200.000
;WIPE_START
G1 F7200.000
G1 X90.485 Y67.107 E-0.91200
;WIPE_END
G1 E-0.04800 F4200.000
G1 Z0.400 F9000.000
G1 X92.299 Y68.287
G1 Z0.200
G1 E3.20000 F2400.000
M204 S800
;TYPE:Perimeter
G1 F1200.000
G1 X96.713 Y68.287 E0.13841
M73 P30 R1
G1 X96.713 Y111.713 E1.36159
M73 P32 R1
G1 X92.299 Y111.713 E0.13841
G1 X92.230 Y112.854 E0.03584
G1 X92.186 Y113.066 E0.00679
G1 X92.028 Y113.495 E0.01433
G1 X91.786 Y113.882 E0.01433
G1 X91.471 Y114.214 E0.01433
G1 X91.290 Y114.354 E0.00717
G1 X90.891 Y114.575 E0.01433
G1 X90.455 Y114.712 E0.01433
G1 X90.228 Y114.747 E0.00717
G1 X89.772 Y114.747 E0.01433
G1 X89.545 Y114.712 E0.00717
G1 X89.109 Y114.575 E0.01433
G1 X88.710 Y114.354 E0.01433
G1 X88.363 Y114.056 E0.01433
G1 X88.083 Y113.695 E0.01433
G1 X87.882 Y113.284 E0.01433
G1 X87.770 Y112.854 E0.01395
G1 X87.701 Y111.713 E0.03584
G1 X83.287 Y111.713 E0.13841
G1 X83.287 Y68.287 E1.36159
M73 P34 R1
G1 X87.701 Y68.287 E0.13841
M73 P35 R1
G1 X87.770 Y67.146 E0.03584
G1 X87.814 Y66.934 E0.00679
G1 X87.972 Y66.505 E0.01433
G1 X88.214 Y66.118 E0.01433
G1 X88.529 Y65.786 E0.01433
G1 X88.710 Y65.646 E0.00717
G1 X89.109 Y65.425 E0.01433
G1 X89.545 Y65.288 E0.01433
G1 X89.766 Y65.254 E0.00701
G1 X90.063 Y65.244 E0.00932
G1 X90.465 Y65.290 E0.01268
G1 X90.676 Y65.345 E0.00683
G1 X91.096 Y65.525 E0.01433
G1 X91.471 Y65.786 E0.01433
G1 X91.786 Y66.118 E0.01433
G1 X92.028 Y66.505 E0.01433
G1 X92.186 Y66.934 E0.01433
G1 X92.230 Y67.146 E0.00679
G1 X92.295 Y68.227 E0.03396
M204 S1250
G1 X92.654 Y67.910 F9000.000
M204 S800
;TYPE:External perimeter
G1 F1200.000
G1 X97.090 Y67.910 E0.13910
G1 X97.090 Y112.090 E1.38523
M73 P37 R1
G1 X92.654 Y112.090 E0.13910
G1 X92.605 Y112.903 E0.02555
G1 X92.552 Y113.161 E0.00824
G1 X92.472 Y113.416 E0.00837
G1 X92.367 Y113.661 E0.00837
G1 X92.237 Y113.894 E0.00837
G1 X92.085 Y114.114 E0.00837
G1 X91.911 Y114.316 E0.00837
G1 X91.717 Y114.500 E0.00837
G1 X91.506 Y114.664 E0.00837
G1 X91.279 Y114.805 E0.00837
G1 X91.040 Y114.922 E0.00837
G1 X90.789 Y115.015 E0.00837
G1 X90.531 Y115.082 E0.00837
G1 X90.267 Y115.123 E0.00837
M73 P38 R1
G1 X90.000 Y115.136 E0.00837
G1 X89.733 Y115.123 E0.00837
G1 X89.469 Y115.082 E0.00837
G1 X89.211 Y115.015 E0.00837
G1 X88.960 Y114.922 E0.00837
G1 X88.721 Y114.805 E0.00837
G1 X88.494 Y114.664 E0.00837
G1 X88.283 Y114.500 E0.00837
G1 X88.089 Y114.316 E0.00837
G1 X87.915 Y114.114 E0.00837
G1 X87.763 Y113.894 E0.00837
G1 X87.633 Y113.661 E0.00837
G1 X87.528 Y113.416 E0.00837
G1 X87.448 Y113.161 E0.00837
G1 X87.395 Y112.903 E0.00824
G1 X87.346 Y112.090 E0.02555
G1 X82.910 Y112.090 E0.13910
G1 X82.910 Y67.910 E1.38523
M73 P40 R1
G1 X87.346 Y67.910 E0.13910
G1 X87.395 Y67.097 E0.02555
G1 X87.448 Y66.839 E0.00824
G1 X87.528 Y66.584 E0.00837
G1 X87.633 Y66.339 E0.00837
G1 X87.763 Y66.106 E0.00837
G1 X87.915 Y65.886 E0.00837
G1 X88.089 Y65.684 E0.00837
G1 X88.283 Y65.500 E0.00837
G1 X88.494 Y65.336 E0.00837
G1 X88.721 Y65.195 E0.00837
G1 X88.960 Y65.078 E0.00837
G1 X89.211 Y64.985 E0.00837
G1 X89.469 Y64.918 E0.00837
G1 X89.731 Y64.878 E0.00831
G1 X90.079 Y64.866 E0.01090
G1 X90.534 Y64.919 E0.01438
G1 X90.789 Y64.985 E0.00825
G1 X91.040 Y65.078 E0.00837
G1 X91.279 Y65.195 E0.00837
G1 X91.506 Y65.336 E0.00837
G1 X91.717 Y65.500 E0.00837
G1 X91.911 Y65.684 E0.00837
G1 X92.085 Y65.886 E0.00837
G1 X92.237 Y66.106 E0.00837
G1 X92.367 Y66.339 E0.00837
G1 X92.472 Y66.584 E0.00837
G1 X92.552 Y66.839 E0.00837
G1 X92.605 Y67.097 E0.00824
G1 X92.650 Y67.850 E0.02367
M204 S1250
G1 X92.666 Y68.310 F9000.000
M73 P41 R1
G1 X91.909 Y67.989
M204 S800
;TYPE:Gap fill
;WIDTH:0.398046
G1 F1200.000
G1 X91.885 Y67.192 E0.02355
M204 S1250
M204 S800
;WIDTH:0.360874
G1 X91.867 Y67.017 E0.00465
M204 S1250
M204 S800
;WIDTH:0.325278
G1 X91.829 Y66.771 E0.00585
M204 S1250
M204 S800
;WIDTH:0.295118
G1 X91.791 Y66.524 E0.00522
M204 S1250
G1 X90.797 Y65.514 F9000.000
M204 S800
;TYPE:Solid infill
;WIDTH:0.432491
G1 F1200.000
G1 X91.457 Y66.174 E0.03023
G1 X91.537 Y66.277 E0.00425
G1 X91.323 Y66.310 E0.00702
G1 X91.342 Y66.430 E0.00394
G1 X91.163 Y66.430 E0.00579
G1 X90.287 Y65.555 E0.04011
G1 X90.052 Y65.527 E0.00768
G1 X89.731 Y65.550 E0.01040
G1 X90.612 Y66.430 E0.04033
G1 X90.061 Y66.430 E0.01785
G1 X89.290 Y65.659 E0.03532
G1 X88.928 Y65.848 E0.01322
G1 X89.510 Y66.430 E0.02665
G1 X88.959 Y66.430 E0.01785
G1 X88.502 Y65.973 E0.02092
M204 S1250
G1 X88.209 Y66.524 F9000.000
M204 S800
;TYPE:Gap fill
;WIDTH:0.295115
G1 F1200.000
G1 X88.171 Y66.771 E0.00522
M204 S1250
M204 S800
;WIDTH:0.325275
G1 X88.133 Y67.017 E0.00585
M204 S1250
M204 S800
;WIDTH:0.360874
G1 X88.115 Y67.192 E0.00465
M204 S1250
M204 S800
;WIDTH:0.398045
G1 X88.091 Y67.989 E0.02355
M204 S1250
G1 X88.350 Y68.881 F9000.000
M204 S800
;TYPE:Solid infill
;WIDTH:0.424087
G1 F1200.000
G1 X87.972 Y68.503 E0.01694
G1 X87.968 Y68.570 E0.00212
G1 X87.499 Y68.570 E0.01484
G1 X88.180 Y69.251 E0.03051
G1 X88.180 Y69.790 E0.01708
G1 X86.960 Y68.570 E0.05467
G1 X86.421 Y68.570 E0.01708
M73 P42 R1
G1 X88.180 Y70.329 E0.07883
G1 X88.180 Y70.868 E0.01708
G1 X85.882 Y68.570 E0.10299
G1 X85.343 Y68.570 E0.01708
G1 X88.180 Y71.407 E0.12715
G1 X88.180 Y71.946 E0.01708
G1 X84.804 Y68.570 E0.15132
G1 X84.265 Y68.570 E0.01708
G1 X88.180 Y72.485 E0.17548
M73 P43 R1
G1 X88.180 Y73.024 E0.01708
G1 X83.726 Y68.570 E0.19964
G1 X83.570 Y68.570 E0.00495
G1 X83.570 Y68.953 E0.01213
G1 X88.180 Y73.563 E0.20664
G1 X88.180 Y74.102 E0.01708
G1 X83.570 Y69.492 E0.20664
M73 P44 R1
G1 X83.570 Y70.031 E0.01708
G1 X88.180 Y74.641 E0.20664
G1 X88.180 Y75.180 E0.01708
G1 X83.570 Y70.570 E0.20664
G1 X83.570 Y71.109 E0.01708
G1 X88.180 Y75.719 E0.20664
G1 X88.180 Y76.258 E0.01708
M73 P45 R1
G1 X83.570 Y71.648 E0.20664
G1 X83.570 Y72.187 E0.01708
G1 X88.180 Y76.797 E0.20664
G1 X88.180 Y77.336 E0.01708
G1 X83.570 Y72.726 E0.20664
G1 X83.570 Y73.265 E0.01708
G1 X88.180 Y77.875 E0.20664
M73 P46 R1
G1 X88.180 Y78.414 E0.01708
G1 X83.570 Y73.804 E0.20664
G1 X83.570 Y74.343 E0.01708
G1 X88.180 Y78.953 E0.20664
G1 X88.180 Y79.492 E0.01708
G1 X83.570 Y74.882 E0.20664
M73 P47 R1
G1 X83.570 Y75.421 E0.01708
G1 X88.180 Y80.032 E0.20664
G1 X88.180 Y80.571 E0.01708
G1 X83.570 Y75.960 E0.20664
G1 X83.570 Y76.499 E0.01708
G1 X88.180 Y81.110 E0.20664
M73 P48 R1
G1 X88.180 Y81.649 E0.01708
G1 X83.570 Y77.038 E0.20664
G1 X83.570 Y77.577 E0.01708
G1 X88.180 Y82.188 E0.20664
G1 X88.180 Y82.727 E0.01708
G1 X83.570 Y78.117 E0.20664
M73 P49 R1
G1 X83.570 Y78.656 E0.01708
G1 X88.180 Y83.266 E0.20664
G1 X88.180 Y83.805 E0.01708
G1 X83.570 Y79.195 E0.20664
G1 X83.570 Y79.734 E0.01708
G1 X88.180 Y84.344 E0.20664
M73 P50 R1
G1 X88.180 Y84.883 E0.01708
G1 X83.570 Y80.273 E0.20664
G1 X83.570 Y80.812 E0.01708
G1 X88.180 Y85.422 E0.20664
G1 X88.180 Y85.961 E0.01708
G1 X83.570 Y81.351 E0.20664
M73 P51 R1
G1 X83.570 Y81.890 E0.01708
G1 X88.180 Y86.500 E0.20664
G1 X88.180 Y87.039 E0.01708
G1 X83.570 Y82.429 E0.20664
G1 X83.570 Y82.968 E0.01708
G1 X88.180 Y87.578 E0.20664
M73 P52 R1
G1 X88.180 Y88.117 E0.01708
G1 X83.570 Y83.507 E0.20664
G1 X83.570 Y84.046 E0.01708
G1 X88.180 Y88.656 E0.20664
G1 X88.180 Y89.195 E0.01708
G1 X83.570 Y84.585 E0.20664
M73 P53 R1
G1 X83.570 Y85.124 E0.01708
G1 X88.180 Y89.734 E0.20664
G1 X88.180 Y90.274 E0.01708
G1 X83.570 Y85.663 E0.20664
G1 X83.570 Y86.202 E0.01708
G1 X88.180 Y90.813 E0.20664
M73 P54 R1
G1 X88.180 Y91.352 E0.01708
G1 X83.570 Y86.741 E0.20664
G1 X83.570 Y87.280 E0.01708
G1 X88.180 Y91.891 E0.20664
G1 X88.180 Y92.430 E0.01708
G1 X83.570 Y87.819 E0.20664
M73 P55 R1
G1 X83.570 Y88.359 E0.01708
G1 X88.180 Y92.969 E0.20664
G1 X88.180 Y93.508 E0.01708
G1 X83.570 Y88.898 E0.20664
G1 X83.570 Y89.437 E0.01708
G1 X88.180 Y94.047 E0.20664
G1 X88.180 Y94.586 E0.01708
M73 P56 R1
G1 X83.570 Y89.976 E0.20664
G1 X83.570 Y90.515 E0.01708
G1 X88.180 Y95.125 E0.20664
G1 X88.180 Y95.664 E0.01708
G1 X83.570 Y91.054 E0.20664
G1 X83.570 Y91.593 E0.01708
G1 X88.180 Y96.203 E0.20664
M73 P57 R1
G1 X88.180 Y96.742 E0.01708
G1 X83.570 Y92.132 E0.20664
G1 X83.570 Y92.671 E0.01708
G1 X88.180 Y97.281 E0.20664
G1 X88.180 Y97.820 E0.01708
G1 X83.570 Y93.210 E0.20664
M73 P58 R1
G1 X83.570 Y93.749 E0.01708
G1 X88.180 Y98.359 E0.20664
G1 X88.180 Y98.898 E0.01708
G1 X83.570 Y94.288 E0.20664
G1 X83.570 Y94.827 E0.01708
G1 X88.180 Y99.437 E0.20664
M73 P59 R1
G1 X88.180 Y99.976 E0.01708
G1 X83.570 Y95.366 E0.20664
G1 X83.570 Y95.905 E0.01708
G1 X88.180 Y100.516 E0.20664
G1 X88.180 Y101.055 E0.01708
G1 X83.570 Y96.444 E0.20664
M73 P60 R1
G1 X83.570 Y96.983 E0.01708
G1 X88.180 Y101.594 E0.20664
G1 X88.180 Y102.133 E0.01708
G1 X83.570 Y97.522 E0.20664
G1 X83.570 Y98.061 E0.01708
G1 X88.180 Y102.672 E0.20664
M73 P61 R1
G1 X88.180 Y103.211 E0.01708
G1 X83.570 Y98.600 E0.20664
G1 X83.570 Y99.140 E0.01708
G1 X88.180 Y103.750 E0.20664
G1 X88.180 Y104.289 E0.01708
G1 X83.570 Y99.679 E0.20664
M73 P62 R1
G1 X83.570 Y100.218 E0.01708
G1 X88.180 Y104.828 E0.20664
G1 X88.180 Y105.367 E0.01708
G1 X83.570 Y100.757 E0.20664
G1 X83.570 Y101.296 E0.01708
G1 X88.180 Y105.906 E0.20664
M73 P63 R1
G1 X88.180 Y106.445 E0.01708
G1 X83.570 Y101.835 E0.20664
G1 X83.570 Y102.374 E0.01708
G1 X88.180 Y106.984 E0.20664
G1 X88.180 Y107.523 E0.01708
G1 X83.570 Y102.913 E0.20664
M73 P64 R1
G1 X83.570 Y103.452 E0.01708
G1 X88.180 Y108.062 E0.20664
G1 X88.180 Y108.601 E0.01708
G1 X83.570 Y103.991 E0.20664
G1 X83.570 Y104.530 E0.01708
G1 X88.180 Y109.140 E0.20664
M73 P65 R1
G1 X88.180 Y109.679 E0.01708
G1 X83.570 Y105.069 E0.20664
G1 X83.570 Y105.608 E0.01708
G1 X88.180 Y110.218 E0.20664
G1 X88.180 Y110.757 E0.01708
G1 X83.570 Y106.147 E0.20664
G1 X83.570 Y106.686 E0.01708
M73 P66 R1
G1 X88.180 Y111.297 E0.20664
G1 X88.180 Y111.726 E0.01360
G1 X88.073 Y111.729 E0.00338
G1 X83.570 Y107.225 E0.20186
G1 X83.570 Y107.764 E0.01708
G1 X87.236 Y111.430 E0.16431
G1 X86.697 Y111.430 E0.01708
G1 X83.570 Y108.303 E0.14015
M73 P67 R1
G1 X83.570 Y108.842 E0.01708
G1 X86.158 Y111.430 E0.11598
G1 X85.618 Y111.430 E0.01708
G1 X83.570 Y109.382 E0.09182
G1 X83.570 Y109.921 E0.01708
G1 X85.079 Y111.430 E0.06766
G1 X84.540 Y111.430 E0.01708
G1 X83.570 Y110.460 E0.04350
G1 X83.570 Y110.999 E0.01708
G1 X84.171 Y111.600 E0.02694
M204 S1250
G1 E-2.24000 F4200.000
;WIPE_START
G1 F7200.000
G1 X83.570 Y110.999 E-0.47111
G1 X83.570 Y110.460 E-0.29872
G1 X83.751 Y110.641 E-0.14216
;WIPE_END
G1 E-0.04800 F4200.000
G1 Z0.400 F9000.000
G1 X88.091 Y112.011
M73 P68 R1
G1 Z0.200
G1 E3.20000 F2400.000
M204 S800
;TYPE:Gap fill
;WIDTH:0.398044
G1 F1200.000
G1 X88.115 Y112.808 E0.02355
M204 S1250
M204 S800
;WIDTH:0.295116
G1 X88.209 Y113.476 E0.01413
M204 S1250
G1 E-2.24000 F4200.000
;WIPE_START
G1 F7200.000
G1 X88.115 Y112.808 E-0.37338
;WIPE_END
G1 E-0.58662 F4200.000
G1 Z0.400 F9000.000
G1 X91.489 Y114.030
G1 Z0.200
G1 E3.20000 F2400.000
M204 S800
;TYPE:Solid infill
;WIDTH:0.429984
G1 F1200.000
G1 X91.029 Y113.570 E0.02095
G1 X90.482 Y113.570 E0.01762
G1 X91.066 Y114.154 E0.02661
G1 X90.779 Y114.314 E0.01060
G1 X90.703 Y114.338 E0.00256
G1 X89.934 Y113.570 E0.03497
G1 X89.387 Y113.570 E0.01762
G1 X90.264 Y114.447 E0.03994
G1 X90.000 Y114.474 E0.00856
G1 X89.715 Y114.445 E0.00922
G1 X88.840 Y113.570 E0.03984
G1 X88.656 Y113.570 E0.00590
G1 X88.673 Y113.690 E0.00392
G1 X88.454 Y113.724 E0.00715
G1 X89.211 Y114.489 E0.03464
M204 S1250
M73 P69 R1
G1 E-2.24000 F4200.000
;WIPE_START
G1 F7200.000
G1 X88.454 Y113.724 E-0.59652
G1 X88.673 Y113.690 E-0.12314
G1 X88.656 Y113.570 E-0.06751
G1 X88.840 Y113.570 E-0.10152
G1 X88.869 Y113.600 E-0.02332
;WIPE_END
G1 E-0.04800 F4200.000
G1 Z0.400 F9000.000
G1 X91.791 Y113.476
G1 Z0.200
G1 E3.20000 F2400.000
M204 S800
;TYPE:Gap fill
;WIDTH:0.295117
G1 F1200.000
G1 X91.829 Y113.229 E0.00522
M204 S1250
M204 S800
;WIDTH:0.325277
G1 X91.867 Y112.983 E0.00585
M204 S1250
M204 S800
;WIDTH:0.360876
G1 X91.885 Y112.808 E0.00465
M204 S1250
M204 S800
;WIDTH:0.398045
G1 X91.909 Y112.011 E0.02355
M204 S1250
G1 E-2.24000 F4200.000
;WIPE_START
G1 F7200.000
G1 X91.885 Y112.808 E-0.44190
;WIPE_END
G1 E-0.51810 F4200.000
G1 Z0.400 F9000.000
G1 X95.829 Y68.400
G1 Z0.200
M73 P70 R1
G1 E3.20000 F2400.000
M204 S800
;TYPE:Solid infill
;WIDTH:0.424087
G1 F1200.000
G1 X96.430 Y69.001 E0.02695
G1 X96.430 Y69.540 E0.01708
G1 X95.460 Y68.570 E0.04351
G1 X94.920 Y68.570 E0.01708
G1 X96.430 Y70.080 E0.06767
G1 X96.430 Y70.619 E0.01708
G1 X94.381 Y68.570 E0.09183
G1 X93.842 Y68.570 E0.01708
G1 X96.430 Y71.158 E0.11599
G1 X96.430 Y71.697 E0.01708
G1 X93.303 Y68.570 E0.14015
G1 X92.764 Y68.570 E0.01708
G1 X96.430 Y72.236 E0.16431
M73 P71 R1
G1 X96.430 Y72.775 E0.01708
G1 X91.926 Y68.271 E0.20187
G1 X91.820 Y68.274 E0.00338
G1 X91.820 Y68.704 E0.01361
G1 X96.430 Y73.314 E0.20664
G1 X96.430 Y73.853 E0.01708
G1 X91.820 Y69.243 E0.20664
M73 P72 R1
G1 X91.820 Y69.782 E0.01708
G1 X96.430 Y74.392 E0.20664
G1 X96.430 Y74.931 E0.01708
G1 X91.820 Y70.321 E0.20664
