; generated by PrusaSlicer 2.3.0+win64 on 2022-04-24 at 12:59:15 UTC


;
;

;
;
; 

; external perimeters extrusion width = 0.45mm
; perimeters extrusion width = 0.45mm
; infill extrusion width = 0.45mm
; solid infill extrusion width = 0.45mm
; top infill extrusion width = 0.40mm
; first layer extrusion width = 0.42mm

M73 P0 R41
M201 X1250 Y1250 Z400 E5000 ; sets maximum accelerations, mm/sec^2
M203 X180 Y180 Z12 E80 ; sets maximum feedrates, mm/sec
M204 P1250 R1250 T1250 ; sets acceleration (P, T) and retract acceleration (R), mm/sec^2
M205 X8.00 Y8.00 Z2.00 E10.00 ; sets the jerk limits, mm/sec
M205 S0 T0 ; sets the minimum extruding and travel feed rate, mm/sec
M107
;TYPE:Custom
G90 ; use absolute coordinates
M83 ; extruder relative mode
M104 S170 ; set extruder temp for bed leveling
M140 S85 ; set bed temp
M109 R170 ; wait for bed leveling temp
M190 S85 ; wait for bed temp
G28 ; home all without mesh bed level
G29 ; mesh bed leveling 
M104 S240 ; set extruder temp
G92 E0.0
G1 Y-2.0 X179 F2400
G1 Z3 F720
M109 S240 ; wait for extruder temp

; intro line
G1 X170 F1000
G1 Z0.2 F720
G1 X110.0 E8.0 F900
G1 X40.0 E10.0 F700
G92 E0.0

M221 S95 ; set flow
G21 ; set units to millimeters
G90 ; use absolute coordinates
M83 ; use relative distances for extrusion
M900 K0.2 ; Filament gcode
;LAYER_CHANGE
;Z:0.2
;HEIGHT:0.2
;BEFORE_LAYER_CHANGE
G92 E0.0
;0.2


M73 P0 R40
G1 E-3.20000 F2400.000
G1 Z0.200 F9000.000
;AFTER_LAYER_CHANGE
;0.2
G1 Z0.400
G1 X80.052 Y80.073
G1 Z0.200
G1 E3.20000 F1500.000
M204 S800
;TYPE:Skirt
;WIDTH:0.42
G1 F1200.000
G1 X81.132 Y79.096 E0.04567
G1 X82.307 Y78.238 E0.04561
G1 X83.324 Y77.632 E0.03712
G1 X84.640 Y77.008 E0.04564
G1 X86.013 Y76.523 E0.04568
G1 X87.161 Y76.236 E0.03709
G1 X88.601 Y76.016 E0.04569
G1 X90.080 Y75.946 E0.04642
G1 X91.541 Y76.031 E0.04588
G1 X92.712 Y76.210 E0.03715
G1 X94.125 Y76.565 E0.04568
G1 X95.492 Y77.064 E0.04562
G1 X96.563 Y77.573 E0.03719
G1 X97.816 Y78.320 E0.04576
G1 X98.982 Y79.191 E0.04560
G1 X99.861 Y79.987 E0.03718
G1 X100.841 Y81.057 E0.04552
G1 X101.710 Y82.230 E0.04576
G1 X102.323 Y83.243 E0.03713
G1 X102.956 Y84.556 E0.04570
G1 X103.457 Y85.949 E0.04641
G1 X103.804 Y87.364 E0.04570
G1 X103.977 Y88.539 E0.03722
G1 X104.054 Y89.993 E0.04566
G1 X103.978 Y91.454 E0.04587
G1 X103.805 Y92.629 E0.03724
G1 X103.460 Y94.041 E0.04558
G1 X102.961 Y95.432 E0.04634
G1 X102.324 Y96.754 E0.04602
G1 X101.713 Y97.767 E0.03707
G1 X100.846 Y98.937 E0.04564
G1 X99.864 Y100.010 E0.04563
G1 X98.986 Y100.806 E0.03716
G1 X97.820 Y101.677 E0.04563
G1 X96.570 Y102.424 E0.04565
G1 X95.498 Y102.934 E0.03721
G1 X94.130 Y103.433 E0.04566
G1 X92.718 Y103.789 E0.04566
G1 X91.548 Y103.968 E0.03712
G1 X90.079 Y104.054 E0.04612
G1 X88.614 Y103.986 E0.04599
G1 X87.174 Y103.767 E0.04567
G1 X86.019 Y103.478 E0.03734
G1 X84.645 Y102.994 E0.04566
G1 X83.306 Y102.358 E0.04650
G1 X82.062 Y101.598 E0.04571
G1 X81.113 Y100.888 E0.03715
G1 X80.030 Y99.906 E0.04585
G1 X79.043 Y98.802 E0.04643
G1 X78.190 Y97.619 E0.04574
G1 X77.588 Y96.593 E0.03730
G1 X76.975 Y95.280 E0.04544
G1 X76.496 Y93.894 E0.04598
G1 X76.217 Y92.750 E0.03692
G1 X76.006 Y91.306 E0.04576
G1 X75.946 Y89.851 E0.04565
G1 X76.009 Y88.669 E0.03713
G1 X76.222 Y87.224 E0.04579
G1 X76.582 Y85.819 E0.04546
G1 X76.984 Y84.697 E0.03738
G1 X77.599 Y83.386 E0.04539
G1 X78.353 Y82.134 E0.04583
G1 X79.249 Y80.948 E0.04662
G1 X80.011 Y80.117 E0.03535
M204 S1250
G1 X80.288 Y80.371 F9000.000
M204 S800
G1 F1200.000
G1 X81.369 Y79.390 E0.04578
G1 X82.514 Y78.554 E0.04443
G1 X83.501 Y77.965 E0.03604
G1 X84.785 Y77.356 E0.04458
G1 X86.124 Y76.884 E0.04450
G1 X87.233 Y76.606 E0.03585
G1 X88.641 Y76.391 E0.04466
G1 X90.077 Y76.323 E0.04507
G1 X91.499 Y76.406 E0.04467
G1 X92.636 Y76.580 E0.03607
G1 X94.013 Y76.925 E0.04450
G1 X95.344 Y77.411 E0.04444
G1 X96.381 Y77.903 E0.03598
G1 X97.606 Y78.633 E0.04470
G1 X98.743 Y79.483 E0.04454
G1 X99.593 Y80.252 E0.03594
G1 X100.549 Y81.296 E0.04437
G1 X101.398 Y82.441 E0.04469
G1 X101.991 Y83.422 E0.03593
G1 X102.608 Y84.700 E0.04451
G1 X103.097 Y86.060 E0.04530
G1 X103.434 Y87.439 E0.04452
G1 X103.602 Y88.576 E0.03606
G1 X103.677 Y89.996 E0.04455
G1 X103.603 Y91.419 E0.04469
G1 X103.436 Y92.555 E0.03599
G1 X103.099 Y93.931 E0.04443
G1 X102.612 Y95.289 E0.04523
G1 X101.991 Y96.577 E0.04482
G1 X101.400 Y97.556 E0.03587
G1 X100.556 Y98.696 E0.04447
G1 X99.596 Y99.745 E0.04458
G1 X98.747 Y100.514 E0.03595
G1 X97.611 Y101.363 E0.04445
G1 X96.390 Y102.092 E0.04460
G1 X95.353 Y102.586 E0.03600
G1 X94.021 Y103.073 E0.04448
G1 X92.641 Y103.419 E0.04460
G1 X91.507 Y103.594 E0.03597
G1 X90.080 Y103.677 E0.04484
G1 X88.649 Y103.610 E0.04490
G1 X87.246 Y103.397 E0.04449
G1 X86.128 Y103.118 E0.03613
G1 X84.791 Y102.646 E0.04447
G1 X83.487 Y102.027 E0.04526
G1 X82.272 Y101.284 E0.04466
G1 X81.354 Y100.598 E0.03593
G1 X80.298 Y99.641 E0.04467
G1 X79.336 Y98.564 E0.04530
G1 X78.505 Y97.411 E0.04456
G1 X77.922 Y96.418 E0.03608
M73 P1 R40
G1 X77.323 Y95.136 E0.04438
G1 X76.857 Y93.786 E0.04479
G1 X76.587 Y92.678 E0.03575
G1 X76.382 Y91.272 E0.04454
G1 X76.323 Y89.851 E0.04460
G1 X76.384 Y88.706 E0.03596
G1 X76.592 Y87.300 E0.04456
G1 X76.943 Y85.928 E0.04440
G1 X77.332 Y84.843 E0.03613
G1 X77.931 Y83.565 E0.04425
G1 X78.665 Y82.345 E0.04464
G1 X79.540 Y81.187 E0.04551
G1 X80.248 Y80.415 E0.03284
M204 S1250
; printing object DrillGuide01_ForCroquetMalletRepair id:0 copy 0
G1 E-2.24000 F2400.000
;WIPE_START
G1 F7200.000
G1 X81.369 Y79.390 E-0.48126
G1 X82.468 Y78.587 E-0.43074
;WIPE_END
G1 E-0.04800 F2400.000
G1 Z0.400 F9000.000
G1 X86.565 Y86.528
G1 Z0.200
G1 E3.20000 F1500.000
M204 S800
;TYPE:Perimeter
G1 F1200.000
G1 X86.969 Y86.165 E0.01703
G1 X87.488 Y85.806 E0.01978
G1 X87.878 Y85.597 E0.01387
G1 X88.462 Y85.360 E0.01978
G1 X88.882 Y85.242 E0.01367
G1 X89.304 Y85.162 E0.01346
G1 X89.731 Y85.120 E0.01346
G1 X90.161 Y85.115 E0.01346
G1 X90.595 Y85.148 E0.01367
G1 X91.215 Y85.266 E0.01978
G1 X91.632 Y85.393 E0.01367
G1 X92.030 Y85.554 E0.01346
G1 X92.412 Y85.749 E0.01346
G1 X92.782 Y85.981 E0.01367
G1 X93.281 Y86.377 E0.01999
G1 X93.724 Y86.835 E0.01999
G1 X93.991 Y87.179 E0.01367
G1 X94.223 Y87.541 E0.01346
G1 X94.426 Y87.927 E0.01367
G1 X94.656 Y88.514 E0.01978
G1 X94.770 Y88.935 E0.01367
G1 X94.845 Y89.358 E0.01346
G1 X94.882 Y89.785 E0.01346
G1 X94.882 Y90.221 E0.01367
G1 X94.813 Y90.848 E0.01978
G1 X94.718 Y91.274 E0.01367
G1 X94.588 Y91.683 E0.01346
G1 X94.423 Y92.079 E0.01346
G1 X94.220 Y92.465 E0.01367
G1 X93.868 Y92.988 E0.01978
G1 X93.586 Y93.321 E0.01367
G1 X93.281 Y93.623 E0.01346
G1 X92.945 Y93.901 E0.01367
G1 X92.418 Y94.248 E0.01978
G1 X92.030 Y94.446 E0.01367
G1 X91.626 Y94.609 E0.01367
G1 X91.019 Y94.781 E0.01978
G1 X90.589 Y94.852 E0.01367
G1 X90.161 Y94.885 E0.01346
G1 X89.731 Y94.880 E0.01346
G1 X89.304 Y94.838 E0.01346
G1 X88.876 Y94.757 E0.01367
G1 X88.272 Y94.573 E0.01978
G1 X87.872 Y94.400 E0.01367
G1 X87.488 Y94.194 E0.01367
G1 X86.969 Y93.835 E0.01978
G1 X86.640 Y93.550 E0.01367
G1 X86.341 Y93.241 E0.01346
G1 X86.067 Y92.903 E0.01367
G1 X85.725 Y92.372 E0.01978
G1 X85.531 Y91.981 E0.01367
G1 X85.375 Y91.582 E0.01346
G1 X85.254 Y91.170 E0.01346
G1 X85.169 Y90.749 E0.01346
G1 X85.122 Y90.322 E0.01346
G1 X85.113 Y89.891 E0.01350
G1 X85.141 Y89.464 E0.01343
G1 X85.208 Y89.033 E0.01366
G1 X85.372 Y88.424 E0.01978
G1 X85.531 Y88.019 E0.01367
G1 X85.723 Y87.634 E0.01346
G1 X85.950 Y87.262 E0.01367
G1 X86.337 Y86.764 E0.01978
G1 X86.523 Y86.571 E0.00841
M204 S1250
G1 X86.622 Y87.011 F9000.000
M204 S800
;TYPE:External perimeter
G1 F1200.000
G1 X86.899 Y86.724 E0.01250
G1 X87.200 Y86.463 E0.01250
G1 X87.685 Y86.129 E0.01848
G1 X88.038 Y85.938 E0.01257
G1 X88.585 Y85.717 E0.01848
G1 X88.968 Y85.609 E0.01250
G1 X89.358 Y85.536 E0.01242
G1 X89.752 Y85.497 E0.01242
G1 X90.148 Y85.492 E0.01242
G1 X90.545 Y85.523 E0.01250
G1 X91.125 Y85.632 E0.01848
G1 X91.506 Y85.749 E0.01250
G1 X91.873 Y85.897 E0.01242
G1 X92.226 Y86.078 E0.01242
G1 X92.564 Y86.289 E0.01250
G1 X93.027 Y86.657 E0.01856
G1 X93.439 Y87.082 E0.01856
G1 X93.683 Y87.397 E0.01250
G1 X93.897 Y87.731 E0.01242
G1 X94.082 Y88.083 E0.01250
G1 X94.297 Y88.632 E0.01848
G1 X94.401 Y89.017 E0.01250
G1 X94.471 Y89.407 E0.01242
G1 X94.505 Y89.802 E0.01242
G1 X94.505 Y90.200 E0.01250
G1 X94.441 Y90.786 E0.01848
G1 X94.354 Y91.175 E0.01250
G1 X94.234 Y91.553 E0.01242
G1 X94.081 Y91.919 E0.01242
G1 X93.896 Y92.271 E0.01250
G1 X93.567 Y92.760 E0.01848
G1 X93.309 Y93.064 E0.01250
G1 X93.027 Y93.343 E0.01242
G1 X92.720 Y93.597 E0.01250
G1 X92.228 Y93.921 E0.01848
G1 X91.873 Y94.103 E0.01250
G1 X91.504 Y94.252 E0.01250
G1 X90.936 Y94.412 E0.01848
G1 X90.543 Y94.477 E0.01250
G1 X90.148 Y94.508 E0.01242
G1 X89.752 Y94.503 E0.01242
G1 X89.358 Y94.464 E0.01242
G1 X88.966 Y94.390 E0.01250
G1 X88.402 Y94.218 E0.01848
G1 X88.036 Y94.061 E0.01250
G1 X87.685 Y93.871 E0.01250
G1 X87.200 Y93.537 E0.01848
G1 X86.899 Y93.276 E0.01250
G1 X86.624 Y92.991 E0.01242
G1 X86.373 Y92.681 E0.01250
G1 X86.054 Y92.185 E0.01848
G1 X85.877 Y91.828 E0.01250
G1 X85.732 Y91.460 E0.01242
G1 X85.620 Y91.079 E0.01242
G1 X85.542 Y90.691 E0.01242
G1 X85.499 Y90.297 E0.01242
G1 X85.490 Y89.900 E0.01246
G1 X85.516 Y89.506 E0.01239
G1 X85.577 Y89.112 E0.01250
G1 X85.731 Y88.543 E0.01848
G1 X85.877 Y88.172 E0.01250
G1 X86.053 Y87.817 E0.01242
G1 X86.261 Y87.477 E0.01250
G1 X86.585 Y87.058 E0.01660
M204 S1250
G1 X86.493 Y86.634 F9000.000
G1 E-2.24000 F2400.000
;WIPE_START
G1 F7200.000
G1 X86.899 Y86.724 E-0.14510
G1 X87.200 Y86.463 E-0.12620
G1 X87.685 Y86.129 E-0.18668
G1 X88.038 Y85.938 E-0.12693
G1 X88.585 Y85.717 E-0.18667
G1 X88.968 Y85.609 E-0.12620
G1 X89.012 Y85.601 E-0.01422
;WIPE_END
G1 E-0.04800 F2400.000
G1 Z0.400 F9000.000
G1 X81.853 Y83.365
G1 Z0.200
G1 E3.20000 F1500.000
M204 S800
;TYPE:Perimeter
G1 F1200.000
G1 X82.348 Y82.791 E0.02375
G1 X82.740 Y82.396 E0.01748
G1 X83.154 Y82.022 E0.01748
G1 X83.583 Y81.673 E0.01735
G1 X84.271 Y81.185 E0.02645
G1 X84.743 Y80.896 E0.01735
G1 X85.233 Y80.630 E0.01748
G1 X85.736 Y80.391 E0.01748
G1 X86.248 Y80.180 E0.01735
G1 X87.048 Y79.910 E0.02645
G1 X87.583 Y79.769 E0.01735
G1 X88.128 Y79.655 E0.01748
G1 X88.679 Y79.571 E0.01747
G1 X89.234 Y79.515 E0.01748
G1 X89.790 Y79.489 E0.01748
G1 X90.343 Y79.493 E0.01732
G1 X91.185 Y79.555 E0.02649
G1 X91.733 Y79.631 E0.01735
G1 X92.277 Y79.737 E0.01735
G1 X93.092 Y79.953 E0.02645
G1 X93.617 Y80.129 E0.01735
G1 X94.135 Y80.335 E0.01748
G1 X94.641 Y80.568 E0.01748
G1 X95.135 Y80.827 E0.01748
G1 X95.614 Y81.112 E0.01748
G1 X96.073 Y81.419 E0.01732
G1 X96.742 Y81.934 E0.02649
G1 X97.157 Y82.300 E0.01735
G1 X97.555 Y82.691 E0.01748
G1 X97.932 Y83.101 E0.01748
G1 X98.286 Y83.531 E0.01748
G1 X98.618 Y83.980 E0.01748
G1 X98.922 Y84.442 E0.01735
G1 X99.339 Y85.175 E0.02645
G1 X99.581 Y85.673 E0.01735
G1 X99.796 Y86.187 E0.01748
G1 X99.985 Y86.712 E0.01748
G1 X100.145 Y87.245 E0.01748
G1 X100.277 Y87.787 E0.01748
G1 X100.379 Y88.330 E0.01732
G1 X100.479 Y89.169 E0.02649
G1 X100.509 Y89.721 E0.01735
G1 X100.509 Y90.279 E0.01748
G1 X100.479 Y90.835 E0.01748
G1 X100.421 Y91.384 E0.01732
G1 X100.276 Y92.217 E0.02649
G1 X100.145 Y92.755 E0.01735
G1 X99.985 Y93.288 E0.01748
G1 X99.796 Y93.813 E0.01748
G1 X99.582 Y94.322 E0.01732
G1 X99.204 Y95.078 E0.02649
G1 X98.925 Y95.555 E0.01735
G1 X98.620 Y96.017 E0.01735
G1 X98.110 Y96.689 E0.02645
G1 X97.746 Y97.107 E0.01735
G1 X97.359 Y97.507 E0.01748
G1 X96.951 Y97.887 E0.01748
G1 X96.523 Y98.244 E0.01748
G1 X96.077 Y98.578 E0.01748
G1 X95.618 Y98.885 E0.01732
G1 X94.886 Y99.308 E0.02649
G1 X94.390 Y99.552 E0.01735
G1 X93.877 Y99.771 E0.01748
G1 X93.354 Y99.963 E0.01748
G1 X92.821 Y100.127 E0.01748
G1 X92.281 Y100.262 E0.01748
G1 X91.738 Y100.368 E0.01732
G1 X90.900 Y100.474 E0.02649
G1 X90.348 Y100.507 E0.01735
G1 X89.794 Y100.511 E0.01735
G1 X88.952 Y100.460 E0.02645
G1 X88.403 Y100.391 E0.01735
G1 X87.855 Y100.292 E0.01748
G1 X87.312 Y100.163 E0.01748
G1 X86.777 Y100.007 E0.01748
G1 X86.252 Y99.822 E0.01748
G1 X85.736 Y99.609 E0.01748
G1 X85.233 Y99.370 E0.01748
G1 X84.743 Y99.104 E0.01748
G1 X84.268 Y98.813 E0.01748
G1 X83.813 Y98.500 E0.01732
G1 X83.151 Y97.975 E0.02649
G1 X82.740 Y97.604 E0.01735
G1 X82.348 Y97.209 E0.01748
G1 X81.976 Y96.793 E0.01748
G1 X81.630 Y96.361 E0.01735
G1 X81.147 Y95.670 E0.02645
G1 X80.861 Y95.196 E0.01735
G1 X80.598 Y94.704 E0.01748
G1 X80.362 Y94.199 E0.01748
G1 X80.153 Y93.683 E0.01747
G1 X79.972 Y93.156 E0.01748
G1 X79.820 Y92.624 E0.01735
G1 X79.642 Y91.799 E0.02645
G1 X79.562 Y91.251 E0.01735
G1 X79.510 Y90.701 E0.01732
G1 X79.488 Y89.857 E0.02649
G1 X79.510 Y89.304 E0.01735
G1 X79.561 Y88.754 E0.01732
G1 X79.695 Y87.920 E0.02649
G1 X79.818 Y87.380 E0.01735
G1 X79.972 Y86.844 E0.01748
G1 X80.153 Y86.317 E0.01748
G1 X80.362 Y85.801 E0.01748
G1 X80.598 Y85.296 E0.01748
G1 X80.861 Y84.804 E0.01748
G1 X81.149 Y84.327 E0.01748
G1 X81.459 Y83.870 E0.01732
G1 X81.816 Y83.412 E0.01820
M204 S1250
G1 X81.519 Y83.180 F9000.000
M204 S800
;TYPE:External perimeter
G1 F1200.000
G1 X82.073 Y82.533 E0.02672
G1 X82.480 Y82.123 E0.01810
G1 X82.908 Y81.736 E0.01810
G1 X83.355 Y81.372 E0.01806
G1 X84.064 Y80.870 E0.02724
G1 X84.555 Y80.569 E0.01806
G1 X85.062 Y80.294 E0.01810
G1 X85.583 Y80.046 E0.01810
G1 X86.116 Y79.826 E0.01806
G1 X86.939 Y79.549 E0.02724
G1 X87.496 Y79.402 E0.01806
G1 X88.061 Y79.284 E0.01810
G1 X88.632 Y79.196 E0.01810
G1 X89.206 Y79.139 E0.01810
G1 X89.783 Y79.112 E0.01810
G1 X90.358 Y79.116 E0.01802
G1 X91.225 Y79.179 E0.02727
G1 X91.796 Y79.259 E0.01806
G1 X92.361 Y79.369 E0.01806
G1 X93.201 Y79.591 E0.02724
G1 X93.747 Y79.775 E0.01806
G1 X94.283 Y79.988 E0.01810
G1 X94.808 Y80.229 E0.01810
G1 X95.319 Y80.498 E0.01810
G1 X95.815 Y80.793 E0.01810
G1 X96.293 Y81.113 E0.01802
G1 X96.982 Y81.643 E0.02727
G1 X97.414 Y82.024 E0.01806
G1 X97.826 Y82.428 E0.01810
G1 X98.217 Y82.854 E0.01810
G1 X98.584 Y83.299 E0.01810
G1 X98.927 Y83.764 E0.01810
G1 X99.244 Y84.244 E0.01806
G1 X99.673 Y85.000 E0.02724
G1 X99.924 Y85.518 E0.01806
G1 X100.148 Y86.050 E0.01810
G1 X100.343 Y86.594 E0.01810
G1 X100.509 Y87.147 E0.01810
G1 X100.645 Y87.708 E0.01810
G1 X100.751 Y88.273 E0.01802
G1 X100.855 Y89.136 E0.02727
G1 X100.886 Y89.711 E0.01806
G1 X100.886 Y90.289 E0.01810
G1 X100.855 Y90.865 E0.01810
G1 X100.794 Y91.437 E0.01802
G1 X100.645 Y92.294 E0.02727
G1 X100.509 Y92.853 E0.01806
G1 X100.343 Y93.406 E0.01810
G1 X100.148 Y93.950 E0.01810
G1 X99.925 Y94.480 E0.01802
G1 X99.536 Y95.258 E0.02727
G1 X99.245 Y95.754 E0.01806
G1 X98.928 Y96.235 E0.01806
G1 X98.402 Y96.927 E0.02724
G1 X98.024 Y97.362 E0.01806
G1 X97.623 Y97.777 E0.01810
G1 X97.200 Y98.170 E0.01810
G1 X96.757 Y98.540 E0.01810
G1 X96.295 Y98.886 E0.01810
G1 X95.817 Y99.206 E0.01802
G1 X95.064 Y99.641 E0.02727
G1 X94.547 Y99.895 E0.01806
G1 X94.016 Y100.122 E0.01810
G1 X93.474 Y100.321 E0.01810
G1 X92.922 Y100.490 E0.01810
G1 X92.362 Y100.630 E0.01810
G1 X91.798 Y100.740 E0.01802
G1 X90.935 Y100.850 E0.02727
G1 X90.360 Y100.884 E0.01806
G1 X89.784 Y100.888 E0.01806
G1 X88.917 Y100.836 E0.02724
G1 X88.346 Y100.764 E0.01806
G1 X87.778 Y100.661 E0.01810
G1 X87.216 Y100.528 E0.01810
G1 X86.662 Y100.366 E0.01810
G1 X86.117 Y100.174 E0.01810
G1 X85.583 Y99.954 E0.01810
G1 X85.062 Y99.706 E0.01810
G1 X84.555 Y99.431 E0.01810
G1 X84.062 Y99.129 E0.01810
G1 X83.589 Y98.803 E0.01802
G1 X82.907 Y98.263 E0.02727
G1 X82.480 Y97.877 E0.01806
G1 X82.073 Y97.467 E0.01810
G1 X81.688 Y97.037 E0.01810
G1 X81.328 Y96.587 E0.01806
G1 X80.831 Y95.875 E0.02724
G1 X80.533 Y95.382 E0.01806
G1 X80.261 Y94.873 E0.01810
G1 X80.016 Y94.350 E0.01810
G1 X79.800 Y93.815 E0.01810
G1 X79.612 Y93.269 E0.01810
G1 X79.454 Y92.715 E0.01806
G1 X79.271 Y91.866 E0.02724
G1 X79.187 Y91.296 E0.01806
G1 X79.134 Y90.724 E0.01802
G1 X79.111 Y89.854 E0.02727
G1 X79.134 Y89.279 E0.01806
G1 X79.187 Y88.706 E0.01802
G1 X79.324 Y87.848 E0.02727
G1 X79.453 Y87.286 E0.01806
G1 X79.612 Y86.731 E0.01810
G1 X79.800 Y86.185 E0.01810
G1 X80.016 Y85.650 E0.01810
G1 X80.261 Y85.127 E0.01810
G1 X80.533 Y84.618 E0.01810
G1 X80.831 Y84.124 E0.01810
G1 X81.154 Y83.648 E0.01802
G1 X81.482 Y83.228 E0.01672
M204 S1250
G1 X81.914 Y83.243 F9000.000
