; generated by PrusaSlicer 2.3.0+win64 on 2021-08-13 at 18:32:20 UTC


;
;

;
;
; 

; external perimeters extrusion width = 0.45mm
; perimeters extrusion width = 0.45mm
; infill extrusion width = 0.45mm
; solid infill extrusion width = 0.45mm
; top infill extrusion width = 0.40mm
; first layer extrusion width = 0.42mm

M73 P0 R31
M201 X1250 Y1250 Z400 E5000 ; sets maximum accelerations, mm/sec^2
M203 X180 Y180 Z12 E80 ; sets maximum feedrates, mm/sec
M204 P1250 R1250 T1250 ; sets acceleration (P, T) and retract acceleration (R), mm/sec^2
M205 X8.00 Y8.00 Z2.00 E10.00 ; sets the jerk limits, mm/sec
M205 S0 T0 ; sets the minimum extruding and travel feed rate, mm/sec
M107
;TYPE:Custom
G90 ; use absolute coordinates
M83 ; extruder relative mode
M104 S170 ; set extruder temp for bed leveling
M140 S60 ; set bed temp
M109 R170 ; wait for bed leveling temp
M190 S60 ; wait for bed temp
G28 ; home all without mesh bed level
G29 ; mesh bed leveling 
M104 S215 ; set extruder temp
G92 E0.0
G1 Y-2.0 X179 F2400
G1 Z3 F720
M109 S215 ; wait for extruder temp

; intro line
G1 X170 F1000
G1 Z0.2 F720
G1 X110.0 E8.0 F900
G1 X40.0 E10.0 F700
G92 E0.0

M221 S95 ; set flow
G21 ; set units to millimeters
G90 ; use absolute coordinates
M83 ; use relative distances for extrusion
M900 K0.2 ; Filament gcode LA 1.5
; ; Filament gcode LA 1.0
;LAYER_CHANGE
;Z:0.2
;HEIGHT:0.2
;BEFORE_LAYER_CHANGE
G92 E0.0
;0.2


G1 E-3.20000 F4200.000
G1 Z0.200 F9000.000
;AFTER_LAYER_CHANGE
;0.2
G1 Z0.400
G1 X80.948 Y81.015
G1 Z0.200
G1 E3.20000 F2400.000
M204 S800
;TYPE:Skirt
;WIDTH:0.42
G1 F1200.000
G1 X81.769 Y80.258 E0.03502
G1 X82.885 Y79.415 E0.04385
G1 X84.081 Y78.703 E0.04364
G1 X85.096 Y78.227 E0.03514
G1 X86.415 Y77.761 E0.04389
M73 P0 R30
G1 X87.495 Y77.495 E0.03486
G1 X88.883 Y77.296 E0.04396
G1 X89.998 Y77.246 E0.03499
G1 X91.393 Y77.323 E0.04380
G1 X92.497 Y77.493 E0.03503
G1 X93.582 Y77.760 E0.03502
G1 X94.900 Y78.225 E0.04382
G1 X95.912 Y78.700 E0.03507
G1 X97.109 Y79.411 E0.04365
G1 X98.011 Y80.076 E0.03514
G1 X99.049 Y81.013 E0.04385
G1 X99.978 Y82.057 E0.04380
G1 X100.631 Y82.954 E0.03480
G1 X101.208 Y83.914 E0.03512
G1 X101.806 Y85.176 E0.04379
G1 X102.184 Y86.232 E0.03515
G1 X102.524 Y87.587 E0.04381
G1 X102.687 Y88.692 E0.03503
G1 X102.754 Y90.087 E0.04377
G1 X102.697 Y91.204 E0.03507
G1 X102.490 Y92.584 E0.04375
G1 X102.215 Y93.668 E0.03509
G1 X101.742 Y94.979 E0.04369
G1 X101.259 Y95.991 E0.03515
G1 X100.540 Y97.182 E0.04362
G1 X99.866 Y98.082 E0.03527
M73 P1 R30
G1 X98.928 Y99.109 E0.04361
G1 X97.878 Y100.030 E0.04378
G1 X96.965 Y100.685 E0.03521
G1 X96.003 Y101.254 E0.03507
G1 X94.738 Y101.842 E0.04374
G1 X93.683 Y102.211 E0.03505
G1 X92.329 Y102.540 E0.04369
G1 X91.225 Y102.695 E0.03495
G1 X89.843 Y102.754 E0.04337
G1 X88.716 Y102.690 E0.03538
G1 X87.328 Y102.472 E0.04407
G1 X86.246 Y102.189 E0.03506
G1 X84.941 Y101.708 E0.04362
G1 X83.929 Y101.217 E0.03527
G1 X82.743 Y100.489 E0.04363
G1 X81.853 Y99.813 E0.03505
G1 X80.849 Y98.885 E0.04285
G1 X80.092 Y98.032 E0.03576
G1 X79.270 Y96.896 E0.04397
G1 X78.709 Y95.931 E0.03500
G1 X78.140 Y94.691 E0.04277
G1 X77.504 Y92.551 E0.06999
G1 X77.303 Y91.201 E0.04280
G1 X77.246 Y90.056 E0.03596
G1 X77.313 Y88.694 E0.04274
G1 X77.476 Y87.589 E0.03503
G1 X77.815 Y86.235 E0.04376
G1 X78.191 Y85.182 E0.03508
G1 X78.657 Y84.169 E0.03494
G1 X79.361 Y82.967 E0.04369
G1 X80.195 Y81.844 E0.04387
G1 X80.908 Y81.060 E0.03322
M204 S1250
G1 X81.190 Y81.310 F9000.000
M204 S800
G1 F1200.000
G1 X82.009 Y80.549 E0.03508
G1 X83.095 Y79.729 E0.04265
G1 X84.016 Y79.166 E0.03386
G1 X85.239 Y78.576 E0.04259
G1 X86.526 Y78.121 E0.04277
G1 X87.571 Y77.864 E0.03377
G1 X88.920 Y77.671 E0.04272
G1 X89.996 Y77.624 E0.03378
G1 X91.356 Y77.698 E0.04269
G1 X92.426 Y77.863 E0.03395
G1 X93.739 Y78.202 E0.04252
G1 X94.754 Y78.573 E0.03388
G1 X95.734 Y79.032 E0.03394
G1 X96.901 Y79.726 E0.04257
G1 X97.771 Y80.367 E0.03389
G1 X98.778 Y81.275 E0.04253
G1 X99.686 Y82.295 E0.04280
G1 X100.316 Y83.162 E0.03359
G1 X100.875 Y84.091 E0.03399
G1 X101.457 Y85.318 E0.04259
G1 X101.823 Y86.339 E0.03402
G1 X102.153 Y87.657 E0.04261
G1 X102.311 Y88.725 E0.03383
G1 X102.377 Y90.056 E0.04181
G1 X102.322 Y91.161 E0.03466
G1 X102.121 Y92.502 E0.04254
G1 X101.856 Y93.554 E0.03401
G1 X101.409 Y94.799 E0.04148
G1 X100.400 Y96.711 E0.06778
G1 X99.615 Y97.794 E0.04193
G1 X98.885 Y98.617 E0.03453
G1 X97.909 Y99.521 E0.04168
G1 X97.044 Y100.178 E0.03406
G1 X95.888 Y100.887 E0.04252
G1 X94.918 Y101.359 E0.03382
G1 X93.643 Y101.829 E0.04262
G1 X92.594 Y102.103 E0.03397
G1 X91.252 Y102.314 E0.04260
G1 X90.157 Y102.376 E0.03439
G1 X88.818 Y102.321 E0.04203
G1 X87.746 Y102.171 E0.03394
G1 X86.425 Y101.850 E0.04262
G1 X85.408 Y101.494 E0.03378
G1 X84.422 Y101.049 E0.03390
G1 X83.244 Y100.371 E0.04265
G1 X82.364 Y99.741 E0.03391
G1 X81.342 Y98.845 E0.04262
G1 X80.428 Y97.847 E0.04245
G1 X79.779 Y96.981 E0.03391
G1 X79.208 Y96.060 E0.03398
G1 X78.610 Y94.844 E0.04248
G1 X78.230 Y93.828 E0.03402
G1 X77.880 Y92.512 E0.04270
G1 X77.708 Y91.446 E0.03386
G1 X77.623 Y90.087 E0.04268
G1 X77.663 Y89.011 E0.03378
G1 X77.845 Y87.665 E0.04257
G1 X78.096 Y86.612 E0.03394
G1 X78.540 Y85.325 E0.04269
G1 X78.990 Y84.345 E0.03382
G1 X79.675 Y83.176 E0.04248
G1 X80.310 Y82.300 E0.03392
G1 X81.150 Y81.355 E0.03965
M204 S1250
; printing object DrillBrace4.stl id:0 copy 0
G1 E-2.24000 F4200.000
;WIPE_START
G1 F7200.000
G1 X82.009 Y80.549 E-0.65307
G1 X82.382 Y80.267 E-0.25893
;WIPE_END
G1 E-0.04800 F4200.000
G1 Z0.400 F9000.000
G1 X85.082 Y85.178
G1 Z0.200
G1 E3.20000 F2400.000
M204 S800
;TYPE:Perimeter
G1 F1200.000
G1 X85.451 Y84.829 E0.01593
G1 X86.032 Y84.370 E0.02322
G1 X86.664 Y83.974 E0.02338
G1 X87.335 Y83.649 E0.02338
G1 X88.033 Y83.400 E0.02322
G1 X88.524 Y83.273 E0.01593
G1 X89.250 Y83.154 E0.02305
G1 X89.751 Y83.117 E0.01576
G1 X90.254 Y83.117 E0.01576
G1 X90.991 Y83.184 E0.02322
G1 X91.722 Y83.331 E0.02338
G1 X92.433 Y83.557 E0.02338
G1 X93.116 Y83.858 E0.02338
G1 X93.757 Y84.228 E0.02322
G1 X94.172 Y84.520 E0.01593
G1 X94.737 Y85.000 E0.02322
G1 X95.250 Y85.541 E0.02339
G1 X95.701 Y86.135 E0.02338
G1 X96.083 Y86.770 E0.02322
G1 X96.302 Y87.222 E0.01576
G1 X96.488 Y87.689 E0.01576
G1 X96.699 Y88.399 E0.02322
G1 X96.833 Y89.132 E0.02338
G1 X96.887 Y89.876 E0.02338
G1 X96.860 Y90.616 E0.02322
G1 X96.796 Y91.120 E0.01593
G1 X96.637 Y91.843 E0.02322
G1 X96.399 Y92.550 E0.02338
G1 X96.085 Y93.227 E0.02339
G1 X95.704 Y93.861 E0.02322
G1 X95.404 Y94.271 E0.01593
G1 X94.918 Y94.823 E0.02305
G1 X94.549 Y95.172 E0.01593
G1 X93.972 Y95.628 E0.02305
G1 X93.546 Y95.905 E0.01593
G1 X92.892 Y96.252 E0.02322
G1 X92.199 Y96.528 E0.02338
G1 X91.481 Y96.727 E0.02338
G1 X90.750 Y96.847 E0.02322
G1 X90.249 Y96.883 E0.01576
G1 X89.746 Y96.883 E0.01576
G1 X89.008 Y96.817 E0.02322
G1 X88.277 Y96.670 E0.02338
G1 X87.566 Y96.444 E0.02338
G1 X86.884 Y96.143 E0.02339
G1 X86.243 Y95.773 E0.02322
G1 X85.827 Y95.481 E0.01593
G1 X85.263 Y95.001 E0.02322
G1 X84.754 Y94.464 E0.02322
G1 X84.439 Y94.065 E0.01593
G1 X84.035 Y93.444 E0.02322
G1 X83.697 Y92.779 E0.02338
G1 X83.436 Y92.087 E0.02322
G1 X83.300 Y91.597 E0.01592
G1 X83.167 Y90.869 E0.02322
G1 X83.113 Y90.130 E0.02322
G1 X83.123 Y89.622 E0.01593
G1 X83.203 Y88.886 E0.02322
G1 X83.363 Y88.158 E0.02338
G1 X83.601 Y87.451 E0.02338
G1 X83.914 Y86.774 E0.02338
G1 X84.296 Y86.140 E0.02322
G1 X84.596 Y85.730 E0.01593
G1 X85.042 Y85.223 E0.02117
M204 S1250
G1 X85.325 Y85.472 F9000.000
M204 S800
;TYPE:External perimeter
G1 F1200.000
G1 X85.698 Y85.114 E0.01620
G1 X86.250 Y84.679 E0.02204
G1 X86.847 Y84.305 E0.02210
G1 X87.481 Y83.997 E0.02210
G1 X88.143 Y83.761 E0.02204
G1 X88.602 Y83.642 E0.01486
G1 X89.294 Y83.529 E0.02198
G1 X89.765 Y83.495 E0.01480
G1 X90.237 Y83.495 E0.01480
G1 X90.937 Y83.558 E0.02204
G1 X91.628 Y83.697 E0.02210
G1 X92.300 Y83.910 E0.02210
G1 X92.945 Y84.194 E0.02210
G1 X93.554 Y84.546 E0.02204
G1 X93.941 Y84.819 E0.01486
G1 X94.477 Y85.274 E0.02204
G1 X94.962 Y85.786 E0.02210
G1 X95.388 Y86.347 E0.02210
G1 X95.751 Y86.949 E0.02204
G1 X95.957 Y87.374 E0.01480
G1 X96.131 Y87.813 E0.01480
G1 X96.332 Y88.486 E0.02204
G1 X96.458 Y89.180 E0.02210
G1 X96.509 Y89.883 E0.02210
G1 X96.484 Y90.586 E0.02204
G1 X96.424 Y91.056 E0.01486
G1 X96.273 Y91.742 E0.02204
G1 X96.048 Y92.410 E0.02210
G1 X95.752 Y93.050 E0.02210
G1 X95.389 Y93.652 E0.02204
G1 X95.109 Y94.035 E0.01486
G1 X94.646 Y94.561 E0.02198
G1 X94.302 Y94.887 E0.01486
G1 X93.752 Y95.321 E0.02198
G1 X93.355 Y95.580 E0.01486
G1 X92.733 Y95.909 E0.02204
G1 X92.079 Y96.170 E0.02210
G1 X91.399 Y96.359 E0.02210
G1 X90.706 Y96.472 E0.02204
G1 X90.235 Y96.506 E0.01480
G1 X89.763 Y96.506 E0.01480
G1 X89.063 Y96.443 E0.02204
G1 X88.372 Y96.304 E0.02210
G1 X87.700 Y96.091 E0.02210
G1 X87.055 Y95.807 E0.02210
G1 X86.446 Y95.455 E0.02204
G1 X86.059 Y95.182 E0.01486
G1 X85.523 Y94.727 E0.02204
G1 X85.039 Y94.217 E0.02204
G1 X84.746 Y93.845 E0.01486
G1 X84.362 Y93.256 E0.02204
G1 X84.043 Y92.627 E0.02210
G1 X83.794 Y91.969 E0.02204
G1 X83.668 Y91.513 E0.01486
G1 X83.541 Y90.821 E0.02204
G1 X83.491 Y90.120 E0.02204
G1 X83.499 Y89.646 E0.01486
G1 X83.575 Y88.947 E0.02204
G1 X83.727 Y88.259 E0.02210
G1 X83.952 Y87.591 E0.02210
G1 X84.248 Y86.951 E0.02210
G1 X84.610 Y86.349 E0.02204
G1 X84.890 Y85.966 E0.01486
G1 X85.286 Y85.517 E0.01875
M204 S1250
G1 X85.214 Y85.088 F9000.000
G1 E-2.24000 F4200.000
;WIPE_START
G1 F7200.000
G1 X85.698 Y85.114 E-0.31948
G1 X86.250 Y84.679 E-0.38958
G1 X86.560 Y84.484 E-0.20294
;WIPE_END
G1 E-0.04800 F4200.000
G1 Z0.400 F9000.000
G1 X83.366 Y83.611
G1 Z0.200
G1 E3.20000 F2400.000
M204 S800
;TYPE:Perimeter
G1 F1200.000
G1 X83.648 Y83.328 E0.01254
G1 X84.034 Y82.980 E0.01628
G1 X84.435 Y82.659 E0.01611
G1 X85.082 Y82.210 E0.02471
G1 X85.525 Y81.947 E0.01615
G1 X85.981 Y81.711 E0.01611
G1 X86.704 Y81.398 E0.02471
G1 X87.190 Y81.227 E0.01614
G1 X87.685 Y81.084 E0.01615
G1 X88.450 Y80.919 E0.02454
G1 X89.226 Y80.820 E0.02454
G1 X89.740 Y80.791 E0.01615
G1 X90.254 Y80.791 E0.01611
G1 X91.036 Y80.847 E0.02458
G1 X91.809 Y80.967 E0.02454
G1 X92.311 Y81.082 E0.01615
G1 X92.804 Y81.225 E0.01611
G1 X93.544 Y81.497 E0.02471
G1 X94.014 Y81.708 E0.01615
G1 X94.470 Y81.945 E0.01611
G1 X95.142 Y82.356 E0.02471
G1 X95.561 Y82.656 E0.01615
G1 X95.962 Y82.977 E0.01611
G1 X96.540 Y83.512 E0.02471
G1 X96.892 Y83.888 E0.01614
G1 X97.223 Y84.282 E0.01615
G1 X97.682 Y84.916 E0.02454
G1 X98.086 Y85.586 E0.02454
G1 X98.320 Y86.045 E0.01615
G1 X98.530 Y86.520 E0.01627
G1 X98.712 Y87.006 E0.01628
G1 X98.866 Y87.497 E0.01615
G1 X99.046 Y88.259 E0.02454
G1 X99.161 Y89.033 E0.02454
G1 X99.201 Y89.546 E0.01615
G1 X99.212 Y90.065 E0.01628
G1 X99.194 Y90.584 E0.01628
G1 X99.147 Y91.096 E0.01611
G1 X99.020 Y91.873 E0.02471
G1 X98.901 Y92.374 E0.01614
G1 X98.755 Y92.868 E0.01615
G1 X98.480 Y93.601 E0.02454
G1 X98.144 Y94.308 E0.02454
G1 X97.890 Y94.756 E0.01615
G1 X97.610 Y95.193 E0.01628
G1 X97.305 Y95.613 E0.01628
G1 X96.980 Y96.012 E0.01615
G1 X96.445 Y96.583 E0.02454
G1 X95.863 Y97.106 E0.02454
G1 X95.457 Y97.423 E0.01615
G1 X95.030 Y97.719 E0.01628
G1 X94.587 Y97.990 E0.01628
G1 X94.134 Y98.233 E0.01615
G1 X93.416 Y98.556 E0.02467
G1 X92.933 Y98.734 E0.01615
G1 X92.440 Y98.884 E0.01615
G1 X91.678 Y99.059 E0.02454
G1 X90.903 Y99.169 E0.02454
G1 X90.389 Y99.205 E0.01615
G1 X89.874 Y99.212 E0.01615
G1 X89.089 Y99.168 E0.02467
G1 X88.578 Y99.103 E0.01615
G1 X88.072 Y99.009 E0.01615
G1 X87.310 Y98.812 E0.02467
G1 X86.822 Y98.648 E0.01615
G1 X86.344 Y98.456 E0.01615
G1 X85.636 Y98.114 E0.02467
G1 X85.189 Y97.857 E0.01615
G1 X84.754 Y97.574 E0.01628
G1 X84.336 Y97.266 E0.01628
G1 X83.940 Y96.939 E0.01611
G1 X83.369 Y96.396 E0.02471
G1 X83.022 Y96.016 E0.01615
G1 X82.698 Y95.617 E0.01611
G1 X82.244 Y94.973 E0.02471
G1 X81.979 Y94.532 E0.01614
G1 X81.738 Y94.076 E0.01615
G1 X81.420 Y93.357 E0.02467
G1 X81.246 Y92.872 E0.01615
G1 X81.100 Y92.378 E0.01615
G1 X80.929 Y91.610 E0.02467
G1 X80.853 Y91.101 E0.01615
G1 X80.806 Y90.588 E0.01615
G1 X80.790 Y89.806 E0.02454
G1 X80.839 Y89.025 E0.02454
G1 X80.908 Y88.514 E0.01615
G1 X81.006 Y88.005 E0.01628
G1 X81.133 Y87.501 E0.01628
G1 X81.286 Y87.011 E0.01611
G1 X81.573 Y86.277 E0.02471
G1 X81.794 Y85.812 E0.01615
G1 X82.041 Y85.361 E0.01611
G1 X82.464 Y84.702 E0.02458
G1 X82.941 Y84.081 E0.02454
G1 X83.324 Y83.654 E0.01799
M204 S1250
G1 X83.056 Y83.388 F9000.000
M204 S800
;TYPE:External perimeter
G1 F1200.000
G1 X83.388 Y83.054 E0.01476
G1 X83.790 Y82.693 E0.01694
G1 X84.209 Y82.357 E0.01685
G1 X84.879 Y81.893 E0.02554
G1 X85.342 Y81.618 E0.01690
G1 X85.819 Y81.370 E0.01685
G1 X86.567 Y81.046 E0.02554
G1 X87.075 Y80.868 E0.01690
G1 X87.593 Y80.718 E0.01690
G1 X88.386 Y80.547 E0.02546
G1 X89.192 Y80.445 E0.02545
G1 X89.730 Y80.414 E0.01690
G1 X90.267 Y80.414 E0.01685
G1 X91.078 Y80.472 E0.02550
G1 X91.880 Y80.597 E0.02545
G1 X92.406 Y80.717 E0.01690
G1 X92.922 Y80.867 E0.01685
G1 X93.687 Y81.148 E0.02554
G1 X94.178 Y81.369 E0.01690
G1 X94.655 Y81.616 E0.01685
G1 X95.350 Y82.042 E0.02554
G1 X95.789 Y82.355 E0.01690
G1 X96.208 Y82.691 E0.01685
G1 X96.806 Y83.244 E0.02554
G1 X97.175 Y83.637 E0.01690
G1 X97.521 Y84.050 E0.01690
G1 X97.997 Y84.708 E0.02545
G1 X98.416 Y85.403 E0.02545
G1 X98.661 Y85.883 E0.01690
G1 X98.879 Y86.377 E0.01694
G1 X99.069 Y86.883 E0.01694
G1 X99.230 Y87.398 E0.01690
G1 X99.417 Y88.188 E0.02545
G1 X99.536 Y88.991 E0.02546
G1 X99.578 Y89.528 E0.01689
G1 X99.590 Y90.068 E0.01694
G1 X99.571 Y90.608 E0.01694
G1 X99.521 Y91.143 E0.01685
G1 X99.390 Y91.947 E0.02554
G1 X99.266 Y92.472 E0.01690
G1 X99.112 Y92.988 E0.01690
G1 X98.827 Y93.748 E0.02545
G1 X98.478 Y94.481 E0.02545
G1 X98.213 Y94.951 E0.01690
G1 X97.922 Y95.405 E0.01694
G1 X97.605 Y95.843 E0.01694
G1 X97.264 Y96.261 E0.01690
G1 X96.709 Y96.853 E0.02545
G1 X96.105 Y97.396 E0.02545
G1 X95.680 Y97.727 E0.01690
G1 X95.236 Y98.035 E0.01694
G1 X94.775 Y98.317 E0.01694
G1 X94.301 Y98.572 E0.01690
G1 X93.559 Y98.905 E0.02550
G1 X93.053 Y99.091 E0.01690
G1 X92.538 Y99.248 E0.01690
G1 X91.746 Y99.430 E0.02546
G1 X90.943 Y99.544 E0.02545
G1 X90.405 Y99.582 E0.01689
G1 X89.866 Y99.589 E0.01690
G1 X89.054 Y99.544 E0.02550
G1 X88.520 Y99.475 E0.01690
G1 X87.990 Y99.377 E0.01690
G1 X87.203 Y99.173 E0.02550
G1 X86.692 Y99.002 E0.01689
G1 X86.191 Y98.802 E0.01690
G1 X85.459 Y98.447 E0.02550
G1 X84.992 Y98.179 E0.01690
G1 X84.539 Y97.884 E0.01694
G1 X84.104 Y97.564 E0.01694
G1 X83.690 Y97.222 E0.01685
G1 X83.099 Y96.660 E0.02554
G1 X82.736 Y96.262 E0.01690
G1 X82.397 Y95.845 E0.01685
G1 X81.928 Y95.179 E0.02554
G1 X81.650 Y94.717 E0.01690
G1 X81.398 Y94.241 E0.01690
G1 X81.070 Y93.497 E0.02550
G1 X80.888 Y92.990 E0.01690
G1 X80.734 Y92.473 E0.01690
G1 X80.558 Y91.679 E0.02550
G1 X80.479 Y91.146 E0.01689
G1 X80.429 Y90.610 E0.01690
G1 X80.412 Y89.798 E0.02546
G1 X80.464 Y88.988 E0.02545
G1 X80.536 Y88.454 E0.01690
G1 X80.638 Y87.923 E0.01694
G1 X80.770 Y87.399 E0.01694
G1 X80.930 Y86.886 E0.01685
G1 X81.227 Y86.127 E0.02554
G1 X81.458 Y85.641 E0.01690
G1 X81.716 Y85.169 E0.01685
G1 X82.155 Y84.485 E0.02550
G1 X82.650 Y83.841 E0.02545
G1 X83.014 Y83.431 E0.01720
M204 S1250
G1 X83.446 Y83.478 F9000.000
G1 E-2.24000 F4200.000
;WIPE_START
G1 F7200.000
G1 X83.388 Y83.054 E-0.29409
G1 X83.790 Y82.693 E-0.29944
G1 X84.209 Y82.357 E-0.29789
G1 X84.240 Y82.335 E-0.02058
;WIPE_END
G1 E-0.04800 F4200.000
G1 Z0.400 F9000.000
G1 X95.072 Y82.446
G1 Z0.200
G1 E3.20000 F2400.000
M204 S800
;TYPE:Solid infill
;WIDTH:0.422813
G1 F1200.000
G1 X96.681 Y84.075 E0.07232
G1 X97.000 Y84.456 E0.01570
G1 X97.446 Y85.072 E0.02403
G1 X97.866 Y85.778 E0.02594
G1 X94.225 Y82.137 E0.16266
G1 X93.891 Y81.963 E0.01191
G1 X93.236 Y81.685 E0.02245
G1 X98.322 Y86.771 E0.22718
G1 X98.595 Y87.581 E0.02702
G1 X92.423 Y81.409 E0.27571
M73 P2 R30
G1 X91.716 Y81.239 E0.02299
G1 X98.762 Y88.285 E0.31476
G1 X98.859 Y88.919 E0.02026
G1 X91.079 Y81.140 E0.34754
G1 X90.494 Y81.092 E0.01854
G1 X92.821 Y83.418 E0.10393
G1 X92.533 Y83.292 E0.00991
G1 X91.982 Y83.117 E0.01828
G1 X89.939 Y81.074 E0.09125
G1 X89.420 Y81.093 E0.01640
G1 X91.282 Y82.954 E0.08316
G1 X91.032 Y82.904 E0.00805
G1 X90.661 Y82.870 E0.01178
G1 X88.933 Y81.143 E0.07717
