; generated by PrusaSlicer 2.3.0+win64 on 2021-08-13 at 18:15:50 UTC


;
;

;
;
; 

; external perimeters extrusion width = 0.45mm
; perimeters extrusion width = 0.45mm
; infill extrusion width = 0.45mm
; solid infill extrusion width = 0.45mm
; top infill extrusion width = 0.40mm
; first layer extrusion width = 0.42mm

M73 P0 R5
M201 X1250 Y1250 Z400 E5000 ; sets maximum accelerations, mm/sec^2
M203 X180 Y180 Z12 E80 ; sets maximum feedrates, mm/sec
M204 P1250 R1250 T1250 ; sets acceleration (P, T) and retract acceleration (R), mm/sec^2
M205 X8.00 Y8.00 Z2.00 E10.00 ; sets the jerk limits, mm/sec
M205 S0 T0 ; sets the minimum extruding and travel feed rate, mm/sec
M107
;TYPE:Custom
G90 ; use absolute coordinates
M83 ; extruder relative mode
M104 S170 ; set extruder temp for bed leveling
M140 S60 ; set bed temp
M109 R170 ; wait for bed leveling temp
M190 S60 ; wait for bed temp
G28 ; home all without mesh bed level
G29 ; mesh bed leveling 
M104 S215 ; set extruder temp
G92 E0.0
G1 Y-2.0 X179 F2400
M73 P1 R5
G1 Z3 F720
M109 S215 ; wait for extruder temp

; intro line
G1 X170 F1000
G1 Z0.2 F720
G1 X110.0 E8.0 F900
M73 P3 R5
G1 X40.0 E10.0 F700
G92 E0.0

M221 S95 ; set flow
G21 ; set units to millimeters
G90 ; use absolute coordinates
M83 ; use relative distances for extrusion
M900 K0.2 ; Filament gcode LA 1.5
; ; Filament gcode LA 1.0
;LAYER_CHANGE
;Z:0.2
;HEIGHT:0.2
;BEFORE_LAYER_CHANGE
G92 E0.0
;0.2


M73 P5 R5
G1 E-3.20000 F4200.000
G1 Z0.200 F9000.000
;AFTER_LAYER_CHANGE
;0.2
G1 Z0.400
G1 X80.951 Y81.012
G1 Z0.200
G1 E3.20000 F2400.000
M204 S800
;TYPE:Skirt
;WIDTH:0.42
G1 F1200.000
G1 X81.988 Y80.077 E0.04377
G1 X82.888 Y79.413 E0.03507
G1 X84.087 Y78.700 E0.04376
G1 X85.100 Y78.225 E0.03508
G1 X86.416 Y77.760 E0.04376
G1 X87.503 Y77.493 E0.03508
G1 X88.884 Y77.295 E0.04376
G1 X90.002 Y77.246 E0.03508
G1 X91.396 Y77.323 E0.04376
G1 X92.497 Y77.493 E0.03495
G1 X93.583 Y77.760 E0.03506
G1 X94.900 Y78.225 E0.04377
G1 X95.912 Y78.700 E0.03507
G1 X97.112 Y79.414 E0.04377
G1 X98.012 Y80.077 E0.03507
G1 X99.049 Y81.012 E0.04377
G1 X99.801 Y81.840 E0.03507
G1 X100.635 Y82.960 E0.04377
G1 X101.210 Y83.919 E0.03507
G1 X101.808 Y85.180 E0.04377
G1 X102.185 Y86.233 E0.03506
G1 X102.524 Y87.588 E0.04377
G1 X102.687 Y88.694 E0.03507
G1 X102.754 Y90.089 E0.04378
G1 X102.697 Y91.205 E0.03505
G1 X102.489 Y92.586 E0.04377
G1 X102.215 Y93.670 E0.03507
G1 X101.740 Y94.983 E0.04377
G1 X101.259 Y95.992 E0.03507
G1 X100.537 Y97.187 E0.04377
G1 X99.866 Y98.082 E0.03507
G1 X98.924 Y99.113 E0.04377
M73 P6 R5
G1 X98.091 Y99.859 E0.03507
G1 X96.965 Y100.685 E0.04377
G1 X96.003 Y101.254 E0.03507
G1 X94.737 Y101.842 E0.04377
G1 X93.681 Y102.212 E0.03507
G1 X92.325 Y102.541 E0.04377
G1 X91.221 Y102.696 E0.03495
G1 X89.843 Y102.754 E0.04325
G1 X88.709 Y102.689 E0.03559
G1 X87.326 Y102.471 E0.04389
G1 X86.244 Y102.189 E0.03506
G1 X84.938 Y101.707 E0.04364
G1 X83.929 Y101.217 E0.03519
G1 X82.743 Y100.489 E0.04364
G1 X81.851 Y99.812 E0.03508
G1 X80.851 Y98.887 E0.04273
G1 X80.089 Y98.028 E0.03597
G1 X79.287 Y96.922 E0.04286
G1 X78.245 Y94.949 E0.06995
G1 X77.784 Y93.666 E0.04274
G1 X77.510 Y92.582 E0.03508
G1 X77.303 Y91.201 E0.04376
G1 X77.246 Y90.055 E0.03597
G1 X77.313 Y88.690 E0.04286
G1 X77.476 Y87.587 E0.03495
G1 X77.815 Y86.233 E0.04376
G1 X78.192 Y85.180 E0.03508
G1 X78.789 Y83.919 E0.04376
G1 X79.365 Y82.960 E0.03508
G1 X80.199 Y81.840 E0.04376
G1 X80.911 Y81.057 E0.03319
M204 S1250
G1 X81.190 Y81.310 F9000.000
M204 S800
G1 F1200.000
G1 X82.228 Y80.368 E0.04396
G1 X83.097 Y79.727 E0.03386
G1 X84.266 Y79.032 E0.04264
G1 X85.244 Y78.574 E0.03387
G1 X86.526 Y78.121 E0.04264
G1 X87.575 Y77.863 E0.03387
G1 X88.922 Y77.671 E0.04264
G1 X90.005 Y77.623 E0.03399
G1 X91.359 Y77.698 E0.04252
G1 X92.426 Y77.864 E0.03387
G1 X93.743 Y78.203 E0.04264
G1 X94.757 Y78.574 E0.03387
G1 X95.982 Y79.165 E0.04264
G1 X96.904 Y79.728 E0.03387
G1 X97.978 Y80.539 E0.04220
G1 X98.783 Y81.280 E0.03431
G1 X99.687 Y82.296 E0.04264
G1 X100.322 Y83.170 E0.03387
M73 P7 R5
G1 X101.009 Y84.344 E0.04264
G1 X101.460 Y85.325 E0.03387
G1 X101.904 Y86.611 E0.04264
G1 X102.154 Y87.662 E0.03387
G1 X102.333 Y88.967 E0.04132
G1 X102.377 Y90.087 E0.03514
G1 X102.294 Y91.432 E0.04225
G1 X102.119 Y92.512 E0.03431
G1 X101.771 Y93.826 E0.04264
G1 X101.392 Y94.838 E0.03387
G1 X100.793 Y96.059 E0.04264
G1 X100.224 Y96.977 E0.03387
G1 X99.577 Y97.840 E0.03382
G1 X98.661 Y98.842 E0.04257
G1 X97.855 Y99.565 E0.03394
G1 X96.757 Y100.370 E0.04269
G1 X95.829 Y100.919 E0.03382
G1 X94.598 Y101.492 E0.04257
G1 X93.576 Y101.849 E0.03394
G1 X92.257 Y102.170 E0.04257
G1 X91.187 Y102.320 E0.03387
G1 X89.844 Y102.377 E0.04216
G1 X88.750 Y102.314 E0.03434
G1 X87.407 Y102.103 E0.04264
G1 X86.362 Y101.831 E0.03386
G1 X85.089 Y101.362 E0.04252
G1 X84.112 Y100.887 E0.03406
G1 X82.955 Y100.177 E0.04257
G1 X82.094 Y99.524 E0.03387
G1 X81.119 Y98.621 E0.04168
G1 X80.384 Y97.793 E0.03470
G1 X79.602 Y96.713 E0.04180
G1 X78.594 Y94.807 E0.06762
G1 X78.144 Y93.554 E0.04174
G1 X77.879 Y92.507 E0.03387
G1 X77.678 Y91.162 E0.04264
G1 X77.623 Y90.056 E0.03470
G1 X77.689 Y88.725 E0.04181
G1 X77.847 Y87.656 E0.03387
G1 X78.176 Y86.341 E0.04252
G1 X78.542 Y85.320 E0.03399
G1 X79.123 Y84.095 E0.04252
G1 X79.679 Y83.169 E0.03387
G1 X80.491 Y82.078 E0.04264
G1 X81.149 Y81.355 E0.03066
M204 S1250
; printing object DrillBrace3.stl id:0 copy 0
G1 E-2.24000 F4200.000
;WIPE_START
G1 F7200.000
G1 X82.228 Y80.368 E-0.81008
G1 X82.376 Y80.259 E-0.10192
;WIPE_END
G1 E-0.04800 F4200.000
G1 Z0.400 F9000.000
G1 X85.082 Y85.178
M73 P8 R5
G1 Z0.200
G1 E3.20000 F2400.000
M204 S800
;TYPE:Perimeter
G1 F1200.000
G1 X85.451 Y84.829 E0.01593
G1 X86.032 Y84.370 E0.02322
G1 X86.664 Y83.974 E0.02338
G1 X87.330 Y83.651 E0.02322
G1 X87.806 Y83.472 E0.01593
G1 X88.519 Y83.274 E0.02322
G1 X89.255 Y83.153 E0.02338
G1 X89.985 Y83.113 E0.02293
G1 X90.502 Y83.131 E0.01621
G1 X91.237 Y83.224 E0.02323
G1 X91.962 Y83.398 E0.02338
G1 X92.659 Y83.647 E0.02322
G1 X93.120 Y83.860 E0.01593
G1 X93.762 Y84.231 E0.02322
G1 X94.364 Y84.671 E0.02338
G1 X94.914 Y85.174 E0.02338
G1 X95.404 Y85.730 E0.02322
G1 X95.704 Y86.140 E0.01593
G1 X96.085 Y86.774 E0.02322
G1 X96.396 Y87.446 E0.02322
G1 X96.567 Y87.925 E0.01593
G1 X96.752 Y88.641 E0.02322
G1 X96.859 Y89.377 E0.02330
G1 X96.888 Y90.000 E0.01957
G1 X96.859 Y90.624 E0.01957
G1 X96.752 Y91.360 E0.02330
G1 X96.567 Y92.076 E0.02322
G1 X96.396 Y92.555 E0.01593
G1 X96.088 Y93.222 E0.02305
G1 X95.834 Y93.662 E0.01593
G1 X95.407 Y94.267 E0.02322
G1 X94.914 Y94.827 E0.02338
G1 X94.367 Y95.326 E0.02322
G1 X93.963 Y95.634 E0.01593
G1 X93.336 Y96.027 E0.02322
G1 X92.669 Y96.350 E0.02322
G1 X92.194 Y96.529 E0.01593
G1 X91.481 Y96.727 E0.02322
G1 X90.745 Y96.848 E0.02338
G1 X90.000 Y96.888 E0.02338
G1 X89.255 Y96.848 E0.02338
G1 X88.519 Y96.727 E0.02338
G1 X87.806 Y96.529 E0.02322
G1 X87.330 Y96.350 E0.01593
G1 X86.664 Y96.027 E0.02322
G1 X86.032 Y95.631 E0.02338
G1 X85.451 Y95.172 E0.02322
G1 X85.082 Y94.823 E0.01593
G1 X84.596 Y94.271 E0.02305
G1 X84.296 Y93.861 E0.01593
G1 X83.914 Y93.227 E0.02322
G1 X83.603 Y92.555 E0.02322
G1 X83.432 Y92.076 E0.01593
G1 X83.249 Y91.365 E0.02305
G1 X83.166 Y90.863 E0.01593
G1 X83.113 Y90.130 E0.02305
G1 X83.123 Y89.622 E0.01593
G1 X83.203 Y88.886 E0.02322
G1 X83.363 Y88.158 E0.02338
G1 X83.601 Y87.451 E0.02338
G1 X83.914 Y86.774 E0.02338
G1 X84.296 Y86.140 E0.02322
G1 X84.596 Y85.730 E0.01593
G1 X85.042 Y85.223 E0.02117
M204 S1250
G1 X85.325 Y85.472 F9000.000
M204 S800
;TYPE:External perimeter
G1 F1200.000
G1 X85.698 Y85.114 E0.01620
G1 X86.250 Y84.679 E0.02204
G1 X86.847 Y84.305 E0.02210
G1 X87.480 Y83.998 E0.02204
G1 X87.923 Y83.830 E0.01486
G1 X88.600 Y83.642 E0.02204
G1 X89.296 Y83.528 E0.02210
G1 X89.989 Y83.490 E0.02176
G1 X90.471 Y83.507 E0.01514
G1 X91.169 Y83.596 E0.02205
G1 X91.855 Y83.760 E0.02210
G1 X92.517 Y83.996 E0.02204
G1 X92.947 Y84.195 E0.01486
G1 X93.556 Y84.547 E0.02204
G1 X94.124 Y84.963 E0.02210
G1 X94.645 Y85.439 E0.02210
G1 X95.109 Y85.966 E0.02204
G1 X95.389 Y86.349 E0.01486
G1 X95.752 Y86.951 E0.02204
G1 X96.047 Y87.589 E0.02204
G1 X96.206 Y88.035 E0.01486
G1 X96.382 Y88.716 E0.02204
G1 X96.484 Y89.413 E0.02207
M73 P9 R5
G1 X96.510 Y90.000 E0.01845
G1 X96.484 Y90.588 E0.01845
G1 X96.382 Y91.285 E0.02207
G1 X96.206 Y91.966 E0.02204
G1 X96.047 Y92.412 E0.01486
G1 X95.753 Y93.048 E0.02198
G1 X95.516 Y93.459 E0.01486
G1 X95.111 Y94.033 E0.02204
G1 X94.645 Y94.562 E0.02210
G1 X94.126 Y95.036 E0.02204
G1 X93.748 Y95.323 E0.01486
G1 X93.153 Y95.696 E0.02204
G1 X92.520 Y96.003 E0.02204
G1 X92.077 Y96.171 E0.01486
G1 X91.399 Y96.359 E0.02204
G1 X90.704 Y96.473 E0.02210
G1 X90.000 Y96.511 E0.02210
G1 X89.296 Y96.473 E0.02210
G1 X88.600 Y96.359 E0.02210
G1 X87.923 Y96.171 E0.02204
G1 X87.480 Y96.003 E0.01486
G1 X86.847 Y95.696 E0.02204
G1 X86.250 Y95.322 E0.02210
G1 X85.698 Y94.887 E0.02204
G1 X85.354 Y94.561 E0.01486
G1 X84.890 Y94.035 E0.02198
G1 X84.610 Y93.652 E0.01486
G1 X84.248 Y93.050 E0.02204
G1 X83.953 Y92.412 E0.02204
G1 X83.793 Y91.966 E0.01486
G1 X83.618 Y91.287 E0.02198
G1 X83.541 Y90.819 E0.01486
G1 X83.491 Y90.120 E0.02198
G1 X83.499 Y89.646 E0.01486
G1 X83.575 Y88.947 E0.02204
G1 X83.727 Y88.259 E0.02210
G1 X83.952 Y87.591 E0.02210
G1 X84.248 Y86.951 E0.02210
G1 X84.610 Y86.349 E0.02204
G1 X84.890 Y85.966 E0.01486
G1 X85.286 Y85.517 E0.01875
M204 S1250
G1 X85.214 Y85.088 F9000.000
G1 E-2.24000 F4200.000
;WIPE_START
G1 F7200.000
G1 X85.698 Y85.114 E-0.31947
G1 X86.250 Y84.679 E-0.38959
G1 X86.560 Y84.484 E-0.20294
;WIPE_END
G1 E-0.04800 F4200.000
G1 Z0.400 F9000.000
G1 X83.366 Y83.611
G1 Z0.200
G1 E3.20000 F2400.000
M204 S800
;TYPE:Perimeter
G1 F1200.000
G1 X83.648 Y83.328 E0.01254
G1 X84.034 Y82.980 E0.01628
G1 X84.427 Y82.665 E0.01580
G1 X85.083 Y82.210 E0.02502
G1 X85.525 Y81.947 E0.01614
G1 X85.982 Y81.710 E0.01615
G1 X86.704 Y81.398 E0.02467
G1 X87.190 Y81.227 E0.01615
G1 X87.685 Y81.084 E0.01615
G1 X88.450 Y80.919 E0.02454
G1 X89.226 Y80.820 E0.02454
G1 X89.740 Y80.791 E0.01615
G1 X90.244 Y80.791 E0.01580
G1 X91.036 Y80.847 E0.02489
G1 X91.809 Y80.967 E0.02453
G1 X92.311 Y81.082 E0.01615
G1 X92.806 Y81.226 E0.01615
G1 X93.544 Y81.497 E0.02467
G1 X94.014 Y81.708 E0.01615
G1 X94.471 Y81.946 E0.01615
G1 X95.142 Y82.356 E0.02467
G1 X95.561 Y82.656 E0.01615
G1 X95.954 Y82.971 E0.01580
G1 X96.540 Y83.512 E0.02502
G1 X96.892 Y83.888 E0.01614
G1 X97.223 Y84.282 E0.01615
G1 X97.682 Y84.916 E0.02454
G1 X98.086 Y85.586 E0.02454
G1 X98.320 Y86.045 E0.01615
G1 X98.530 Y86.520 E0.01628
G1 X98.712 Y87.006 E0.01628
G1 X98.863 Y87.487 E0.01580
G1 X99.046 Y88.259 E0.02489
G1 X99.161 Y89.033 E0.02453
G1 X99.201 Y89.546 E0.01615
G1 X99.212 Y90.060 E0.01611
G1 X99.173 Y90.847 E0.02470
G1 X99.112 Y91.358 E0.01615
G1 X99.021 Y91.869 E0.01628
G1 X98.901 Y92.375 E0.01628
G1 X98.758 Y92.858 E0.01580
G1 X98.480 Y93.601 E0.02489
G1 X98.144 Y94.308 E0.02453
G1 X97.890 Y94.756 E0.01615
G1 X97.610 Y95.193 E0.01628
M73 P10 R5
G1 X97.305 Y95.613 E0.01628
G1 X96.980 Y96.012 E0.01615
G1 X96.445 Y96.583 E0.02454
G1 X95.863 Y97.106 E0.02454
G1 X95.457 Y97.423 E0.01615
G1 X95.030 Y97.719 E0.01628
G1 X94.587 Y97.990 E0.01628
G1 X94.134 Y98.233 E0.01615
G1 X93.416 Y98.556 E0.02467
G1 X92.933 Y98.734 E0.01615
G1 X92.440 Y98.884 E0.01615
G1 X91.678 Y99.059 E0.02454
G1 X90.903 Y99.169 E0.02454
G1 X90.389 Y99.205 E0.01615
G1 X89.874 Y99.212 E0.01615
G1 X89.089 Y99.168 E0.02467
G1 X88.578 Y99.103 E0.01615
G1 X88.068 Y99.008 E0.01628
G1 X87.563 Y98.885 E0.01628
G1 X87.071 Y98.735 E0.01615
G1 X86.340 Y98.455 E0.02454
G1 X85.636 Y98.114 E0.02454
G1 X85.189 Y97.857 E0.01615
G1 X84.758 Y97.576 E0.01615
G1 X84.130 Y97.101 E0.02467
G1 X83.743 Y96.762 E0.01615
G1 X83.372 Y96.399 E0.01628
G1 X83.022 Y96.016 E0.01628
G1 X82.697 Y95.616 E0.01615
G1 X82.244 Y94.973 E0.02467
G1 X81.979 Y94.532 E0.01615
G1 X81.743 Y94.086 E0.01580
G1 X81.420 Y93.356 E0.02502
G1 X81.246 Y92.872 E0.01614
G1 X81.100 Y92.378 E0.01615
G1 X80.929 Y91.610 E0.02467
G1 X80.853 Y91.101 E0.01615
G1 X80.807 Y90.599 E0.01580
G1 X80.790 Y89.806 E0.02489
G1 X80.839 Y89.025 E0.02453
G1 X80.908 Y88.514 E0.01615
G1 X81.006 Y88.005 E0.01628
G1 X81.133 Y87.501 E0.01628
G1 X81.283 Y87.020 E0.01580
G1 X81.573 Y86.277 E0.02502
G1 X81.794 Y85.812 E0.01614
G1 X82.036 Y85.370 E0.01580
G1 X82.464 Y84.702 E0.02489
G1 X82.941 Y84.081 E0.02453
G1 X83.324 Y83.654 E0.01799
M204 S1250
G1 X83.056 Y83.388 F9000.000
M204 S800
;TYPE:External perimeter
G1 F1200.000
G1 X83.388 Y83.054 E0.01476
G1 X83.790 Y82.693 E0.01694
G1 X84.201 Y82.363 E0.01654
G1 X84.879 Y81.893 E0.02585
G1 X85.342 Y81.618 E0.01689
G1 X85.820 Y81.369 E0.01690
G1 X86.567 Y81.046 E0.02550
G1 X87.075 Y80.868 E0.01690
G1 X87.593 Y80.718 E0.01690
G1 X88.386 Y80.547 E0.02545
G1 X89.192 Y80.445 E0.02545
G1 X89.730 Y80.414 E0.01690
G1 X90.257 Y80.414 E0.01654
G1 X91.078 Y80.472 E0.02581
G1 X91.880 Y80.597 E0.02545
G1 X92.406 Y80.717 E0.01690
G1 X92.923 Y80.867 E0.01690
G1 X93.687 Y81.148 E0.02550
G1 X94.178 Y81.369 E0.01690
G1 X94.656 Y81.617 E0.01690
G1 X95.350 Y82.042 E0.02550
G1 X95.789 Y82.355 E0.01690
G1 X96.200 Y82.685 E0.01654
G1 X96.806 Y83.244 E0.02585
G1 X97.175 Y83.637 E0.01689
G1 X97.521 Y84.050 E0.01690
G1 X97.997 Y84.708 E0.02545
G1 X98.416 Y85.403 E0.02545
G1 X98.661 Y85.883 E0.01690
G1 X98.879 Y86.377 E0.01694
G1 X99.069 Y86.883 E0.01694
G1 X99.227 Y87.387 E0.01654
G1 X99.417 Y88.188 E0.02581
G1 X99.536 Y88.991 E0.02545
G1 X99.578 Y89.528 E0.01690
G1 X99.590 Y90.066 E0.01686
G1 X99.549 Y90.879 E0.02553
G1 X99.485 Y91.414 E0.01690
G1 X99.390 Y91.946 E0.01694
G1 X99.266 Y92.472 E0.01694
G1 X99.116 Y92.978 E0.01654
G1 X98.827 Y93.748 E0.02581
G1 X98.478 Y94.481 E0.02545
G1 X98.213 Y94.951 E0.01690
G1 X97.922 Y95.405 E0.01694
G1 X97.605 Y95.843 E0.01694
G1 X97.264 Y96.261 E0.01690
G1 X96.709 Y96.853 E0.02545
M73 P11 R5
G1 X96.105 Y97.396 E0.02545
G1 X95.680 Y97.727 E0.01690
G1 X95.236 Y98.035 E0.01694
G1 X94.775 Y98.317 E0.01694
G1 X94.301 Y98.572 E0.01690
G1 X93.559 Y98.905 E0.02550
G1 X93.053 Y99.091 E0.01690
G1 X92.538 Y99.248 E0.01690
G1 X91.746 Y99.430 E0.02545
G1 X90.943 Y99.544 E0.02545
G1 X90.405 Y99.582 E0.01690
G1 X89.866 Y99.589 E0.01690
G1 X89.054 Y99.544 E0.02550
G1 X88.520 Y99.475 E0.01690
G1 X87.988 Y99.377 E0.01694
G1 X87.463 Y99.249 E0.01694
G1 X86.948 Y99.092 E0.01690
G1 X86.190 Y98.801 E0.02545
G1 X85.459 Y98.447 E0.02545
G1 X84.992 Y98.179 E0.01690
G1 X84.541 Y97.885 E0.01690
G1 X83.892 Y97.394 E0.02550
G1 X83.487 Y97.039 E0.01690
G1 X83.100 Y96.661 E0.01694
G1 X82.736 Y96.262 E0.01694
G1 X82.396 Y95.844 E0.01690
G1 X81.928 Y95.179 E0.02550
G1 X81.650 Y94.717 E0.01690
G1 X81.403 Y94.251 E0.01654
G1 X81.070 Y93.497 E0.02585
G1 X80.888 Y92.990 E0.01689
G1 X80.734 Y92.473 E0.01690
G1 X80.558 Y91.679 E0.02550
G1 X80.479 Y91.146 E0.01690
G1 X80.430 Y90.621 E0.01654
G1 X80.412 Y89.798 E0.02581
G1 X80.464 Y88.988 E0.02545
G1 X80.536 Y88.454 E0.01690
G1 X80.638 Y87.923 E0.01694
G1 X80.770 Y87.399 E0.01694
G1 X80.927 Y86.895 E0.01654
G1 X81.227 Y86.127 E0.02585
G1 X81.458 Y85.641 E0.01689
G1 X81.711 Y85.178 E0.01654
G1 X82.155 Y84.485 E0.02581
G1 X82.650 Y83.841 E0.02545
G1 X83.014 Y83.431 E0.01720
M204 S1250
G1 X83.446 Y83.478 F9000.000
G1 E-2.24000 F4200.000
;WIPE_START
G1 F7200.000
G1 X83.388 Y83.054 E-0.29410
G1 X83.790 Y82.693 E-0.29945
G1 X84.201 Y82.363 E-0.29241
G1 X84.240 Y82.336 E-0.02604
;WIPE_END
G1 E-0.04800 F4200.000
G1 Z0.400 F9000.000
G1 X95.072 Y82.446
G1 Z0.200
G1 E3.20000 F2400.000
M204 S800
;TYPE:Solid infill
;WIDTH:0.422818
G1 F1200.000
G1 X96.681 Y84.075 E0.07232
G1 X97.000 Y84.456 E0.01570
G1 X97.446 Y85.072 E0.02403
G1 X97.866 Y85.778 E0.02594
G1 X94.225 Y82.137 E0.16267
G1 X93.891 Y81.963 E0.01191
G1 X93.236 Y81.685 E0.02245
G1 X98.322 Y86.771 E0.22718
G1 X98.594 Y87.580 E0.02699
G1 X92.423 Y81.409 E0.27568
M73 P12 R5
G1 X91.716 Y81.239 E0.02299
G1 X98.762 Y88.285 E0.31477
G1 X98.859 Y88.919 E0.02027
G1 X91.079 Y81.140 E0.34754
G1 X90.494 Y81.092 E0.01852
G1 X92.805 Y83.403 E0.10321
G1 X91.975 Y83.110 E0.02779
G1 X89.939 Y81.074 E0.09096
M73 P12 R4
G1 X89.420 Y81.093 E0.01640
G1 X91.271 Y82.944 E0.08269
G1 X90.656 Y82.866 E0.01960
