; generated by PrusaSlicer 2.3.0+win64 on 2021-07-29 at 13:34:57 UTC


;
;

;
;
; 

; external perimeters extrusion width = 0.45mm
; perimeters extrusion width = 0.45mm
; infill extrusion width = 0.45mm
; solid infill extrusion width = 0.45mm
; top infill extrusion width = 0.40mm
; first layer extrusion width = 0.42mm

M73 P0 R25
M201 X1250 Y1250 Z400 E5000 ; sets maximum accelerations, mm/sec^2
M203 X180 Y180 Z12 E80 ; sets maximum feedrates, mm/sec
M204 P1250 R1250 T1250 ; sets acceleration (P, T) and retract acceleration (R), mm/sec^2
M205 X8.00 Y8.00 Z2.00 E10.00 ; sets the jerk limits, mm/sec
M205 S0 T0 ; sets the minimum extruding and travel feed rate, mm/sec
M107
;TYPE:Custom
G90 ; use absolute coordinates
M83 ; extruder relative mode
M104 S170 ; set extruder temp for bed leveling
M140 S60 ; set bed temp
M109 R170 ; wait for bed leveling temp
M190 S60 ; wait for bed temp
G28 ; home all without mesh bed level
G29 ; mesh bed leveling 
M104 S215 ; set extruder temp
G92 E0.0
G1 Y-2.0 X179 F2400
M73 P0 R24
G1 Z3 F720
M109 S215 ; wait for extruder temp

; intro line
G1 X170 F1000
G1 Z0.2 F720
G1 X110.0 E8.0 F900
G1 X40.0 E10.0 F700
G92 E0.0

M221 S95 ; set flow
G21 ; set units to millimeters
G90 ; use absolute coordinates
M83 ; use relative distances for extrusion
M900 K0.2 ; Filament gcode LA 1.5
; ; Filament gcode LA 1.0
;LAYER_CHANGE
;Z:0.2
;HEIGHT:0.2
;BEFORE_LAYER_CHANGE
G92 E0.0
;0.2


M73 P1 R24
G1 E-3.20000 F4200.000
G1 Z0.200 F9000.000
;AFTER_LAYER_CHANGE
;0.2
G1 Z0.400
G1 X82.332 Y82.460
G1 Z0.200
G1 E3.20000 F2400.000
M204 S800
;TYPE:Skirt
;WIDTH:0.42
G1 F1200.000
G1 X83.274 Y81.609 E0.03980
G1 X84.099 Y81.009 E0.03200
G1 X85.905 Y80.056 E0.06401
G1 X87.884 Y79.456 E0.06483
G1 X89.933 Y79.246 E0.06461
G1 X91.980 Y79.430 E0.06441
G1 X92.973 Y79.665 E0.03202
G1 X94.170 Y80.088 E0.03978
G1 X95.121 Y80.544 E0.03307
G1 X95.997 Y81.074 E0.03211
G1 X97.574 Y82.366 E0.06393
G1 X98.897 Y83.960 E0.06493
G1 X99.431 Y84.834 E0.03212
G1 X99.974 Y85.980 E0.03978
G1 X100.559 Y87.963 E0.06482
G1 X100.754 Y89.996 E0.06405
G1 X100.561 Y92.029 E0.06402
G1 X100.322 Y93.017 E0.03188
G1 X99.975 Y94.017 E0.03317
G1 X99.431 Y95.166 E0.03988
G1 X98.898 Y96.039 E0.03206
G1 X98.267 Y96.878 E0.03292
G1 X97.576 Y97.632 E0.03208
G1 X96.000 Y98.924 E0.06389
G1 X95.126 Y99.454 E0.03205
G1 X94.177 Y99.909 E0.03299
G1 X93.217 Y100.261 E0.03208
G1 X91.985 Y100.569 E0.03980
G1 X89.938 Y100.754 E0.06444
G1 X87.890 Y100.545 E0.06455
G1 X85.912 Y99.947 E0.06477
G1 X84.760 Y99.391 E0.04010
G1 X83.892 Y98.851 E0.03207
G1 X82.313 Y97.521 E0.06472
G1 X81.026 Y95.927 E0.06426
G1 X80.058 Y94.101 E0.06477
G1 X79.714 Y93.140 E0.03203
G1 X79.416 Y91.907 E0.03975
G1 X79.246 Y89.876 E0.06393
G1 X79.469 Y87.818 E0.06490
G1 X80.071 Y85.868 E0.06399
G1 X81.031 Y84.065 E0.06404
G1 X82.294 Y82.507 E0.06289
M204 S1250
G1 X82.585 Y82.743 F9000.000
M204 S800
G1 F1200.000
G1 X83.513 Y81.900 E0.03929
G1 X84.310 Y81.322 E0.03088
G1 X86.052 Y80.403 E0.06175
G1 X87.961 Y79.825 E0.06252
G1 X89.934 Y79.623 E0.06219
G1 X91.906 Y79.800 E0.06207
G1 X92.865 Y80.027 E0.03090
G1 X94.027 Y80.437 E0.03866
G1 X95.786 Y81.386 E0.06267
G1 X97.308 Y82.633 E0.06168
G1 X98.584 Y84.170 E0.06262
G1 X99.098 Y85.011 E0.03092
G1 X99.626 Y86.125 E0.03866
G1 X100.189 Y88.037 E0.06249
G1 X100.377 Y89.999 E0.06180
G1 X100.190 Y91.957 E0.06165
G1 X99.627 Y93.872 E0.06259
G1 X99.098 Y94.989 E0.03876
G1 X98.583 Y95.831 E0.03093
G1 X97.311 Y97.364 E0.06249
G1 X95.791 Y98.611 E0.06164
G1 X94.033 Y99.561 E0.06265
G1 X93.108 Y99.900 E0.03089
G1 X91.911 Y100.199 E0.03868
G1 X89.936 Y100.377 E0.06216
G1 X87.965 Y100.176 E0.06214
G1 X86.057 Y99.599 E0.06249
G1 X84.940 Y99.060 E0.03889
G1 X84.103 Y98.538 E0.03093
G1 X82.580 Y97.255 E0.06242
G1 X81.341 Y95.720 E0.06187
G1 X80.408 Y93.960 E0.06246
G1 X80.075 Y93.032 E0.03091
G1 X79.786 Y91.836 E0.03856
G1 X79.623 Y89.875 E0.06170
G1 X79.839 Y87.891 E0.06258
G1 X80.419 Y86.013 E0.06162
G1 X81.345 Y84.274 E0.06179
G1 X82.548 Y82.789 E0.05991
M204 S1250
; printing object DrillBrace.stl id:0 copy 0
G1 E-2.24000 F4200.000
;WIPE_START
G1 F7200.000
G1 X83.513 Y81.900 E-0.72722
G1 X83.783 Y81.705 E-0.18478
;WIPE_END
G1 E-0.04800 F4200.000
G1 Z0.400 F9000.000
G1 X86.414 Y86.452
G1 Z0.200
G1 E3.20000 F2400.000
M204 S800
;TYPE:Perimeter
G1 F1200.000
G1 X86.982 Y85.953 E0.02368
G1 X87.350 Y85.703 E0.01397
G1 X87.732 Y85.490 E0.01371
G1 X88.137 Y85.308 E0.01391
G1 X88.749 Y85.109 E0.02016
G1 X89.189 Y85.018 E0.01411
G1 X89.829 Y84.955 E0.02016
G1 X90.273 Y84.960 E0.01391
G1 X90.708 Y85.002 E0.01371
G1 X91.144 Y85.084 E0.01391
G1 X91.760 Y85.269 E0.02016
G1 X92.168 Y85.442 E0.01391
G1 X92.555 Y85.647 E0.01371
G1 X92.927 Y85.888 E0.01391
G1 X93.425 Y86.292 E0.02011
G1 X93.743 Y86.613 E0.01417
G1 X94.143 Y87.117 E0.02016
G1 X94.380 Y87.492 E0.01391
G1 X94.584 Y87.886 E0.01391
G1 X94.815 Y88.486 E0.02016
G1 X94.929 Y88.915 E0.01391
G1 X95.005 Y89.346 E0.01371
G1 X95.042 Y89.781 E0.01371
G1 X95.042 Y90.225 E0.01391
G1 X94.973 Y90.864 E0.02016
G1 X94.878 Y91.298 E0.01391
G1 X94.747 Y91.715 E0.01371
G1 X94.578 Y92.125 E0.01391
G1 X94.271 Y92.690 E0.02016
G1 X94.018 Y93.055 E0.01391
G1 X93.738 Y93.391 E0.01371
G1 X93.426 Y93.707 E0.01391
G1 X92.927 Y94.112 E0.02016
G1 X92.555 Y94.353 E0.01391
G1 X92.163 Y94.561 E0.01391
G1 X91.565 Y94.799 E0.02016
G1 X91.138 Y94.918 E0.01391
G1 X90.708 Y94.998 E0.01371
G1 X90.273 Y95.040 E0.01371
G1 X89.829 Y95.045 E0.01391
G1 X89.191 Y94.983 E0.02011
G1 X88.755 Y94.892 E0.01397
G1 X88.336 Y94.766 E0.01371
G1 X87.924 Y94.601 E0.01391
G1 X87.356 Y94.300 E0.02016
G1 X86.989 Y94.051 E0.01391
G1 X86.649 Y93.775 E0.01371
G1 X86.335 Y93.471 E0.01371
G1 X86.044 Y93.136 E0.01391
G1 X85.677 Y92.608 E0.02016
G1 X85.465 Y92.218 E0.01391
G1 X85.288 Y91.812 E0.01391
G1 X85.096 Y91.198 E0.02016
G1 X85.010 Y90.763 E0.01391
G1 X84.962 Y90.322 E0.01391
G1 X84.962 Y89.678 E0.02016
G1 X85.010 Y89.237 E0.01391
G1 X85.095 Y88.808 E0.01371
G1 X85.216 Y88.388 E0.01371
G1 X85.374 Y87.980 E0.01371
G1 X85.568 Y87.582 E0.01391
G1 X85.912 Y87.038 E0.02016
G1 X86.188 Y86.691 E0.01391
G1 X86.373 Y86.495 E0.00844
M204 S1250
G1 X86.647 Y86.755 F9000.000
M204 S800
;TYPE:External perimeter
G1 F1200.000
G1 X86.753 Y86.643 E0.00484
G1 X87.210 Y86.254 E0.01883
G1 X87.549 Y86.025 E0.01281
G1 X87.902 Y85.827 E0.01269
G1 X88.273 Y85.661 E0.01276
G1 X88.846 Y85.474 E0.01888
G1 X89.246 Y85.391 E0.01283
G1 X89.845 Y85.332 E0.01888
G1 X90.252 Y85.337 E0.01276
G1 X90.655 Y85.376 E0.01269
G1 X91.055 Y85.451 E0.01276
G1 X91.632 Y85.624 E0.01888
G1 X92.006 Y85.783 E0.01276
G1 X92.364 Y85.972 E0.01269
G1 X92.705 Y86.193 E0.01276
G1 X93.171 Y86.572 E0.01883
G1 X93.460 Y86.864 E0.01288
G1 X93.835 Y87.335 E0.01888
G1 X94.052 Y87.679 E0.01276
G1 X94.239 Y88.041 E0.01276
G1 X94.456 Y88.603 E0.01888
G1 X94.561 Y88.996 E0.01276
G1 X94.630 Y89.395 E0.01269
G1 X94.665 Y89.798 E0.01269
G1 X94.665 Y90.205 E0.01276
G1 X94.600 Y90.803 E0.01888
G1 X94.513 Y91.201 E0.01276
G1 X94.392 Y91.587 E0.01269
G1 X94.237 Y91.963 E0.01276
G1 X93.949 Y92.492 E0.01888
G1 X93.717 Y92.826 E0.01276
G1 X93.459 Y93.138 E0.01269
G1 X93.173 Y93.427 E0.01276
G1 X92.705 Y93.807 E0.01888
G1 X92.364 Y94.028 E0.01276
G1 X92.004 Y94.218 E0.01276
G1 X91.445 Y94.441 E0.01888
G1 X91.053 Y94.550 E0.01276
G1 X90.655 Y94.624 E0.01269
G1 X90.252 Y94.663 E0.01269
G1 X89.845 Y94.668 E0.01276
G1 X89.248 Y94.609 E0.01883
G1 X88.848 Y94.526 E0.01281
G1 X88.460 Y94.409 E0.01269
G1 X88.082 Y94.259 E0.01276
G1 X87.550 Y93.977 E0.01888
G1 X87.214 Y93.748 E0.01276
G1 X86.900 Y93.493 E0.01269
G1 X86.609 Y93.212 E0.01269
G1 X86.342 Y92.904 E0.01276
G1 X85.999 Y92.410 E0.01888
G1 X85.804 Y92.052 E0.01276
G1 X85.642 Y91.679 E0.01276
G1 X85.462 Y91.105 E0.01888
G1 X85.383 Y90.706 E0.01276
G1 X85.339 Y90.301 E0.01276
G1 X85.339 Y89.699 E0.01888
G1 X85.383 Y89.294 E0.01276
G1 X85.461 Y88.897 E0.01269
G1 X85.574 Y88.509 E0.01269
G1 X85.719 Y88.131 E0.01269
G1 X85.898 Y87.766 E0.01276
G1 X86.220 Y87.257 E0.01888
G1 X86.605 Y86.798 E0.01879
M204 S1250
G1 X86.597 Y86.609 F9000.000
G1 E-2.24000 F4200.000
;WIPE_START
G1 F7200.000
G1 X86.753 Y86.643 E-0.11871
G1 X87.210 Y86.254 E-0.33273
G1 X87.549 Y86.025 E-0.22645
G1 X87.902 Y85.827 E-0.22424
G1 X87.918 Y85.820 E-0.00988
;WIPE_END
G1 E-0.04800 F4200.000
G1 Z0.400 F9000.000
G1 X84.532 Y85.297
G1 Z0.200
G1 E3.20000 F2400.000
M204 S800
;TYPE:Perimeter
G1 F1200.000
G1 X85.001 Y84.801 E0.02141
G1 X85.515 Y84.351 E0.02141
G1 X86.070 Y83.952 E0.02141
G1 X86.659 Y83.608 E0.02141
G1 X87.279 Y83.321 E0.02141
G1 X87.923 Y83.093 E0.02141
G1 X88.585 Y82.928 E0.02141
G1 X89.265 Y82.825 E0.02156
G1 X89.715 Y82.793 E0.01413
G1 X90.165 Y82.789 E0.01410
G1 X90.851 Y82.838 E0.02159
G1 X91.525 Y82.951 E0.02141
G1 X92.185 Y83.127 E0.02141
G1 X92.825 Y83.364 E0.02141
G1 X93.440 Y83.661 E0.02141
G1 X94.024 Y84.015 E0.02141
G1 X94.572 Y84.423 E0.02141
G1 X95.079 Y84.880 E0.02141
G1 X95.544 Y85.387 E0.02156
G1 X95.821 Y85.742 E0.01413
G1 X96.075 Y86.113 E0.01410
G1 X96.418 Y86.711 E0.02159
G1 X96.700 Y87.332 E0.02141
G1 X96.923 Y87.978 E0.02141
G1 X97.083 Y88.642 E0.02141
G1 X97.179 Y89.318 E0.02141
G1 X97.212 Y90.005 E0.02156
G1 X97.198 Y90.454 E0.01410
G1 X97.155 Y90.904 E0.01417
G1 X97.036 Y91.581 E0.02156
G1 X96.855 Y92.240 E0.02141
G1 X96.613 Y92.878 E0.02141
G1 X96.311 Y93.490 E0.02141
G1 X95.952 Y94.072 E0.02141
G1 X95.541 Y94.617 E0.02141
G1 X95.079 Y95.120 E0.02141
G1 X94.572 Y95.577 E0.02141
G1 X94.024 Y95.985 E0.02141
G1 X93.440 Y96.339 E0.02141
G1 X92.825 Y96.636 E0.02141
G1 X92.185 Y96.873 E0.02141
G1 X91.521 Y97.050 E0.02156
G1 X91.077 Y97.132 E0.01413
G1 X90.630 Y97.185 E0.01413
G1 X89.943 Y97.212 E0.02156
G1 X89.261 Y97.174 E0.02141
G1 X88.585 Y97.072 E0.02141
G1 X87.923 Y96.907 E0.02141
G1 X87.279 Y96.679 E0.02141
G1 X86.659 Y96.392 E0.02141
G1 X86.066 Y96.045 E0.02156
G1 X85.696 Y95.788 E0.01413
G1 X85.343 Y95.508 E0.01413
G1 X84.840 Y95.039 E0.02156
G1 X84.386 Y94.528 E0.02141
G1 X83.983 Y93.977 E0.02141
G1 X83.634 Y93.390 E0.02141
G1 X83.342 Y92.773 E0.02141
G1 X83.108 Y92.127 E0.02156
G1 X82.988 Y91.692 E0.01413
G1 X82.897 Y91.252 E0.01410
G1 X82.810 Y90.569 E0.02159
G1 X82.788 Y89.886 E0.02141
G1 X82.831 Y89.205 E0.02141
G1 X82.939 Y88.530 E0.02141
G1 X83.110 Y87.864 E0.02156
G1 X83.257 Y87.438 E0.01413
G1 X83.430 Y87.022 E0.01413
G1 X83.744 Y86.410 E0.02156
G1 X84.112 Y85.835 E0.02141
G1 X84.495 Y85.344 E0.01953
M204 S1250
G1 X84.198 Y85.112 F9000.000
M204 S800
;TYPE:External perimeter
G1 F1200.000
G1 X84.740 Y84.528 E0.02496
M73 P2 R24
G1 X85.281 Y84.055 E0.02253
G1 X85.864 Y83.636 E0.02253
G1 X86.485 Y83.273 E0.02253
G1 X87.137 Y82.971 E0.02253
G1 X87.814 Y82.732 E0.02253
G1 X88.511 Y82.558 E0.02253
G1 X89.224 Y82.450 E0.02259
G1 X89.700 Y82.416 E0.01497
G1 X90.176 Y82.412 E0.01494
G1 X90.896 Y82.463 E0.02262
G1 X91.605 Y82.582 E0.02253
G1 X92.299 Y82.767 E0.02253
G1 X92.973 Y83.017 E0.02253
G1 X93.620 Y83.330 E0.02253
G1 X94.235 Y83.702 E0.02253
G1 X94.811 Y84.131 E0.02253
G1 X95.345 Y84.612 E0.02253
G1 X95.832 Y85.143 E0.02258
G1 X96.126 Y85.519 E0.01497
G1 X96.395 Y85.913 E0.01494
G1 X96.754 Y86.538 E0.02262
G1 X97.051 Y87.193 E0.02253
G1 X97.285 Y87.872 E0.02253
G1 X97.453 Y88.571 E0.02253
G1 X97.555 Y89.282 E0.02253
G1 X97.589 Y90.002 E0.02258
G1 X97.574 Y90.478 E0.01494
G1 X97.529 Y90.954 E0.01501
G1 X97.405 Y91.664 E0.02258
G1 X97.214 Y92.357 E0.02253
G1 X96.959 Y93.029 E0.02253
G1 X96.641 Y93.673 E0.02253
G1 X96.264 Y94.285 E0.02253
G1 X95.831 Y94.858 E0.02253
G1 X95.345 Y95.388 E0.02253
G1 X94.811 Y95.869 E0.02253
G1 X94.235 Y96.298 E0.02253
G1 X93.620 Y96.670 E0.02253
G1 X92.973 Y96.983 E0.02253
G1 X92.299 Y97.233 E0.02253
G1 X91.603 Y97.418 E0.02258
G1 X91.134 Y97.505 E0.01497
G1 X90.659 Y97.561 E0.01497
G1 X89.940 Y97.590 E0.02258
G1 X89.222 Y97.550 E0.02253
G1 X88.511 Y97.442 E0.02253
G1 X87.814 Y97.268 E0.02253
G1 X87.137 Y97.029 E0.02253
G1 X86.485 Y96.727 E0.02253
G1 X85.863 Y96.363 E0.02258
G1 X85.471 Y96.091 E0.01497
G1 X85.097 Y95.794 E0.01497
G1 X84.570 Y95.303 E0.02258
G1 X84.092 Y94.765 E0.02253
G1 X83.668 Y94.185 E0.02253
G1 X83.301 Y93.568 E0.02253
G1 X82.993 Y92.918 E0.02253
G1 X82.748 Y92.241 E0.02259
G1 X82.621 Y91.781 E0.01497
G1 X82.524 Y91.314 E0.01494
G1 X82.433 Y90.598 E0.02262
G1 X82.411 Y89.880 E0.02253
G1 X82.456 Y89.163 E0.02253
G1 X82.569 Y88.453 E0.02253
G1 X82.749 Y87.756 E0.02258
G1 X82.904 Y87.304 E0.01497
G1 X83.088 Y86.863 E0.01497
G1 X83.417 Y86.222 E0.02258
G1 X83.803 Y85.617 E0.02253
G1 X84.161 Y85.159 E0.01821
M204 S1250
G1 X84.591 Y85.183 F9000.000
G1 E-2.24000 F4200.000
;WIPE_START
G1 F7200.000
G1 X84.740 Y84.528 E-0.47436
G1 X85.281 Y84.055 E-0.39825
G1 X85.338 Y84.014 E-0.03939
;WIPE_END
G1 E-0.04800 F4200.000
G1 Z0.400 F9000.000
G1 X93.813 Y84.019
G1 Z0.200
G1 E3.20000 F2400.000
M204 S800
;TYPE:Solid infill
;WIDTH:0.427654
G1 F1200.000
G1 X94.937 Y85.143 E0.05085
G1 X95.328 Y85.570 E0.01851
G1 X95.593 Y85.909 E0.01378
G1 X95.835 Y86.264 E0.01374
G1 X96.230 Y86.980 E0.02617
G1 X93.024 Y83.774 E0.14506
G1 X92.714 Y83.625 E0.01099
G1 X92.104 Y83.398 E0.02083
G1 X96.592 Y87.887 E0.20306
G1 X96.651 Y88.057 E0.00578
G1 X96.788 Y88.627 E0.01874
G1 X91.374 Y83.212 E0.24497
G1 X90.730 Y83.113 E0.02082
G1 X96.887 Y89.270 E0.27853
G1 X96.921 Y89.848 E0.01855
G1 X94.841 Y87.768 E0.09414
G1 X94.626 Y87.351 E0.01499
G1 X94.374 Y86.953 E0.01508
G1 X93.955 Y86.425 E0.02156
G1 X93.615 Y86.082 E0.01544
G1 X93.094 Y85.659 E0.02149
G1 X92.698 Y85.403 E0.01508
G1 X92.237 Y85.164 E0.01661
G1 X90.145 Y83.072 E0.09463
G1 X89.613 Y83.084 E0.01705
G1 X91.392 Y84.863 E0.08048
G1 X91.211 Y84.808 E0.00603
G1 X90.702 Y84.718 E0.01653
G1 X89.118 Y83.133 E0.07168
G1 X88.645 Y83.205 E0.01529
G1 X90.116 Y84.675 E0.06653
G1 X89.817 Y84.672 E0.00957
G1 X89.591 Y84.694 E0.00727
G1 X88.210 Y83.313 E0.06248
G1 X87.792 Y83.439 E0.01396
G1 X89.100 Y84.747 E0.05917
G1 X88.652 Y84.844 E0.01465
G1 X87.386 Y83.583 E0.05716
G1 X87.018 Y83.753 E0.01298
G1 X88.241 Y84.977 E0.05536
G1 X87.848 Y85.128 E0.01347
G1 X86.657 Y83.937 E0.05389
G1 X86.314 Y84.137 E0.01272
G1 X87.482 Y85.306 E0.05286
G1 X87.138 Y85.506 E0.01273
G1 X85.990 Y84.358 E0.05193
G1 X85.675 Y84.587 E0.01246
G1 X86.814 Y85.726 E0.05151
G1 X86.519 Y85.975 E0.01235
G1 X85.385 Y84.841 E0.05132
G1 X85.104 Y85.104 E0.01231
G1 X86.232 Y86.233 E0.05107
G1 X85.968 Y86.513 E0.01231
G1 X84.839 Y85.383 E0.05109
G1 X84.591 Y85.680 E0.01236
G1 X85.727 Y86.816 E0.05139
G1 X85.511 Y87.143 E0.01256
G1 X84.353 Y85.985 E0.05239
G1 X84.140 Y86.316 E0.01259
G1 X85.303 Y87.480 E0.05265
G1 X85.125 Y87.845 E0.01301
G1 X83.936 Y86.656 E0.05379
G1 X83.751 Y87.016 E0.01293
G1 X84.972 Y88.236 E0.05520
G1 X84.845 Y88.654 E0.01395
G1 X83.583 Y87.392 E0.05709
G1 X83.436 Y87.789 E0.01354
G1 X84.748 Y89.101 E0.05939
G1 X84.688 Y89.585 E0.01558
G1 X83.313 Y88.210 E0.06218
G1 X83.206 Y88.647 E0.01440
G1 X84.679 Y90.120 E0.06663
G1 X84.679 Y90.337 E0.00693
G1 X84.719 Y90.704 E0.01182
G1 X83.132 Y89.117 E0.07182
G1 X83.088 Y89.618 E0.01609
G1 X85.118 Y91.647 E0.09181
M204 S1250
G1 E-2.24000 F4200.000
;WIPE_START
G1 F7200.000
G1 X83.954 Y90.484 E-0.91200
;WIPE_END
G1 E-0.04800 F4200.000
G1 Z0.400 F9000.000
G1 X94.887 Y88.358
G1 Z0.200
G1 E3.20000 F2400.000
M204 S800
G1 F1200.000
G1 X96.917 Y90.388 E0.09184
G1 X96.871 Y90.886 E0.01601
G1 X95.283 Y89.299 E0.07183
G1 X95.325 Y89.885 E0.01879
G1 X96.790 Y91.349 E0.06626
G1 X96.686 Y91.789 E0.01446
G1 X95.307 Y90.410 E0.06239
G1 X95.253 Y90.901 E0.01579
G1 X96.564 Y92.211 E0.05927
G1 X96.414 Y92.605 E0.01349
G1 X95.156 Y91.348 E0.05690
G1 X95.028 Y91.764 E0.01392
G1 X96.246 Y92.982 E0.05511
G1 X96.067 Y93.346 E0.01300
G1 X94.873 Y92.153 E0.05401
G1 X94.689 Y92.513 E0.01294
G1 X95.860 Y93.683 E0.05295
G1 X95.644 Y94.011 E0.01257
G1 X94.495 Y92.863 E0.05195
G1 X94.272 Y93.184 E0.01251
G1 X95.409 Y94.321 E0.05144
G1 X95.159 Y94.615 E0.01235
G1 X94.028 Y93.485 E0.05113
G1 X93.766 Y93.766 E0.01231
G1 X94.898 Y94.899 E0.05125
G1 X94.614 Y95.159 E0.01232
G1 X93.482 Y94.026 E0.05124
G1 X93.182 Y94.270 E0.01237
G1 X94.322 Y95.411 E0.05161
G1 X94.010 Y95.643 E0.01244
G1 X92.860 Y94.493 E0.05204
