; generated by PrusaSlicer 2.2.0+win64 on 2020-10-15 at 09:08:53 UTC


;
;

;
;
; 

; external perimeters extrusion width = 0.45mm
; perimeters extrusion width = 0.45mm
; infill extrusion width = 0.45mm
; solid infill extrusion width = 0.45mm
; top infill extrusion width = 0.40mm
; first layer extrusion width = 0.42mm

M73 P0 R156
M201 X1250 Y1250 Z400 E5000 ; sets maximum accelerations, mm/sec^2
M203 X180 Y180 Z12 E80 ; sets maximum feedrates, mm/sec
M204 P1250 R1250 T1250 ; sets acceleration (P, T) and retract acceleration (R), mm/sec^2
M205 X8.00 Y8.00 Z2.00 E10.00 ; sets the jerk limits, mm/sec
M205 S0 T0 ; sets the minimum extruding and travel feed rate, mm/sec
M107
G90 ; use absolute coordinates
M83 ; extruder relative mode
M104 S170 ; set extruder temp for bed leveling
M140 S60 ; set bed temp
M109 R170 ; wait for bed leveling temp
M190 S60 ; wait for bed temp
G28 ; home all without mesh bed level
G29 ; mesh bed leveling 
M104 S215 ; set extruder temp
G92 E0.0
G1 Y-2.0 X179 F2400
G1 Z3 F720
M109 S215 ; wait for extruder temp

; intro line
G1 X170 F1000
G1 Z0.2 F720
G1 X110.0 E8.0 F900
M73 P0 R156
G1 X40.0 E10.0 F700
G92 E0.0

M221 S95 ; set flow
G21 ; set units to millimeters
G90 ; use absolute coordinates
M83 ; use relative distances for extrusion
M900 K0.2 ; Filament gcode LA 1.5
; ; Filament gcode LA 1.0
;BEFORE_LAYER_CHANGE
G92 E0.0
;0.2


G1 Z0.200 F9000.000
;AFTER_LAYER_CHANGE
;0.2
G1 E-3.20000 F4200.00000
G1 Z0.400 F9000.000
G1 X7.622 Y33.215
G1 Z0.200
G1 E3.20000 F2400.00000
M204 S800
G1 F1200.000
G1 X8.696 Y33.052 E0.03404
G1 X118.843 Y37.347 E3.45624
G1 X120.512 Y37.540 E0.05265
G1 X122.360 Y38.068 E0.06026
G1 X123.885 Y38.788 E0.05288
G1 X170.606 Y65.541 E1.68808
G1 X171.414 Y66.154 E0.03180
G1 X172.322 Y67.016 E0.03925
G1 X172.967 Y67.781 E0.03136
G1 X173.662 Y68.815 E0.03909
G1 X174.130 Y69.711 E0.03169
G1 X174.581 Y70.870 E0.03897
G1 X174.844 Y71.851 E0.03184
G1 X175.013 Y72.945 E0.03471
G1 X175.017 Y144.586 E2.24626
G1 X174.910 Y145.276 E0.02190
G1 X174.605 Y145.908 E0.02201
G1 X174.227 Y146.340 E0.01799
G1 X173.761 Y146.667 E0.01787
G1 X173.226 Y146.874 E0.01799
G1 X172.657 Y146.948 E0.01799
G1 X16.586 Y146.948 E4.89347
G1 X15.417 Y146.856 E0.03677
G1 X14.307 Y146.593 E0.03576
G1 X13.402 Y146.239 E0.03048
G1 X12.392 Y145.668 E0.03636
G1 X11.701 Y145.144 E0.02720
G1 X11.073 Y144.540 E0.02733
G1 X10.507 Y143.854 E0.02789
G1 X10.048 Y143.143 E0.02654
G1 X9.420 Y141.710 E0.04905
G1 X9.206 Y140.882 E0.02680
G1 X9.085 Y139.997 E0.02802
G1 X4.984 Y44.162 E3.00757
G1 X5.286 Y36.267 E0.24775
G1 X5.448 Y35.385 E0.02809
G1 X5.933 Y34.436 E0.03344
G1 X6.655 Y33.711 E0.03207
G1 X7.569 Y33.242 E0.03220
M204 S1250
G1 E-2.24000 F4200.00000
G1 F7200.000
G1 X8.696 Y33.052 E-0.63330
G1 X9.198 Y33.072 E-0.27870
G1 E-0.04800 F4200.00000
G1 Z0.400 F9000.000
G1 X19.917 Y43.097
G1 Z0.200
G1 E3.20000 F2400.00000
M204 S800
G1 F1200.000
G1 X20.581 Y42.366 E0.03097
G1 X21.061 Y41.901 E0.02092
G1 X21.563 Y41.462 E0.02092
G1 X22.347 Y40.861 E0.03097
G1 X22.901 Y40.490 E0.02092
G1 X23.471 Y40.150 E0.02080
G1 X24.057 Y39.839 E0.02080
G1 X24.659 Y39.559 E0.02080
G1 X25.274 Y39.310 E0.02080
G1 X25.901 Y39.093 E0.02080
G1 X26.538 Y38.908 E0.02080
G1 X27.184 Y38.757 E0.02080
G1 X27.837 Y38.638 E0.02080
G1 X28.495 Y38.553 E0.02080
G1 X29.156 Y38.502 E0.02080
G1 X29.813 Y38.485 E0.02059
G1 X30.810 Y38.523 E0.03129
G1 X31.474 Y38.591 E0.02093
G1 X32.130 Y38.693 E0.02080
G1 X32.779 Y38.828 E0.02080
G1 X33.421 Y38.997 E0.02080
G1 X34.053 Y39.198 E0.02080
G1 X34.678 Y39.432 E0.02092
G1 X35.579 Y39.838 E0.03097
G1 X36.168 Y40.150 E0.02092
G1 X36.738 Y40.490 E0.02080
G1 X37.289 Y40.859 E0.02080
G1 X37.821 Y41.256 E0.02080
G1 X38.332 Y41.680 E0.02080
G1 X38.823 Y42.132 E0.02092
G1 X39.505 Y42.845 E0.03097
G1 X39.934 Y43.356 E0.02092
G1 X40.335 Y43.885 E0.02080
G1 X40.707 Y44.434 E0.02080
G1 X41.051 Y45.002 E0.02080
G1 X41.366 Y45.586 E0.02080
G1 X41.650 Y46.186 E0.02080
G1 X41.903 Y46.799 E0.02080
G1 X42.124 Y47.425 E0.02080
G1 X42.313 Y48.061 E0.02080
G1 X42.468 Y48.706 E0.02080
G1 X42.591 Y49.358 E0.02080
G1 X42.680 Y50.015 E0.02080
G1 X42.735 Y50.676 E0.02080
G1 X42.757 Y51.340 E0.02080
G1 X42.744 Y52.003 E0.02080
G1 X42.698 Y52.658 E0.02059
G1 X42.564 Y53.647 E0.03129
G1 X42.433 Y54.301 E0.02093
G1 X42.268 Y54.944 E0.02080
G1 X42.071 Y55.578 E0.02080
G1 X41.841 Y56.204 E0.02092
G1 X41.441 Y57.107 E0.03097
G1 X41.133 Y57.699 E0.02092
G1 X40.796 Y58.270 E0.02080
G1 X40.430 Y58.824 E0.02080
G1 X40.037 Y59.358 E0.02080
G1 X39.617 Y59.872 E0.02080
G1 X39.171 Y60.363 E0.02080
G1 X38.700 Y60.831 E0.02080
G1 X38.206 Y61.274 E0.02080
G1 X37.690 Y61.691 E0.02080
G1 X37.153 Y62.081 E0.02080
G1 X36.597 Y62.443 E0.02080
G1 X36.023 Y62.776 E0.02080
G1 X35.433 Y63.079 E0.02080
G1 X34.828 Y63.351 E0.02080
G1 X34.210 Y63.592 E0.02080
G1 X33.580 Y63.801 E0.02080
G1 X32.941 Y63.978 E0.02080
G1 X32.293 Y64.121 E0.02080
G1 X31.638 Y64.231 E0.02080
G1 X30.976 Y64.308 E0.02092
G1 X29.989 Y64.359 E0.03097
G1 X29.322 Y64.350 E0.02092
G1 X28.660 Y64.308 E0.02080
G1 X28.001 Y64.231 E0.02080
G1 X27.347 Y64.121 E0.02080
G1 X26.699 Y63.978 E0.02080
G1 X26.059 Y63.801 E0.02080
G1 X25.429 Y63.592 E0.02080
G1 X24.811 Y63.351 E0.02080
G1 X24.206 Y63.079 E0.02080
G1 X23.616 Y62.776 E0.02080
G1 X23.042 Y62.443 E0.02080
G1 X22.483 Y62.079 E0.02092
G1 X21.692 Y61.488 E0.03097
G1 X21.183 Y61.055 E0.02092
G1 X20.698 Y60.597 E0.02092
G1 X20.025 Y59.875 E0.03097
G1 X19.602 Y59.358 E0.02092
G1 X19.209 Y58.824 E0.02080
G1 X18.843 Y58.270 E0.02080
G1 X18.507 Y57.699 E0.02080
G1 X18.200 Y57.110 E0.02080
G1 X17.923 Y56.507 E0.02080
G1 X17.678 Y55.891 E0.02080
G1 X17.464 Y55.259 E0.02092
G1 X17.207 Y54.305 E0.03097
G1 X17.076 Y53.651 E0.02092
G1 X16.978 Y52.995 E0.02080
G1 X16.915 Y52.334 E0.02080
G1 X16.885 Y51.671 E0.02080
G1 X16.889 Y51.008 E0.02080
G1 X16.927 Y50.345 E0.02080
G1 X16.999 Y49.686 E0.02080
G1 X17.105 Y49.031 E0.02080
G1 X17.245 Y48.382 E0.02080
G1 X17.417 Y47.742 E0.02080
G1 X17.622 Y47.110 E0.02080
G1 X17.859 Y46.491 E0.02080
G1 X18.128 Y45.884 E0.02080
G1 X18.427 Y45.292 E0.02080
G1 X18.756 Y44.716 E0.02080
G1 X19.115 Y44.158 E0.02080
G1 X19.501 Y43.618 E0.02080
G1 X19.880 Y43.144 E0.01904
M204 S1250
G1 X20.175 Y43.379 F9000.000
M204 S800
G1 F1200.000
G1 X20.852 Y42.628 E0.03171
G1 X21.316 Y42.179 E0.02024
G1 X21.802 Y41.754 E0.02024
G1 X22.567 Y41.168 E0.03021
G1 X23.103 Y40.809 E0.02024
G1 X23.656 Y40.479 E0.02020
G1 X24.225 Y40.177 E0.02020
G1 X24.809 Y39.905 E0.02020
G1 X25.406 Y39.663 E0.02020
G1 X26.015 Y39.453 E0.02020
G1 X26.634 Y39.273 E0.02020
G1 X27.261 Y39.126 E0.02020
G1 X27.895 Y39.011 E0.02020
G1 X28.533 Y38.928 E0.02020
G1 X29.176 Y38.879 E0.02020
G1 X29.811 Y38.863 E0.01991
G1 X30.784 Y38.899 E0.03053
G1 X31.426 Y38.966 E0.02024
G1 X32.062 Y39.064 E0.02020
G1 X32.693 Y39.196 E0.02020
G1 X33.316 Y39.359 E0.02020
G1 X33.930 Y39.554 E0.02020
G1 X34.534 Y39.781 E0.02024
G1 X35.413 Y40.176 E0.03021
G1 X35.983 Y40.479 E0.02024
G1 X36.536 Y40.809 E0.02020
G1 X37.071 Y41.167 E0.02020
G1 X37.588 Y41.553 E0.02020
G1 X38.083 Y41.964 E0.02020
G1 X38.558 Y42.401 E0.02024
G1 X39.224 Y43.097 E0.03021
G1 X39.640 Y43.591 E0.02024
G1 X40.028 Y44.105 E0.02020
G1 X40.390 Y44.638 E0.02020
G1 X40.724 Y45.189 E0.02020
G1 X41.029 Y45.756 E0.02020
G1 X41.305 Y46.338 E0.02020
G1 X41.550 Y46.934 E0.02020
G1 X41.765 Y47.541 E0.02020
G1 X41.948 Y48.159 E0.02020
G1 X42.100 Y48.785 E0.02020
G1 X42.219 Y49.418 E0.02020
G1 X42.305 Y50.056 E0.02020
G1 X42.359 Y50.698 E0.02020
G1 X42.379 Y51.342 E0.02020
G1 X42.367 Y51.986 E0.02020
G1 X42.322 Y52.620 E0.01991
G1 X42.192 Y53.585 E0.03053
G1 X42.065 Y54.217 E0.02024
G1 X41.905 Y54.842 E0.02020
G1 X41.714 Y55.457 E0.02020
G1 X41.491 Y56.062 E0.02024
G1 X41.101 Y56.943 E0.03021
G1 X40.803 Y57.516 E0.02024
G1 X40.476 Y58.071 E0.02020
G1 X40.121 Y58.608 E0.02020
G1 X39.739 Y59.127 E0.02020
G1 X39.331 Y59.625 E0.02020
G1 X38.898 Y60.102 E0.02020
G1 X38.441 Y60.556 E0.02020
G1 X37.961 Y60.986 E0.02020
G1 X37.460 Y61.391 E0.02020
G1 X36.939 Y61.770 E0.02020
G1 X36.399 Y62.121 E0.02020
G1 X35.842 Y62.445 E0.02020
G1 X35.269 Y62.739 E0.02020
G1 X34.682 Y63.003 E0.02020
G1 X34.082 Y63.237 E0.02020
G1 X33.470 Y63.440 E0.02020
G1 X32.850 Y63.612 E0.02020
G1 X32.221 Y63.751 E0.02020
G1 X31.585 Y63.858 E0.02020
G1 X30.944 Y63.932 E0.02024
G1 X29.982 Y63.982 E0.03021
G1 X29.337 Y63.973 E0.02024
G1 X28.694 Y63.932 E0.02020
G1 X28.054 Y63.858 E0.02020
G1 X27.419 Y63.751 E0.02020
G1 X26.790 Y63.612 E0.02020
G1 X26.169 Y63.440 E0.02020
G1 X25.557 Y63.237 E0.02020
G1 X24.957 Y63.003 E0.02020
G1 X24.370 Y62.739 E0.02020
G1 X23.797 Y62.445 E0.02020
G1 X23.240 Y62.121 E0.02020
G1 X22.699 Y61.769 E0.02024
G1 X21.927 Y61.193 E0.03021
G1 X21.435 Y60.774 E0.02024
G1 X20.966 Y60.331 E0.02024
G1 X20.309 Y59.627 E0.03021
G1 X19.900 Y59.127 E0.02024
G1 X19.518 Y58.608 E0.02020
G1 X19.163 Y58.071 E0.02020
G1 X18.837 Y57.516 E0.02020
G1 X18.539 Y56.945 E0.02020
G1 X18.270 Y56.359 E0.02020
G1 X18.032 Y55.760 E0.02020
G1 X17.825 Y55.149 E0.02024
G1 X17.575 Y54.219 E0.03021
G1 X17.447 Y53.586 E0.02024
G1 X17.353 Y52.949 E0.02020
G1 X17.291 Y52.308 E0.02020
G1 X17.262 Y51.664 E0.02020
G1 X17.266 Y51.020 E0.02020
G1 X17.303 Y50.377 E0.02020
G1 X17.373 Y49.737 E0.02020
G1 X17.476 Y49.101 E0.02020
G1 X17.611 Y48.471 E0.02020
G1 X17.779 Y47.849 E0.02020
G1 X17.978 Y47.236 E0.02020
G1 X18.208 Y46.635 E0.02020
G1 X18.469 Y46.046 E0.02020
G1 X18.759 Y45.471 E0.02020
G1 X19.079 Y44.911 E0.02020
G1 X19.427 Y44.369 E0.02020
G1 X19.802 Y43.846 E0.02020
G1 X20.137 Y43.426 E0.01686
M204 S1250
G1 X20.041 Y43.002 F9000.000
G1 E-2.24000 F4200.00000
G1 F7200.000
G1 X20.852 Y42.628 E-0.59358
G1 X21.265 Y42.228 E-0.31842
G1 E-0.04800 F4200.00000
G1 Z0.400 F9000.000
G1 X154.227 Y140.284
G1 Z0.200
G1 E3.20000 F2400.00000
M204 S800
G1 F1200.000
G1 X20.653 Y140.284 E4.18812
G1 X20.653 Y143.784 E0.10974
G1 X16.609 Y143.784 E0.12679
G1 X16.077 Y143.752 E0.01671
G1 X15.572 Y143.662 E0.01610
G1 X15.080 Y143.513 E0.01610
G1 X14.610 Y143.307 E0.01610
G1 X14.167 Y143.047 E0.01610
G1 X13.757 Y142.737 E0.01610
G1 X13.387 Y142.381 E0.01610
G1 X13.061 Y141.984 E0.01610
G1 X12.784 Y141.552 E0.01610
G1 X12.560 Y141.090 E0.01610
G1 X12.392 Y140.605 E0.01610
G1 X12.282 Y140.103 E0.01610
G1 X12.231 Y139.586 E0.01628
G1 X12.223 Y48.891 E2.84370
G1 X12.187 Y48.430 E0.01448
G1 X12.114 Y47.966 E0.01472
G1 X11.944 Y47.309 E0.02129
G1 X11.784 Y46.869 E0.01466
G1 X11.592 Y46.449 E0.01448
G1 X11.369 Y46.045 E0.01448
G1 X11.114 Y45.660 E0.01448
G1 X10.831 Y45.295 E0.01448
G1 X10.519 Y44.954 E0.01448
G1 X10.183 Y44.638 E0.01448
G1 X9.822 Y44.349 E0.01448
G1 X9.441 Y44.089 E0.01448
G1 X9.040 Y43.859 E0.01448
G1 X8.623 Y43.661 E0.01448
G1 X8.171 Y43.491 E0.01513
G1 X8.460 Y36.373 E0.22336
G1 X8.513 Y36.278 E0.00338
G1 X8.568 Y36.244 E0.00203
G1 X8.677 Y36.219 E0.00351
G1 X9.167 Y36.235 E0.01538
G1 X118.706 Y40.509 E3.43714
M73 P0 R155
G1 X119.186 Y40.542 E0.01508
G1 X119.895 Y40.645 E0.02248
G1 X120.589 Y40.810 E0.02234
G1 X121.264 Y41.037 E0.02234
G1 X121.918 Y41.325 E0.02240
G1 X122.345 Y41.552 E0.01516
G1 X168.444 Y67.913 E1.66505
G1 X168.820 Y68.153 E0.01399
G1 X169.359 Y68.560 E0.02117
G1 X169.856 Y69.017 E0.02117
G1 X170.158 Y69.341 E0.01387
G1 X170.438 Y69.683 E0.01387
G1 X170.824 Y70.237 E0.02117
G1 X171.155 Y70.825 E0.02117
G1 X171.341 Y71.227 E0.01387
G1 X171.502 Y71.639 E0.01387
G1 X171.697 Y72.288 E0.02124
G1 X171.791 Y72.722 E0.01395
G1 X171.853 Y73.128 E0.01288
G1 X171.853 Y143.784 E2.21534
G1 X154.227 Y143.784 E0.55265
G1 X154.227 Y140.344 E0.10786
M204 S1250
G1 X153.850 Y140.661 F9000.000
M204 S800
G1 F1200.000
G1 X21.030 Y140.661 E4.16448
G1 X21.030 Y144.161 E0.10974
G1 X16.598 Y144.161 E0.13896
G1 X16.033 Y144.127 E0.01775
G1 X15.484 Y144.029 E0.01750
G1 X14.950 Y143.867 E0.01750
G1 X14.438 Y143.644 E0.01750
G1 X13.957 Y143.361 E0.01750
G1 X13.512 Y143.025 E0.01750
G1 X13.110 Y142.638 E0.01750
G1 X12.756 Y142.206 E0.01750
G1 X12.455 Y141.736 E0.01750
G1 X12.211 Y141.234 E0.01750
G1 X12.029 Y140.707 E0.01750
G1 X11.909 Y140.162 E0.01750
G1 X11.854 Y139.605 E0.01756
G1 X11.846 Y48.905 E2.84382
G1 X11.813 Y48.474 E0.01356
G1 X11.745 Y48.043 E0.01369
G1 X11.584 Y47.421 E0.02014
G1 X11.435 Y47.013 E0.01362
G1 X11.255 Y46.619 E0.01356
G1 X11.046 Y46.241 E0.01356
G1 X10.808 Y45.880 E0.01356
G1 X10.542 Y45.538 E0.01356
G1 X10.251 Y45.219 E0.01356
G1 X9.935 Y44.923 E0.01356
G1 X9.598 Y44.652 E0.01356
G1 X9.241 Y44.409 E0.01356
G1 X8.865 Y44.194 E0.01356
G1 X8.474 Y44.008 E0.01356
G1 X8.070 Y43.854 E0.01358
G1 X7.783 Y43.771 E0.00938
G1 X8.086 Y36.300 E0.23443
G1 X8.136 Y36.160 E0.00467
G1 X8.226 Y36.030 E0.00496
G1 X8.295 Y35.966 E0.00293
G1 X8.428 Y35.889 E0.00481
G1 X8.641 Y35.841 E0.00685
G1 X9.181 Y35.859 E0.01694
G1 X118.726 Y40.132 E3.43735
G1 X119.226 Y40.166 E0.01570
G1 X119.966 Y40.274 E0.02346
G1 X120.693 Y40.447 E0.02341
G1 X121.400 Y40.685 E0.02341
G1 X122.083 Y40.985 E0.02338
G1 X122.527 Y41.222 E0.01578
G1 X168.640 Y67.590 E1.66552
G1 X169.036 Y67.843 E0.01475
G1 X169.600 Y68.271 E0.02219
G1 X170.122 Y68.749 E0.02219
G1 X170.442 Y69.092 E0.01471
G1 X170.739 Y69.455 E0.01471
G1 X171.143 Y70.036 E0.02219
G1 X171.491 Y70.653 E0.02219
G1 X171.688 Y71.079 E0.01471
G1 X171.858 Y71.516 E0.01471
G1 X172.062 Y72.193 E0.02217
G1 X172.162 Y72.654 E0.01479
G1 X172.230 Y73.100 E0.01415
G1 X172.230 Y144.161 E2.22806
G1 X153.850 Y144.161 E0.57629
G1 X153.850 Y140.721 E0.10786
M204 S1250
G1 X153.672 Y140.302 F9000.000
G1 X154.121 Y140.170
M204 S800
G1 F1200.000
G1 X52.146 Y38.195 E4.52689
G1 X51.590 Y38.173 E0.01745
G1 X153.418 Y140.001 E4.52032
G1 X152.884 Y140.001 E0.01676
G1 X51.035 Y38.152 E4.52128
G1 X50.479 Y38.130 E0.01745
G1 X152.350 Y140.001 E4.52224
M73 P1 R154
G1 X151.816 Y140.001 E0.01676
G1 X49.924 Y38.108 E4.52320
G1 X49.368 Y38.087 E0.01745
G1 X151.282 Y140.001 E4.52416
G1 X150.749 Y140.001 E0.01676
G1 X48.813 Y38.065 E4.52513
G1 X48.257 Y38.043 E0.01745
G1 X150.215 Y140.001 E4.52609
G1 X149.681 Y140.001 E0.01676
G1 X47.702 Y38.022 E4.52705
G1 X47.146 Y38.000 E0.01745
G1 X149.147 Y140.001 E4.52801
G1 X148.613 Y140.001 E0.01676
G1 X46.591 Y37.978 E4.52897
G1 X46.035 Y37.957 E0.01745
G1 X148.079 Y140.001 E4.52994
G1 X147.545 Y140.001 E0.01676
G1 X45.479 Y37.935 E4.53090
M73 P2 R152
G1 X44.924 Y37.913 E0.01745
G1 X147.011 Y140.001 E4.53186
G1 X146.478 Y140.001 E0.01676
G1 X44.368 Y37.892 E4.53282
G1 X43.813 Y37.870 E0.01745
G1 X145.944 Y140.001 E4.53379
G1 X145.410 Y140.001 E0.01676
G1 X43.257 Y37.848 E4.53475
G1 X42.702 Y37.827 E0.01745
G1 X144.876 Y140.001 E4.53571
G1 X144.342 Y140.001 E0.01676
G1 X42.146 Y37.805 E4.53667
G1 X41.591 Y37.783 E0.01745
G1 X143.808 Y140.001 E4.53763
G1 X143.274 Y140.001 E0.01676
G1 X41.035 Y37.762 E4.53860
G1 X40.480 Y37.740 E0.01745
G1 X142.740 Y140.001 E4.53956
M73 P2 R151
G1 X142.207 Y140.001 E0.01676
G1 X39.924 Y37.718 E4.54052
G1 X39.368 Y37.697 E0.01745
G1 X141.673 Y140.001 E4.54148
G1 X141.139 Y140.001 E0.01676
G1 X38.813 Y37.675 E4.54244
G1 X38.257 Y37.653 E0.01745
G1 X140.605 Y140.001 E4.54341
G1 X140.071 Y140.001 E0.01676
G1 X37.702 Y37.632 E4.54437
G1 X37.146 Y37.610 E0.01745
G1 X139.537 Y140.001 E4.54533
G1 X139.003 Y140.001 E0.01676
G1 X36.591 Y37.588 E4.54629
G1 X36.035 Y37.566 E0.01745
G1 X138.469 Y140.001 E4.54725
G1 X137.936 Y140.001 E0.01676
G1 X35.480 Y37.545 E4.54822
M73 P3 R150
G1 X34.924 Y37.523 E0.01745
G1 X137.402 Y140.001 E4.54918
G1 X136.868 Y140.001 E0.01676
G1 X34.369 Y37.501 E4.55014
G1 X33.813 Y37.480 E0.01745
G1 X36.157 Y39.824 E0.10408
G1 X35.703 Y39.583 E0.01614
G1 X35.120 Y39.321 E0.02006
G1 X33.257 Y37.458 E0.08270
G1 X32.702 Y37.436 E0.01745
G1 X34.226 Y38.960 E0.06764
G1 X33.441 Y38.710 E0.02585
G1 X32.146 Y37.415 E0.05747
G1 X31.591 Y37.393 E0.01745
G1 X32.726 Y38.528 E0.05040
G1 X32.060 Y38.396 E0.02132
G1 X31.035 Y37.371 E0.04549
G1 X30.480 Y37.350 E0.01745
G1 X31.433 Y38.303 E0.04231
G1 X30.838 Y38.242 E0.01878
G1 X29.924 Y37.328 E0.04055
G1 X29.369 Y37.306 E0.01745
G1 X30.282 Y38.220 E0.04056
G1 X29.733 Y38.204 E0.01726
G1 X28.813 Y37.285 E0.04083
G1 X28.257 Y37.263 E0.01745
