; generated by PrusaSlicer 2.2.0+win64 on 2020-10-09 at 13:55:54 UTC


;
;

;
;
; 

; external perimeters extrusion width = 0.45mm
; perimeters extrusion width = 0.45mm
; infill extrusion width = 0.45mm
; solid infill extrusion width = 0.45mm
; top infill extrusion width = 0.40mm
; first layer extrusion width = 0.42mm

M73 P0 R96
M201 X1250 Y1250 Z400 E5000 ; sets maximum accelerations, mm/sec^2
M203 X180 Y180 Z12 E80 ; sets maximum feedrates, mm/sec
M204 P1250 R1250 T1250 ; sets acceleration (P, T) and retract acceleration (R), mm/sec^2
M205 X8.00 Y8.00 Z2.00 E10.00 ; sets the jerk limits, mm/sec
M205 S0 T0 ; sets the minimum extruding and travel feed rate, mm/sec
M107
G90 ; use absolute coordinates
M83 ; extruder relative mode
M104 S170 ; set extruder temp for bed leveling
M140 S60 ; set bed temp
M109 R170 ; wait for bed leveling temp
M190 S60 ; wait for bed temp
G28 ; home all without mesh bed level
G29 ; mesh bed leveling 
M104 S215 ; set extruder temp
G92 E0.0
G1 Y-2.0 X179 F2400
G1 Z3 F720
M109 S215 ; wait for extruder temp

; intro line
G1 X170 F1000
G1 Z0.2 F720
G1 X110.0 E8.0 F900
M73 P0 R96
G1 X40.0 E10.0 F700
G92 E0.0

M221 S95 ; set flow
G21 ; set units to millimeters
G90 ; use absolute coordinates
M83 ; use relative distances for extrusion
M900 K0.2 ; Filament gcode LA 1.5
; ; Filament gcode LA 1.0
;BEFORE_LAYER_CHANGE
G92 E0.0
;0.2


G1 Z0.200 F9000.000
;AFTER_LAYER_CHANGE
;0.2
G1 E-3.20000 F4200.00000
G1 Z0.400 F9000.000
G1 X12.069 Y57.613
G1 Z0.200
G1 E3.20000 F2400.00000
M204 S800
G1 F1200.000
G1 X12.612 Y57.455 E0.01775
G1 X160.811 Y33.246 E4.70825
G1 X161.978 Y33.150 E0.03674
G1 X163.407 Y33.285 E0.04501
G1 X164.785 Y33.696 E0.04506
G1 X166.070 Y34.374 E0.04558
G1 X167.163 Y35.258 E0.04407
G1 X167.983 Y36.211 E0.03941
G1 X168.703 Y37.448 E0.04487
G1 X169.171 Y38.796 E0.04475
G1 X169.369 Y40.194 E0.04429
G1 X169.377 Y144.492 E3.27018
G1 X169.311 Y145.032 E0.01704
G1 X169.122 Y145.545 E0.01716
G1 X168.820 Y146.002 E0.01716
G1 X168.422 Y146.378 E0.01716
G1 X167.753 Y146.728 E0.02367
G1 X167.009 Y146.850 E0.02367
G1 X12.992 Y146.850 E4.82907
G1 X12.445 Y146.784 E0.01728
G1 X11.931 Y146.596 E0.01716
G1 X11.474 Y146.296 E0.01716
G1 X11.095 Y145.895 E0.01728
G1 X10.747 Y145.230 E0.02355
G1 X10.623 Y144.486 E0.02367
G1 X10.623 Y59.788 E2.65562
G1 X10.689 Y59.245 E0.01716
G1 X10.878 Y58.728 E0.01728
G1 X11.180 Y58.271 E0.01716
G1 X11.578 Y57.895 E0.01716
G1 X12.017 Y57.643 E0.01587
M204 S1250
G1 E-2.24000 F4200.00000
G1 F7200.000
G1 X12.612 Y57.455 E-0.34616
G1 X13.620 Y57.290 E-0.56584
G1 E-0.04800 F4200.00000
G1 Z0.400 F9000.000
G1 X22.590 Y65.924
G1 Z0.200
G1 E3.20000 F2400.00000
M204 S800
G1 F1200.000
G1 X136.109 Y47.380 E3.60649
G1 X135.755 Y48.911 E0.04926
G1 X135.615 Y49.845 E0.02960
G1 X135.542 Y50.786 E0.02962
G1 X135.537 Y51.732 E0.02966
G1 X135.572 Y52.360 E0.01971
G1 X135.636 Y52.985 E0.01971
G1 X135.790 Y53.918 E0.02966
G1 X136.011 Y54.837 E0.02962
G1 X136.297 Y55.737 E0.02962
G1 X136.647 Y56.614 E0.02962
G1 X137.060 Y57.465 E0.02966
G1 X137.369 Y58.015 E0.01977
G1 X137.880 Y58.807 E0.02956
G1 X138.447 Y59.562 E0.02962
G1 X139.068 Y60.274 E0.02962
G1 X139.739 Y60.941 E0.02966
G1 X140.211 Y61.356 E0.01971
G1 X140.702 Y61.748 E0.01971
G1 X141.475 Y62.293 E0.02966
G1 X142.286 Y62.780 E0.02966
G1 X142.842 Y63.070 E0.01967
G1 X143.705 Y63.457 E0.02966
G1 X144.593 Y63.780 E0.02962
G1 X145.503 Y64.038 E0.02966
G1 X146.117 Y64.173 E0.01971
G1 X146.738 Y64.279 E0.01975
G1 X147.362 Y64.354 E0.01971
G1 X148.307 Y64.411 E0.02970
G1 X155.280 Y64.415 E0.21863
G1 X155.280 Y129.253 E2.03295
G1 X22.590 Y129.253 E4.16040
G1 X22.590 Y65.984 E1.98376
M204 S1250
G1 X22.404 Y65.570 F9000.000
G1 E-2.24000 F4200.00000
G1 F7200.000
G1 X24.214 Y65.718 E-0.91200
G1 E-0.04800 F4200.00000
G1 Z0.400 F9000.000
G1 X136.185 Y52.686
G1 Z0.200
G1 E3.20000 F2400.00000
M204 S800
G1 F1200.000
G1 X136.131 Y52.046 E0.02012
G1 X136.111 Y51.405 E0.02012
G1 X136.123 Y50.764 E0.02012
G1 X136.168 Y50.124 E0.02012
G1 X136.246 Y49.487 E0.02012
G1 X136.357 Y48.855 E0.02012
G1 X136.500 Y48.229 E0.02012
G1 X136.674 Y47.612 E0.02012
G1 X136.880 Y47.004 E0.02012
G1 X137.118 Y46.407 E0.02016
G1 X137.528 Y45.540 E0.03009
G1 X137.840 Y44.978 E0.02016
G1 X138.180 Y44.433 E0.02012
G1 X138.547 Y43.907 E0.02012
G1 X138.941 Y43.400 E0.02012
G1 X139.360 Y42.914 E0.02012
G1 X139.803 Y42.451 E0.02012
G1 X140.270 Y42.010 E0.02012
G1 X140.759 Y41.594 E0.02016
G1 X141.528 Y41.020 E0.03009
G1 X142.067 Y40.669 E0.02016
G1 X142.622 Y40.347 E0.02012
G1 X143.193 Y40.054 E0.02012
G1 X143.778 Y39.790 E0.02012
G1 X144.375 Y39.557 E0.02012
G1 X144.984 Y39.355 E0.02012
G1 X145.603 Y39.184 E0.02012
G1 X146.229 Y39.046 E0.02012
G1 X146.862 Y38.939 E0.02012
G1 X147.501 Y38.865 E0.02016
G1 X148.459 Y38.816 E0.03009
G1 X149.102 Y38.824 E0.02016
G1 X149.742 Y38.865 E0.02012
G1 X150.379 Y38.939 E0.02012
G1 X151.012 Y39.046 E0.02012
G1 X151.638 Y39.184 E0.02012
G1 X152.258 Y39.355 E0.02016
G1 X153.165 Y39.669 E0.03009
G1 X153.758 Y39.918 E0.02016
G1 X154.336 Y40.197 E0.02012
G1 X154.899 Y40.504 E0.02012
G1 X155.445 Y40.840 E0.02012
G1 X155.974 Y41.204 E0.02012
G1 X156.483 Y41.594 E0.02012
G1 X156.972 Y42.010 E0.02012
G1 X157.438 Y42.451 E0.02012
G1 X157.882 Y42.914 E0.02012
G1 X158.301 Y43.401 E0.02016
G1 X158.880 Y44.167 E0.03009
G1 X159.234 Y44.703 E0.02016
G1 X159.560 Y45.256 E0.02012
G1 X159.857 Y45.825 E0.02012
G1 X160.124 Y46.408 E0.02012
G1 X160.361 Y47.004 E0.02012
G1 X160.567 Y47.612 E0.02012
G1 X160.742 Y48.229 E0.02012
G1 X160.884 Y48.855 E0.02012
G1 X160.995 Y49.487 E0.02012
G1 X161.073 Y50.124 E0.02012
G1 X161.118 Y50.763 E0.02011
G1 X161.131 Y51.326 E0.01766
G1 X161.087 Y52.365 E0.03259
G1 X161.017 Y53.004 E0.02017
G1 X160.915 Y53.638 E0.02012
G1 X160.780 Y54.265 E0.02012
G1 X160.614 Y54.884 E0.02012
G1 X160.415 Y55.495 E0.02012
G1 X160.186 Y56.095 E0.02016
G1 X159.786 Y56.967 E0.03009
G1 X159.481 Y57.534 E0.02016
G1 X159.149 Y58.082 E0.02012
G1 X158.788 Y58.613 E0.02012
G1 X158.401 Y59.125 E0.02012
G1 X157.989 Y59.616 E0.02012
G1 X157.551 Y60.085 E0.02012
G1 X157.090 Y60.532 E0.02012
G1 X156.606 Y60.955 E0.02016
G1 X155.845 Y61.539 E0.03009
G1 X155.310 Y61.896 E0.02016
G1 X154.759 Y62.225 E0.02012
G1 X154.193 Y62.526 E0.02012
G1 X153.611 Y62.797 E0.02012
G1 X153.016 Y63.037 E0.02012
G1 X152.410 Y63.247 E0.02012
G1 X151.794 Y63.426 E0.02012
G1 X151.169 Y63.573 E0.02012
G1 X150.538 Y63.687 E0.02012
G1 X149.902 Y63.769 E0.02012
G1 X149.262 Y63.819 E0.02012
G1 X148.621 Y63.835 E0.02012
G1 X147.979 Y63.819 E0.02012
G1 X147.340 Y63.769 E0.02012
G1 X146.703 Y63.687 E0.02012
G1 X146.072 Y63.573 E0.02012
G1 X145.447 Y63.426 E0.02012
G1 X144.840 Y63.250 E0.01983
G1 X143.927 Y62.921 E0.03041
G1 X143.338 Y62.665 E0.02016
G1 X142.763 Y62.379 E0.02012
G1 X142.204 Y62.064 E0.02012
G1 X141.662 Y61.721 E0.02012
G1 X141.138 Y61.351 E0.02012
G1 X140.634 Y60.954 E0.02012
G1 X140.151 Y60.532 E0.02012
G1 X139.690 Y60.085 E0.02012
G1 X139.253 Y59.616 E0.02012
G1 X138.839 Y59.124 E0.02016
G1 X138.270 Y58.351 E0.03009
G1 X137.923 Y57.810 E0.02016
G1 X137.604 Y57.253 E0.02012
G1 X137.315 Y56.681 E0.02012
G1 X137.055 Y56.093 E0.02016
G1 X136.723 Y55.192 E0.03009
G1 X136.540 Y54.576 E0.02016
G1 X136.389 Y53.952 E0.02012
G1 X136.271 Y53.322 E0.02012
G1 X136.193 Y52.745 E0.01824
M204 S1250
G1 X135.819 Y52.525 F9000.000
G1 E-2.24000 F4200.00000
G1 F7200.000
G1 X136.131 Y52.046 E-0.38876
G1 X136.111 Y51.405 E-0.35554
G1 X136.117 Y51.103 E-0.16770
G1 E-0.04800 F4200.00000
G1 Z0.400 F9000.000
G1 X157.787 Y140.186
G1 Z0.200
G1 E3.20000 F2400.00000
M204 S800
G1 F1200.000
G1 X24.213 Y140.186 E4.18812
M73 P1 R95
G1 X24.213 Y143.686 E0.10974
G1 X13.787 Y143.686 E0.32689
G1 X13.787 Y60.469 E2.60922
G1 X144.510 Y39.115 E4.15305
G1 X143.632 Y39.443 E0.02940
G1 X143.029 Y39.714 E0.02072
G1 X142.441 Y40.016 E0.02072
G1 X141.869 Y40.348 E0.02072
G1 X141.312 Y40.710 E0.02084
G1 X140.524 Y41.299 E0.03084
G1 X140.018 Y41.729 E0.02084
G1 X139.537 Y42.183 E0.02072
G1 X139.080 Y42.661 E0.02072
G1 X138.649 Y43.161 E0.02072
G1 X138.243 Y43.683 E0.02072
G1 X137.865 Y44.225 E0.02072
G1 X137.515 Y44.786 E0.02072
G1 X137.193 Y45.367 E0.02084
G1 X136.772 Y46.256 E0.03084
G1 X136.506 Y46.934 E0.02281
G1 X22.213 Y65.603 E3.63108
G1 X22.213 Y129.630 E2.00751
G1 X155.657 Y129.630 E4.18405
G1 X155.657 Y64.038 E2.05659
G1 X150.731 Y64.035 E0.15445
G1 X151.246 Y63.942 E0.01641
G1 X151.889 Y63.791 E0.02072
G1 X152.524 Y63.607 E0.02072
G1 X153.149 Y63.390 E0.02072
G1 X153.761 Y63.142 E0.02072
G1 X154.361 Y62.863 E0.02072
G1 X154.945 Y62.554 E0.02072
G1 X155.512 Y62.215 E0.02072
G1 X156.064 Y61.845 E0.02084
G1 X156.845 Y61.247 E0.03084
G1 X157.346 Y60.809 E0.02084
G1 X157.820 Y60.350 E0.02072
G1 X158.271 Y59.866 E0.02072
G1 X158.696 Y59.360 E0.02072
G1 X159.095 Y58.833 E0.02072
G1 X159.466 Y58.286 E0.02072
G1 X159.809 Y57.721 E0.02072
G1 X160.124 Y57.136 E0.02084
G1 X160.533 Y56.241 E0.03084
G1 X160.771 Y55.620 E0.02084
G1 X160.975 Y54.992 E0.02072
G1 X161.147 Y54.354 E0.02072
G1 X161.286 Y53.707 E0.02072
G1 X161.391 Y53.055 E0.02072
G1 X161.464 Y52.393 E0.02087
G1 X161.508 Y51.330 E0.03337
G1 X161.495 Y50.746 E0.01832
G1 X161.448 Y50.087 E0.02069
G1 X161.368 Y49.431 E0.02072
G1 X161.254 Y48.780 E0.02072
G1 X161.107 Y48.136 E0.02072
G1 X160.927 Y47.500 E0.02072
G1 X160.715 Y46.874 E0.02072
G1 X160.471 Y46.260 E0.02072
G1 X160.196 Y45.659 E0.02072
G1 X159.890 Y45.073 E0.02072
G1 X159.554 Y44.504 E0.02072
G1 X159.188 Y43.949 E0.02084
G1 X158.595 Y43.164 E0.03084
G1 X158.161 Y42.661 E0.02084
G1 X157.704 Y42.183 E0.02072
G1 X157.223 Y41.729 E0.02072
G1 X156.720 Y41.301 E0.02072
G1 X156.196 Y40.899 E0.02072
G1 X155.651 Y40.524 E0.02072
G1 X155.088 Y40.178 E0.02072
G1 X154.508 Y39.861 E0.02072
G1 X153.913 Y39.574 E0.02072
G1 X153.300 Y39.317 E0.02084
G1 X152.370 Y38.995 E0.03084
G1 X151.729 Y38.818 E0.02084
G1 X151.084 Y38.675 E0.02072
G1 X150.432 Y38.566 E0.02072
G1 X149.776 Y38.490 E0.02072
G1 X149.116 Y38.447 E0.02072
G1 X148.637 Y38.441 E0.01504
G1 X161.307 Y36.371 E0.40255
G1 X161.644 Y36.330 E0.01064
G1 X162.151 Y36.317 E0.01590
G1 X162.478 Y36.342 E0.01028
G1 X162.800 Y36.391 E0.01022
G1 X163.291 Y36.518 E0.01590
G1 X163.594 Y36.628 E0.01010
G1 X164.051 Y36.848 E0.01590
G1 X164.326 Y37.015 E0.01010
G1 X164.732 Y37.321 E0.01595
G1 X164.968 Y37.538 E0.01004
G1 X165.305 Y37.916 E0.01590
G1 X165.499 Y38.181 E0.01028
G1 X165.669 Y38.458 E0.01022
G1 X165.891 Y38.914 E0.01590
G1 X166.005 Y39.222 E0.01028
G1 X166.094 Y39.535 E0.01022
G1 X166.184 Y40.036 E0.01596
G1 X166.209 Y40.361 E0.01022
G1 X166.213 Y143.686 E3.23968
G1 X157.787 Y143.686 E0.26419
G1 X157.787 Y140.246 E0.10786
M204 S1250
G1 X157.410 Y140.563 F9000.000
M204 S800
G1 F1200.000
G1 X24.590 Y140.563 E4.16448
G1 X24.590 Y144.063 E0.10974
G1 X13.410 Y144.063 E0.35054
G1 X13.410 Y60.148 E2.63109
G1 X161.254 Y35.998 E4.69698
G1 X161.617 Y35.953 E0.01146
G1 X162.161 Y35.940 E0.01706
G1 X162.521 Y35.967 E0.01133
G1 X162.876 Y36.022 E0.01127
G1 X163.403 Y36.157 E0.01706
G1 X163.741 Y36.280 E0.01126
G1 X164.231 Y36.516 E0.01706
G1 X164.538 Y36.703 E0.01126
G1 X164.974 Y37.031 E0.01712
G1 X165.237 Y37.273 E0.01120
G1 X165.599 Y37.679 E0.01706
G1 X165.812 Y37.971 E0.01133
G1 X166.000 Y38.277 E0.01127
G1 X166.238 Y38.766 E0.01706
G1 X166.364 Y39.105 E0.01133
G1 X166.462 Y39.451 E0.01127
G1 X166.558 Y39.988 E0.01712
G1 X166.586 Y40.346 E0.01127
G1 X166.590 Y144.063 E3.25197
M73 P2 R94
G1 X157.410 Y144.063 E0.28783
G1 X157.410 Y140.623 E0.10786
M204 S1250
G1 X157.253 Y140.195 F9000.000
G1 E-2.24000 F4200.00000
G1 F7200.000
G1 X155.764 Y140.622 E-0.91200
G1 E-0.04800 F4200.00000
G1 Z0.400 F9000.000
G1 X158.396 Y143.573
G1 Z0.200
G1 E3.20000 F2400.00000
M204 S800
G1 F1200.000
G1 X158.070 Y143.247 E0.01447
G1 X158.070 Y142.713 E0.01679
G1 X158.760 Y143.403 E0.03067
G1 X159.295 Y143.403 E0.01679
G1 X158.070 Y142.178 E0.05441
G1 X158.070 Y141.644 E0.01679
G1 X159.829 Y143.403 E0.07815
G1 X160.363 Y143.403 E0.01679
G1 X158.070 Y141.110 E0.10189
G1 X158.070 Y140.575 E0.01679
G1 X161.067 Y143.573 E0.13317
M204 S1250
G1 E-2.24000 F4200.00000
G1 F7200.000
G1 X159.904 Y142.409 E-0.91200
G1 E-0.04800 F4200.00000
G1 Z0.400 F9000.000
G1 X155.690 Y63.925
G1 Z0.200
G1 E3.20000 F2400.00000
M204 S800
G1 F1200.000
G1 X154.744 Y62.980 E0.04199
G1 X154.391 Y63.161 E0.01247
G1 X154.985 Y63.755 E0.02639
G1 X154.451 Y63.755 E0.01680
G1 X154.027 Y63.331 E0.01883
G1 X153.653 Y63.491 E0.01278
G1 X154.086 Y63.924 E0.01922
M204 S1250
G1 X153.303 Y63.697 F9000.000
M204 S800
G1 F1200.000
G1 X153.125 Y63.727 E0.00390
M204 S1250
M204 S800
G1 X152.948 Y63.757 E0.00316
M204 S1250
M204 S800
G1 X152.770 Y63.786 E0.00242
M204 S1250
M204 S800
G1 X152.592 Y63.816 E0.00168
M204 S1250
M204 S800
G1 X152.522 Y63.826 E0.00037
M204 S1250
G1 E-2.24000 F4200.00000
G1 F7200.000
G1 X152.592 Y63.816 E-0.03894
G1 E-0.92106 F4200.00000
G1 Z0.400 F9000.000
G1 X150.543 Y64.051
G1 Z0.200
G1 E3.20000 F2400.00000
M204 S800
G1 F1200.000
G1 X149.938 Y64.090 E0.01494
M204 S1250
M204 S800
G1 X149.274 Y64.115 E0.01074
G1 X148.316 Y64.119 E0.01550
G1 X147.388 Y64.065 E0.01504
G1 X146.779 Y63.991 E0.00991
G1 X146.016 Y63.856 E0.01254
G1 X145.377 Y63.704 E0.01061
G1 X144.683 Y63.503 E0.01169
G1 X143.817 Y63.189 E0.01488
G1 X142.969 Y62.808 E0.01504
G1 X142.429 Y62.525 E0.00986
G1 X141.634 Y62.048 E0.01498
G1 X140.968 Y61.583 E0.01315
G1 X140.447 Y61.175 E0.01070
G1 X139.953 Y60.743 E0.01062
G1 X139.484 Y60.284 E0.01061
G1 X139.037 Y59.804 E0.01061
G1 X138.614 Y59.305 E0.01057
G1 X138.120 Y58.640 E0.01340
G1 X137.675 Y57.957 E0.01317
G1 X137.348 Y57.388 E0.01062
G1 X137.055 Y56.801 E0.01061
G1 X136.788 Y56.197 E0.01067
G1 X136.453 Y55.285 E0.01571
G1 X136.261 Y54.648 E0.01076
G1 X136.076 Y53.861 E0.01309
G1 X135.926 Y52.946 E0.01498
G1 X135.844 Y52.066 E0.01430
G1 X135.825 Y51.410 E0.01061
G1 X135.834 Y50.753 E0.01061
G1 X135.905 Y49.878 E0.01421
G1 X136.042 Y48.966 E0.01491
G1 X136.223 Y48.156 E0.01342
M204 S1250
M204 S800
G1 X136.387 Y47.520 E0.01237
M204 S1250
M204 S800
G1 X136.499 Y47.126 E0.00862
M204 S1250
G1 E-2.24000 F4200.00000
G1 F7200.000
G1 X136.387 Y47.520 E-0.22693
G1 E-0.73307 F4200.00000
G1 Z0.400 F9000.000
G1 X155.689 Y40.415
G1 Z0.200
G1 E3.20000 F2400.00000
M204 S800
G1 F1200.000
G1 X153.249 Y37.974 E0.10845
G1 X152.789 Y38.049 E0.01462
G1 X154.082 Y39.342 E0.05744
G1 X153.183 Y38.977 E0.03048
G1 X152.330 Y38.124 E0.03790
G1 X151.871 Y38.199 E0.01462
G1 X152.640 Y38.969 E0.03420
M204 S1250
G1 X151.240 Y38.514 F9000.000
M204 S800
G1 F1200.000
G1 X151.115 Y38.358 E0.00351
G1 X150.850 Y38.358 E0.00466
M204 S1250
M204 S800
G1 X150.718 Y38.357 E0.00193
M204 S1250
M204 S800
G1 X150.586 Y38.357 E0.00147
M204 S1250
M204 S800
G1 X150.453 Y38.357 E0.00101
M204 S1250
G1 E-2.24000 F4200.00000
G1 F7200.000
G1 X150.586 Y38.357 E-0.07333
G1 E-0.88667 F4200.00000
G1 Z0.400 F9000.000
G1 X148.449 Y38.455
G1 Z0.200
G1 E3.20000 F2400.00000
M204 S800
G1 F1200.000
G1 X147.964 Y38.507 E0.01323
M204 S1250
M204 S800
G1 X147.479 Y38.559 E0.01141
M204 S1250
M204 S800
G1 X146.824 Y38.650 E0.01301
M204 S1250
M204 S800
G1 X146.171 Y38.759 E0.01131
G1 X145.206 Y38.953 E0.01681
M204 S1250
M204 S800
G1 X144.693 Y39.070 E0.01381
M204 S1250
G1 E-2.24000 F4200.00000
G1 F7200.000
G1 X145.206 Y38.953 E-0.29151
G1 E-0.66849 F4200.00000
G1 Z0.400 F9000.000
G1 X142.767 Y39.612
G1 Z0.200
G1 E3.20000 F2400.00000
M204 S800
G1 F1200.000
G1 X142.460 Y39.714 E0.00264
M204 S1250
M204 S800
G1 X142.006 Y39.872 E0.00774
M204 S1250
G1 X141.159 Y39.777 F9000.000
M204 S800
G1 F1200.000
G1 X141.580 Y40.198 E0.01871
G1 X141.257 Y40.409 E0.01213
G1 X140.848 Y40.000 E0.01817
G1 X140.388 Y40.075 E0.01462
G1 X140.945 Y40.631 E0.02473
G1 X140.639 Y40.860 E0.01199
G1 X139.929 Y40.150 E0.03154
G1 X139.470 Y40.225 E0.01462
G1 X140.334 Y41.089 E0.03839
G1 X140.045 Y41.335 E0.01191
G1 X139.011 Y40.300 E0.04597
G1 X138.551 Y40.375 E0.01462
G1 X139.760 Y41.584 E0.05370
G1 X139.485 Y41.843 E0.01187
G1 X138.092 Y40.450 E0.06190
G1 X137.633 Y40.525 E0.01462
G1 X139.217 Y42.109 E0.07037
G1 X138.956 Y42.382 E0.01187
G1 X137.173 Y40.600 E0.07918
G1 X136.714 Y40.675 E0.01462
