; generated by PrusaSlicer 2.2.0+win64 on 2020-10-15 at 06:16:07 UTC


;
;

;
;
; 

; external perimeters extrusion width = 0.45mm
; perimeters extrusion width = 0.45mm
; infill extrusion width = 0.45mm
; solid infill extrusion width = 0.45mm
; top infill extrusion width = 0.40mm
; first layer extrusion width = 0.42mm

M73 P0 R155
M201 X1250 Y1250 Z400 E5000 ; sets maximum accelerations, mm/sec^2
M203 X180 Y180 Z12 E80 ; sets maximum feedrates, mm/sec
M204 P1250 R1250 T1250 ; sets acceleration (P, T) and retract acceleration (R), mm/sec^2
M205 X8.00 Y8.00 Z2.00 E10.00 ; sets the jerk limits, mm/sec
M205 S0 T0 ; sets the minimum extruding and travel feed rate, mm/sec
M107
G90 ; use absolute coordinates
M83 ; extruder relative mode
M104 S170 ; set extruder temp for bed leveling
M140 S60 ; set bed temp
M109 R170 ; wait for bed leveling temp
M190 S60 ; wait for bed temp
G28 ; home all without mesh bed level
G29 ; mesh bed leveling 
M104 S215 ; set extruder temp
G92 E0.0
G1 Y-2.0 X179 F2400
G1 Z3 F720
M109 S215 ; wait for extruder temp

; intro line
G1 X170 F1000
G1 Z0.2 F720
G1 X110.0 E8.0 F900
M73 P0 R155
G1 X40.0 E10.0 F700
G92 E0.0

M221 S95 ; set flow
G21 ; set units to millimeters
G90 ; use absolute coordinates
M83 ; use relative distances for extrusion
M900 K0.2 ; Filament gcode LA 1.5
; ; Filament gcode LA 1.0
;BEFORE_LAYER_CHANGE
G92 E0.0
;0.2


G1 Z0.200 F9000.000
;AFTER_LAYER_CHANGE
;0.2
G1 E-3.20000 F4200.00000
G1 Z0.400 F9000.000
G1 X174.294 Y33.721
G1 Z0.200
G1 E3.20000 F2400.00000
M204 S800
G1 F1200.000
G1 X174.814 Y34.466 E0.02849
G1 X175.016 Y35.352 E0.02849
G1 X175.017 Y106.990 E2.24616
G1 X174.847 Y108.132 E0.03618
G1 X174.588 Y109.110 E0.03174
G1 X174.137 Y110.273 E0.03910
G1 X173.667 Y111.177 E0.03196
G1 X172.976 Y112.208 E0.03890
G1 X172.321 Y112.985 E0.03186
G1 X171.415 Y113.845 E0.03919
G1 X170.600 Y114.464 E0.03207
G1 X123.887 Y141.211 E1.68777
G1 X122.129 Y142.017 E0.06063
G1 X120.484 Y142.465 E0.05344
G1 X118.853 Y142.652 E0.05149
G1 X8.760 Y146.947 E3.45450
G1 X7.911 Y146.864 E0.02676
G1 X7.099 Y146.567 E0.02711
G1 X6.390 Y146.072 E0.02710
G1 X5.842 Y145.434 E0.02638
G1 X5.467 Y144.671 E0.02665
G1 X5.300 Y143.909 E0.02445
G1 X4.984 Y135.841 E0.25316
G1 X9.083 Y40.044 E3.00642
G1 X9.357 Y38.497 E0.04926
G1 X9.640 Y37.689 E0.02683
G1 X10.039 Y36.873 E0.02850
G1 X10.499 Y36.157 E0.02666
G1 X11.065 Y35.468 E0.02796
G1 X11.701 Y34.856 E0.02767
G1 X12.395 Y34.330 E0.02729
G1 X13.400 Y33.762 E0.03622
G1 X14.294 Y33.411 E0.03011
G1 X15.409 Y33.146 E0.03594
G1 X16.562 Y33.053 E0.03626
G1 X172.644 Y33.052 E4.89384
G1 X173.532 Y33.226 E0.02837
G1 X174.243 Y33.689 E0.02661
M204 S1250
G1 E-2.24000 F4200.00000
G1 F7200.000
G1 X174.814 Y34.466 E-0.53445
G1 X174.965 Y35.131 E-0.37755
G1 E-0.04800 F4200.00000
G1 Z0.400 F9000.000
G1 X40.617 Y121.450
G1 Z0.200
G1 E3.20000 F2400.00000
M204 S800
G1 F1200.000
G1 X40.968 Y122.013 E0.02080
G1 X41.290 Y122.593 E0.02080
G1 X41.582 Y123.189 E0.02080
G1 X41.842 Y123.800 E0.02080
G1 X42.071 Y124.422 E0.02080
G1 X42.268 Y125.056 E0.02080
G1 X42.433 Y125.699 E0.02080
G1 X42.564 Y126.349 E0.02080
G1 X42.661 Y127.005 E0.02080
G1 X42.725 Y127.666 E0.02080
G1 X42.755 Y128.329 E0.02080
G1 X42.750 Y128.992 E0.02080
G1 X42.712 Y129.655 E0.02080
G1 X42.640 Y130.314 E0.02080
G1 X42.535 Y130.962 E0.02059
G1 X42.314 Y131.935 E0.03129
G1 X42.124 Y132.575 E0.02093
G1 X41.901 Y133.204 E0.02092
G1 X41.513 Y134.113 E0.03097
G1 X41.212 Y134.708 E0.02092
G1 X40.883 Y135.284 E0.02080
G1 X40.524 Y135.842 E0.02080
G1 X40.138 Y136.382 E0.02080
G1 X39.724 Y136.900 E0.02080
G1 X39.282 Y137.400 E0.02092
G1 X38.581 Y138.096 E0.03097
G1 X38.079 Y138.535 E0.02092
G1 X37.558 Y138.946 E0.02080
G1 X37.016 Y139.329 E0.02080
G1 X36.455 Y139.683 E0.02080
G1 X35.877 Y140.009 E0.02080
G1 X35.283 Y140.305 E0.02080
G1 X34.675 Y140.569 E0.02080
G1 X34.053 Y140.802 E0.02080
G1 X33.421 Y141.003 E0.02080
G1 X32.779 Y141.172 E0.02080
G1 X32.130 Y141.307 E0.02080
G1 X31.474 Y141.409 E0.02080
G1 X30.814 Y141.476 E0.02080
G1 X30.151 Y141.511 E0.02080
G1 X29.488 Y141.511 E0.02080
G1 X28.825 Y141.476 E0.02080
G1 X28.165 Y141.409 E0.02080
G1 X27.510 Y141.307 E0.02080
G1 X26.860 Y141.172 E0.02080
G1 X26.215 Y141.002 E0.02092
G1 X25.277 Y140.691 E0.03097
G1 X24.659 Y140.441 E0.02092
G1 X24.057 Y140.161 E0.02080
G1 X23.471 Y139.850 E0.02080
G1 X22.907 Y139.513 E0.02059
G1 X22.085 Y138.948 E0.03129
G1 X21.560 Y138.535 E0.02093
G1 X21.061 Y138.099 E0.02080
G1 X20.584 Y137.637 E0.02080
G1 X20.132 Y137.152 E0.02080
G1 X19.705 Y136.644 E0.02080
G1 X19.305 Y136.115 E0.02080
G1 X18.932 Y135.566 E0.02080
G1 X18.588 Y134.998 E0.02080
G1 X18.274 Y134.414 E0.02080
G1 X17.992 Y133.820 E0.02059
G1 X17.623 Y132.893 E0.03129
G1 X17.417 Y132.258 E0.02093
G1 X17.245 Y131.618 E0.02080
G1 X17.105 Y130.969 E0.02080
G1 X16.999 Y130.314 E0.02080
G1 X16.927 Y129.655 E0.02080
G1 X16.889 Y128.992 E0.02080
G1 X16.885 Y128.329 E0.02080
G1 X16.915 Y127.666 E0.02080
G1 X16.978 Y127.005 E0.02080
G1 X17.076 Y126.349 E0.02080
G1 X17.207 Y125.699 E0.02080
G1 X17.372 Y125.052 E0.02092
G1 X17.677 Y124.113 E0.03097
G1 X17.923 Y123.493 E0.02092
G1 X18.200 Y122.890 E0.02080
G1 X18.507 Y122.301 E0.02080
G1 X18.843 Y121.730 E0.02080
G1 X19.209 Y121.176 E0.02080
G1 X19.602 Y120.642 E0.02080
G1 X20.023 Y120.128 E0.02080
G1 X20.469 Y119.637 E0.02080
G1 X20.939 Y119.169 E0.02080
G1 X21.433 Y118.726 E0.02080
G1 X21.949 Y118.309 E0.02080
G1 X22.486 Y117.919 E0.02080
G1 X23.042 Y117.557 E0.02080
G1 X23.616 Y117.224 E0.02080
G1 X24.206 Y116.921 E0.02080
G1 X24.815 Y116.647 E0.02092
G1 X25.739 Y116.300 E0.03097
G1 X26.378 Y116.106 E0.02092
G1 X27.022 Y115.946 E0.02080
G1 X27.673 Y115.820 E0.02080
G1 X28.330 Y115.726 E0.02080
G1 X28.991 Y115.667 E0.02080
G1 X29.654 Y115.641 E0.02080
G1 X30.317 Y115.650 E0.02080
G1 X30.979 Y115.692 E0.02080
G1 X31.638 Y115.769 E0.02080
G1 X32.286 Y115.877 E0.02059
G1 X33.258 Y116.105 E0.03129
G1 X33.896 Y116.299 E0.02093
G1 X34.520 Y116.524 E0.02080
G1 X35.132 Y116.781 E0.02080
G1 X35.730 Y117.069 E0.02080
G1 X36.312 Y117.387 E0.02080
G1 X36.877 Y117.735 E0.02080
G1 X37.424 Y118.111 E0.02080
G1 X37.945 Y118.510 E0.02059
G1 X38.700 Y119.169 E0.03141
G1 X39.394 Y119.877 E0.03109
G1 X39.830 Y120.382 E0.02092
G1 X40.237 Y120.906 E0.02080
G1 X40.582 Y121.401 E0.01892
M204 S1250
G1 X40.273 Y121.617 F9000.000
M204 S800
G1 F1200.000
G1 X40.643 Y122.205 E0.02177
G1 X40.955 Y122.768 E0.02020
G1 X41.239 Y123.347 E0.02020
G1 X41.492 Y123.939 E0.02020
G1 X41.714 Y124.543 E0.02020
G1 X41.905 Y125.158 E0.02020
G1 X42.065 Y125.783 E0.02020
G1 X42.192 Y126.414 E0.02020
G1 X42.287 Y127.051 E0.02020
G1 X42.348 Y127.692 E0.02020
G1 X42.377 Y128.336 E0.02020
G1 X42.373 Y128.980 E0.02020
G1 X42.336 Y129.623 E0.02020
G1 X42.266 Y130.263 E0.02020
G1 X42.165 Y130.890 E0.01991
G1 X41.949 Y131.840 E0.03053
G1 X41.765 Y132.459 E0.02024
G1 X41.550 Y133.067 E0.02024
G1 X41.171 Y133.953 E0.03021
G1 X40.880 Y134.529 E0.02024
G1 X40.560 Y135.089 E0.02020
G1 X40.212 Y135.631 E0.02020
G1 X39.837 Y136.154 E0.02020
G1 X39.435 Y136.658 E0.02020
G1 X39.008 Y137.141 E0.02024
G1 X38.324 Y137.820 E0.03021
G1 X37.838 Y138.245 E0.02024
G1 X37.332 Y138.643 E0.02020
G1 X36.806 Y139.015 E0.02020
G1 X36.262 Y139.360 E0.02020
G1 X35.700 Y139.676 E0.02020
G1 X35.124 Y139.963 E0.02020
G1 X34.533 Y140.220 E0.02020
G1 X33.930 Y140.446 E0.02020
G1 X33.316 Y140.641 E0.02020
G1 X32.693 Y140.804 E0.02020
G1 X32.062 Y140.936 E0.02020
G1 X31.426 Y141.034 E0.02020
G1 X30.785 Y141.100 E0.02020
G1 X30.142 Y141.133 E0.02020
G1 X29.498 Y141.133 E0.02020
G1 X28.854 Y141.100 E0.02020
G1 X28.213 Y141.034 E0.02020
G1 X27.577 Y140.936 E0.02020
G1 X26.946 Y140.804 E0.02020
G1 X26.322 Y140.641 E0.02024
G1 X25.408 Y140.337 E0.03021
G1 X24.809 Y140.095 E0.02024
G1 X24.225 Y139.823 E0.02020
G1 X23.656 Y139.521 E0.02020
G1 X23.111 Y139.196 E0.01991
G1 X22.308 Y138.644 E0.03053
G1 X21.801 Y138.245 E0.02024
G1 X21.316 Y137.821 E0.02020
G1 X20.853 Y137.373 E0.02020
G1 X20.414 Y136.902 E0.02020
G1 X20.000 Y136.409 E0.02020
G1 X19.611 Y135.895 E0.02020
G1 X19.249 Y135.362 E0.02020
G1 X18.916 Y134.811 E0.02020
G1 X18.610 Y134.244 E0.02020
G1 X18.338 Y133.670 E0.01991
G1 X17.978 Y132.765 E0.03053
G1 X17.779 Y132.151 E0.02024
G1 X17.611 Y131.529 E0.02020
G1 X17.476 Y130.899 E0.02020
G1 X17.373 Y130.263 E0.02020
G1 X17.303 Y129.623 E0.02020
G1 X17.266 Y128.980 E0.02020
G1 X17.262 Y128.336 E0.02020
G1 X17.291 Y127.692 E0.02020
G1 X17.353 Y127.051 E0.02020
G1 X17.447 Y126.414 E0.02020
G1 X17.574 Y125.783 E0.02020
G1 X17.734 Y125.157 E0.02024
G1 X18.032 Y124.241 E0.03021
G1 X18.270 Y123.641 E0.02024
G1 X18.539 Y123.055 E0.02020
G1 X18.837 Y122.484 E0.02020
G1 X19.163 Y121.929 E0.02020
G1 X19.518 Y121.392 E0.02020
G1 X19.900 Y120.873 E0.02020
G1 X20.308 Y120.375 E0.02020
G1 X20.741 Y119.898 E0.02020
G1 X21.198 Y119.444 E0.02020
G1 X21.678 Y119.014 E0.02020
G1 X22.179 Y118.609 E0.02020
G1 X22.700 Y118.230 E0.02020
G1 X23.240 Y117.879 E0.02020
G1 X23.797 Y117.555 E0.02020
G1 X24.370 Y117.261 E0.02020
G1 X24.959 Y116.996 E0.02024
G1 X25.861 Y116.658 E0.03021
G1 X26.478 Y116.470 E0.02024
G1 X27.103 Y116.315 E0.02020
G1 X27.736 Y116.191 E0.02020
G1 X28.373 Y116.101 E0.02020
G1 X29.015 Y116.043 E0.02020
G1 X29.659 Y116.018 E0.02020
G1 X30.303 Y116.027 E0.02020
G1 X30.946 Y116.068 E0.02020
G1 X31.585 Y116.142 E0.02020
G1 X32.212 Y116.247 E0.01991
G1 X33.160 Y116.470 E0.03053
G1 X33.777 Y116.657 E0.02024
G1 X34.383 Y116.876 E0.02020
G1 X34.977 Y117.125 E0.02020
G1 X35.558 Y117.405 E0.02020
G1 X36.123 Y117.714 E0.02020
G1 X36.672 Y118.051 E0.02020
G1 X37.202 Y118.416 E0.02020
G1 X37.706 Y118.802 E0.01991
G1 X38.441 Y119.444 E0.03057
G1 X39.117 Y120.132 E0.03025
G1 X39.538 Y120.621 E0.02024
G1 X39.933 Y121.130 E0.02020
G1 X40.239 Y121.568 E0.01674
M204 S1250
G1 X40.672 Y121.592 F9000.000
G1 E-2.24000 F4200.00000
G1 F7200.000
G1 X40.643 Y122.205 E-0.41804
G1 X40.955 Y122.768 E-0.35697
G1 X41.064 Y122.990 E-0.13699
G1 E-0.04800 F4200.00000
G1 Z0.400 F9000.000
G1 X20.653 Y39.716
G1 Z0.200
G1 E3.20000 F2400.00000
M204 S800
G1 F1200.000
G1 X154.227 Y39.716 E4.18812
G1 X154.227 Y36.216 E0.10974
G1 X171.853 Y36.216 E0.55265
G1 X171.853 Y106.867 E2.21519
G1 X171.747 Y107.499 E0.02011
G1 X171.640 Y107.926 E0.01380
G1 X171.424 Y108.571 E0.02131
G1 X171.250 Y108.978 E0.01387
G1 X171.049 Y109.377 E0.01402
G1 X170.824 Y109.763 E0.01402
G1 X170.577 Y110.130 E0.01387
G1 X170.154 Y110.663 E0.02131
G1 X169.856 Y110.983 E0.01373
G1 X169.355 Y111.443 E0.02131
G1 X169.010 Y111.712 E0.01373
G1 X168.440 Y112.090 E0.02143
G1 X122.345 Y138.448 E1.66490
G1 X121.920 Y138.674 E0.01508
G1 X121.264 Y138.963 E0.02248
G1 X120.584 Y139.191 E0.02248
G1 X120.132 Y139.306 E0.01462
G1 X119.426 Y139.431 E0.02248
G1 X118.702 Y139.492 E0.02280
G1 X8.697 Y143.783 E3.45174
M73 P0 R154
G1 X8.579 Y143.763 E0.00376
G1 X8.494 Y143.697 E0.00337
G1 X8.450 Y143.585 E0.00378
G1 X8.171 Y136.510 E0.22201
G1 X8.623 Y136.339 E0.01515
G1 X9.040 Y136.141 E0.01448
G1 X9.441 Y135.911 E0.01448
G1 X9.822 Y135.651 E0.01448
G1 X10.183 Y135.362 E0.01448
G1 X10.519 Y135.046 E0.01448
G1 X10.831 Y134.705 E0.01448
G1 X11.114 Y134.340 E0.01448
G1 X11.369 Y133.955 E0.01448
G1 X11.592 Y133.551 E0.01448
G1 X11.784 Y133.130 E0.01448
G1 X11.945 Y132.689 E0.01472
G1 X12.115 Y132.032 E0.02129
G1 X12.187 Y131.570 E0.01466
G1 X12.223 Y131.109 E0.01448
G1 X12.227 Y40.599 E2.83790
G1 X12.259 Y40.061 E0.01689
G1 X12.312 Y39.728 E0.01056
G1 X12.392 Y39.395 E0.01074
G1 X12.496 Y39.075 E0.01056
G1 X12.705 Y38.596 E0.01639
G1 X12.871 Y38.300 E0.01063
G1 X13.058 Y38.020 E0.01056
G1 X13.391 Y37.614 E0.01647
G1 X13.629 Y37.376 E0.01056
G1 X13.889 Y37.153 E0.01074
G1 X14.167 Y36.952 E0.01074
G1 X14.457 Y36.774 E0.01067
G1 X14.764 Y36.618 E0.01082
G1 X15.080 Y36.487 E0.01074
G1 X15.406 Y36.381 E0.01074
G1 X15.734 Y36.302 E0.01056
G1 X16.254 Y36.230 E0.01646
G1 X16.604 Y36.216 E0.01098
G1 X20.653 Y36.216 E0.12697
G1 X20.653 Y39.656 E0.10786
M204 S1250
G1 X21.030 Y39.339 F9000.000
M204 S800
G1 F1200.000
G1 X153.850 Y39.339 E4.16448
G1 X153.850 Y35.839 E0.10974
G1 X172.230 Y35.839 E0.57629
G1 X172.230 Y106.898 E2.22800
G1 X172.116 Y107.576 E0.02156
G1 X172.002 Y108.032 E0.01473
G1 X171.776 Y108.705 E0.02224
G1 X171.592 Y109.136 E0.01471
G1 X171.381 Y109.557 E0.01476
G1 X171.143 Y109.964 E0.01476
G1 X170.882 Y110.353 E0.01471
G1 X170.441 Y110.909 E0.02224
G1 X170.122 Y111.251 E0.01466
G1 X169.599 Y111.731 E0.02224
G1 X169.231 Y112.019 E0.01466
G1 X168.638 Y112.411 E0.02228
G1 X122.527 Y138.778 E1.66547
G1 X122.085 Y139.014 E0.01570
G1 X121.400 Y139.315 E0.02346
G1 X120.691 Y139.553 E0.02346
G1 X120.212 Y139.675 E0.01551
G1 X119.475 Y139.805 E0.02346
G1 X118.725 Y139.868 E0.02360
G1 X8.696 Y144.160 E3.45251
G1 X8.584 Y144.155 E0.00350
G1 X8.432 Y144.114 E0.00496
G1 X8.299 Y144.036 E0.00481
G1 X8.191 Y143.927 E0.00481
G1 X8.115 Y143.794 E0.00481
G1 X8.075 Y143.641 E0.00496
G1 X7.782 Y136.230 E0.23256
G1 X8.070 Y136.146 E0.00939
G1 X8.474 Y135.992 E0.01358
G1 X8.865 Y135.806 E0.01356
G1 X9.241 Y135.591 E0.01356
G1 X9.598 Y135.348 E0.01356
G1 X9.935 Y135.077 E0.01356
G1 X10.251 Y134.781 E0.01356
G1 X10.542 Y134.462 E0.01356
G1 X10.808 Y134.120 E0.01356
G1 X11.046 Y133.759 E0.01356
G1 X11.255 Y133.381 E0.01356
G1 X11.435 Y132.987 E0.01356
G1 X11.585 Y132.577 E0.01369
G1 X11.745 Y131.955 E0.02014
G1 X11.813 Y131.526 E0.01362
G1 X11.846 Y131.095 E0.01356
G1 X11.850 Y40.588 E2.83779
G1 X11.884 Y40.020 E0.01782
G1 X11.941 Y39.655 E0.01160
G1 X12.028 Y39.293 E0.01167
G1 X12.143 Y38.941 E0.01160
G1 X12.367 Y38.428 E0.01755
G1 X12.549 Y38.103 E0.01168
G1 X12.754 Y37.795 E0.01160
G1 X13.111 Y37.361 E0.01763
G1 X13.373 Y37.099 E0.01160
G1 X13.656 Y36.857 E0.01167
G1 X13.957 Y36.638 E0.01167
G1 X14.272 Y36.445 E0.01159
G1 X14.606 Y36.275 E0.01175
G1 X14.950 Y36.133 E0.01167
G1 X15.304 Y36.018 E0.01167
G1 X15.664 Y35.931 E0.01160
G1 X16.220 Y35.854 E0.01763
G1 X16.596 Y35.839 E0.01180
G1 X21.030 Y35.839 E0.13902
G1 X21.030 Y39.279 E0.10786
M204 S1250
G1 X21.149 Y39.721 F9000.000
G1 X20.540 Y39.567
M204 S800
G1 F1200.000
G1 X17.472 Y36.499 E0.13613
G1 X18.005 Y36.499 E0.01674
G1 X20.370 Y38.864 E0.10493
G1 X20.370 Y38.331 E0.01674
G1 X18.539 Y36.499 E0.08125
G1 X19.073 Y36.499 E0.01674
G1 X20.370 Y37.797 E0.05758
G1 X20.370 Y37.263 E0.01674
G1 X19.606 Y36.499 E0.03390
G1 X20.140 Y36.499 E0.01674
G1 X20.540 Y36.899 E0.01776
M204 S1250
G1 E-2.24000 F4200.00000
G1 F7200.000
G1 X20.140 Y36.499 E-0.31363
G1 X19.606 Y36.499 E-0.29570
G1 X19.992 Y36.885 E-0.30267
G1 E-0.04800 F4200.00000
G1 Z0.400 F9000.000
G1 X20.802 Y39.830
G1 Z0.200
G1 E3.20000 F2400.00000
M204 S800
G1 F1200.000
G1 X120.013 Y139.040 E4.40184
G1 X120.442 Y138.936 E0.01386
G1 X21.505 Y39.999 E4.38967
G1 X22.039 Y39.999 E0.01674
G1 X120.845 Y138.805 E4.38388
G1 X121.239 Y138.665 E0.01310
G1 X22.573 Y39.999 E4.37766
M73 P1 R153
G1 X23.106 Y39.999 E0.01674
G1 X121.609 Y138.502 E4.37043
G1 X121.969 Y138.328 E0.01253
G1 X23.640 Y39.999 E4.36271
G1 X24.173 Y39.999 E0.01674
G1 X122.314 Y138.140 E4.35436
G1 X122.654 Y137.946 E0.01227
G1 X24.707 Y39.999 E4.34575
G1 X25.241 Y39.999 E0.01674
G1 X122.993 Y137.752 E4.33713
G1 X123.333 Y137.558 E0.01227
G1 X25.774 Y39.999 E4.32852
G1 X26.308 Y39.999 E0.01674
G1 X123.672 Y137.363 E4.31991
G1 X124.012 Y137.169 E0.01227
G1 X26.841 Y39.999 E4.31130
G1 X27.375 Y39.999 E0.01674
G1 X124.351 Y136.975 E4.30268
M73 P2 R152
G1 X124.690 Y136.781 E0.01227
G1 X27.909 Y39.999 E4.29407
G1 X28.442 Y39.999 E0.01674
G1 X125.030 Y136.587 E4.28546
G1 X125.369 Y136.393 E0.01227
G1 X28.976 Y39.999 E4.27684
G1 X29.509 Y39.999 E0.01674
G1 X125.709 Y136.199 E4.26823
G1 X126.048 Y136.005 E0.01227
G1 X30.043 Y39.999 E4.25962
G1 X30.577 Y39.999 E0.01674
G1 X126.388 Y135.811 E4.25101
G1 X126.727 Y135.616 E0.01227
G1 X31.110 Y39.999 E4.24239
G1 X31.644 Y39.999 E0.01674
G1 X127.067 Y135.422 E4.23378
G1 X127.406 Y135.228 E0.01227
G1 X32.177 Y39.999 E4.22517
M73 P2 R151
G1 X32.711 Y39.999 E0.01674
G1 X127.746 Y135.034 E4.21655
G1 X128.085 Y134.840 E0.01227
G1 X33.245 Y39.999 E4.20794
G1 X33.778 Y39.999 E0.01674
G1 X128.425 Y134.646 E4.19933
