; generated by PrusaSlicer 2.2.0+win64 on 2020-10-14 at 06:29:00 UTC


;
;

;
;
; 

; external perimeters extrusion width = 0.45mm
; perimeters extrusion width = 0.45mm
; infill extrusion width = 0.45mm
; solid infill extrusion width = 0.45mm
; top infill extrusion width = 0.40mm
; first layer extrusion width = 0.42mm

M73 P0 R141
M201 X1250 Y1250 Z400 E5000 ; sets maximum accelerations, mm/sec^2
M203 X180 Y180 Z12 E80 ; sets maximum feedrates, mm/sec
M204 P1250 R1250 T1250 ; sets acceleration (P, T) and retract acceleration (R), mm/sec^2
M205 X8.00 Y8.00 Z2.00 E10.00 ; sets the jerk limits, mm/sec
M205 S0 T0 ; sets the minimum extruding and travel feed rate, mm/sec
M107
G90 ; use absolute coordinates
M83 ; extruder relative mode
M104 S170 ; set extruder temp for bed leveling
M140 S60 ; set bed temp
M109 R170 ; wait for bed leveling temp
M190 S60 ; wait for bed temp
G28 ; home all without mesh bed level
G29 ; mesh bed leveling 
M104 S215 ; set extruder temp
G92 E0.0
G1 Y-2.0 X179 F2400
G1 Z3 F720
M109 S215 ; wait for extruder temp

; intro line
G1 X170 F1000
G1 Z0.2 F720
G1 X110.0 E8.0 F900
M73 P0 R141
G1 X40.0 E10.0 F700
G92 E0.0

M221 S95 ; set flow
G21 ; set units to millimeters
G90 ; use absolute coordinates
M83 ; use relative distances for extrusion
M900 K0.2 ; Filament gcode LA 1.5
; ; Filament gcode LA 1.0
;BEFORE_LAYER_CHANGE
G92 E0.0
;0.2


G1 Z0.200 F9000.000
;AFTER_LAYER_CHANGE
;0.2
G1 E-3.20000 F4200.00000
G1 Z0.400 F9000.000
G1 X174.294 Y33.721
G1 Z0.200
G1 E3.20000 F2400.00000
M204 S800
G1 F1200.000
G1 X174.814 Y34.466 E0.02849
G1 X175.016 Y35.352 E0.02849
G1 X175.017 Y106.990 E2.24616
G1 X174.847 Y108.135 E0.03628
G1 X174.590 Y109.104 E0.03142
G1 X174.144 Y110.259 E0.03883
G1 X173.671 Y111.170 E0.03219
G1 X172.974 Y112.211 E0.03927
G1 X172.326 Y112.980 E0.03153
G1 X171.414 Y113.846 E0.03943
G1 X170.599 Y114.464 E0.03207
G1 X123.887 Y141.211 E1.68775
G1 X122.135 Y142.015 E0.06042
G1 X120.484 Y142.465 E0.05367
G1 X118.845 Y142.653 E0.05171
G1 X8.760 Y146.947 E3.45426
G1 X7.913 Y146.865 E0.02670
G1 X7.100 Y146.567 E0.02714
G1 X6.389 Y146.072 E0.02716
G1 X5.845 Y145.437 E0.02623
G1 X5.467 Y144.672 E0.02676
G1 X5.300 Y143.910 E0.02444
G1 X4.984 Y135.845 E0.25307
G1 X9.071 Y40.237 E3.00046
G1 X9.348 Y38.530 E0.05424
G1 X9.637 Y37.696 E0.02767
G1 X10.024 Y36.899 E0.02779
G1 X10.497 Y36.160 E0.02749
G1 X11.062 Y35.471 E0.02796
G1 X11.701 Y34.856 E0.02779
G1 X12.395 Y34.330 E0.02729
G1 X13.400 Y33.762 E0.03622
G1 X14.294 Y33.411 E0.03011
G1 X15.409 Y33.146 E0.03594
G1 X16.562 Y33.053 E0.03626
G1 X172.644 Y33.052 E4.89384
G1 X173.532 Y33.226 E0.02837
G1 X174.243 Y33.689 E0.02661
M204 S1250
G1 E-2.24000 F4200.00000
G1 F7200.000
G1 X174.814 Y34.466 E-0.53445
G1 X174.965 Y35.131 E-0.37755
G1 E-0.04800 F4200.00000
G1 Z0.400 F9000.000
G1 X40.571 Y121.472
G1 Z0.200
G1 E3.20000 F2400.00000
M204 S800
G1 F1200.000
G1 X41.087 Y122.322 E0.03117
G1 X41.395 Y122.912 E0.02085
G1 X41.670 Y123.512 E0.02072
G1 X41.914 Y124.127 E0.02072
G1 X42.126 Y124.753 E0.02072
G1 X42.306 Y125.389 E0.02072
G1 X42.453 Y126.033 E0.02072
G1 X42.567 Y126.684 E0.02072
G1 X42.647 Y127.340 E0.02072
G1 X42.694 Y127.999 E0.02072
G1 X42.707 Y128.660 E0.02072
G1 X42.685 Y129.321 E0.02072
G1 X42.630 Y129.979 E0.02072
G1 X42.542 Y130.634 E0.02072
G1 X42.421 Y131.277 E0.02051
G1 X42.175 Y132.241 E0.03117
G1 X41.970 Y132.873 E0.02085
G1 X41.734 Y133.490 E0.02072
G1 X41.466 Y134.094 E0.02072
G1 X41.168 Y134.684 E0.02072
G1 X40.840 Y135.258 E0.02072
G1 X40.487 Y135.809 E0.02051
G1 X39.898 Y136.610 E0.03117
G1 X39.470 Y137.119 E0.02085
G1 X39.020 Y137.602 E0.02072
G1 X38.545 Y138.062 E0.02072
G1 X38.047 Y138.497 E0.02072
G1 X37.528 Y138.905 E0.02072
G1 X36.994 Y139.283 E0.02051
G1 X36.147 Y139.805 E0.03117
G1 X35.560 Y140.116 E0.02085
G1 X34.961 Y140.395 E0.02072
G1 X34.348 Y140.643 E0.02072
G1 X33.723 Y140.859 E0.02072
G1 X33.089 Y141.043 E0.02072
G1 X32.445 Y141.194 E0.02072
G1 X31.795 Y141.312 E0.02072
G1 X31.139 Y141.397 E0.02072
G1 X30.480 Y141.448 E0.02072
G1 X29.820 Y141.465 E0.02072
G1 X29.159 Y141.448 E0.02072
G1 X28.500 Y141.397 E0.02072
G1 X27.844 Y141.312 E0.02072
G1 X27.194 Y141.194 E0.02072
G1 X26.551 Y141.043 E0.02072
G1 X25.922 Y140.861 E0.02051
G1 X24.987 Y140.524 E0.03117
G1 X24.377 Y140.259 E0.02085
G1 X23.786 Y139.965 E0.02072
G1 X23.210 Y139.641 E0.02072
G1 X22.651 Y139.287 E0.02072
G1 X22.112 Y138.906 E0.02072
G1 X21.592 Y138.497 E0.02072
G1 X21.095 Y138.062 E0.02072
G1 X20.620 Y137.602 E0.02072
G1 X20.169 Y137.119 E0.02072
G1 X19.742 Y136.610 E0.02084
G1 X19.158 Y135.818 E0.03084
G1 X18.799 Y135.258 E0.02084
G1 X18.471 Y134.684 E0.02072
G1 X18.173 Y134.094 E0.02072
G1 X17.905 Y133.490 E0.02072
G1 X17.669 Y132.873 E0.02072
G1 X17.465 Y132.244 E0.02072
G1 X17.293 Y131.606 E0.02072
G1 X17.154 Y130.956 E0.02084
G1 X17.009 Y129.983 E0.03084
G1 X16.954 Y129.321 E0.02084
G1 X16.933 Y128.660 E0.02072
G1 X16.945 Y127.999 E0.02072
G1 X16.992 Y127.340 E0.02072
G1 X17.072 Y126.684 E0.02072
G1 X17.186 Y126.033 E0.02072
G1 X17.333 Y125.389 E0.02072
G1 X17.513 Y124.753 E0.02072
G1 X17.725 Y124.127 E0.02072
G1 X17.971 Y123.509 E0.02084
G1 X18.392 Y122.620 E0.03084
G1 X18.714 Y122.039 E0.02084
G1 X19.064 Y121.478 E0.02072
G1 X19.442 Y120.936 E0.02072
G1 X19.848 Y120.414 E0.02072
G1 X20.279 Y119.913 E0.02072
G1 X20.736 Y119.436 E0.02072
G1 X21.217 Y118.982 E0.02072
G1 X21.723 Y118.551 E0.02084
G1 X22.511 Y117.963 E0.03084
G1 X23.068 Y117.600 E0.02084
G1 X23.640 Y117.268 E0.02072
G1 X24.228 Y116.966 E0.02072
G1 X24.834 Y116.693 E0.02084
G1 X25.755 Y116.348 E0.03084
G1 X26.391 Y116.155 E0.02084
G1 X27.033 Y115.995 E0.02072
G1 X27.681 Y115.869 E0.02072
G1 X28.336 Y115.776 E0.02072
G1 X28.994 Y115.717 E0.02072
G1 X29.654 Y115.691 E0.02072
G1 X30.315 Y115.700 E0.02072
G1 X30.979 Y115.742 E0.02084
G1 X31.954 Y115.868 E0.03084
G1 X32.607 Y115.995 E0.02084
G1 X33.248 Y116.155 E0.02072
G1 X33.881 Y116.347 E0.02072
G1 X34.502 Y116.571 E0.02072
G1 X35.112 Y116.827 E0.02072
G1 X35.707 Y117.114 E0.02072
G1 X36.287 Y117.431 E0.02072
G1 X36.850 Y117.777 E0.02072
G1 X37.395 Y118.151 E0.02072
G1 X37.919 Y118.553 E0.02072
G1 X38.422 Y118.982 E0.02072
G1 X38.903 Y119.436 E0.02072
G1 X39.360 Y119.913 E0.02072
G1 X39.791 Y120.414 E0.02072
G1 X40.197 Y120.936 E0.02072
G1 X40.537 Y121.423 E0.01863
M204 S1250
G1 X40.228 Y121.639 F9000.000
M204 S800
G1 F1200.000
G1 X40.758 Y122.507 E0.03191
G1 X41.056 Y123.077 E0.02016
G1 X41.323 Y123.661 E0.02012
G1 X41.560 Y124.257 E0.02012
G1 X41.766 Y124.865 E0.02012
G1 X41.941 Y125.482 E0.02012
G1 X42.083 Y126.107 E0.02012
G1 X42.194 Y126.739 E0.02012
G1 X42.272 Y127.376 E0.02012
G1 X42.317 Y128.016 E0.02012
G1 X42.329 Y128.658 E0.02012
G1 X42.309 Y129.299 E0.02012
G1 X42.255 Y129.938 E0.02012
G1 X42.169 Y130.574 E0.02012
G1 X42.053 Y131.196 E0.01983
G1 X41.813 Y132.136 E0.03041
G1 X41.614 Y132.747 E0.02016
G1 X41.385 Y133.346 E0.02012
G1 X41.125 Y133.933 E0.02012
G1 X40.836 Y134.506 E0.02012
G1 X40.518 Y135.063 E0.02012
G1 X40.176 Y135.595 E0.01983
G1 X39.601 Y136.376 E0.03041
G1 X39.188 Y136.869 E0.02016
G1 X38.750 Y137.338 E0.02012
G1 X38.289 Y137.784 E0.02012
G1 X37.806 Y138.206 E0.02012
G1 X37.302 Y138.603 E0.02012
G1 X36.786 Y138.969 E0.01983
G1 X35.960 Y139.477 E0.03041
G1 X35.392 Y139.778 E0.02016
G1 X34.810 Y140.049 E0.02012
G1 X34.215 Y140.290 E0.02012
G1 X33.609 Y140.500 E0.02012
G1 X32.993 Y140.678 E0.02012
G1 X32.368 Y140.825 E0.02012
G1 X31.737 Y140.940 E0.02012
G1 X31.101 Y141.022 E0.02012
G1 X30.461 Y141.071 E0.02012
G1 X29.820 Y141.088 E0.02012
G1 X29.178 Y141.071 E0.02012
G1 X28.539 Y141.022 E0.02012
G1 X27.902 Y140.940 E0.02012
G1 X27.271 Y140.825 E0.02012
G1 X26.646 Y140.678 E0.02012
G1 X26.039 Y140.502 E0.01983
G1 X25.126 Y140.174 E0.03041
G1 X24.537 Y139.917 E0.02016
G1 X23.962 Y139.632 E0.02012
G1 X23.403 Y139.317 E0.02012
G1 X22.861 Y138.974 E0.02012
G1 X22.337 Y138.603 E0.02012
G1 X21.833 Y138.206 E0.02012
G1 X21.350 Y137.784 E0.02012
G1 X20.889 Y137.338 E0.02012
G1 X20.452 Y136.869 E0.02012
G1 X20.038 Y136.376 E0.02016
G1 X19.469 Y135.604 E0.03009
G1 X19.122 Y135.063 E0.02016
G1 X18.803 Y134.506 E0.02012
G1 X18.514 Y133.933 E0.02012
G1 X18.254 Y133.346 E0.02012
G1 X18.025 Y132.747 E0.02012
G1 X17.827 Y132.137 E0.02012
G1 X17.660 Y131.517 E0.02012
G1 X17.525 Y130.889 E0.02016
G1 X17.384 Y129.940 E0.03009
G1 X17.330 Y129.299 E0.02016
G1 X17.310 Y128.658 E0.02012
G1 X17.322 Y128.016 E0.02012
G1 X17.367 Y127.376 E0.02012
G1 X17.445 Y126.739 E0.02012
G1 X17.556 Y126.107 E0.02012
G1 X17.699 Y125.482 E0.02012
G1 X17.873 Y124.865 E0.02012
G1 X18.079 Y124.257 E0.02012
G1 X18.317 Y123.659 E0.02016
G1 X18.728 Y122.792 E0.03009
G1 X19.039 Y122.230 E0.02016
G1 X19.379 Y121.686 E0.02012
G1 X19.746 Y121.159 E0.02012
G1 X20.140 Y120.653 E0.02012
G1 X20.559 Y120.167 E0.02012
G1 X21.002 Y119.703 E0.02012
G1 X21.469 Y119.263 E0.02012
G1 X21.958 Y118.846 E0.02016
G1 X22.727 Y118.272 E0.03009
G1 X23.266 Y117.921 E0.02016
G1 X23.821 Y117.599 E0.02012
G1 X24.392 Y117.306 E0.02012
G1 X24.978 Y117.042 E0.02016
G1 X25.876 Y116.705 E0.03009
G1 X26.491 Y116.518 E0.02016
G1 X27.114 Y116.363 E0.02012
G1 X27.744 Y116.241 E0.02012
G1 X28.379 Y116.151 E0.02012
G1 X29.018 Y116.093 E0.02012
G1 X29.659 Y116.068 E0.02012
G1 X30.301 Y116.077 E0.02012
G1 X30.942 Y116.118 E0.02016
G1 X31.894 Y116.241 E0.03009
G1 X32.525 Y116.363 E0.02016
G1 X33.148 Y116.518 E0.02012
G1 X33.762 Y116.705 E0.02012
G1 X34.365 Y116.922 E0.02012
G1 X34.957 Y117.171 E0.02012
G1 X35.535 Y117.449 E0.02012
G1 X36.098 Y117.757 E0.02012
G1 X36.644 Y118.093 E0.02012
G1 X37.173 Y118.457 E0.02012
G1 X37.682 Y118.847 E0.02012
G1 X38.171 Y119.263 E0.02012
G1 X38.637 Y119.703 E0.02012
G1 X39.081 Y120.167 E0.02012
G1 X39.500 Y120.653 E0.02012
G1 X39.893 Y121.159 E0.02012
G1 X40.193 Y121.590 E0.01645
M204 S1250
G1 X40.627 Y121.617 F9000.000
G1 E-2.24000 F4200.00000
G1 F7200.000
G1 X40.758 Y122.507 E-0.59721
G1 X41.021 Y123.011 E-0.31479
G1 E-0.04800 F4200.00000
G1 Z0.400 F9000.000
G1 X20.653 Y39.716
G1 Z0.200
G1 E3.20000 F2400.00000
M204 S800
G1 F1200.000
G1 X154.227 Y39.716 E4.18812
G1 X154.227 Y36.216 E0.10974
G1 X171.853 Y36.216 E0.55265
G1 X171.853 Y106.867 E2.21519
G1 X171.746 Y107.501 E0.02018
G1 X171.640 Y107.926 E0.01373
G1 X171.425 Y108.568 E0.02122
G1 X171.250 Y108.978 E0.01397
G1 X171.049 Y109.377 E0.01401
G1 X170.824 Y109.763 E0.01402
G1 X170.577 Y110.130 E0.01387
G1 X170.154 Y110.663 E0.02131
G1 X169.856 Y110.983 E0.01373
G1 X169.355 Y111.443 E0.02131
G1 X169.010 Y111.712 E0.01373
G1 X168.440 Y112.090 E0.02143
G1 X122.345 Y138.448 E1.66490
G1 X121.920 Y138.674 E0.01508
G1 X121.264 Y138.963 E0.02248
G1 X120.584 Y139.191 E0.02248
G1 X120.132 Y139.306 E0.01462
G1 X119.426 Y139.431 E0.02248
G1 X118.702 Y139.492 E0.02280
G1 X8.697 Y143.783 E3.45174
M73 P0 R140
G1 X8.579 Y143.763 E0.00376
G1 X8.494 Y143.697 E0.00337
G1 X8.450 Y143.585 E0.00378
G1 X8.171 Y136.510 E0.22201
G1 X8.623 Y136.339 E0.01515
G1 X9.040 Y136.141 E0.01448
G1 X9.441 Y135.911 E0.01448
G1 X9.822 Y135.651 E0.01448
G1 X10.183 Y135.362 E0.01448
G1 X10.519 Y135.046 E0.01448
G1 X10.831 Y134.705 E0.01448
G1 X11.114 Y134.340 E0.01448
G1 X11.369 Y133.955 E0.01448
G1 X11.592 Y133.551 E0.01448
G1 X11.787 Y133.123 E0.01474
G1 X12.008 Y132.481 E0.02127
G1 X12.116 Y132.026 E0.01466
G1 X12.187 Y131.570 E0.01448
G1 X12.223 Y131.109 E0.01448
G1 X12.227 Y40.599 E2.83790
G1 X12.259 Y40.061 E0.01689
G1 X12.312 Y39.728 E0.01056
G1 X12.392 Y39.395 E0.01074
G1 X12.496 Y39.075 E0.01056
G1 X12.705 Y38.596 E0.01639
G1 X12.871 Y38.300 E0.01063
G1 X13.058 Y38.020 E0.01056
G1 X13.391 Y37.614 E0.01647
G1 X13.629 Y37.376 E0.01056
G1 X13.889 Y37.153 E0.01074
G1 X14.167 Y36.952 E0.01074
G1 X14.457 Y36.774 E0.01067
G1 X14.764 Y36.618 E0.01082
G1 X15.080 Y36.487 E0.01074
G1 X15.406 Y36.381 E0.01074
G1 X15.734 Y36.302 E0.01056
G1 X16.254 Y36.230 E0.01646
G1 X16.604 Y36.216 E0.01098
G1 X20.653 Y36.216 E0.12697
G1 X20.653 Y39.656 E0.10786
M204 S1250
G1 X21.030 Y39.339 F9000.000
M204 S800
G1 F1200.000
G1 X153.850 Y39.339 E4.16448
G1 X153.850 Y35.839 E0.10974
G1 X172.230 Y35.839 E0.57629
G1 X172.230 Y106.898 E2.22800
G1 X172.116 Y107.579 E0.02163
G1 X172.002 Y108.032 E0.01466
G1 X171.777 Y108.702 E0.02215
G1 X171.592 Y109.136 E0.01481
G1 X171.381 Y109.557 E0.01476
G1 X171.143 Y109.964 E0.01476
G1 X170.882 Y110.353 E0.01471
G1 X170.441 Y110.909 E0.02224
G1 X170.122 Y111.251 E0.01466
G1 X169.599 Y111.731 E0.02224
G1 X169.231 Y112.019 E0.01466
G1 X168.638 Y112.411 E0.02228
G1 X122.527 Y138.778 E1.66547
G1 X122.085 Y139.014 E0.01570
G1 X121.400 Y139.315 E0.02346
G1 X120.691 Y139.553 E0.02346
G1 X120.212 Y139.675 E0.01551
G1 X119.475 Y139.805 E0.02346
G1 X118.725 Y139.868 E0.02360
G1 X8.696 Y144.160 E3.45251
G1 X8.584 Y144.155 E0.00350
G1 X8.432 Y144.114 E0.00495
G1 X8.299 Y144.036 E0.00481
G1 X8.191 Y143.927 E0.00481
G1 X8.115 Y143.794 E0.00481
G1 X8.075 Y143.641 E0.00496
G1 X7.782 Y136.230 E0.23256
G1 X8.070 Y136.146 E0.00939
G1 X8.474 Y135.992 E0.01358
G1 X8.865 Y135.806 E0.01356
G1 X9.241 Y135.591 E0.01356
G1 X9.598 Y135.348 E0.01356
G1 X9.935 Y135.077 E0.01356
G1 X10.251 Y134.781 E0.01356
G1 X10.542 Y134.462 E0.01356
G1 X10.808 Y134.120 E0.01356
G1 X11.046 Y133.759 E0.01356
G1 X11.255 Y133.381 E0.01356
G1 X11.437 Y132.983 E0.01371
G1 X11.645 Y132.376 E0.02013
G1 X11.746 Y131.953 E0.01362
G1 X11.813 Y131.526 E0.01356
G1 X11.846 Y131.095 E0.01356
G1 X11.850 Y40.588 E2.83779
G1 X11.884 Y40.020 E0.01782
G1 X11.941 Y39.655 E0.01160
G1 X12.028 Y39.293 E0.01167
G1 X12.143 Y38.941 E0.01160
G1 X12.367 Y38.428 E0.01755
G1 X12.549 Y38.103 E0.01168
G1 X12.754 Y37.795 E0.01160
G1 X13.111 Y37.361 E0.01763
G1 X13.373 Y37.099 E0.01160
G1 X13.656 Y36.857 E0.01167
G1 X13.957 Y36.638 E0.01167
G1 X14.272 Y36.445 E0.01159
G1 X14.606 Y36.275 E0.01175
G1 X14.950 Y36.133 E0.01167
G1 X15.304 Y36.018 E0.01167
G1 X15.664 Y35.931 E0.01160
G1 X16.220 Y35.854 E0.01763
G1 X16.596 Y35.839 E0.01180
G1 X21.030 Y35.839 E0.13902
G1 X21.030 Y39.279 E0.10786
M204 S1250
G1 X21.149 Y39.721 F9000.000
G1 X20.540 Y39.567
M204 S800
G1 F1200.000
G1 X17.472 Y36.499 E0.13613
G1 X18.005 Y36.499 E0.01674
G1 X20.370 Y38.864 E0.10493
G1 X20.370 Y38.331 E0.01674
G1 X18.539 Y36.499 E0.08125
G1 X19.073 Y36.499 E0.01674
G1 X20.370 Y37.797 E0.05758
G1 X20.370 Y37.263 E0.01674
G1 X19.606 Y36.499 E0.03390
G1 X20.140 Y36.499 E0.01674
G1 X20.540 Y36.899 E0.01776
M204 S1250
G1 E-2.24000 F4200.00000
G1 F7200.000
G1 X20.140 Y36.499 E-0.31363
G1 X19.606 Y36.499 E-0.29570
G1 X19.992 Y36.885 E-0.30267
G1 E-0.04800 F4200.00000
G1 Z0.400 F9000.000
G1 X20.802 Y39.830
G1 Z0.200
G1 E3.20000 F2400.00000
M204 S800
G1 F1200.000
G1 X120.013 Y139.040 E4.40184
G1 X120.442 Y138.936 E0.01386
G1 X21.505 Y39.999 E4.38967
G1 X22.039 Y39.999 E0.01674
G1 X120.845 Y138.805 E4.38388
G1 X121.239 Y138.665 E0.01310
G1 X22.573 Y39.999 E4.37766
M73 P1 R139
G1 X23.106 Y39.999 E0.01674
G1 X121.609 Y138.502 E4.37043
G1 X121.969 Y138.328 E0.01253
G1 X23.640 Y39.999 E4.36271
G1 X24.173 Y39.999 E0.01674
G1 X122.314 Y138.140 E4.35436
G1 X122.654 Y137.946 E0.01227
G1 X24.707 Y39.999 E4.34575
G1 X25.241 Y39.999 E0.01674
G1 X122.993 Y137.752 E4.33713
G1 X123.333 Y137.558 E0.01227
G1 X25.774 Y39.999 E4.32852
G1 X26.308 Y39.999 E0.01674
G1 X123.672 Y137.363 E4.31991
G1 X124.012 Y137.169 E0.01227
G1 X26.841 Y39.999 E4.31130
G1 X27.375 Y39.999 E0.01674
G1 X124.351 Y136.975 E4.30268
M73 P2 R138
G1 X124.690 Y136.781 E0.01227
G1 X27.909 Y39.999 E4.29407
G1 X28.442 Y39.999 E0.01674
G1 X125.030 Y136.587 E4.28546
G1 X125.369 Y136.393 E0.01227
G1 X28.976 Y39.999 E4.27684
G1 X29.509 Y39.999 E0.01674
G1 X125.709 Y136.199 E4.26823
G1 X126.048 Y136.005 E0.01227
G1 X30.043 Y39.999 E4.25962
G1 X30.577 Y39.999 E0.01674
G1 X126.388 Y135.811 E4.25101
G1 X126.727 Y135.616 E0.01227
G1 X31.110 Y39.999 E4.24239
G1 X31.644 Y39.999 E0.01674
G1 X127.067 Y135.422 E4.23378
G1 X127.406 Y135.228 E0.01227
G1 X32.177 Y39.999 E4.22517
M73 P3 R137
G1 X32.711 Y39.999 E0.01674
G1 X127.746 Y135.034 E4.21655
G1 X128.085 Y134.840 E0.01227
G1 X33.245 Y39.999 E4.20794
G1 X33.778 Y39.999 E0.01674
G1 X128.425 Y134.646 E4.19933
G1 X128.764 Y134.452 E0.01227
