; generated by PrusaSlicer 2.2.0+win64 on 2020-10-12 at 21:18:47 UTC


;
;

;
;
; 

; external perimeters extrusion width = 0.45mm
; perimeters extrusion width = 0.45mm
; infill extrusion width = 0.45mm
; solid infill extrusion width = 0.45mm
; top infill extrusion width = 0.40mm
; first layer extrusion width = 0.42mm

M73 P0 R140
M201 X1250 Y1250 Z400 E5000 ; sets maximum accelerations, mm/sec^2
M203 X180 Y180 Z12 E80 ; sets maximum feedrates, mm/sec
M204 P1250 R1250 T1250 ; sets acceleration (P, T) and retract acceleration (R), mm/sec^2
M205 X8.00 Y8.00 Z2.00 E10.00 ; sets the jerk limits, mm/sec
M205 S0 T0 ; sets the minimum extruding and travel feed rate, mm/sec
M107
G90 ; use absolute coordinates
M83 ; extruder relative mode
M104 S170 ; set extruder temp for bed leveling
M140 S60 ; set bed temp
M109 R170 ; wait for bed leveling temp
M190 S60 ; wait for bed temp
G28 ; home all without mesh bed level
G29 ; mesh bed leveling 
M104 S215 ; set extruder temp
G92 E0.0
G1 Y-2.0 X179 F2400
G1 Z3 F720
M109 S215 ; wait for extruder temp

; intro line
G1 X170 F1000
G1 Z0.2 F720
G1 X110.0 E8.0 F900
M73 P0 R140
G1 X40.0 E10.0 F700
G92 E0.0

M221 S95 ; set flow
G21 ; set units to millimeters
G90 ; use absolute coordinates
M83 ; use relative distances for extrusion
M900 K0.2 ; Filament gcode LA 1.5
; ; Filament gcode LA 1.0
;BEFORE_LAYER_CHANGE
G92 E0.0
;0.2


G1 Z0.200 F9000.000
;AFTER_LAYER_CHANGE
;0.2
G1 E-3.20000 F4200.00000
G1 Z0.400 F9000.000
G1 X7.653 Y33.205
G1 Z0.200
G1 E3.20000 F2400.00000
M204 S800
G1 F1200.000
G1 X8.698 Y33.052 E0.03310
G1 X118.843 Y37.347 E3.45616
G1 X120.500 Y37.538 E0.05229
G1 X122.125 Y37.981 E0.05281
G1 X123.888 Y38.789 E0.06080
G1 X170.604 Y65.539 E1.68787
G1 X171.411 Y66.151 E0.03177
G1 X172.315 Y67.009 E0.03909
G1 X172.972 Y67.787 E0.03189
G1 X173.661 Y68.813 E0.03876
G1 X174.129 Y69.709 E0.03171
G1 X174.581 Y70.868 E0.03900
G1 X174.842 Y71.842 E0.03160
G1 X175.014 Y72.950 E0.03517
G1 X175.017 Y144.586 E2.24609
G1 X174.909 Y145.280 E0.02201
G1 X174.605 Y145.908 E0.02190
G1 X174.227 Y146.340 E0.01799
G1 X173.757 Y146.669 E0.01799
G1 X173.226 Y146.874 E0.01787
G1 X172.657 Y146.948 E0.01799
G1 X16.586 Y146.948 E4.89347
G1 X15.417 Y146.856 E0.03677
G1 X14.307 Y146.593 E0.03576
G1 X13.402 Y146.239 E0.03048
G1 X12.392 Y145.668 E0.03636
G1 X11.701 Y145.144 E0.02720
G1 X11.073 Y144.540 E0.02733
G1 X10.507 Y143.854 E0.02789
G1 X10.048 Y143.143 E0.02654
G1 X9.420 Y141.710 E0.04905
G1 X9.206 Y140.882 E0.02680
G1 X9.085 Y139.997 E0.02802
G1 X4.984 Y44.162 E3.00757
G1 X5.286 Y36.263 E0.24787
G1 X5.450 Y35.378 E0.02820
G1 X5.954 Y34.408 E0.03429
G1 X6.728 Y33.659 E0.03378
G1 X7.599 Y33.231 E0.03043
M204 S1250
G1 E-2.24000 F4200.00000
G1 F7200.000
G1 X8.698 Y33.052 E-0.61684
G1 X9.230 Y33.073 E-0.29516
G1 E-0.04800 F4200.00000
G1 Z0.400 F9000.000
G1 X19.744 Y43.387
G1 Z0.200
G1 E3.20000 F2400.00000
M204 S800
G1 F1200.000
G1 X20.169 Y42.881 E0.02072
G1 X20.620 Y42.398 E0.02072
G1 X21.095 Y41.938 E0.02072
G1 X21.592 Y41.503 E0.02072
G1 X22.112 Y41.095 E0.02072
G1 X22.646 Y40.717 E0.02051
G1 X23.492 Y40.195 E0.03117
G1 X24.080 Y39.884 E0.02085
G1 X24.679 Y39.605 E0.02072
G1 X25.291 Y39.357 E0.02072
G1 X25.916 Y39.141 E0.02072
G1 X26.551 Y38.957 E0.02072
G1 X27.194 Y38.806 E0.02072
G1 X27.844 Y38.688 E0.02072
G1 X28.500 Y38.603 E0.02072
G1 X29.159 Y38.552 E0.02072
G1 X29.813 Y38.535 E0.02051
G1 X30.806 Y38.573 E0.03117
G1 X31.468 Y38.641 E0.02085
G1 X32.121 Y38.742 E0.02072
G1 X32.768 Y38.877 E0.02072
G1 X33.407 Y39.045 E0.02072
G1 X34.037 Y39.245 E0.02072
G1 X34.656 Y39.477 E0.02072
G1 X35.262 Y39.741 E0.02072
G1 X35.854 Y40.035 E0.02072
G1 X36.429 Y40.359 E0.02072
G1 X36.982 Y40.709 E0.02051
G1 X37.787 Y41.293 E0.03117
G1 X38.299 Y41.717 E0.02085
G1 X38.785 Y42.165 E0.02072
G1 X39.248 Y42.637 E0.02072
G1 X39.686 Y43.132 E0.02072
G1 X40.098 Y43.648 E0.02072
G1 X40.483 Y44.186 E0.02072
G1 X40.840 Y44.742 E0.02072
G1 X41.168 Y45.316 E0.02072
G1 X41.466 Y45.906 E0.02072
G1 X41.735 Y46.513 E0.02084
G1 X42.075 Y47.437 E0.03084
G1 X42.264 Y48.074 E0.02084
G1 X42.420 Y48.716 E0.02072
G1 X42.542 Y49.366 E0.02072
G1 X42.630 Y50.021 E0.02072
G1 X42.685 Y50.679 E0.02072
G1 X42.707 Y51.340 E0.02072
G1 X42.694 Y52.001 E0.02072
G1 X42.647 Y52.660 E0.02072
G1 X42.567 Y53.316 E0.02072
G1 X42.453 Y53.967 E0.02072
G1 X42.306 Y54.611 E0.02072
G1 X42.126 Y55.247 E0.02072
G1 X41.914 Y55.873 E0.02072
G1 X41.670 Y56.488 E0.02072
G1 X41.395 Y57.088 E0.02072
G1 X41.092 Y57.668 E0.02051
G1 X40.577 Y58.519 E0.03117
G1 X40.197 Y59.064 E0.02085
G1 X39.791 Y59.586 E0.02072
G1 X39.360 Y60.087 E0.02072
G1 X38.903 Y60.564 E0.02072
G1 X38.422 Y61.018 E0.02072
G1 X37.916 Y61.449 E0.02084
G1 X37.128 Y62.037 E0.03084
G1 X36.571 Y62.400 E0.02084
G1 X35.999 Y62.732 E0.02072
G1 X35.411 Y63.034 E0.02072
G1 X34.805 Y63.307 E0.02084
G1 X33.884 Y63.652 E0.03084
G1 X33.248 Y63.845 E0.02084
G1 X32.607 Y64.005 E0.02072
G1 X31.958 Y64.131 E0.02072
G1 X31.304 Y64.224 E0.02072
G1 X30.645 Y64.283 E0.02072
G1 X29.985 Y64.309 E0.02072
G1 X29.324 Y64.300 E0.02072
G1 X28.661 Y64.258 E0.02084
G1 X27.685 Y64.132 E0.03084
G1 X27.033 Y64.005 E0.02084
G1 X26.391 Y63.845 E0.02072
G1 X25.759 Y63.653 E0.02072
G1 X25.137 Y63.429 E0.02072
G1 X24.528 Y63.173 E0.02072
G1 X23.932 Y62.886 E0.02072
G1 X23.352 Y62.569 E0.02072
G1 X22.789 Y62.223 E0.02072
G1 X22.245 Y61.849 E0.02072
G1 X21.720 Y61.447 E0.02072
G1 X21.217 Y61.018 E0.02072
G1 X20.736 Y60.564 E0.02072
G1 X20.279 Y60.087 E0.02072
G1 X19.848 Y59.586 E0.02072
G1 X19.442 Y59.064 E0.02072
G1 X19.064 Y58.522 E0.02072
G1 X18.714 Y57.961 E0.02072
G1 X18.392 Y57.380 E0.02084
G1 X17.971 Y56.491 E0.03084
G1 X17.725 Y55.873 E0.02084
G1 X17.513 Y55.247 E0.02072
G1 X17.333 Y54.612 E0.02072
G1 X17.187 Y53.974 E0.02051
G1 X17.028 Y52.992 E0.03117
G1 X16.964 Y52.331 E0.02085
G1 X16.935 Y51.670 E0.02072
G1 X16.939 Y51.009 E0.02072
G1 X16.977 Y50.350 E0.02072
G1 X17.049 Y49.693 E0.02072
G1 X17.154 Y49.040 E0.02072
G1 X17.293 Y48.394 E0.02072
G1 X17.465 Y47.756 E0.02072
G1 X17.669 Y47.127 E0.02072
G1 X17.903 Y46.516 E0.02051
G1 X18.316 Y45.612 E0.03117
G1 X18.631 Y45.027 E0.02085
G1 X18.974 Y44.461 E0.02072
G1 X19.345 Y43.915 E0.02072
G1 X19.708 Y43.435 E0.01884
M204 S1250
G1 X20.008 Y43.663 F9000.000
M204 S800
G1 F1200.000
G1 X20.452 Y43.131 E0.02169
G1 X20.889 Y42.662 E0.02012
G1 X21.350 Y42.216 E0.02012
G1 X21.833 Y41.794 E0.02012
G1 X22.337 Y41.397 E0.02012
G1 X22.854 Y41.031 E0.01983
G1 X23.679 Y40.523 E0.03041
G1 X24.248 Y40.222 E0.02016
G1 X24.829 Y39.951 E0.02012
G1 X25.424 Y39.710 E0.02012
G1 X26.030 Y39.500 E0.02012
G1 X26.646 Y39.322 E0.02012
G1 X27.271 Y39.175 E0.02012
G1 X27.902 Y39.060 E0.02012
G1 X28.539 Y38.978 E0.02012
G1 X29.178 Y38.929 E0.02012
G1 X29.811 Y38.913 E0.01983
G1 X30.780 Y38.949 E0.03041
G1 X31.419 Y39.015 E0.02016
G1 X32.053 Y39.113 E0.02012
G1 X32.682 Y39.244 E0.02012
G1 X33.302 Y39.407 E0.02012
G1 X33.914 Y39.601 E0.02012
G1 X34.514 Y39.827 E0.02012
G1 X35.103 Y40.083 E0.02012
G1 X35.677 Y40.368 E0.02012
G1 X36.236 Y40.683 E0.02012
G1 X36.771 Y41.021 E0.01983
G1 X37.556 Y41.591 E0.03041
G1 X38.051 Y42.002 E0.02016
G1 X38.523 Y42.436 E0.02012
G1 X38.972 Y42.894 E0.02012
G1 X39.397 Y43.374 E0.02012
G1 X39.797 Y43.876 E0.02012
G1 X40.171 Y44.397 E0.02012
G1 X40.518 Y44.937 E0.02012
G1 X40.836 Y45.494 E0.02012
G1 X41.125 Y46.067 E0.02012
G1 X41.386 Y46.655 E0.02016
G1 X41.717 Y47.555 E0.03009
G1 X41.900 Y48.172 E0.02016
G1 X42.051 Y48.795 E0.02012
G1 X42.169 Y49.426 E0.02012
G1 X42.255 Y50.062 E0.02012
G1 X42.309 Y50.701 E0.02012
G1 X42.329 Y51.342 E0.02012
G1 X42.317 Y51.984 E0.02012
G1 X42.272 Y52.624 E0.02012
G1 X42.194 Y53.261 E0.02012
G1 X42.083 Y53.893 E0.02012
G1 X41.941 Y54.518 E0.02012
G1 X41.766 Y55.135 E0.02012
G1 X41.560 Y55.743 E0.02012
G1 X41.323 Y56.339 E0.02012
G1 X41.056 Y56.923 E0.02012
G1 X40.763 Y57.483 E0.01983
G1 X40.261 Y58.313 E0.03041
G1 X39.893 Y58.841 E0.02016
G1 X39.500 Y59.347 E0.02012
G1 X39.081 Y59.833 E0.02012
G1 X38.637 Y60.297 E0.02012
G1 X38.171 Y60.737 E0.02012
G1 X37.681 Y61.154 E0.02016
G1 X36.912 Y61.728 E0.03009
G1 X36.373 Y62.079 E0.02016
G1 X35.818 Y62.401 E0.02012
G1 X35.248 Y62.694 E0.02012
G1 X34.661 Y62.958 E0.02016
G1 X33.763 Y63.295 E0.03009
G1 X33.148 Y63.482 E0.02016
G1 X32.525 Y63.637 E0.02012
G1 X31.895 Y63.759 E0.02012
G1 X31.260 Y63.849 E0.02012
G1 X30.621 Y63.907 E0.02012
G1 X29.980 Y63.932 E0.02012
G1 X29.339 Y63.923 E0.02012
G1 X28.697 Y63.882 E0.02016
G1 X27.745 Y63.759 E0.03009
G1 X27.114 Y63.637 E0.02016
G1 X26.491 Y63.482 E0.02012
G1 X25.878 Y63.295 E0.02012
G1 X25.274 Y63.078 E0.02012
G1 X24.683 Y62.829 E0.02012
G1 X24.104 Y62.551 E0.02012
G1 X23.541 Y62.243 E0.02012
G1 X22.995 Y61.907 E0.02012
G1 X22.466 Y61.543 E0.02012
G1 X21.957 Y61.153 E0.02012
G1 X21.469 Y60.737 E0.02012
G1 X21.002 Y60.297 E0.02012
G1 X20.559 Y59.833 E0.02012
G1 X20.140 Y59.347 E0.02012
G1 X19.746 Y58.841 E0.02012
G1 X19.379 Y58.314 E0.02012
G1 X19.039 Y57.770 E0.02012
G1 X18.728 Y57.208 E0.02016
G1 X18.317 Y56.341 E0.03009
G1 X18.079 Y55.743 E0.02016
G1 X17.873 Y55.135 E0.02012
G1 X17.699 Y54.518 E0.02012
G1 X17.558 Y53.901 E0.01983
G1 X17.402 Y52.944 E0.03041
G1 X17.341 Y52.304 E0.02016
G1 X17.312 Y51.663 E0.02012
G1 X17.316 Y51.022 E0.02012
G1 X17.353 Y50.381 E0.02012
G1 X17.423 Y49.743 E0.02012
G1 X17.525 Y49.110 E0.02012
G1 X17.660 Y48.483 E0.02012
G1 X17.827 Y47.863 E0.02012
G1 X18.025 Y47.253 E0.02012
G1 X18.251 Y46.662 E0.01983
G1 X18.654 Y45.780 E0.03041
G1 X18.959 Y45.214 E0.02016
G1 X19.292 Y44.665 E0.02012
G1 X19.652 Y44.134 E0.02012
G1 X19.972 Y43.711 E0.01666
M204 S1250
G1 X19.861 Y43.291 F9000.000
G1 E-2.24000 F4200.00000
G1 F7200.000
G1 X20.452 Y43.131 E-0.41662
G1 X20.889 Y42.662 E-0.35555
G1 X21.070 Y42.487 E-0.13983
G1 E-0.04800 F4200.00000
G1 Z0.400 F9000.000
G1 X154.227 Y140.284
G1 Z0.200
G1 E3.20000 F2400.00000
M204 S800
G1 F1200.000
G1 X20.653 Y140.284 E4.18812
G1 X20.653 Y143.784 E0.10974
G1 X16.609 Y143.784 E0.12679
G1 X16.077 Y143.752 E0.01671
G1 X15.572 Y143.662 E0.01610
G1 X15.080 Y143.513 E0.01610
G1 X14.610 Y143.307 E0.01610
G1 X14.167 Y143.047 E0.01610
G1 X13.757 Y142.737 E0.01610
G1 X13.387 Y142.381 E0.01610
G1 X13.061 Y141.984 E0.01610
G1 X12.784 Y141.552 E0.01610
G1 X12.560 Y141.090 E0.01610
G1 X12.392 Y140.605 E0.01610
G1 X12.282 Y140.103 E0.01610
G1 X12.231 Y139.586 E0.01628
G1 X12.223 Y48.891 E2.84370
G1 X12.187 Y48.430 E0.01448
G1 X12.115 Y47.968 E0.01466
G1 X11.944 Y47.309 E0.02136
G1 X11.784 Y46.869 E0.01466
G1 X11.592 Y46.449 E0.01448
G1 X11.369 Y46.045 E0.01448
G1 X11.114 Y45.660 E0.01448
G1 X10.831 Y45.295 E0.01448
G1 X10.519 Y44.954 E0.01448
G1 X10.183 Y44.638 E0.01448
G1 X9.822 Y44.349 E0.01448
G1 X9.441 Y44.089 E0.01448
G1 X9.040 Y43.859 E0.01448
G1 X8.623 Y43.661 E0.01448
G1 X8.171 Y43.491 E0.01513
G1 X8.460 Y36.373 E0.22336
G1 X8.513 Y36.278 E0.00338
G1 X8.568 Y36.244 E0.00203
G1 X8.677 Y36.219 E0.00351
G1 X9.168 Y36.235 E0.01541
G1 X118.706 Y40.509 E3.43711
M73 P0 R139
G1 X119.186 Y40.542 E0.01508
G1 X119.895 Y40.645 E0.02248
G1 X120.589 Y40.810 E0.02234
G1 X121.264 Y41.037 E0.02234
G1 X121.920 Y41.326 E0.02248
G1 X122.345 Y41.552 E0.01508
G1 X168.444 Y67.913 E1.66505
G1 X168.820 Y68.153 E0.01399
G1 X169.359 Y68.560 E0.02117
G1 X169.856 Y69.017 E0.02117
G1 X170.158 Y69.341 E0.01387
G1 X170.438 Y69.683 E0.01387
G1 X170.824 Y70.237 E0.02117
G1 X171.155 Y70.825 E0.02117
G1 X171.341 Y71.227 E0.01387
G1 X171.502 Y71.639 E0.01387
G1 X171.698 Y72.290 E0.02131
G1 X171.791 Y72.722 E0.01388
G1 X171.853 Y73.128 E0.01289
G1 X171.853 Y143.784 E2.21534
G1 X154.227 Y143.784 E0.55265
G1 X154.227 Y140.344 E0.10786
M204 S1250
G1 X153.850 Y140.661 F9000.000
M204 S800
G1 F1200.000
G1 X21.030 Y140.661 E4.16448
G1 X21.030 Y144.161 E0.10974
G1 X16.598 Y144.161 E0.13896
G1 X16.033 Y144.127 E0.01775
G1 X15.484 Y144.029 E0.01750
G1 X14.950 Y143.867 E0.01750
G1 X14.438 Y143.644 E0.01750
G1 X13.957 Y143.361 E0.01750
G1 X13.512 Y143.025 E0.01750
G1 X13.110 Y142.638 E0.01750
G1 X12.756 Y142.206 E0.01750
G1 X12.455 Y141.736 E0.01750
G1 X12.211 Y141.234 E0.01750
G1 X12.029 Y140.707 E0.01750
G1 X11.909 Y140.162 E0.01750
G1 X11.854 Y139.605 E0.01756
G1 X11.846 Y48.905 E2.84382
G1 X11.813 Y48.474 E0.01356
G1 X11.745 Y48.045 E0.01363
G1 X11.584 Y47.421 E0.02021
G1 X11.435 Y47.013 E0.01363
G1 X11.255 Y46.619 E0.01356
G1 X11.046 Y46.241 E0.01356
G1 X10.808 Y45.880 E0.01356
G1 X10.542 Y45.538 E0.01356
G1 X10.251 Y45.219 E0.01356
G1 X9.935 Y44.923 E0.01356
G1 X9.598 Y44.652 E0.01356
G1 X9.241 Y44.409 E0.01356
G1 X8.865 Y44.194 E0.01356
G1 X8.474 Y44.008 E0.01356
G1 X8.070 Y43.854 E0.01358
G1 X7.783 Y43.771 E0.00938
G1 X8.086 Y36.300 E0.23443
G1 X8.136 Y36.160 E0.00467
G1 X8.226 Y36.030 E0.00496
G1 X8.295 Y35.966 E0.00293
G1 X8.428 Y35.889 E0.00481
G1 X8.641 Y35.841 E0.00685
G1 X9.181 Y35.859 E0.01696
G1 X118.726 Y40.132 E3.43732
G1 X119.226 Y40.166 E0.01570
G1 X119.966 Y40.274 E0.02346
G1 X120.693 Y40.447 E0.02341
G1 X121.400 Y40.685 E0.02341
G1 X122.085 Y40.986 E0.02346
G1 X122.527 Y41.222 E0.01570
G1 X168.640 Y67.590 E1.66552
G1 X169.036 Y67.843 E0.01475
G1 X169.600 Y68.271 E0.02219
G1 X170.122 Y68.749 E0.02219
G1 X170.442 Y69.092 E0.01471
G1 X170.739 Y69.455 E0.01471
G1 X171.143 Y70.036 E0.02219
G1 X171.491 Y70.653 E0.02219
G1 X171.688 Y71.079 E0.01471
G1 X171.858 Y71.516 E0.01471
G1 X172.063 Y72.195 E0.02224
G1 X172.162 Y72.654 E0.01471
G1 X172.230 Y73.100 E0.01415
G1 X172.230 Y144.161 E2.22806
G1 X153.850 Y144.161 E0.57629
G1 X153.850 Y140.721 E0.10786
M204 S1250
G1 X153.672 Y140.302 F9000.000
G1 X154.121 Y140.170
M204 S800
G1 F1200.000
G1 X52.146 Y38.195 E4.52689
G1 X51.590 Y38.173 E0.01745
G1 X153.418 Y140.001 E4.52032
G1 X152.884 Y140.001 E0.01676
G1 X51.035 Y38.152 E4.52128
G1 X50.479 Y38.130 E0.01745
G1 X152.350 Y140.001 E4.52224
M73 P1 R138
G1 X151.816 Y140.001 E0.01676
G1 X49.924 Y38.108 E4.52320
G1 X49.368 Y38.087 E0.01745
G1 X151.282 Y140.001 E4.52416
G1 X150.749 Y140.001 E0.01676
G1 X48.813 Y38.065 E4.52513
G1 X48.257 Y38.043 E0.01745
G1 X150.215 Y140.001 E4.52609
G1 X149.681 Y140.001 E0.01676
G1 X47.702 Y38.022 E4.52705
G1 X47.146 Y38.000 E0.01745
G1 X149.147 Y140.001 E4.52801
G1 X148.613 Y140.001 E0.01676
G1 X46.591 Y37.978 E4.52897
G1 X46.035 Y37.957 E0.01745
G1 X148.079 Y140.001 E4.52994
G1 X147.545 Y140.001 E0.01676
G1 X45.479 Y37.935 E4.53090
M73 P2 R137
G1 X44.924 Y37.913 E0.01745
G1 X147.011 Y140.001 E4.53186
G1 X146.478 Y140.001 E0.01676
G1 X44.368 Y37.892 E4.53282
G1 X43.813 Y37.870 E0.01745
G1 X145.944 Y140.001 E4.53379
G1 X145.410 Y140.001 E0.01676
G1 X43.257 Y37.848 E4.53475
G1 X42.702 Y37.827 E0.01745
G1 X144.876 Y140.001 E4.53571
G1 X144.342 Y140.001 E0.01676
G1 X42.146 Y37.805 E4.53667
G1 X41.591 Y37.783 E0.01745
G1 X143.808 Y140.001 E4.53763
G1 X143.274 Y140.001 E0.01676
G1 X41.035 Y37.762 E4.53860
G1 X40.480 Y37.740 E0.01745
G1 X142.740 Y140.001 E4.53956
M73 P3 R136
G1 X142.207 Y140.001 E0.01676
G1 X39.924 Y37.718 E4.54052
G1 X39.368 Y37.697 E0.01745
G1 X141.673 Y140.001 E4.54148
G1 X141.139 Y140.001 E0.01676
G1 X38.813 Y37.675 E4.54244
G1 X38.257 Y37.653 E0.01745
G1 X140.605 Y140.001 E4.54341
G1 X140.071 Y140.001 E0.01676
G1 X37.702 Y37.632 E4.54437
G1 X37.146 Y37.610 E0.01745
G1 X139.537 Y140.001 E4.54533
G1 X139.003 Y140.001 E0.01676
G1 X36.591 Y37.588 E4.54629
G1 X36.035 Y37.566 E0.01745
G1 X138.469 Y140.001 E4.54725
G1 X137.936 Y140.001 E0.01676
G1 X35.480 Y37.545 E4.54822
M73 P3 R134
G1 X34.924 Y37.523 E0.01745
G1 X137.402 Y140.001 E4.54918
G1 X136.868 Y140.001 E0.01676
G1 X34.369 Y37.501 E4.55014
G1 X33.813 Y37.480 E0.01745
G1 X36.289 Y39.956 E0.10991
G1 X35.986 Y39.785 E0.01091
G1 X35.208 Y39.409 E0.02712
G1 X33.257 Y37.458 E0.08661
G1 X32.702 Y37.436 E0.01745
G1 X34.311 Y39.046 E0.07143
G1 X33.513 Y38.782 E0.02638
G1 X32.146 Y37.415 E0.06068
G1 X31.591 Y37.393 E0.01745
G1 X32.791 Y38.593 E0.05326
G1 X32.120 Y38.456 E0.02149
G1 X31.035 Y37.371 E0.04815
G1 X30.480 Y37.350 E0.01745
G1 X31.489 Y38.359 E0.04480
G1 X30.894 Y38.298 E0.01878
G1 X29.924 Y37.328 E0.04304
G1 X29.369 Y37.306 E0.01745
G1 X30.334 Y38.272 E0.04287
G1 X29.781 Y38.253 E0.01736
G1 X28.813 Y37.285 E0.04299
