; generated by PrusaSlicer 2.3.0+win64 on 2021-06-04 at 11:39:43 UTC


;
;

;
;
; 

; external perimeters extrusion width = 0.45mm
; perimeters extrusion width = 0.45mm
; infill extrusion width = 0.45mm
; solid infill extrusion width = 0.45mm
; top infill extrusion width = 0.40mm
; first layer extrusion width = 0.42mm

M73 P0 R24
M201 X1250 Y1250 Z400 E5000 ; sets maximum accelerations, mm/sec^2
M203 X180 Y180 Z12 E80 ; sets maximum feedrates, mm/sec
M204 P1250 R1250 T1250 ; sets acceleration (P, T) and retract acceleration (R), mm/sec^2
M205 X8.00 Y8.00 Z2.00 E10.00 ; sets the jerk limits, mm/sec
M205 S0 T0 ; sets the minimum extruding and travel feed rate, mm/sec
M107
;TYPE:Custom
G90 ; use absolute coordinates
M83 ; extruder relative mode
M104 S170 ; set extruder temp for bed leveling
M140 S60 ; set bed temp
M109 R170 ; wait for bed leveling temp
M190 S60 ; wait for bed temp
G28 ; home all without mesh bed level
G29 ; mesh bed leveling 
M104 S215 ; set extruder temp
G92 E0.0
G1 Y-2.0 X179 F2400
G1 Z3 F720
M109 S215 ; wait for extruder temp

; intro line
G1 X170 F1000
G1 Z0.2 F720
G1 X110.0 E8.0 F900
G1 X40.0 E10.0 F700
G92 E0.0

M221 S95 ; set flow
G21 ; set units to millimeters
G90 ; use absolute coordinates
M83 ; use relative distances for extrusion
M900 K0.2 ; Filament gcode LA 1.5
; ; Filament gcode LA 1.0
;LAYER_CHANGE
;Z:0.2
;HEIGHT:0.2
;BEFORE_LAYER_CHANGE
G92 E0.0
;0.2


M73 P1 R24
G1 E-3.20000 F4200.000
G1 Z0.200 F9000.000
;AFTER_LAYER_CHANGE
;0.2
G1 Z0.400
G1 X61.792 Y62.022
G1 Z0.200
G1 E3.20000 F2400.000
M204 S800
;TYPE:Skirt
;WIDTH:0.42
G1 F1200.000
G1 X62.432 Y61.456 E0.02678
G1 X63.183 Y61.018 E0.02726
G1 X63.980 Y60.744 E0.02642
G1 X64.937 Y60.624 E0.03025
G1 X115.004 Y60.623 E1.56982
G1 X115.822 Y60.701 E0.02576
G1 X116.613 Y60.931 E0.02583
G1 X117.347 Y61.305 E0.02583
G1 X118.000 Y61.813 E0.02595
G1 X118.542 Y62.428 E0.02571
G1 X118.963 Y63.141 E0.02595
G1 X119.241 Y63.917 E0.02583
G1 X119.369 Y64.742 E0.02619
G1 X119.376 Y115.053 E1.57748
G1 X119.296 Y115.837 E0.02469
G1 X119.066 Y116.620 E0.02559
G1 X118.699 Y117.340 E0.02535
G1 X118.208 Y117.978 E0.02524
G1 X117.562 Y118.549 E0.02702
G1 X116.803 Y118.988 E0.02749
G1 X115.878 Y119.288 E0.03048
G1 X115.010 Y119.377 E0.02738
G1 X64.947 Y119.376 E1.56970
G1 X64.163 Y119.296 E0.02469
G1 X63.380 Y119.066 E0.02559
G1 X62.660 Y118.699 E0.02535
G1 X62.022 Y118.208 E0.02524
G1 X61.451 Y117.562 E0.02702
G1 X61.012 Y116.803 E0.02749
G1 X60.712 Y115.878 E0.03048
G1 X60.623 Y115.010 E0.02738
G1 X60.624 Y64.947 E1.56970
G1 X60.704 Y64.163 E0.02469
G1 X60.934 Y63.380 E0.02559
G1 X61.301 Y62.660 E0.02535
G1 X61.756 Y62.070 E0.02336
M204 S1250
; printing object Facia01.stl id:0 copy 0
G1 E-2.24000 F4200.000
;WIPE_START
G1 F7200.000
G1 X62.432 Y61.456 E-0.50604
G1 X63.065 Y61.087 E-0.40596
;WIPE_END
G1 E-0.04800 F4200.000
G1 Z0.400 F9000.000
G1 X84.713 Y87.213
G1 Z0.200
G1 E3.20000 F2400.000
M204 S800
;TYPE:Perimeter
G1 F1200.000
G1 X95.287 Y87.213 E0.33155
G1 X95.287 Y92.787 E0.17477
M73 P2 R24
G1 X84.713 Y92.787 E0.33155
G1 X84.713 Y87.273 E0.17289
M204 S1250
G1 X85.090 Y87.590 F9000.000
M204 S800
;TYPE:External perimeter
G1 F1200.000
G1 X94.910 Y87.590 E0.30790
G1 X94.910 Y92.410 E0.15113
G1 X85.090 Y92.410 E0.30790
G1 X85.090 Y87.650 E0.14925
M204 S1250
G1 X84.945 Y87.217 F9000.000
G1 E-2.24000 F4200.000
;WIPE_START
G1 F7200.000
G1 X86.736 Y87.640 E-0.91200
;WIPE_END
G1 E-0.04800 F4200.000
G1 Z0.400 F9000.000
G1 X79.268 Y99.609
G1 Z0.200
G1 E3.20000 F2400.000
M204 S800
;TYPE:Perimeter
G1 F1200.000
G1 X79.581 Y99.826 E0.01196
G1 X79.869 Y100.077 E0.01196
G1 X80.226 Y100.487 E0.01704
G1 X80.434 Y100.806 E0.01196
G1 X80.603 Y101.139 E0.01170
G1 X80.734 Y101.489 E0.01170
G1 X80.825 Y101.850 E0.01170
G1 X80.876 Y102.216 E0.01158
G1 X80.888 Y102.500 E0.00890
G1 X80.876 Y102.784 E0.00890
G1 X80.825 Y103.150 E0.01158
G1 X80.734 Y103.511 E0.01170
G1 X80.600 Y103.869 E0.01196
G1 X80.341 Y104.347 E0.01704
G1 X80.115 Y104.654 E0.01196
G1 X79.862 Y104.928 E0.01170
G1 X79.581 Y105.173 E0.01169
G1 X79.279 Y105.383 E0.01153
G1 X78.783 Y105.636 E0.01745
G1 X78.422 Y105.760 E0.01197
G1 X78.063 Y105.841 E0.01153
G1 X77.501 Y105.889 E0.01770
G1 X76.950 Y105.844 E0.01732
G1 X76.578 Y105.760 E0.01196
G1 X76.217 Y105.636 E0.01196
G1 X75.732 Y105.391 E0.01704
G1 X75.419 Y105.174 E0.01196
G1 X75.131 Y104.923 E0.01196
G1 X74.774 Y104.513 E0.01704
G1 X74.566 Y104.194 E0.01196
G1 X74.394 Y103.854 E0.01196
G1 X74.217 Y103.340 E0.01704
G1 X74.144 Y102.965 E0.01196
G1 X74.113 Y102.593 E0.01170
G1 X74.124 Y102.220 E0.01170
G1 X74.176 Y101.842 E0.01196
G1 X74.324 Y101.319 E0.01704
G1 X74.477 Y100.971 E0.01195
G1 X74.660 Y100.652 E0.01153
G1 X75.001 Y100.212 E0.01745
G1 X75.275 Y99.945 E0.01197
G1 X75.565 Y99.719 E0.01153
G1 X76.046 Y99.439 E0.01745
G1 X76.400 Y99.296 E0.01199
G1 X76.759 Y99.194 E0.01170
G1 X77.127 Y99.133 E0.01169
G1 X77.494 Y99.112 E0.01153
G1 X78.049 Y99.156 E0.01745
G1 X78.422 Y99.240 E0.01199
G1 X78.783 Y99.364 E0.01196
G1 X79.214 Y99.582 E0.01516
M204 S1250
G1 X79.044 Y99.918 F9000.000
M204 S800
;TYPE:External perimeter
G1 F1200.000
G1 X79.349 Y100.124 E0.01155
G1 X79.601 Y100.344 E0.01049
G1 X79.924 Y100.715 E0.01541
G1 X80.107 Y100.995 E0.01049
G1 X80.257 Y101.291 E0.01040
G1 X80.373 Y101.601 E0.01040
G1 X80.455 Y101.923 E0.01040
G1 X80.500 Y102.250 E0.01035
G1 X80.510 Y102.500 E0.00785
G1 X80.500 Y102.750 E0.00785
G1 X80.455 Y103.077 E0.01035
G1 X80.373 Y103.399 E0.01040
G1 X80.256 Y103.712 E0.01049
G1 X80.022 Y104.144 E0.01541
G1 X79.824 Y104.414 E0.01049
G1 X79.599 Y104.658 E0.01040
G1 X79.349 Y104.876 E0.01040
G1 X79.085 Y105.059 E0.01008
G1 X78.636 Y105.288 E0.01581
G1 X78.319 Y105.397 E0.01050
G1 X78.006 Y105.467 E0.01008
G1 X77.500 Y105.511 E0.01590
G1 X77.007 Y105.470 E0.01551
G1 X76.681 Y105.397 E0.01049
G1 X76.364 Y105.288 E0.01049
G1 X75.926 Y105.066 E0.01541
G1 X75.651 Y104.876 E0.01049
G1 X75.399 Y104.656 E0.01049
G1 X75.076 Y104.285 E0.01541
G1 X74.893 Y104.005 E0.01049
G1 X74.742 Y103.707 E0.01049
G1 X74.582 Y103.242 E0.01541
G1 X74.518 Y102.913 E0.01049
G1 X74.491 Y102.583 E0.01040
G1 X74.500 Y102.251 E0.01040
G1 X74.546 Y101.920 E0.01049
G1 X74.680 Y101.447 E0.01541
G1 X74.814 Y101.141 E0.01049
G1 X74.974 Y100.862 E0.01008
G1 X75.283 Y100.463 E0.01581
G1 X75.523 Y100.230 E0.01050
G1 X75.776 Y100.032 E0.01008
G1 X76.212 Y99.779 E0.01581
G1 X76.523 Y99.653 E0.01050
G1 X76.842 Y99.562 E0.01040
G1 X77.169 Y99.508 E0.01040
G1 X77.490 Y99.490 E0.01008
G1 X77.992 Y99.530 E0.01581
G1 X78.319 Y99.603 E0.01050
G1 X78.636 Y99.712 E0.01049
G1 X78.990 Y99.891 E0.01246
M204 S1250
G1 X79.364 Y99.737 F9000.000
G1 E-2.24000 F4200.000
;WIPE_START
G1 F7200.000
G1 X79.349 Y100.124 E-0.23711
G1 X79.601 Y100.344 E-0.18541
G1 X79.924 Y100.715 E-0.27234
G1 X80.107 Y100.995 E-0.18541
G1 X80.133 Y101.046 E-0.03173
;WIPE_END
G1 E-0.04800 F4200.000
G1 Z0.400 F9000.000
G1 X87.145 Y102.057
G1 Z0.200
G1 E3.20000 F2400.000
M204 S800
;TYPE:Perimeter
G1 F1200.000
G1 X87.272 Y101.548 E0.01643
G1 X87.415 Y101.213 E0.01143
G1 X87.597 Y100.897 E0.01143
G1 X87.925 Y100.488 E0.01643
G1 X88.330 Y100.141 E0.01672
G1 X88.792 Y99.875 E0.01672
G1 X89.287 Y99.701 E0.01643
G1 X89.645 Y99.634 E0.01142
G1 X89.997 Y99.611 E0.01108
G1 X90.530 Y99.659 E0.01677
G1 X91.044 Y99.805 E0.01675
G1 X91.513 Y100.039 E0.01643
G1 X91.811 Y100.250 E0.01143
G1 X92.080 Y100.495 E0.01143
G1 X92.409 Y100.904 E0.01643
G1 X92.661 Y101.374 E0.01672
G1 X92.820 Y101.873 E0.01643
G1 X92.875 Y102.229 E0.01130
G1 X92.875 Y102.771 E0.01699
G1 X92.820 Y103.127 E0.01130
G1 X92.661 Y103.626 E0.01643
G1 X92.409 Y104.096 E0.01672
G1 X92.075 Y104.512 E0.01672
G1 X91.677 Y104.853 E0.01643
G1 X91.367 Y105.044 E0.01142
G1 X91.046 Y105.193 E0.01108
G1 X90.532 Y105.340 E0.01677
G1 X90.000 Y105.390 E0.01675
G1 X89.478 Y105.341 E0.01643
G1 X89.124 Y105.252 E0.01143
G1 X88.784 Y105.121 E0.01144
G1 X88.330 Y104.859 E0.01643
G1 X87.925 Y104.512 E0.01672
G1 X87.591 Y104.096 E0.01672
G1 X87.339 Y103.626 E0.01672
G1 X87.177 Y103.118 E0.01672
G1 X87.112 Y102.589 E0.01672
G1 X87.141 Y102.117 E0.01484
M204 S1250
G1 X87.517 Y102.140 F9000.000
M204 S800
;TYPE:External perimeter
G1 F1200.000
G1 X87.631 Y101.669 E0.01520
G1 X87.753 Y101.381 E0.00979
G1 X87.909 Y101.110 E0.00979
G1 X88.197 Y100.752 E0.01443
G1 X88.549 Y100.451 E0.01453
G1 X88.951 Y100.219 E0.01453
G1 X89.384 Y100.066 E0.01443
G1 X89.691 Y100.009 E0.00979
G1 X89.992 Y99.990 E0.00946
G1 X90.461 Y100.032 E0.01476
G1 X90.907 Y100.159 E0.01454
G1 X91.319 Y100.364 E0.01443
G1 X91.574 Y100.544 E0.00979
G1 X91.805 Y100.755 E0.00979
G1 X92.093 Y101.113 E0.01443
G1 X92.312 Y101.521 E0.01453
G1 X92.452 Y101.960 E0.01443
G1 X92.500 Y102.267 E0.00974
G1 X92.500 Y102.733 E0.01462
G1 X92.452 Y103.040 E0.00974
G1 X92.312 Y103.479 E0.01443
G1 X92.093 Y103.887 E0.01453
G1 X91.803 Y104.248 E0.01453
G1 X91.453 Y104.547 E0.01443
G1 X91.188 Y104.712 E0.00979
G1 X90.914 Y104.838 E0.00946
G1 X90.462 Y104.968 E0.01476
G1 X90.000 Y105.011 E0.01454
G1 X89.542 Y104.969 E0.01443
G1 X89.239 Y104.892 E0.00979
G1 X88.948 Y104.780 E0.00979
G1 X88.549 Y104.549 E0.01443
G1 X88.197 Y104.248 E0.01453
G1 X87.907 Y103.887 E0.01453
G1 X87.688 Y103.479 E0.01453
G1 X87.547 Y103.037 E0.01453
G1 X87.490 Y102.577 E0.01453
G1 X87.513 Y102.200 E0.01186
M204 S1250
G1 X87.204 Y101.891 F9000.000
G1 E-2.24000 F4200.000
;WIPE_START
G1 F7200.000
G1 X87.631 Y101.669 E-0.30144
G1 X87.753 Y101.381 E-0.17309
G1 X87.909 Y101.110 E-0.17309
G1 X88.197 Y100.752 E-0.25498
G1 X88.210 Y100.741 E-0.00940
;WIPE_END
G1 E-0.04800 F4200.000
G1 Z0.400 F9000.000
G1 X99.115 Y102.520
G1 Z0.200
G1 E3.20000 F2400.000
M204 S800
;TYPE:Perimeter
G1 F1200.000
G1 X99.124 Y102.220 E0.00939
G1 X99.176 Y101.842 E0.01196
G1 X99.324 Y101.319 E0.01704
G1 X99.477 Y100.971 E0.01195
G1 X99.660 Y100.652 E0.01153
G1 X100.001 Y100.212 E0.01745
G1 X100.275 Y99.945 E0.01197
G1 X100.565 Y99.719 E0.01153
G1 X101.046 Y99.439 E0.01745
G1 X101.400 Y99.296 E0.01199
G1 X101.759 Y99.194 E0.01170
G1 X102.127 Y99.133 E0.01169
G1 X102.494 Y99.112 E0.01153
G1 X103.049 Y99.156 E0.01745
G1 X103.422 Y99.240 E0.01199
G1 X103.783 Y99.364 E0.01196
G1 X104.268 Y99.609 E0.01704
G1 X104.581 Y99.826 E0.01196
G1 X104.869 Y100.077 E0.01196
G1 X105.226 Y100.487 E0.01704
G1 X105.434 Y100.806 E0.01196
G1 X105.603 Y101.139 E0.01170
G1 X105.734 Y101.489 E0.01170
G1 X105.825 Y101.850 E0.01170
G1 X105.876 Y102.216 E0.01158
G1 X105.888 Y102.500 E0.00890
G1 X105.876 Y102.784 E0.00890
G1 X105.825 Y103.150 E0.01158
G1 X105.734 Y103.511 E0.01170
G1 X105.600 Y103.869 E0.01196
G1 X105.341 Y104.347 E0.01704
G1 X105.115 Y104.654 E0.01196
G1 X104.862 Y104.928 E0.01170
G1 X104.581 Y105.173 E0.01169
G1 X104.279 Y105.383 E0.01153
G1 X103.783 Y105.636 E0.01745
G1 X103.422 Y105.760 E0.01197
G1 X103.063 Y105.841 E0.01153
G1 X102.501 Y105.889 E0.01770
G1 X101.950 Y105.844 E0.01732
G1 X101.578 Y105.760 E0.01196
G1 X101.217 Y105.636 E0.01196
G1 X100.732 Y105.391 E0.01704
G1 X100.419 Y105.174 E0.01196
G1 X100.131 Y104.923 E0.01196
G1 X99.774 Y104.513 E0.01704
G1 X99.566 Y104.194 E0.01196
G1 X99.394 Y103.854 E0.01196
G1 X99.217 Y103.340 E0.01704
G1 X99.144 Y102.965 E0.01196
G1 X99.114 Y102.579 E0.01214
M204 S1250
G1 X99.491 Y102.583 F9000.000
M204 S800
;TYPE:External perimeter
G1 F1200.000
G1 X99.500 Y102.251 E0.01040
G1 X99.546 Y101.920 E0.01049
G1 X99.680 Y101.447 E0.01541
G1 X99.814 Y101.141 E0.01049
G1 X99.974 Y100.862 E0.01008
G1 X100.283 Y100.463 E0.01581
G1 X100.523 Y100.230 E0.01050
G1 X100.776 Y100.032 E0.01008
G1 X101.212 Y99.779 E0.01581
G1 X101.523 Y99.653 E0.01050
G1 X101.842 Y99.562 E0.01040
G1 X102.169 Y99.508 E0.01040
G1 X102.490 Y99.490 E0.01008
G1 X102.992 Y99.530 E0.01581
G1 X103.319 Y99.603 E0.01050
G1 X103.636 Y99.712 E0.01049
G1 X104.074 Y99.934 E0.01541
G1 X104.349 Y100.124 E0.01049
G1 X104.601 Y100.344 E0.01049
G1 X104.924 Y100.715 E0.01541
G1 X105.107 Y100.995 E0.01049
G1 X105.257 Y101.291 E0.01040
G1 X105.373 Y101.601 E0.01040
G1 X105.455 Y101.923 E0.01040
G1 X105.500 Y102.250 E0.01035
G1 X105.500 Y102.750 E0.01568
G1 X105.455 Y103.077 E0.01035
G1 X105.373 Y103.399 E0.01040
G1 X105.256 Y103.712 E0.01049
G1 X105.022 Y104.144 E0.01541
G1 X104.824 Y104.414 E0.01049
G1 X104.599 Y104.658 E0.01040
G1 X104.349 Y104.876 E0.01040
G1 X104.085 Y105.059 E0.01008
G1 X103.636 Y105.288 E0.01581
G1 X103.319 Y105.397 E0.01050
G1 X103.006 Y105.467 E0.01008
G1 X102.500 Y105.511 E0.01590
G1 X102.007 Y105.470 E0.01551
G1 X101.681 Y105.397 E0.01049
G1 X101.364 Y105.288 E0.01049
G1 X100.926 Y105.066 E0.01541
G1 X100.651 Y104.876 E0.01049
G1 X100.399 Y104.656 E0.01049
G1 X100.076 Y104.285 E0.01541
G1 X99.893 Y104.005 E0.01049
G1 X99.742 Y103.707 E0.01049
G1 X99.582 Y103.242 E0.01541
G1 X99.518 Y102.913 E0.01049
G1 X99.496 Y102.643 E0.00852
M204 S1250
G1 X99.199 Y102.425 F9000.000
G1 E-2.24000 F4200.000
;WIPE_START
G1 F7200.000
G1 X99.500 Y102.251 E-0.21688
G1 X99.546 Y101.920 E-0.18541
G1 X99.680 Y101.447 E-0.27234
G1 X99.814 Y101.141 E-0.18534
G1 X99.861 Y101.059 E-0.05203
;WIPE_END
G1 E-0.04800 F4200.000
G1 Z0.400 F9000.000
G1 X101.950 Y80.844
G1 Z0.200
G1 E3.20000 F2400.000
M204 S800
;TYPE:Perimeter
G1 F1200.000
G1 X101.578 Y80.760 E0.01196
G1 X101.217 Y80.636 E0.01196
G1 X100.732 Y80.391 E0.01704
G1 X100.419 Y80.174 E0.01196
G1 X100.131 Y79.923 E0.01196
G1 X99.774 Y79.513 E0.01704
G1 X99.566 Y79.194 E0.01196
G1 X99.394 Y78.854 E0.01196
G1 X99.217 Y78.340 E0.01704
G1 X99.144 Y77.965 E0.01196
G1 X99.113 Y77.593 E0.01170
G1 X99.124 Y77.220 E0.01170
G1 X99.176 Y76.842 E0.01196
G1 X99.324 Y76.319 E0.01704
G1 X99.477 Y75.971 E0.01195
G1 X99.660 Y75.652 E0.01153
G1 X100.001 Y75.212 E0.01745
G1 X100.275 Y74.945 E0.01197
G1 X100.565 Y74.719 E0.01153
G1 X101.046 Y74.439 E0.01745
G1 X101.400 Y74.296 E0.01199
G1 X101.759 Y74.194 E0.01170
G1 X102.127 Y74.133 E0.01169
G1 X102.494 Y74.112 E0.01153
G1 X103.049 Y74.156 E0.01745
G1 X103.422 Y74.240 E0.01199
G1 X103.783 Y74.364 E0.01196
G1 X104.268 Y74.609 E0.01704
G1 X104.581 Y74.826 E0.01196
G1 X104.869 Y75.077 E0.01196
G1 X105.226 Y75.487 E0.01704
G1 X105.434 Y75.806 E0.01196
G1 X105.603 Y76.139 E0.01170
G1 X105.734 Y76.489 E0.01170
G1 X105.825 Y76.850 E0.01170
G1 X105.876 Y77.216 E0.01158
G1 X105.888 Y77.500 E0.00890
G1 X105.876 Y77.784 E0.00890
G1 X105.825 Y78.150 E0.01158
G1 X105.734 Y78.511 E0.01170
G1 X105.600 Y78.869 E0.01196
G1 X105.341 Y79.347 E0.01704
G1 X105.115 Y79.654 E0.01196
G1 X104.862 Y79.928 E0.01170
G1 X104.581 Y80.173 E0.01169
G1 X104.279 Y80.383 E0.01153
G1 X103.783 Y80.636 E0.01745
G1 X103.422 Y80.760 E0.01197
G1 X103.063 Y80.841 E0.01153
G1 X102.501 Y80.889 E0.01770
G1 X102.010 Y80.849 E0.01544
M204 S1250
G1 X102.500 Y80.511 F9000.000
M204 S800
;TYPE:External perimeter
G1 F1200.000
G1 X102.007 Y80.470 E0.01551
G1 X101.681 Y80.397 E0.01049
G1 X101.364 Y80.288 E0.01049
G1 X100.926 Y80.066 E0.01541
G1 X100.651 Y79.876 E0.01049
G1 X100.399 Y79.656 E0.01049
G1 X100.076 Y79.285 E0.01541
G1 X99.893 Y79.005 E0.01049
G1 X99.742 Y78.707 E0.01049
G1 X99.582 Y78.242 E0.01541
G1 X99.518 Y77.913 E0.01049
G1 X99.491 Y77.583 E0.01040
G1 X99.500 Y77.251 E0.01040
G1 X99.546 Y76.920 E0.01049
G1 X99.680 Y76.447 E0.01541
G1 X99.814 Y76.141 E0.01049
G1 X99.974 Y75.862 E0.01008
G1 X100.283 Y75.463 E0.01581
G1 X100.523 Y75.230 E0.01050
G1 X100.776 Y75.032 E0.01008
G1 X101.212 Y74.779 E0.01581
G1 X101.523 Y74.653 E0.01050
G1 X101.842 Y74.562 E0.01040
G1 X102.169 Y74.508 E0.01040
G1 X102.490 Y74.490 E0.01008
G1 X102.992 Y74.530 E0.01581
G1 X103.319 Y74.603 E0.01050
G1 X103.636 Y74.712 E0.01049
G1 X104.074 Y74.934 E0.01541
G1 X104.349 Y75.124 E0.01049
G1 X104.601 Y75.344 E0.01049
G1 X104.924 Y75.715 E0.01541
G1 X105.107 Y75.995 E0.01049
G1 X105.257 Y76.291 E0.01040
G1 X105.373 Y76.601 E0.01040
G1 X105.455 Y76.923 E0.01040
G1 X105.500 Y77.250 E0.01035
G1 X105.510 Y77.500 E0.00785
G1 X105.500 Y77.750 E0.00785
G1 X105.455 Y78.077 E0.01035
G1 X105.373 Y78.399 E0.01040
G1 X105.256 Y78.712 E0.01049
G1 X105.022 Y79.144 E0.01541
G1 X104.824 Y79.414 E0.01049
G1 X104.599 Y79.658 E0.01040
G1 X104.349 Y79.876 E0.01040
G1 X104.085 Y80.059 E0.01008
G1 X103.636 Y80.288 E0.01581
