; generated by PrusaSlicer 2.3.0+win64 on 2021-06-05 at 13:32:44 UTC


;
;

;
;
; 

; external perimeters extrusion width = 0.45mm
; perimeters extrusion width = 0.45mm
; infill extrusion width = 0.45mm
; solid infill extrusion width = 0.45mm
; top infill extrusion width = 0.40mm
; first layer extrusion width = 0.42mm

M73 P0 R33
M201 X1250 Y1250 Z400 E5000 ; sets maximum accelerations, mm/sec^2
M203 X180 Y180 Z12 E80 ; sets maximum feedrates, mm/sec
M204 P1250 R1250 T1250 ; sets acceleration (P, T) and retract acceleration (R), mm/sec^2
M205 X8.00 Y8.00 Z2.00 E10.00 ; sets the jerk limits, mm/sec
M205 S0 T0 ; sets the minimum extruding and travel feed rate, mm/sec
M107
;TYPE:Custom
G90 ; use absolute coordinates
M83 ; extruder relative mode
M104 S170 ; set extruder temp for bed leveling
M140 S60 ; set bed temp
M109 R170 ; wait for bed leveling temp
M190 S60 ; wait for bed temp
G28 ; home all without mesh bed level
G29 ; mesh bed leveling 
M104 S215 ; set extruder temp
G92 E0.0
G1 Y-2.0 X179 F2400
G1 Z3 F720
M109 S215 ; wait for extruder temp

; intro line
G1 X170 F1000
G1 Z0.2 F720
G1 X110.0 E8.0 F900
G1 X40.0 E10.0 F700
G92 E0.0

M221 S95 ; set flow
G21 ; set units to millimeters
G90 ; use absolute coordinates
M83 ; use relative distances for extrusion
M900 K0.2 ; Filament gcode LA 1.5
; ; Filament gcode LA 1.0
;LAYER_CHANGE
;Z:0.2
;HEIGHT:0.2
;BEFORE_LAYER_CHANGE
G92 E0.0
;0.2


G1 E-3.20000 F4200.000
G1 Z0.200 F9000.000
;AFTER_LAYER_CHANGE
;0.2
G1 Z0.400
G1 X61.792 Y62.022
G1 Z0.200
G1 E3.20000 F2400.000
M204 S800
;TYPE:Skirt
;WIDTH:0.42
G1 F1200.000
G1 X62.432 Y61.456 E0.02678
G1 X63.183 Y61.018 E0.02726
G1 X63.980 Y60.744 E0.02642
G1 X64.937 Y60.624 E0.03025
G1 X115.004 Y60.623 E1.56982
G1 X115.822 Y60.701 E0.02576
G1 X116.613 Y60.931 E0.02583
G1 X117.347 Y61.305 E0.02583
G1 X118.000 Y61.813 E0.02595
G1 X118.544 Y62.432 E0.02583
G1 X118.963 Y63.141 E0.02583
G1 X119.241 Y63.917 E0.02583
G1 X119.369 Y64.742 E0.02619
G1 X119.376 Y115.053 E1.57748
M73 P1 R33
G1 X119.296 Y115.837 E0.02469
G1 X119.066 Y116.620 E0.02559
G1 X118.699 Y117.340 E0.02535
G1 X118.208 Y117.978 E0.02524
G1 X117.562 Y118.549 E0.02702
G1 X116.803 Y118.988 E0.02749
G1 X115.878 Y119.288 E0.03049
G1 X115.010 Y119.377 E0.02737
G1 X64.947 Y119.376 E1.56970
G1 X64.163 Y119.296 E0.02469
G1 X63.380 Y119.066 E0.02559
G1 X62.660 Y118.699 E0.02535
G1 X62.022 Y118.208 E0.02524
G1 X61.451 Y117.562 E0.02702
G1 X61.012 Y116.803 E0.02749
G1 X60.712 Y115.878 E0.03049
G1 X60.623 Y115.010 E0.02737
G1 X60.624 Y64.947 E1.56970
G1 X60.704 Y64.163 E0.02469
G1 X60.934 Y63.380 E0.02559
G1 X61.301 Y62.660 E0.02535
G1 X61.756 Y62.070 E0.02336
M204 S1250
; printing object Facia02.stl id:0 copy 0
G1 E-2.24000 F4200.000
;WIPE_START
G1 F7200.000
G1 X62.432 Y61.456 E-0.50604
G1 X63.065 Y61.087 E-0.40596
;WIPE_END
G1 E-0.04800 F4200.000
G1 Z0.400 F9000.000
G1 X83.813 Y80.813
M73 P1 R32
G1 Z0.200
G1 E3.20000 F2400.000
M204 S800
;TYPE:Perimeter
G1 F1200.000
G1 X96.187 Y80.813 E0.38798
G1 X96.187 Y89.187 E0.26257
G1 X83.813 Y89.187 E0.38798
G1 X83.813 Y80.873 E0.26068
M204 S1250
G1 X84.190 Y81.190 F9000.000
M204 S800
;TYPE:External perimeter
G1 F1200.000
G1 X95.810 Y81.190 E0.36434
G1 X95.810 Y88.810 E0.23892
G1 X84.190 Y88.810 E0.36434
G1 X84.190 Y81.250 E0.23704
M204 S1250
G1 X84.060 Y80.812 F9000.000
G1 E-2.24000 F4200.000
;WIPE_START
G1 F7200.000
G1 X85.836 Y81.242 E-0.91200
;WIPE_END
G1 E-0.04800 F4200.000
G1 Z0.400 F9000.000
G1 X75.341 Y74.347
G1 Z0.200
G1 E3.20000 F2400.000
M204 S800
;TYPE:Perimeter
G1 F1200.000
G1 X75.115 Y74.654 E0.01196
G1 X74.862 Y74.928 E0.01170
G1 X74.581 Y75.173 E0.01169
G1 X74.279 Y75.383 E0.01153
G1 X73.783 Y75.636 E0.01745
G1 X73.422 Y75.760 E0.01197
G1 X73.063 Y75.841 E0.01153
G1 X72.509 Y75.889 E0.01745
G1 X72.127 Y75.867 E0.01199
G1 X71.751 Y75.805 E0.01196
G1 X71.225 Y75.640 E0.01730
G1 X70.732 Y75.391 E0.01730
G1 X70.419 Y75.174 E0.01196
G1 X70.131 Y74.923 E0.01196
G1 X69.774 Y74.513 E0.01704
G1 X69.566 Y74.194 E0.01196
G1 X69.394 Y73.854 E0.01196
G1 X69.217 Y73.340 E0.01704
G1 X69.144 Y72.965 E0.01196
G1 X69.113 Y72.585 E0.01196
G1 X69.143 Y72.043 E0.01704
G1 X69.216 Y71.668 E0.01196
G1 X69.327 Y71.312 E0.01170
G1 X69.477 Y70.971 E0.01169
G1 X69.660 Y70.652 E0.01153
G1 X70.006 Y70.205 E0.01770
G1 X70.412 Y69.831 E0.01732
G1 X70.726 Y69.614 E0.01196
G1 X71.054 Y69.436 E0.01170
G1 X71.400 Y69.296 E0.01170
G1 X71.759 Y69.194 E0.01170
G1 X72.127 Y69.133 E0.01169
G1 X72.494 Y69.112 E0.01153
G1 X73.049 Y69.156 E0.01745
G1 X73.422 Y69.240 E0.01199
G1 X73.775 Y69.361 E0.01170
G1 X74.113 Y69.520 E0.01170
G1 X74.437 Y69.720 E0.01196
G1 X74.857 Y70.066 E0.01704
G1 X75.115 Y70.346 E0.01196
G1 X75.341 Y70.653 E0.01196
G1 X75.600 Y71.131 E0.01704
G1 X75.734 Y71.489 E0.01196
G1 X75.825 Y71.850 E0.01170
G1 X75.876 Y72.216 E0.01158
G1 X75.888 Y72.500 E0.00890
G1 X75.876 Y72.784 E0.00890
G1 X75.825 Y73.150 E0.01158
G1 X75.734 Y73.511 E0.01170
G1 X75.600 Y73.869 E0.01196
G1 X75.370 Y74.294 E0.01516
M204 S1250
G1 X75.038 Y74.114 F9000.000
M204 S800
;TYPE:External perimeter
G1 F1200.000
G1 X74.824 Y74.414 E0.01155
G1 X74.599 Y74.658 E0.01040
G1 X74.349 Y74.876 E0.01040
G1 X74.085 Y75.059 E0.01008
G1 X73.636 Y75.288 E0.01581
G1 X73.319 Y75.397 E0.01050
G1 X73.006 Y75.467 E0.01008
G1 X72.503 Y75.511 E0.01581
G1 X72.169 Y75.492 E0.01050
G1 X71.839 Y75.437 E0.01049
G1 X71.367 Y75.289 E0.01550
G1 X70.926 Y75.066 E0.01550
G1 X70.651 Y74.876 E0.01049
G1 X70.399 Y74.656 E0.01049
G1 X70.076 Y74.285 E0.01541
G1 X69.893 Y74.005 E0.01049
G1 X69.742 Y73.707 E0.01049
G1 X69.582 Y73.242 E0.01541
G1 X69.518 Y72.913 E0.01049
G1 X69.491 Y72.580 E0.01049
G1 X69.518 Y72.089 E0.01541
G1 X69.582 Y71.761 E0.01049
G1 X69.681 Y71.444 E0.01040
G1 X69.814 Y71.141 E0.01040
G1 X69.974 Y70.862 E0.01008
G1 X70.285 Y70.461 E0.01590
G1 X70.649 Y70.126 E0.01551
G1 X70.924 Y69.935 E0.01049
G1 X71.215 Y69.778 E0.01040
G1 X71.523 Y69.653 E0.01040
G1 X71.842 Y69.562 E0.01040
G1 X72.169 Y69.508 E0.01040
G1 X72.490 Y69.490 E0.01008
G1 X72.992 Y69.530 E0.01581
G1 X73.319 Y69.603 E0.01050
G1 X73.633 Y69.711 E0.01040
G1 X73.933 Y69.852 E0.01040
G1 X74.218 Y70.028 E0.01049
G1 X74.597 Y70.340 E0.01541
G1 X74.824 Y70.586 E0.01049
G1 X75.022 Y70.856 E0.01049
G1 X75.256 Y71.288 E0.01541
G1 X75.373 Y71.601 E0.01049
G1 X75.455 Y71.923 E0.01040
G1 X75.500 Y72.250 E0.01035
G1 X75.510 Y72.500 E0.00785
G1 X75.500 Y72.750 E0.00785
G1 X75.455 Y73.077 E0.01035
G1 X75.373 Y73.399 E0.01040
G1 X75.256 Y73.712 E0.01049
G1 X75.067 Y74.062 E0.01246
M204 S1250
G1 X75.210 Y74.440 F9000.000
G1 E-2.24000 F4200.000
;WIPE_START
G1 F7200.000
G1 X74.824 Y74.414 E-0.23711
G1 X74.599 Y74.658 E-0.18380
G1 X74.349 Y74.876 E-0.18373
G1 X74.085 Y75.059 E-0.17822
G1 X73.877 Y75.165 E-0.12914
;WIPE_END
G1 E-0.04800 F4200.000
G1 Z0.400 F9000.000
G1 X71.713 Y93.443
G1 Z0.200
G1 E3.20000 F2400.000
M204 S800
;TYPE:Perimeter
G1 F1200.000
G1 X108.287 Y93.443 E1.14676
G1 X108.287 Y95.317 E0.05876
G1 X71.713 Y95.317 E1.14676
G1 X71.713 Y93.503 E0.05688
M204 S1250
G1 X72.090 Y93.820 F9000.000
M204 S800
;TYPE:External perimeter
G1 F1200.000
G1 X107.910 Y93.820 E1.12311
M73 P2 R32
G1 X107.910 Y94.940 E0.03512
G1 X72.090 Y94.940 E1.12311
G1 X72.090 Y93.880 E0.03324
M204 S1250
G1 X71.894 Y93.471 F9000.000
G1 E-2.24000 F4200.000
;WIPE_START
G1 F7200.000
G1 X73.736 Y93.877 E-0.91200
;WIPE_END
G1 E-0.04800 F4200.000
G1 Z0.400 F9000.000
G1 X71.713 Y98.143
G1 Z0.200
G1 E3.20000 F2400.000
M204 S800
;TYPE:Perimeter
G1 F1200.000
G1 X108.287 Y98.143 E1.14676
G1 X108.287 Y100.017 E0.05876
G1 X71.713 Y100.017 E1.14676
G1 X71.713 Y98.203 E0.05688
M204 S1250
G1 X72.090 Y98.520 F9000.000
M204 S800
;TYPE:External perimeter
G1 F1200.000
G1 X107.910 Y98.520 E1.12311
G1 X107.910 Y99.640 E0.03512
G1 X72.090 Y99.640 E1.12311
G1 X72.090 Y98.580 E0.03324
M204 S1250
G1 X71.894 Y98.171 F9000.000
G1 E-2.24000 F4200.000
;WIPE_START
G1 F7200.000
G1 X73.736 Y98.577 E-0.91200
;WIPE_END
G1 E-0.04800 F4200.000
G1 Z0.400 F9000.000
G1 X72.402 Y104.117
G1 Z0.200
G1 E3.20000 F2400.000
M204 S800
;TYPE:Perimeter
G1 F1200.000
G1 X73.049 Y104.156 E0.02032
G1 X73.422 Y104.240 E0.01199
G1 X73.783 Y104.364 E0.01196
G1 X74.268 Y104.609 E0.01704
G1 X74.581 Y104.826 E0.01196
G1 X74.862 Y105.072 E0.01170
G1 X75.115 Y105.346 E0.01170
G1 X75.341 Y105.653 E0.01196
G1 X75.600 Y106.131 E0.01704
G1 X75.734 Y106.489 E0.01196
G1 X75.825 Y106.850 E0.01170
G1 X75.876 Y107.216 E0.01158
G1 X75.888 Y107.500 E0.00890
G1 X75.876 Y107.784 E0.00890
G1 X75.825 Y108.150 E0.01158
G1 X75.734 Y108.511 E0.01170
G1 X75.600 Y108.869 E0.01196
G1 X75.341 Y109.347 E0.01704
G1 X75.115 Y109.654 E0.01196
G1 X74.862 Y109.928 E0.01170
G1 X74.581 Y110.173 E0.01169
G1 X74.279 Y110.383 E0.01153
G1 X73.776 Y110.640 E0.01770
G1 X73.249 Y110.805 E0.01732
G1 X72.873 Y110.867 E0.01196
G1 X72.500 Y110.888 E0.01170
G1 X72.127 Y110.867 E0.01170
G1 X71.751 Y110.805 E0.01196
G1 X71.225 Y110.640 E0.01730
G1 X70.732 Y110.391 E0.01730
G1 X70.419 Y110.174 E0.01196
G1 X70.131 Y109.923 E0.01196
G1 X69.774 Y109.513 E0.01704
G1 X69.566 Y109.194 E0.01196
G1 X69.394 Y108.854 E0.01196
G1 X69.217 Y108.340 E0.01704
G1 X69.144 Y107.965 E0.01196
G1 X69.113 Y107.585 E0.01196
G1 X69.143 Y107.043 E0.01704
G1 X69.216 Y106.668 E0.01196
G1 X69.327 Y106.312 E0.01170
G1 X69.477 Y105.971 E0.01169
G1 X69.660 Y105.652 E0.01153
G1 X70.001 Y105.212 E0.01745
G1 X70.275 Y104.945 E0.01197
G1 X70.565 Y104.719 E0.01153
G1 X71.046 Y104.439 E0.01745
G1 X71.400 Y104.296 E0.01199
G1 X71.759 Y104.194 E0.01170
G1 X72.127 Y104.133 E0.01169
G1 X72.342 Y104.120 E0.00676
M204 S1250
G1 X72.363 Y104.497 F9000.000
M204 S800
;TYPE:External perimeter
G1 F1200.000
G1 X72.490 Y104.490 E0.00397
G1 X72.992 Y104.530 E0.01581
G1 X73.319 Y104.603 E0.01050
G1 X73.636 Y104.712 E0.01049
G1 X74.074 Y104.934 E0.01541
G1 X74.349 Y105.124 E0.01049
G1 X74.599 Y105.342 E0.01040
G1 X74.824 Y105.586 E0.01040
G1 X75.022 Y105.856 E0.01049
G1 X75.256 Y106.288 E0.01541
G1 X75.373 Y106.601 E0.01049
G1 X75.455 Y106.923 E0.01040
G1 X75.500 Y107.250 E0.01035
G1 X75.500 Y107.750 E0.01568
G1 X75.455 Y108.077 E0.01035
G1 X75.373 Y108.399 E0.01040
G1 X75.256 Y108.712 E0.01049
G1 X75.022 Y109.144 E0.01541
G1 X74.824 Y109.414 E0.01049
G1 X74.599 Y109.658 E0.01040
G1 X74.349 Y109.876 E0.01040
G1 X74.085 Y110.059 E0.01008
G1 X73.633 Y110.289 E0.01590
G1 X73.161 Y110.437 E0.01551
G1 X72.831 Y110.492 E0.01049
G1 X72.500 Y110.510 E0.01040
G1 X72.169 Y110.492 E0.01040
G1 X71.839 Y110.437 E0.01049
G1 X71.367 Y110.289 E0.01550
G1 X70.926 Y110.066 E0.01550
G1 X70.651 Y109.876 E0.01049
G1 X70.399 Y109.656 E0.01049
G1 X70.076 Y109.285 E0.01541
G1 X69.893 Y109.005 E0.01049
G1 X69.742 Y108.707 E0.01049
G1 X69.582 Y108.242 E0.01541
G1 X69.518 Y107.913 E0.01049
G1 X69.491 Y107.580 E0.01049
G1 X69.518 Y107.089 E0.01541
G1 X69.582 Y106.761 E0.01049
G1 X69.681 Y106.444 E0.01040
G1 X69.814 Y106.141 E0.01040
G1 X69.974 Y105.862 E0.01008
G1 X70.283 Y105.463 E0.01581
G1 X70.523 Y105.230 E0.01050
G1 X70.776 Y105.032 E0.01008
G1 X71.212 Y104.779 E0.01581
G1 X71.523 Y104.653 E0.01050
G1 X71.842 Y104.562 E0.01040
G1 X72.303 Y104.500 E0.01461
M204 S1250
G1 X72.416 Y104.382 F9000.000
G1 E-2.24000 F4200.000
;WIPE_START
G1 F7200.000
G1 X72.490 Y104.490 E-0.10343
G1 X72.992 Y104.530 E-0.27939
G1 X73.319 Y104.603 E-0.18558
G1 X73.636 Y104.712 E-0.18541
G1 X73.890 Y104.841 E-0.15818
;WIPE_END
G1 E-0.04800 F4200.000
G1 Z0.400 F9000.000
G1 X86.393 Y106.733
G1 Z0.200
G1 E3.20000 F2400.000
M204 S800
;TYPE:Perimeter
G1 F1200.000
G1 X86.493 Y106.360 E0.01210
G1 X86.634 Y105.993 E0.01235
G1 X86.902 Y105.498 E0.01767
G1 X87.134 Y105.179 E0.01235
G1 X87.392 Y104.892 E0.01210
G1 X87.679 Y104.634 E0.01210
G1 X87.998 Y104.402 E0.01235
G1 X88.493 Y104.134 E0.01767
G1 X88.860 Y103.993 E0.01235
G1 X89.233 Y103.893 E0.01210
G1 X89.614 Y103.832 E0.01207
G1 X89.969 Y103.813 E0.01116
G1 X90.567 Y103.855 E0.01881
G1 X90.955 Y103.938 E0.01241
G1 X91.322 Y104.057 E0.01210
G1 X91.674 Y104.214 E0.01210
G1 X92.009 Y104.407 E0.01210
G1 X92.321 Y104.634 E0.01210
G1 X92.608 Y104.892 E0.01210
G1 X92.866 Y105.179 E0.01210
G1 X93.098 Y105.498 E0.01235
G1 X93.366 Y105.993 E0.01767
G1 X93.507 Y106.360 E0.01235
G1 X93.607 Y106.733 E0.01210
G1 X93.668 Y107.115 E0.01210
G1 X93.688 Y107.500 E0.01210
G1 X93.668 Y107.885 E0.01210
G1 X93.607 Y108.267 E0.01210
G1 X93.507 Y108.640 E0.01210
G1 X93.366 Y109.007 E0.01235
G1 X93.098 Y109.502 E0.01767
G1 X92.866 Y109.821 E0.01235
G1 X92.608 Y110.108 E0.01210
G1 X92.321 Y110.366 E0.01210
G1 X92.009 Y110.593 E0.01210
G1 X91.674 Y110.786 E0.01210
G1 X91.315 Y110.946 E0.01235
G1 X90.774 Y111.106 E0.01767
G1 X90.385 Y111.168 E0.01235
G1 X90.000 Y111.188 E0.01210
G1 X89.615 Y111.168 E0.01207
G1 X89.264 Y111.113 E0.01116
G1 X88.687 Y110.947 E0.01881
G1 X88.326 Y110.786 E0.01241
G1 X87.991 Y110.593 E0.01210
G1 X87.679 Y110.366 E0.01210
G1 X87.392 Y110.108 E0.01210
G1 X87.134 Y109.821 E0.01210
G1 X86.902 Y109.502 E0.01235
G1 X86.634 Y109.007 E0.01767
G1 X86.493 Y108.640 E0.01235
G1 X86.393 Y108.267 E0.01210
G1 X86.332 Y107.885 E0.01210
G1 X86.312 Y107.500 E0.01210
G1 X86.332 Y107.115 E0.01210
G1 X86.383 Y106.792 E0.01022
M204 S1250
G1 X86.756 Y106.851 F9000.000
M204 S800
;TYPE:External perimeter
G1 F1200.000
G1 X86.852 Y106.477 E0.01212
G1 X86.977 Y106.151 E0.01095
G1 X87.222 Y105.699 E0.01612
G1 X87.427 Y105.417 E0.01095
G1 X87.659 Y105.159 E0.01086
G1 X87.917 Y104.927 E0.01086
G1 X88.199 Y104.722 E0.01095
G1 X88.651 Y104.477 E0.01612
G1 X88.977 Y104.352 E0.01095
G1 X89.312 Y104.262 E0.01086
G1 X89.654 Y104.208 E0.01085
G1 X89.966 Y104.190 E0.00981
G1 X90.514 Y104.230 E0.01724
G1 X90.857 Y104.302 E0.01097
G1 X91.186 Y104.410 E0.01086
G1 X91.503 Y104.550 E0.01086
G1 X91.803 Y104.724 E0.01086
G1 X92.083 Y104.927 E0.01086
G1 X92.341 Y105.159 E0.01086
G1 X92.573 Y105.417 E0.01086
G1 X92.778 Y105.699 E0.01095
G1 X93.023 Y106.151 E0.01612
G1 X93.148 Y106.477 E0.01095
G1 X93.238 Y106.812 E0.01086
G1 X93.292 Y107.154 E0.01086
G1 X93.310 Y107.500 E0.01086
G1 X93.292 Y107.846 E0.01086
G1 X93.238 Y108.188 E0.01086
G1 X93.148 Y108.523 E0.01086
G1 X93.023 Y108.849 E0.01095
G1 X92.778 Y109.301 E0.01612
G1 X92.573 Y109.583 E0.01095
G1 X92.341 Y109.841 E0.01086
G1 X92.083 Y110.073 E0.01086
G1 X91.803 Y110.276 E0.01086
G1 X91.503 Y110.450 E0.01086
G1 X91.184 Y110.592 E0.01095
G1 X90.691 Y110.738 E0.01612
G1 X90.346 Y110.792 E0.01095
G1 X90.000 Y110.810 E0.01086
G1 X89.654 Y110.792 E0.01085
G1 X89.345 Y110.744 E0.00981
G1 X88.817 Y110.592 E0.01724
G1 X88.497 Y110.450 E0.01097
G1 X88.197 Y110.276 E0.01086
G1 X87.917 Y110.073 E0.01086
G1 X87.659 Y109.841 E0.01086
G1 X87.427 Y109.583 E0.01086
G1 X87.222 Y109.301 E0.01095
G1 X86.977 Y108.849 E0.01612
G1 X86.852 Y108.523 E0.01095
G1 X86.762 Y108.188 E0.01086
G1 X86.708 Y107.846 E0.01086
G1 X86.690 Y107.500 E0.01086
G1 X86.708 Y107.154 E0.01086
G1 X86.746 Y106.911 E0.00772
M204 S1250
G1 X86.466 Y106.595 F9000.000
G1 E-2.24000 F4200.000
;WIPE_START
G1 F7200.000
G1 X86.852 Y106.477 E-0.24733
G1 X86.977 Y106.151 E-0.19355
G1 X87.222 Y105.699 E-0.28483
G1 X87.420 Y105.427 E-0.18629
;WIPE_END
G1 E-0.04800 F4200.000
G1 Z0.400 F9000.000
G1 X104.176 Y106.842
G1 Z0.200
G1 E3.20000 F2400.000
M204 S800
;TYPE:Perimeter
G1 F1200.000
G1 X104.324 Y106.319 E0.01704
G1 X104.477 Y105.971 E0.01195
G1 X104.660 Y105.652 E0.01153
G1 X105.001 Y105.212 E0.01745
G1 X105.275 Y104.945 E0.01197
G1 X105.565 Y104.719 E0.01153
G1 X106.046 Y104.439 E0.01745
G1 X106.400 Y104.296 E0.01199
G1 X106.759 Y104.194 E0.01170
G1 X107.127 Y104.133 E0.01169
G1 X107.494 Y104.112 E0.01153
G1 X108.049 Y104.156 E0.01745
G1 X108.422 Y104.240 E0.01199
G1 X108.783 Y104.364 E0.01196
G1 X109.268 Y104.609 E0.01704
G1 X109.581 Y104.826 E0.01196
G1 X109.869 Y105.077 E0.01196
G1 X110.226 Y105.487 E0.01704
G1 X110.434 Y105.806 E0.01196
G1 X110.603 Y106.139 E0.01170
G1 X110.734 Y106.489 E0.01170
G1 X110.825 Y106.850 E0.01170
G1 X110.876 Y107.216 E0.01158
G1 X110.888 Y107.500 E0.00890
G1 X110.876 Y107.784 E0.00890
G1 X110.825 Y108.150 E0.01158
G1 X110.734 Y108.511 E0.01170
G1 X110.603 Y108.861 E0.01170
G1 X110.434 Y109.194 E0.01169
G1 X110.233 Y109.502 E0.01153
