; generated by PrusaSlicer 2.3.0+win64 on 2021-06-25 at 20:56:48 UTC


;
;

;
;
; 

; external perimeters extrusion width = 0.45mm
; perimeters extrusion width = 0.45mm
; infill extrusion width = 0.45mm
; solid infill extrusion width = 0.45mm
; top infill extrusion width = 0.40mm
; first layer extrusion width = 0.42mm

M73 P0 R97
M201 X1250 Y1250 Z400 E5000 ; sets maximum accelerations, mm/sec^2
M203 X180 Y180 Z12 E80 ; sets maximum feedrates, mm/sec
M204 P1250 R1250 T1250 ; sets acceleration (P, T) and retract acceleration (R), mm/sec^2
M205 X8.00 Y8.00 Z2.00 E10.00 ; sets the jerk limits, mm/sec
M205 S0 T0 ; sets the minimum extruding and travel feed rate, mm/sec
M107
;TYPE:Custom
G90 ; use absolute coordinates
M83 ; extruder relative mode
M104 S170 ; set extruder temp for bed leveling
M140 S60 ; set bed temp
M109 R170 ; wait for bed leveling temp
M190 S60 ; wait for bed temp
G28 ; home all without mesh bed level
G29 ; mesh bed leveling 
M104 S215 ; set extruder temp
G92 E0.0
G1 Y-2.0 X179 F2400
G1 Z3 F720
M109 S215 ; wait for extruder temp

; intro line
G1 X170 F1000
G1 Z0.2 F720
G1 X110.0 E8.0 F900
G1 X40.0 E10.0 F700
G92 E0.0

M221 S95 ; set flow
G21 ; set units to millimeters
G90 ; use absolute coordinates
M83 ; use relative distances for extrusion
M900 K0.2 ; Filament gcode LA 1.5
; ; Filament gcode LA 1.0
;LAYER_CHANGE
;Z:0.2
;HEIGHT:0.2
;BEFORE_LAYER_CHANGE
G92 E0.0
;0.2


G1 E-3.20000 F4200.000
G1 Z0.200 F9000.000
;AFTER_LAYER_CHANGE
;0.2
G1 Z0.400
G1 X95.902 Y32.801
G1 Z0.200
G1 E3.20000 F2400.000
M204 S800
;TYPE:Skirt
;WIDTH:0.42
G1 F1200.000
G1 X96.664 Y33.303 E0.02860
G1 X146.822 Y83.474 E2.22438
G1 X147.215 Y84.136 E0.02414
G1 X147.374 Y84.889 E0.02414
G1 X147.368 Y95.209 E0.32358
G1 X147.158 Y95.997 E0.02555
G1 X146.692 Y96.670 E0.02567
G1 X96.521 Y146.827 E2.22438
G1 X95.860 Y147.216 E0.02402
G1 X95.111 Y147.374 E0.02402
G1 X84.791 Y147.368 E0.32358
G1 X84.003 Y147.158 E0.02555
M73 P0 R96
G1 X83.330 Y146.692 E0.02567
G1 X33.173 Y96.521 E2.22438
G1 X32.784 Y95.860 E0.02402
G1 X32.626 Y95.111 E0.02402
G1 X32.632 Y84.791 E0.32358
G1 X32.842 Y84.003 E0.02555
G1 X33.308 Y83.330 E0.02567
G1 X83.477 Y33.175 E2.22426
G1 X84.136 Y32.785 E0.02402
G1 X84.885 Y32.626 E0.02402
G1 X95.004 Y32.623 E0.31726
G1 X95.844 Y32.789 E0.02684
M204 S1250
; printing object FilamentSpindleHub03SunluPLa.stl id:0 copy 0
G1 E-2.24000 F4200.000
;WIPE_START
G1 F7200.000
G1 X96.664 Y33.303 E-0.53649
G1 X97.143 Y33.782 E-0.37551
;WIPE_END
G1 E-0.04800 F4200.000
G1 Z0.400 F9000.000
G1 X92.298 Y64.315
G1 Z0.200
G1 E3.20000 F2400.000
M204 S800
;TYPE:Perimeter
G1 F1200.000
G1 X93.670 Y64.475 E0.04329
G1 X95.028 Y64.708 E0.04321
G1 X95.933 Y64.905 E0.02903
G1 X97.265 Y65.257 E0.04321
G1 X98.579 Y65.682 E0.04329
G1 X99.868 Y66.176 E0.04329
G1 X101.127 Y66.737 E0.04321
G1 X101.955 Y67.151 E0.02903
G1 X103.158 Y67.823 E0.04321
G1 X104.324 Y68.557 E0.04321
G1 X105.085 Y69.085 E0.02903
G1 X106.181 Y69.921 E0.04321
G1 X107.232 Y70.816 E0.04329
G1 X108.234 Y71.766 E0.04329
G1 X109.184 Y72.768 E0.04329
G1 X110.079 Y73.819 E0.04329
G1 X110.915 Y74.915 E0.04321
G1 X111.443 Y75.676 E0.02903
G1 X112.177 Y76.842 E0.04321
G1 X112.849 Y78.045 E0.04321
G1 X113.263 Y78.873 E0.02903
G1 X113.824 Y80.132 E0.04321
G1 X114.318 Y81.421 E0.04329
G1 X114.742 Y82.732 E0.04321
G1 X114.987 Y83.625 E0.02903
G1 X115.292 Y84.969 E0.04321
G1 X115.525 Y86.330 E0.04329
G1 X115.685 Y87.702 E0.04329
G1 X115.771 Y89.077 E0.04321
G1 X115.787 Y90.000 E0.02895
G1 X115.771 Y90.923 E0.02895
G1 X115.685 Y92.298 E0.04321
G1 X115.525 Y93.670 E0.04329
G1 X115.292 Y95.028 E0.04321
G1 X115.095 Y95.933 E0.02903
G1 X114.743 Y97.265 E0.04321
G1 X114.318 Y98.579 E0.04329
G1 X113.824 Y99.868 E0.04329
G1 X113.263 Y101.127 E0.04321
G1 X112.849 Y101.955 E0.02903
G1 X112.177 Y103.158 E0.04321
G1 X111.443 Y104.324 E0.04321
G1 X110.915 Y105.085 E0.02903
G1 X110.079 Y106.181 E0.04321
G1 X109.184 Y107.232 E0.04329
G1 X108.234 Y108.234 E0.04329
G1 X107.232 Y109.184 E0.04329
G1 X106.181 Y110.079 E0.04329
G1 X105.085 Y110.915 E0.04321
G1 X104.324 Y111.443 E0.02903
G1 X103.158 Y112.177 E0.04321
G1 X101.955 Y112.849 E0.04321
G1 X101.127 Y113.263 E0.02903
G1 X99.868 Y113.824 E0.04321
G1 X98.579 Y114.318 E0.04329
G1 X97.265 Y114.743 E0.04329
G1 X95.933 Y115.095 E0.04321
G1 X95.028 Y115.292 E0.02903
G1 X93.670 Y115.525 E0.04321
G1 X92.298 Y115.685 E0.04329
G1 X90.923 Y115.771 E0.04321
G1 X90.000 Y115.787 E0.02895
G1 X89.077 Y115.771 E0.02895
G1 X87.702 Y115.685 E0.04321
G1 X86.330 Y115.525 E0.04329
G1 X84.972 Y115.292 E0.04321
G1 X84.067 Y115.095 E0.02903
G1 X82.735 Y114.743 E0.04321
G1 X81.421 Y114.318 E0.04329
G1 X80.132 Y113.824 E0.04329
G1 X78.873 Y113.263 E0.04321
G1 X78.045 Y112.849 E0.02903
G1 X76.842 Y112.177 E0.04321
G1 X75.676 Y111.443 E0.04321
G1 X74.915 Y110.915 E0.02903
G1 X73.819 Y110.079 E0.04321
G1 X72.768 Y109.184 E0.04329
G1 X71.766 Y108.234 E0.04329
G1 X70.816 Y107.232 E0.04329
G1 X69.921 Y106.181 E0.04329
G1 X69.085 Y105.085 E0.04321
G1 X68.557 Y104.324 E0.02903
G1 X67.823 Y103.158 E0.04321
G1 X67.151 Y101.955 E0.04321
G1 X66.737 Y101.127 E0.02903
G1 X66.176 Y99.868 E0.04321
G1 X65.682 Y98.579 E0.04329
G1 X65.257 Y97.265 E0.04329
G1 X64.905 Y95.933 E0.04321
G1 X64.708 Y95.028 E0.02903
G1 X64.475 Y93.670 E0.04321
G1 X64.315 Y92.298 E0.04329
G1 X64.229 Y90.923 E0.04321
G1 X64.213 Y90.000 E0.02895
G1 X64.229 Y89.077 E0.02895
G1 X64.315 Y87.702 E0.04321
G1 X64.475 Y86.330 E0.04329
G1 X64.708 Y84.972 E0.04321
G1 X64.905 Y84.067 E0.02903
G1 X65.257 Y82.735 E0.04321
G1 X65.682 Y81.421 E0.04329
G1 X66.176 Y80.132 E0.04329
G1 X66.737 Y78.873 E0.04321
G1 X67.151 Y78.045 E0.02903
G1 X67.823 Y76.842 E0.04321
G1 X68.557 Y75.676 E0.04321
G1 X69.085 Y74.915 E0.02903
G1 X69.921 Y73.819 E0.04321
G1 X70.816 Y72.768 E0.04329
G1 X71.766 Y71.766 E0.04329
G1 X72.768 Y70.816 E0.04329
G1 X73.819 Y69.921 E0.04329
G1 X74.915 Y69.085 E0.04321
G1 X75.676 Y68.557 E0.02903
G1 X76.842 Y67.823 E0.04321
G1 X78.045 Y67.151 E0.04321
G1 X78.873 Y66.737 E0.02903
G1 X80.132 Y66.176 E0.04321
G1 X81.421 Y65.682 E0.04329
G1 X82.732 Y65.258 E0.04321
G1 X83.625 Y65.013 E0.02903
G1 X84.967 Y64.709 E0.04313
G1 X85.878 Y64.544 E0.02903
G1 X87.243 Y64.360 E0.04321
G1 X88.620 Y64.250 E0.04329
G1 X89.981 Y64.213 E0.04268
G1 X90.923 Y64.229 E0.02955
G1 X92.239 Y64.312 E0.04133
M204 S1250
G1 X92.215 Y64.688 F9000.000
M204 S800
;TYPE:External perimeter
G1 F1200.000
G1 X93.616 Y64.849 E0.04422
G1 X94.956 Y65.078 E0.04263
G1 X95.845 Y65.271 E0.02850
G1 X97.159 Y65.619 E0.04263
G1 X98.454 Y66.037 E0.04266
G1 X99.724 Y66.524 E0.04266
G1 X100.966 Y67.078 E0.04263
G1 X101.779 Y67.485 E0.02850
G1 X102.966 Y68.147 E0.04263
G1 X104.116 Y68.872 E0.04263
G1 X104.863 Y69.390 E0.02850
G1 X105.944 Y70.215 E0.04263
G1 X106.980 Y71.096 E0.04266
G1 X107.968 Y72.032 E0.04266
G1 X108.904 Y73.020 E0.04266
G1 X109.785 Y74.056 E0.04266
G1 X110.610 Y75.137 E0.04263
G1 X111.128 Y75.884 E0.02850
G1 X111.853 Y77.034 E0.04263
G1 X112.515 Y78.221 E0.04263
G1 X112.922 Y79.034 E0.02850
G1 X113.476 Y80.276 E0.04263
G1 X113.963 Y81.546 E0.04266
G1 X114.381 Y82.840 E0.04263
G1 X114.621 Y83.717 E0.02850
G1 X114.922 Y85.043 E0.04263
G1 X115.151 Y86.384 E0.04266
G1 X115.309 Y87.735 E0.04266
G1 X115.394 Y89.092 E0.04263
G1 X115.410 Y90.000 E0.02847
G1 X115.394 Y90.908 E0.02847
G1 X115.309 Y92.265 E0.04263
G1 X115.151 Y93.616 E0.04266
G1 X114.922 Y94.956 E0.04263
G1 X114.729 Y95.845 E0.02850
G1 X114.381 Y97.159 E0.04263
G1 X113.963 Y98.454 E0.04266
G1 X113.476 Y99.724 E0.04266
G1 X112.922 Y100.966 E0.04263
G1 X112.515 Y101.779 E0.02850
G1 X111.853 Y102.966 E0.04263
G1 X111.128 Y104.116 E0.04263
G1 X110.610 Y104.863 E0.02850
G1 X109.785 Y105.944 E0.04263
G1 X108.904 Y106.980 E0.04266
G1 X107.968 Y107.968 E0.04266
G1 X106.980 Y108.904 E0.04266
G1 X105.944 Y109.785 E0.04266
G1 X104.863 Y110.610 E0.04263
G1 X104.116 Y111.128 E0.02850
G1 X102.966 Y111.853 E0.04263
G1 X101.779 Y112.515 E0.04263
G1 X100.966 Y112.922 E0.02850
G1 X99.724 Y113.476 E0.04263
G1 X98.454 Y113.963 E0.04266
G1 X97.159 Y114.381 E0.04266
G1 X95.845 Y114.729 E0.04263
G1 X94.956 Y114.922 E0.02850
G1 X93.616 Y115.151 E0.04263
G1 X92.265 Y115.309 E0.04266
G1 X90.908 Y115.394 E0.04263
G1 X90.000 Y115.410 E0.02847
G1 X89.092 Y115.394 E0.02847
G1 X87.735 Y115.309 E0.04263
G1 X86.384 Y115.151 E0.04266
G1 X85.044 Y114.922 E0.04263
G1 X84.155 Y114.729 E0.02850
G1 X82.841 Y114.381 E0.04263
G1 X81.546 Y113.963 E0.04266
G1 X80.276 Y113.476 E0.04266
G1 X79.034 Y112.922 E0.04263
G1 X78.221 Y112.515 E0.02850
G1 X77.034 Y111.853 E0.04263
G1 X75.884 Y111.128 E0.04263
G1 X75.137 Y110.610 E0.02850
G1 X74.056 Y109.785 E0.04263
G1 X73.020 Y108.904 E0.04266
G1 X72.032 Y107.968 E0.04266
G1 X71.096 Y106.980 E0.04266
G1 X70.215 Y105.944 E0.04266
G1 X69.390 Y104.863 E0.04263
G1 X68.872 Y104.116 E0.02850
G1 X68.147 Y102.966 E0.04263
G1 X67.485 Y101.779 E0.04263
G1 X67.078 Y100.966 E0.02850
G1 X66.524 Y99.724 E0.04263
G1 X66.037 Y98.454 E0.04266
G1 X65.619 Y97.159 E0.04266
G1 X65.271 Y95.845 E0.04263
G1 X65.078 Y94.956 E0.02850
G1 X64.849 Y93.616 E0.04263
G1 X64.691 Y92.265 E0.04266
G1 X64.606 Y90.908 E0.04263
G1 X64.590 Y90.000 E0.02847
G1 X64.606 Y89.092 E0.02847
G1 X64.691 Y87.735 E0.04263
G1 X64.849 Y86.384 E0.04266
G1 X65.078 Y85.044 E0.04263
G1 X65.271 Y84.155 E0.02850
G1 X65.619 Y82.841 E0.04263
G1 X66.037 Y81.546 E0.04266
G1 X66.524 Y80.276 E0.04266
G1 X67.078 Y79.034 E0.04263
G1 X67.485 Y78.221 E0.02850
G1 X68.147 Y77.034 E0.04263
G1 X68.872 Y75.884 E0.04263
G1 X69.390 Y75.137 E0.02850
G1 X70.215 Y74.056 E0.04263
G1 X71.096 Y73.020 E0.04266
G1 X72.032 Y72.032 E0.04266
G1 X73.020 Y71.096 E0.04266
G1 X74.056 Y70.215 E0.04266
G1 X75.137 Y69.390 E0.04263
G1 X75.884 Y68.872 E0.02850
G1 X77.034 Y68.147 E0.04263
G1 X78.221 Y67.485 E0.04263
G1 X79.034 Y67.078 E0.02850
G1 X80.276 Y66.524 E0.04263
G1 X81.546 Y66.037 E0.04266
G1 X82.840 Y65.619 E0.04263
G1 X83.717 Y65.379 E0.02850
G1 X85.042 Y65.078 E0.04260
G1 X85.936 Y64.917 E0.02850
G1 X87.284 Y64.736 E0.04263
G1 X88.640 Y64.626 E0.04266
G1 X89.982 Y64.590 E0.04211
G1 X90.908 Y64.606 E0.02902
G1 X92.155 Y64.684 E0.03919
M204 S1250
G1 X92.446 Y64.361 F9000.000
G1 E-2.24000 F4200.000
;WIPE_START
G1 F7200.000
G1 X93.616 Y64.849 E-0.81479
G1 X93.789 Y64.878 E-0.09721
;WIPE_END
G1 E-0.04800 F4200.000
G1 Z0.400 F9000.000
G1 X94.213 Y56.032
G1 Z0.200
G1 E3.20000 F2400.000
M204 S800
;TYPE:Perimeter
G1 F1200.000
G1 X95.906 Y56.301 E0.05376
G1 X97.429 Y56.604 E0.04867
G1 X98.937 Y56.975 E0.04868
G1 X99.928 Y57.259 E0.03234
G1 X100.910 Y57.573 E0.03234
G1 X102.370 Y58.102 E0.04868
G1 X103.803 Y58.695 E0.04861
G1 X105.209 Y59.354 E0.04868
G1 X106.124 Y59.825 E0.03227
G1 X107.476 Y60.588 E0.04868
G1 X108.791 Y61.410 E0.04861
G1 X110.069 Y62.292 E0.04868
G1 X110.893 Y62.908 E0.03227
G1 X112.101 Y63.884 E0.04868
G1 X113.251 Y64.902 E0.04818
G1 X114.007 Y65.624 E0.03277
G1 X115.090 Y66.740 E0.04875
G1 X115.778 Y67.505 E0.03227
G1 X116.772 Y68.698 E0.04868
G1 X117.710 Y69.933 E0.04861
G1 X118.590 Y71.209 E0.04861
G1 X119.412 Y72.524 E0.04861
G1 X120.175 Y73.876 E0.04868
G1 X120.646 Y74.791 E0.03227
G1 X121.305 Y76.197 E0.04868
G1 X121.898 Y77.630 E0.04861
G1 X122.427 Y79.090 E0.04868
G1 X122.741 Y80.072 E0.03234
G1 X123.025 Y81.063 E0.03234
G1 X123.396 Y82.571 E0.04868
G1 X123.699 Y84.094 E0.04867
G1 X123.968 Y85.787 E0.05376
G1 X144.213 Y85.787 E0.63477
G1 X144.213 Y94.213 E0.26419
G1 X123.968 Y94.213 E0.63477
G1 X123.699 Y95.906 E0.05376
G1 X123.396 Y97.429 E0.04867
G1 X123.025 Y98.937 E0.04868
G1 X122.741 Y99.928 E0.03234
G1 X122.427 Y100.910 E0.03234
G1 X121.898 Y102.370 E0.04868
G1 X121.305 Y103.803 E0.04861
G1 X120.646 Y105.209 E0.04868
G1 X120.175 Y106.124 E0.03227
G1 X119.412 Y107.476 E0.04868
G1 X118.590 Y108.791 E0.04861
G1 X117.708 Y110.069 E0.04868
G1 X117.092 Y110.893 E0.03227
G1 X116.116 Y112.101 E0.04868
G1 X115.098 Y113.251 E0.04818
G1 X114.376 Y114.007 E0.03277
G1 X113.260 Y115.090 E0.04875
G1 X112.495 Y115.778 E0.03227
G1 X111.302 Y116.772 E0.04868
G1 X110.067 Y117.710 E0.04861
G1 X108.791 Y118.590 E0.04861
G1 X107.476 Y119.412 E0.04861
G1 X106.124 Y120.175 E0.04868
G1 X105.209 Y120.646 E0.03227
G1 X103.803 Y121.305 E0.04868
G1 X102.370 Y121.898 E0.04861
G1 X100.910 Y122.427 E0.04868
G1 X99.928 Y122.741 E0.03234
G1 X98.937 Y123.025 E0.03234
G1 X97.429 Y123.396 E0.04868
G1 X95.906 Y123.699 E0.04867
G1 X94.213 Y123.968 E0.05376
G1 X94.213 Y144.213 E0.63477
M73 P1 R96
G1 X85.787 Y144.213 E0.26419
G1 X85.787 Y123.968 E0.63477
G1 X84.094 Y123.699 E0.05376
G1 X82.571 Y123.396 E0.04867
G1 X81.063 Y123.025 E0.04868
G1 X80.072 Y122.741 E0.03234
G1 X79.090 Y122.427 E0.03234
G1 X77.630 Y121.898 E0.04868
G1 X76.197 Y121.305 E0.04861
G1 X74.791 Y120.646 E0.04868
G1 X73.876 Y120.175 E0.03227
G1 X72.524 Y119.412 E0.04868
G1 X71.209 Y118.590 E0.04861
G1 X69.931 Y117.708 E0.04868
G1 X69.107 Y117.092 E0.03227
G1 X67.899 Y116.116 E0.04868
G1 X66.749 Y115.098 E0.04818
G1 X65.993 Y114.376 E0.03277
G1 X64.910 Y113.260 E0.04875
G1 X64.222 Y112.495 E0.03227
G1 X63.228 Y111.302 E0.04868
G1 X62.290 Y110.067 E0.04861
G1 X61.410 Y108.791 E0.04861
G1 X60.588 Y107.476 E0.04861
G1 X59.825 Y106.124 E0.04868
G1 X59.354 Y105.209 E0.03227
G1 X58.695 Y103.803 E0.04868
G1 X58.102 Y102.370 E0.04861
G1 X57.573 Y100.910 E0.04868
G1 X57.259 Y99.928 E0.03234
G1 X56.975 Y98.937 E0.03234
G1 X56.604 Y97.429 E0.04868
G1 X56.301 Y95.906 E0.04867
G1 X56.032 Y94.213 E0.05376
G1 X35.787 Y94.213 E0.63477
G1 X35.787 Y85.787 E0.26419
G1 X56.032 Y85.787 E0.63477
G1 X56.301 Y84.094 E0.05376
G1 X56.604 Y82.571 E0.04867
G1 X56.975 Y81.063 E0.04868
G1 X57.259 Y80.072 E0.03234
G1 X57.573 Y79.090 E0.03234
G1 X58.102 Y77.630 E0.04868
G1 X58.695 Y76.197 E0.04861
G1 X59.354 Y74.791 E0.04868
G1 X59.825 Y73.876 E0.03227
G1 X60.588 Y72.524 E0.04868
G1 X61.410 Y71.209 E0.04861
G1 X62.292 Y69.931 E0.04868
G1 X62.908 Y69.107 E0.03227
G1 X63.884 Y67.899 E0.04868
G1 X64.902 Y66.749 E0.04818
G1 X65.624 Y65.993 E0.03277
G1 X66.740 Y64.910 E0.04875
G1 X67.505 Y64.222 E0.03227
G1 X68.698 Y63.228 E0.04868
G1 X69.933 Y62.290 E0.04861
G1 X71.209 Y61.410 E0.04861
G1 X72.524 Y60.588 E0.04861
G1 X73.876 Y59.825 E0.04868
G1 X74.791 Y59.354 E0.03227
G1 X76.197 Y58.695 E0.04868
G1 X77.630 Y58.102 E0.04861
G1 X79.090 Y57.573 E0.04868
G1 X80.072 Y57.259 E0.03234
G1 X81.063 Y56.975 E0.03234
G1 X82.571 Y56.604 E0.04868
G1 X84.094 Y56.301 E0.04867
G1 X85.787 Y56.032 E0.05376
G1 X85.787 Y35.787 E0.63477
G1 X94.213 Y35.787 E0.26419
G1 X94.213 Y55.972 E0.63289
M204 S1250
G1 X94.590 Y55.710 F9000.000
M204 S800
;TYPE:External perimeter
G1 F1200.000
G1 X95.973 Y55.930 E0.04390
G1 X97.511 Y56.235 E0.04917
G1 X99.034 Y56.610 E0.04917
G1 X100.037 Y56.898 E0.03274
G1 X101.032 Y57.216 E0.03274
G1 X102.507 Y57.750 E0.04917
G1 X103.955 Y58.350 E0.04915
G1 X105.375 Y59.015 E0.04917
G1 X106.303 Y59.493 E0.03272
G1 X107.669 Y60.263 E0.04917
G1 X108.998 Y61.094 E0.04915
G1 X110.289 Y61.985 E0.04917
G1 X111.125 Y62.610 E0.03272
G1 X112.344 Y63.596 E0.04917
G1 X113.507 Y64.625 E0.04867
G1 X114.273 Y65.357 E0.03322
G1 X115.365 Y66.483 E0.04920
G1 X116.063 Y67.259 E0.03272
G1 X117.067 Y68.463 E0.04917
G1 X118.015 Y69.712 E0.04915
G1 X118.906 Y71.002 E0.04915
G1 X119.737 Y72.331 E0.04915
G1 X120.507 Y73.697 E0.04917
G1 X120.985 Y74.625 E0.03272
G1 X121.650 Y76.045 E0.04917
G1 X122.250 Y77.493 E0.04915
G1 X122.784 Y78.968 E0.04917
G1 X123.102 Y79.963 E0.03274
G1 X123.390 Y80.966 E0.03274
G1 X123.765 Y82.489 E0.04917
G1 X124.070 Y84.027 E0.04917
G1 X124.290 Y85.410 E0.04390
G1 X144.590 Y85.410 E0.63650
G1 X144.590 Y94.590 E0.28783
G1 X124.290 Y94.590 E0.63650
G1 X124.070 Y95.973 E0.04390
G1 X123.765 Y97.511 E0.04917
G1 X123.390 Y99.034 E0.04917
G1 X123.102 Y100.037 E0.03274
G1 X122.784 Y101.032 E0.03274
G1 X122.250 Y102.507 E0.04917
G1 X121.650 Y103.955 E0.04915
G1 X120.985 Y105.375 E0.04917
G1 X120.507 Y106.303 E0.03272
G1 X119.737 Y107.669 E0.04917
G1 X118.906 Y108.998 E0.04915
G1 X118.015 Y110.289 E0.04917
G1 X117.390 Y111.125 E0.03272
G1 X116.404 Y112.344 E0.04917
G1 X115.375 Y113.507 E0.04867
G1 X114.643 Y114.273 E0.03322
G1 X113.517 Y115.365 E0.04920
