; generated by PrusaSlicer 2.3.0+win64 on 2021-05-23 at 18:00:25 UTC


;
;

;
;
; 

; external perimeters extrusion width = 0.45mm
; perimeters extrusion width = 0.45mm
; infill extrusion width = 0.45mm
; solid infill extrusion width = 0.45mm
; top infill extrusion width = 0.40mm
; first layer extrusion width = 0.42mm

M73 P0 R42
M201 X1250 Y1250 Z400 E5000 ; sets maximum accelerations, mm/sec^2
M203 X180 Y180 Z12 E80 ; sets maximum feedrates, mm/sec
M204 P1250 R1250 T1250 ; sets acceleration (P, T) and retract acceleration (R), mm/sec^2
M205 X8.00 Y8.00 Z2.00 E10.00 ; sets the jerk limits, mm/sec
M205 S0 T0 ; sets the minimum extruding and travel feed rate, mm/sec
M107
;TYPE:Custom
G90 ; use absolute coordinates
M83 ; extruder relative mode
M104 S170 ; set extruder temp for bed leveling
M140 S60 ; set bed temp
M109 R170 ; wait for bed leveling temp
M190 S60 ; wait for bed temp
G28 ; home all without mesh bed level
G29 ; mesh bed leveling 
M104 S215 ; set extruder temp
G92 E0.0
G1 Y-2.0 X179 F2400
M73 P0 R41
G1 Z3 F720
M109 S215 ; wait for extruder temp

; intro line
G1 X170 F1000
G1 Z0.2 F720
G1 X110.0 E8.0 F900
G1 X40.0 E10.0 F700
G92 E0.0

M221 S95 ; set flow
G21 ; set units to millimeters
G90 ; use absolute coordinates
M83 ; use relative distances for extrusion
M900 K0.2 ; Filament gcode LA 1.5
; ; Filament gcode LA 1.0
;LAYER_CHANGE
;Z:0.2
;HEIGHT:0.2
;BEFORE_LAYER_CHANGE
G92 E0.0
;0.2


G1 E-3.20000 F4200.000
G1 Z0.200 F9000.000
;AFTER_LAYER_CHANGE
;0.2
G1 Z0.400
G1 X55.319 Y55.318
G1 Z0.200
G1 E3.20000 F2400.000
M204 S800
;TYPE:Skirt
;WIDTH:0.42
G1 F1200.000
G1 X84.865 Y25.771 E1.31012
G1 X86.008 Y24.850 E0.04603
G1 X87.313 Y24.172 E0.04613
G1 X88.720 Y23.768 E0.04589
G1 X90.146 Y23.649 E0.04484
G1 X91.381 Y23.771 E0.03894
G1 X92.746 Y24.162 E0.04452
G1 X93.854 Y24.709 E0.03873
G1 X94.993 Y25.555 E0.04449
G1 X154.084 Y81.517 E2.55178
G1 X155.048 Y82.673 E0.04717
G1 X155.738 Y83.953 E0.04561
G1 X156.169 Y85.371 E0.04646
G1 X156.307 Y86.815 E0.04548
G1 X156.201 Y88.046 E0.03873
G1 X155.826 Y89.417 E0.04459
G1 X155.201 Y90.681 E0.04420
G1 X154.453 Y91.685 E0.03925
G1 X95.403 Y154.043 E2.69272
M73 P1 R41
G1 X94.311 Y154.992 E0.04536
G1 X93.005 Y155.731 E0.04705
G1 X91.403 Y156.225 E0.05255
G1 X89.941 Y156.351 E0.04603
G1 X88.503 Y156.189 E0.04536
G1 X87.301 Y155.823 E0.03940
G1 X86.022 Y155.160 E0.04516
G1 X84.909 Y154.272 E0.04465
G1 X25.814 Y95.178 E2.62032
G1 X24.893 Y94.035 E0.04606
G1 X24.215 Y92.730 E0.04608
G1 X23.811 Y91.322 E0.04594
G1 X23.692 Y89.897 E0.04482
G1 X23.855 Y88.456 E0.04548
G1 X24.224 Y87.249 E0.03957
G1 X24.883 Y85.979 E0.04487
G1 X25.771 Y84.866 E0.04465
G1 X55.277 Y55.360 E1.30832
M204 S1250
; printing object FilamentSpindleBase01.stl id:0 copy 0
G1 E-2.24000 F4200.000
;WIPE_START
G1 F7200.000
G1 X56.440 Y54.196 E-0.91200
;WIPE_END
G1 E-0.04800 F4200.000
G1 Z0.400 F9000.000
G1 X59.788 Y59.745
G1 Z0.200
G1 E3.20000 F2400.000
M204 S800
;TYPE:Perimeter
G1 F1200.000
G1 X61.063 Y58.522 E0.05540
G1 X61.943 Y57.734 E0.03703
G1 X62.844 Y56.971 E0.03703
G1 X64.229 Y55.877 E0.05533
G1 X65.180 Y55.178 E0.03703
G1 X66.151 Y54.505 E0.03703
G1 X67.635 Y53.550 E0.05533
G1 X68.650 Y52.945 E0.03703
G1 X69.679 Y52.370 E0.03697
G1 X70.723 Y51.823 E0.03697
G1 X71.784 Y51.304 E0.03703
G1 X73.395 Y50.584 E0.05533
G1 X74.490 Y50.140 E0.03703
G1 X75.596 Y49.726 E0.03703
G1 X77.270 Y49.164 E0.05539
G1 X78.967 Y48.671 E0.05539
G1 X80.112 Y48.381 E0.03703
G1 X81.263 Y48.124 E0.03697
G1 X82.420 Y47.897 E0.03697
G1 X83.585 Y47.703 E0.03703
G1 X85.334 Y47.473 E0.05533
G1 X86.510 Y47.359 E0.03703
G1 X87.686 Y47.278 E0.03697
G1 X88.864 Y47.229 E0.03697
G1 X89.986 Y47.213 E0.03517
G1 X91.809 Y47.249 E0.05719
G1 X92.989 Y47.314 E0.03704
G1 X94.166 Y47.412 E0.03703
G1 X95.918 Y47.618 E0.05533
G1 X97.086 Y47.796 E0.03703
G1 X98.248 Y48.007 E0.03703
G1 X99.972 Y48.381 E0.05533
G1 X101.117 Y48.671 E0.03703
G1 X102.252 Y48.992 E0.03697
G1 X103.377 Y49.344 E0.03697
G1 X104.494 Y49.727 E0.03703
G1 X106.142 Y50.357 E0.05533
G1 X107.231 Y50.817 E0.03703
G1 X108.305 Y51.306 E0.03703
G1 X109.885 Y52.092 E0.05532
G1 X110.924 Y52.654 E0.03703
G1 X111.945 Y53.244 E0.03697
G1 X112.949 Y53.861 E0.03695
G1 X113.691 Y54.343 E0.02775
G1 X114.424 Y54.839 E0.02775
G1 X115.383 Y55.524 E0.03695
G1 X116.324 Y56.235 E0.03697
G1 X117.245 Y56.973 E0.03703
G1 X118.584 Y58.123 E0.05532
G1 X119.453 Y58.923 E0.03703
G1 X120.300 Y59.746 E0.03703
G1 X121.521 Y61.020 E0.05533
G1 X122.309 Y61.899 E0.03703
G1 X123.071 Y62.799 E0.03697
G1 X123.808 Y63.720 E0.03697
G1 X124.521 Y64.662 E0.03703
G1 X125.537 Y66.106 E0.05539
G1 X126.493 Y67.592 E0.05539
G1 X127.098 Y68.606 E0.03703
G1 X127.673 Y69.636 E0.03697
G1 X128.220 Y70.680 E0.03697
G1 X128.738 Y71.739 E0.03697
G1 X129.226 Y72.813 E0.03697
G1 X129.663 Y73.846 E0.03517
G1 X130.316 Y75.549 E0.05719
G1 X130.700 Y76.666 E0.03704
G1 X131.051 Y77.791 E0.03697
G1 X131.372 Y78.926 E0.03697
G1 X131.662 Y80.071 E0.03703
G1 X132.036 Y81.795 E0.05533
G1 X132.247 Y82.957 E0.03703
G1 X132.425 Y84.125 E0.03703
G1 X132.631 Y85.877 E0.05533
G1 X132.729 Y87.055 E0.03703
G1 X132.794 Y88.234 E0.03703
G1 X132.830 Y90.000 E0.05539
G1 X132.794 Y91.766 E0.05539
G1 X132.729 Y92.945 E0.03703
G1 X132.631 Y94.123 E0.03703
G1 X132.425 Y95.875 E0.05533
G1 X132.247 Y97.043 E0.03703
G1 X132.036 Y98.205 E0.03703
G1 X131.662 Y99.929 E0.05533
G1 X131.372 Y101.074 E0.03703
G1 X131.051 Y102.209 E0.03697
G1 X130.700 Y103.333 E0.03695
G1 X130.414 Y104.171 E0.02775
G1 X130.114 Y105.003 E0.02775
G1 X129.685 Y106.101 E0.03695
G1 X129.226 Y107.187 E0.03697
G1 X128.738 Y108.261 E0.03697
G1 X128.220 Y109.320 E0.03697
G1 X127.673 Y110.364 E0.03697
G1 X127.098 Y111.394 E0.03697
G1 X126.493 Y112.408 E0.03703
G1 X125.537 Y113.894 E0.05539
G1 X124.521 Y115.338 E0.05539
G1 X123.808 Y116.280 E0.03703
G1 X123.071 Y117.201 E0.03697
G1 X122.309 Y118.100 E0.03697
G1 X121.561 Y118.936 E0.03517
G1 X120.300 Y120.253 E0.05719
G1 X119.453 Y121.077 E0.03704
G1 X118.584 Y121.877 E0.03703
G1 X117.244 Y123.028 E0.05539
G1 X115.857 Y124.123 E0.05539
G1 X114.906 Y124.822 E0.03703
G1 X113.934 Y125.496 E0.03707
G1 X112.176 Y126.618 E0.06541
G1 X110.410 Y127.629 E0.06378
G1 X109.363 Y128.177 E0.03706
G1 X108.304 Y128.695 E0.03697
G1 X107.231 Y129.183 E0.03697
G1 X106.198 Y129.620 E0.03517
G1 X104.495 Y130.273 E0.05719
G1 X103.377 Y130.656 E0.03704
G1 X102.252 Y131.008 E0.03697
G1 X101.117 Y131.329 E0.03697
G1 X99.972 Y131.619 E0.03703
G1 X98.248 Y131.993 E0.05533
G1 X97.086 Y132.204 E0.03703
G1 X95.918 Y132.382 E0.03703
G1 X94.166 Y132.588 E0.05533
G1 X92.989 Y132.686 E0.03703
G1 X91.809 Y132.751 E0.03703
G1 X90.043 Y132.787 E0.05539
G1 X88.277 Y132.751 E0.05539
G1 X87.098 Y132.686 E0.03703
G1 X85.921 Y132.588 E0.03703
G1 X84.168 Y132.382 E0.05533
G1 X83.001 Y132.204 E0.03703
G1 X81.838 Y131.993 E0.03703
G1 X80.114 Y131.619 E0.05533
G1 X78.969 Y131.329 E0.03703
G1 X77.834 Y131.008 E0.03697
G1 X76.709 Y130.656 E0.03697
G1 X75.592 Y130.273 E0.03703
G1 X73.942 Y129.642 E0.05539
G1 X72.319 Y128.944 E0.05539
G1 X71.251 Y128.440 E0.03703
G1 X70.197 Y127.906 E0.03703
G1 X68.651 Y127.056 E0.05532
G1 X67.637 Y126.451 E0.03703
G1 X66.641 Y125.820 E0.03697
G1 X65.663 Y125.162 E0.03697
G1 X64.701 Y124.475 E0.03703
G1 X63.302 Y123.401 E0.05533
G1 X62.390 Y122.650 E0.03703
G1 X61.501 Y121.876 E0.03697
G1 X60.633 Y121.077 E0.03697
G1 X59.787 Y120.254 E0.03703
G1 X58.565 Y118.980 E0.05533
G1 X57.777 Y118.101 E0.03703
G1 X57.014 Y117.199 E0.03703
G1 X55.920 Y115.814 E0.05533
G1 X55.221 Y114.863 E0.03703
G1 X54.548 Y113.892 E0.03703
G1 X53.593 Y112.408 E0.05533
G1 X52.988 Y111.394 E0.03703
G1 X52.413 Y110.364 E0.03697
G1 X51.866 Y109.320 E0.03697
G1 X51.347 Y108.259 E0.03703
G1 X50.627 Y106.648 E0.05533
G1 X50.183 Y105.553 E0.03703
G1 X49.770 Y104.449 E0.03697
G1 X49.387 Y103.334 E0.03697
G1 X49.035 Y102.209 E0.03697
G1 X48.714 Y101.074 E0.03697
G1 X48.424 Y99.929 E0.03703
G1 X48.050 Y98.205 E0.05533
G1 X47.840 Y97.043 E0.03703
G1 X47.661 Y95.875 E0.03703
G1 X47.455 Y94.123 E0.05533
G1 X47.357 Y92.945 E0.03703
G1 X47.292 Y91.766 E0.03703
G1 X47.256 Y90.000 E0.05539
G1 X47.292 Y88.234 E0.05539
G1 X47.357 Y87.055 E0.03703
G1 X47.455 Y85.877 E0.03703
G1 X47.661 Y84.125 E0.05532
G1 X47.840 Y82.957 E0.03703
G1 X48.050 Y81.795 E0.03703
G1 X48.424 Y80.071 E0.05533
G1 X48.714 Y78.926 E0.03703
G1 X49.035 Y77.791 E0.03697
G1 X49.387 Y76.666 E0.03697
G1 X49.770 Y75.551 E0.03697
G1 X50.183 Y74.447 E0.03697
G1 X50.627 Y73.352 E0.03703
G1 X51.347 Y71.741 E0.05533
G1 X51.866 Y70.680 E0.03703
G1 X52.413 Y69.636 E0.03697
G1 X52.988 Y68.606 E0.03697
G1 X53.593 Y67.592 E0.03703
G1 X54.548 Y66.108 E0.05534
G1 X55.221 Y65.137 E0.03701
G1 X55.885 Y64.233 E0.03517
G1 X57.014 Y62.801 E0.05719
G1 X57.777 Y61.900 E0.03704
G1 X58.525 Y61.064 E0.03517
G1 X59.746 Y59.788 E0.05537
M204 S1250
G1 X60.019 Y60.049 F9000.000
M204 S800
;TYPE:External perimeter
G1 F1200.000
G1 X61.319 Y58.798 E0.05657
G1 X62.190 Y58.018 E0.03667
G1 X63.083 Y57.263 E0.03667
G1 X64.457 Y56.177 E0.05492
G1 X65.400 Y55.485 E0.03667
G1 X66.361 Y54.818 E0.03667
G1 X67.834 Y53.870 E0.05492
G1 X68.838 Y53.272 E0.03667
G1 X69.858 Y52.701 E0.03664
G1 X70.894 Y52.159 E0.03664
G1 X71.944 Y51.646 E0.03667
M73 P2 R41
G1 X73.543 Y50.931 E0.05492
G1 X74.627 Y50.491 E0.03667
G1 X75.722 Y50.081 E0.03667
G1 X77.383 Y49.524 E0.05494
G1 X79.066 Y49.035 E0.05494
G1 X80.200 Y48.748 E0.03667
G1 X81.340 Y48.493 E0.03664
G1 X82.487 Y48.269 E0.03664
G1 X83.640 Y48.076 E0.03667
G1 X85.377 Y47.847 E0.05492
G1 X86.541 Y47.735 E0.03667
G1 X87.707 Y47.654 E0.03664
G1 X88.874 Y47.606 E0.03664
G1 X89.984 Y47.590 E0.03481
G1 X91.795 Y47.626 E0.05678
G1 X92.963 Y47.691 E0.03667
G1 X94.128 Y47.787 E0.03667
G1 X95.868 Y47.992 E0.05492
G1 X97.024 Y48.168 E0.03667
G1 X98.174 Y48.377 E0.03667
G1 X99.886 Y48.748 E0.05492
G1 X101.020 Y49.035 E0.03667
G1 X102.144 Y49.353 E0.03664
G1 X103.260 Y49.702 E0.03664
G1 X104.366 Y50.082 E0.03667
G1 X106.002 Y50.707 E0.05492
G1 X107.079 Y51.162 E0.03667
G1 X108.143 Y51.646 E0.03667
G1 X109.712 Y52.427 E0.05492
G1 X110.740 Y52.983 E0.03667
G1 X111.752 Y53.568 E0.03664
G1 X112.748 Y54.179 E0.03664
G1 X113.483 Y54.657 E0.02749
G1 X114.209 Y55.149 E0.02749
G1 X115.160 Y55.827 E0.03664
G1 X116.092 Y56.533 E0.03664
G1 X117.005 Y57.263 E0.03667
G1 X118.333 Y58.405 E0.05492
G1 X119.194 Y59.197 E0.03667
G1 X120.032 Y60.012 E0.03667
G1 X121.245 Y61.276 E0.05492
G1 X122.025 Y62.147 E0.03667
G1 X122.780 Y63.039 E0.03664
G1 X123.511 Y63.951 E0.03664
G1 X124.216 Y64.884 E0.03667
G1 X125.224 Y66.317 E0.05494
G1 X126.173 Y67.790 E0.05494
G1 X126.771 Y68.795 E0.03667
G1 X127.342 Y69.815 E0.03664
G1 X127.884 Y70.850 E0.03664
G1 X128.397 Y71.900 E0.03664
G1 X128.881 Y72.964 E0.03664
G1 X129.313 Y73.987 E0.03481
G1 X129.961 Y75.677 E0.05678
G1 X130.341 Y76.783 E0.03667
G1 X130.690 Y77.899 E0.03664
G1 X131.008 Y79.023 E0.03664
G1 X131.295 Y80.157 E0.03667
G1 X131.666 Y81.869 E0.05492
G1 X131.875 Y83.020 E0.03667
G1 X132.051 Y84.176 E0.03667
G1 X132.256 Y85.915 E0.05492
G1 X132.353 Y87.080 E0.03667
G1 X132.417 Y88.248 E0.03667
G1 X132.453 Y90.000 E0.05494
G1 X132.417 Y91.752 E0.05494
G1 X132.353 Y92.920 E0.03667
G1 X132.256 Y94.085 E0.03667
G1 X132.051 Y95.824 E0.05492
G1 X131.875 Y96.980 E0.03667
G1 X131.666 Y98.131 E0.03667
G1 X131.295 Y99.843 E0.05492
G1 X131.008 Y100.977 E0.03667
G1 X130.690 Y102.101 E0.03664
G1 X130.341 Y103.216 E0.03664
G1 X130.058 Y104.046 E0.02749
G1 X129.760 Y104.871 E0.02749
G1 X129.336 Y105.959 E0.03664
G1 X128.881 Y107.036 E0.03664
G1 X128.397 Y108.100 E0.03664
G1 X127.884 Y109.150 E0.03664
G1 X127.342 Y110.185 E0.03664
G1 X126.771 Y111.205 E0.03664
G1 X126.173 Y112.210 E0.03667
G1 X125.224 Y113.683 E0.05494
G1 X124.216 Y115.116 E0.05494
G1 X123.511 Y116.049 E0.03667
G1 X122.780 Y116.961 E0.03664
G1 X122.025 Y117.853 E0.03664
G1 X121.285 Y118.680 E0.03481
G1 X120.032 Y119.988 E0.05678
G1 X119.194 Y120.803 E0.03667
G1 X118.333 Y121.595 E0.03667
G1 X117.004 Y122.737 E0.05494
G1 X115.629 Y123.823 E0.05494
G1 X114.687 Y124.515 E0.03667
G1 X113.725 Y125.182 E0.03668
G1 X111.980 Y126.295 E0.06490
G1 X110.229 Y127.298 E0.06328
G1 X109.193 Y127.841 E0.03668
G1 X108.143 Y128.354 E0.03664
G1 X107.079 Y128.838 E0.03664
G1 X106.057 Y129.270 E0.03481
G1 X104.366 Y129.918 E0.05678
G1 X103.260 Y130.298 E0.03667
G1 X102.144 Y130.647 E0.03664
G1 X101.020 Y130.965 E0.03664
G1 X99.886 Y131.252 E0.03667
G1 X98.174 Y131.623 E0.05492
G1 X97.024 Y131.832 E0.03667
G1 X95.868 Y132.008 E0.03667
G1 X94.128 Y132.213 E0.05492
G1 X92.963 Y132.309 E0.03667
G1 X91.795 Y132.374 E0.03667
G1 X90.043 Y132.410 E0.05494
G1 X88.291 Y132.374 E0.05494
G1 X87.124 Y132.309 E0.03667
G1 X85.958 Y132.213 E0.03667
G1 X84.219 Y132.008 E0.05492
G1 X83.063 Y131.832 E0.03667
G1 X81.912 Y131.623 E0.03667
G1 X80.200 Y131.252 E0.05492
G1 X79.067 Y130.965 E0.03667
G1 X77.942 Y130.647 E0.03664
G1 X76.827 Y130.298 E0.03664
G1 X75.721 Y129.918 E0.03667
G1 X74.084 Y129.293 E0.05494
G1 X72.474 Y128.600 E0.05494
G1 X71.417 Y128.101 E0.03667
G1 X70.373 Y127.573 E0.03667
G1 X68.839 Y126.729 E0.05492
G1 X67.834 Y126.130 E0.03667
G1 X66.847 Y125.504 E0.03664
G1 X65.878 Y124.852 E0.03664
G1 X64.926 Y124.172 E0.03667
G1 X63.536 Y123.106 E0.05492
G1 X62.634 Y122.362 E0.03667
G1 X61.752 Y121.595 E0.03664
G1 X60.892 Y120.803 E0.03664
G1 X60.054 Y119.988 E0.03667
G1 X58.842 Y118.724 E0.05492
G1 X58.061 Y117.853 E0.03667
G1 X57.306 Y116.961 E0.03667
G1 X56.220 Y115.586 E0.05492
G1 X55.528 Y114.643 E0.03667
G1 X54.861 Y113.682 E0.03667
G1 X53.914 Y112.210 E0.05492
G1 X53.315 Y111.205 E0.03667
G1 X52.745 Y110.185 E0.03664
G1 X52.203 Y109.150 E0.03664
G1 X51.689 Y108.099 E0.03667
G1 X50.974 Y106.500 E0.05492
G1 X50.534 Y105.416 E0.03667
G1 X50.125 Y104.322 E0.03664
G1 X49.745 Y103.217 E0.03664
G1 X49.396 Y102.101 E0.03664
G1 X49.078 Y100.977 E0.03664
G1 X48.791 Y99.843 E0.03667
G1 X48.420 Y98.131 E0.05492
G1 X48.212 Y96.980 E0.03667
G1 X48.035 Y95.824 E0.03667
G1 X47.830 Y94.085 E0.05492
G1 X47.734 Y92.920 E0.03667
G1 X47.669 Y91.752 E0.03667
G1 X47.633 Y90.000 E0.05494
G1 X47.669 Y88.248 E0.05494
G1 X47.734 Y87.080 E0.03667
G1 X47.830 Y85.915 E0.03667
G1 X48.035 Y84.176 E0.05492
G1 X48.212 Y83.020 E0.03667
G1 X48.420 Y81.869 E0.03667
G1 X48.791 Y80.157 E0.05492
G1 X49.078 Y79.023 E0.03667
G1 X49.396 Y77.899 E0.03664
G1 X49.745 Y76.783 E0.03664
G1 X50.125 Y75.678 E0.03664
G1 X50.534 Y74.584 E0.03664
G1 X50.974 Y73.500 E0.03667
G1 X51.689 Y71.901 E0.05492
G1 X52.203 Y70.850 E0.03667
G1 X52.745 Y69.815 E0.03664
G1 X53.315 Y68.795 E0.03664
G1 X53.914 Y67.790 E0.03667
G1 X54.862 Y66.317 E0.05493
G1 X55.528 Y65.357 E0.03665
G1 X56.185 Y64.462 E0.03481
G1 X57.306 Y63.040 E0.05678
G1 X58.061 Y62.147 E0.03667
G1 X58.802 Y61.320 E0.03481
G1 X59.977 Y60.093 E0.05329
M204 S1250
G1 X59.916 Y59.663 F9000.000
G1 E-2.24000 F4200.000
;WIPE_START
G1 F7200.000
G1 X61.162 Y58.950 E-0.91200
;WIPE_END
G1 E-0.04800 F4200.000
G1 Z0.400 F9000.000
G1 X88.438 Y32.660
G1 Z0.200
G1 E3.20000 F2400.000
M204 S800
;TYPE:Perimeter
G1 F1200.000
G1 X88.124 Y32.276 E0.01553
G1 X87.905 Y31.844 E0.01519
G1 X87.805 Y31.507 E0.01103
G1 X87.754 Y31.036 E0.01486
G1 X87.779 Y30.685 E0.01103
G1 X87.900 Y30.216 E0.01519
G1 X88.124 Y29.774 E0.01553
G1 X88.431 Y29.399 E0.01520
G1 X88.699 Y29.172 E0.01103
G1 X89.119 Y28.929 E0.01520
G1 X89.590 Y28.780 E0.01551
G1 X90.059 Y28.736 E0.01475
G1 X90.423 Y28.767 E0.01144
G1 X90.891 Y28.897 E0.01524
G1 X91.329 Y29.129 E0.01553
G1 X91.698 Y29.443 E0.01520
G1 X91.921 Y29.715 E0.01103
G1 X92.155 Y30.139 E0.01519
G1 X92.295 Y30.609 E0.01537
G1 X92.333 Y31.025 E0.01311
G1 X92.295 Y31.442 E0.01311
G1 X92.158 Y31.901 E0.01503
G1 X91.999 Y32.215 E0.01103
G1 X91.713 Y32.592 E0.01486
G1 X91.453 Y32.829 E0.01103
G1 X91.042 Y33.087 E0.01520
G1 X90.576 Y33.253 E0.01553
G1 X90.084 Y33.316 E0.01553
G1 X89.591 Y33.271 E0.01553
G1 X89.129 Y33.125 E0.01519
G1 X88.819 Y32.960 E0.01103
G1 X88.485 Y32.697 E0.01331
M204 S1250
G1 X88.719 Y32.401 F9000.000
M204 S800
;TYPE:External perimeter
G1 F1200.000
G1 X88.442 Y32.069 E0.01354
G1 X88.257 Y31.704 E0.01284
G1 X88.176 Y31.432 E0.00889
G1 X88.132 Y31.029 E0.01272
