; generated by PrusaSlicer 2.3.0+win64 on 2021-03-29 at 17:16:17 UTC


;
;

;
;
; 

; external perimeters extrusion width = 0.45mm
; perimeters extrusion width = 0.45mm
; infill extrusion width = 0.45mm
; solid infill extrusion width = 0.45mm
; top infill extrusion width = 0.40mm
; first layer extrusion width = 0.42mm

M73 P0 R6
M201 X1250 Y1250 Z400 E5000 ; sets maximum accelerations, mm/sec^2
M203 X180 Y180 Z12 E80 ; sets maximum feedrates, mm/sec
M204 P1250 R1250 T1250 ; sets acceleration (P, T) and retract acceleration (R), mm/sec^2
M205 X8.00 Y8.00 Z2.00 E10.00 ; sets the jerk limits, mm/sec
M205 S0 T0 ; sets the minimum extruding and travel feed rate, mm/sec
M107
;TYPE:Custom
G90 ; use absolute coordinates
M83 ; extruder relative mode
M104 S170 ; set extruder temp for bed leveling
M140 S60 ; set bed temp
M109 R170 ; wait for bed leveling temp
M190 S60 ; wait for bed temp
G28 ; home all without mesh bed level
G29 ; mesh bed leveling 
M104 S215 ; set extruder temp
G92 E0.0
G1 Y-2.0 X179 F2400
M73 P1 R5
G1 Z3 F720
M109 S215 ; wait for extruder temp

; intro line
G1 X170 F1000
G1 Z0.2 F720
G1 X110.0 E8.0 F900
M73 P2 R5
G1 X40.0 E10.0 F700
G92 E0.0

M221 S95 ; set flow
G21 ; set units to millimeters
G90 ; use absolute coordinates
M83 ; use relative distances for extrusion
M900 K0.2 ; Filament gcode LA 1.5
; ; Filament gcode LA 1.0
;LAYER_CHANGE
;Z:0.2
;HEIGHT:0.2
;BEFORE_LAYER_CHANGE
G92 E0.0
;0.2


M73 P4 R5
G1 E-3.20000 F4200.000
G1 Z0.200 F9000.000
;AFTER_LAYER_CHANGE
;0.2
G1 Z0.400
G1 X81.727 Y65.752
G1 Z0.200
G1 E3.20000 F2400.000
M204 S800
;TYPE:Skirt
;WIDTH:0.42
G1 F1200.000
G1 X82.183 Y65.213 E0.02213
G1 X82.780 Y64.830 E0.02225
G1 X83.464 Y64.640 E0.02225
G1 X96.254 Y64.623 E0.40102
M73 P5 R5
G1 X97.138 Y64.795 E0.02825
G1 X97.892 Y65.281 E0.02813
G1 X98.412 Y66.013 E0.02813
G1 X98.624 Y66.888 E0.02825
G1 X98.627 Y113.004 E1.44591
G1 X98.551 Y113.595 E0.01870
G1 X98.271 Y114.251 E0.02237
G1 X97.806 Y114.797 E0.02249
G1 X97.202 Y115.178 E0.02237
G1 X96.513 Y115.362 E0.02237
G1 X83.739 Y115.377 E0.40054
M73 P6 R5
G1 X83.155 Y115.301 E0.01846
G1 X82.460 Y114.997 E0.02378
G1 X81.897 Y114.489 E0.02378
G1 X81.522 Y113.829 E0.02378
G1 X81.374 Y113.081 E0.02390
G1 X81.373 Y66.996 E1.44496
G1 X81.449 Y66.405 E0.01870
G1 X81.703 Y65.807 E0.02037
M204 S1250
; printing object FilingGuide_01.stl id:0 copy 0
G1 E-2.24000 F4200.000
;WIPE_START
G1 F7200.000
G1 X82.183 Y65.213 E-0.42305
G1 X82.780 Y64.830 E-0.39325
G1 X82.947 Y64.784 E-0.09570
;WIPE_END
G1 E-0.04800 F4200.000
G1 Z0.400 F9000.000
G1 X84.537 Y67.787
M73 P7 R5
G1 Z0.200
G1 E3.20000 F2400.000
M204 S800
;TYPE:Perimeter
G1 F1200.000
G1 X95.463 Y67.787 E0.34257
G1 X95.463 Y112.062 E1.38821
G1 X92.037 Y111.458 E0.10907
G1 X92.037 Y111.213 E0.00768
G1 X87.963 Y111.213 E0.12774
M73 P8 R5
G1 X87.963 Y111.458 E0.00768
G1 X84.537 Y112.062 E0.10907
G1 X84.537 Y67.847 E1.38633
M204 S1250
G1 X84.160 Y67.410 F9000.000
M204 S800
;TYPE:External perimeter
G1 F1200.000
G1 X95.840 Y67.410 E0.36622
G1 X95.840 Y112.511 E1.41412
M73 P9 R5
G1 X91.660 Y111.774 E0.13308
G1 X91.660 Y111.590 E0.00578
G1 X88.340 Y111.590 E0.10410
G1 X88.340 Y111.774 E0.00578
G1 X84.160 Y112.511 E0.13308
G1 X84.160 Y67.470 E1.41224
M204 S1250
M73 P10 R5
G1 X84.513 Y67.599 F9000.000
G1 E-2.24000 F4200.000
;WIPE_START
G1 F7200.000
G1 X85.806 Y67.462 E-0.91200
;WIPE_END
G1 E-0.04800 F4200.000
G1 Z0.400 F9000.000
G1 X95.350 Y68.669
G1 Z0.200
G1 E3.20000 F2400.000
M204 S800
;TYPE:Solid infill
;WIDTH:0.422855
G1 F1200.000
G1 X94.751 Y68.070 E0.02675
G1 X94.214 Y68.070 E0.01697
G1 X95.180 Y69.036 E0.04317
G1 X95.180 Y69.573 E0.01697
G1 X93.677 Y68.070 E0.06718
G1 X93.139 Y68.070 E0.01697
G1 X95.180 Y70.111 E0.09118
G1 X95.180 Y70.648 E0.01697
G1 X92.602 Y68.070 E0.11519
G1 X92.065 Y68.070 E0.01697
G1 X95.180 Y71.185 E0.13919
G1 X95.180 Y71.723 E0.01697
G1 X91.527 Y68.070 E0.16320
M73 P11 R5
G1 X90.990 Y68.070 E0.01697
G1 X95.180 Y72.260 E0.18720
G1 X95.180 Y72.797 E0.01697
G1 X90.453 Y68.070 E0.21121
G1 X89.915 Y68.070 E0.01697
G1 X95.180 Y73.335 E0.23522
G1 X95.180 Y73.872 E0.01697
G1 X89.378 Y68.070 E0.25922
G1 X88.841 Y68.070 E0.01697
G1 X95.180 Y74.409 E0.28323
G1 X95.180 Y74.947 E0.01697
G1 X88.303 Y68.070 E0.30723
G1 X87.766 Y68.070 E0.01697
G1 X95.180 Y75.484 E0.33124
G1 X95.180 Y76.021 E0.01697
G1 X87.229 Y68.070 E0.35524
M73 P12 R5
G1 X86.692 Y68.070 E0.01697
G1 X95.180 Y76.558 E0.37925
G1 X95.180 Y77.096 E0.01697
G1 X86.154 Y68.070 E0.40325
G1 X85.617 Y68.070 E0.01697
G1 X95.180 Y77.633 E0.42726
G1 X95.180 Y78.170 E0.01697
G1 X85.080 Y68.070 E0.45127
G1 X84.820 Y68.070 E0.00821
G1 X84.820 Y68.347 E0.00877
G1 X95.180 Y78.708 E0.46287
M73 P13 R5
G1 X95.180 Y79.245 E0.01697
G1 X84.820 Y68.885 E0.46287
G1 X84.820 Y69.422 E0.01697
G1 X95.180 Y79.782 E0.46287
G1 X95.180 Y80.320 E0.01697
G1 X84.820 Y69.959 E0.46287
G1 X84.820 Y70.497 E0.01697
G1 X95.180 Y80.857 E0.46287
M73 P14 R5
G1 X95.180 Y81.394 E0.01697
G1 X84.820 Y71.034 E0.46287
G1 X84.820 Y71.571 E0.01697
G1 X95.180 Y81.932 E0.46287
G1 X95.180 Y82.469 E0.01697
G1 X84.820 Y72.109 E0.46287
G1 X84.820 Y72.646 E0.01697
G1 X95.180 Y83.006 E0.46287
M73 P15 R5
G1 X95.180 Y83.543 E0.01697
G1 X84.820 Y73.183 E0.46287
G1 X84.820 Y73.721 E0.01697
G1 X95.180 Y84.081 E0.46287
G1 X95.180 Y84.618 E0.01697
G1 X84.820 Y74.258 E0.46287
G1 X84.820 Y74.795 E0.01697
G1 X95.180 Y85.155 E0.46287
G1 X95.180 Y85.693 E0.01697
M73 P16 R5
G1 X84.820 Y75.332 E0.46287
G1 X84.820 Y75.870 E0.01697
G1 X95.180 Y86.230 E0.46287
G1 X95.180 Y86.767 E0.01697
G1 X84.820 Y76.407 E0.46287
G1 X84.820 Y76.944 E0.01697
G1 X95.180 Y87.305 E0.46287
G1 X95.180 Y87.842 E0.01697
G1 X84.820 Y77.482 E0.46287
M73 P17 R5
G1 X84.820 Y78.019 E0.01697
G1 X95.180 Y88.379 E0.46287
G1 X95.180 Y88.917 E0.01697
G1 X84.820 Y78.556 E0.46287
G1 X84.820 Y79.094 E0.01697
G1 X95.180 Y89.454 E0.46287
G1 X95.180 Y89.991 E0.01697
G1 X84.820 Y79.631 E0.46287
M73 P18 R5
G1 X84.820 Y80.168 E0.01697
G1 X95.180 Y90.529 E0.46287
G1 X95.180 Y91.066 E0.01697
G1 X84.820 Y80.706 E0.46287
G1 X84.820 Y81.243 E0.01697
G1 X95.180 Y91.603 E0.46287
G1 X95.180 Y92.140 E0.01697
M73 P18 R4
G1 X84.820 Y81.780 E0.46287
M73 P19 R4
G1 X84.820 Y82.318 E0.01697
G1 X95.180 Y92.678 E0.46287
G1 X95.180 Y93.215 E0.01697
G1 X84.820 Y82.855 E0.46287
G1 X84.820 Y83.392 E0.01697
G1 X95.180 Y93.752 E0.46287
G1 X95.180 Y94.290 E0.01697
G1 X84.820 Y83.929 E0.46287
G1 X84.820 Y84.467 E0.01697
G1 X95.180 Y94.827 E0.46287
M73 P20 R4
G1 X95.180 Y95.364 E0.01697
G1 X84.820 Y85.004 E0.46287
G1 X84.820 Y85.541 E0.01697
G1 X95.180 Y95.902 E0.46287
G1 X95.180 Y96.439 E0.01697
G1 X84.820 Y86.079 E0.46287
G1 X84.820 Y86.616 E0.01697
G1 X95.180 Y96.976 E0.46287
M73 P21 R4
G1 X95.180 Y97.514 E0.01697
G1 X84.820 Y87.153 E0.46287
G1 X84.820 Y87.691 E0.01697
G1 X95.180 Y98.051 E0.46287
G1 X95.180 Y98.588 E0.01697
G1 X84.820 Y88.228 E0.46287
G1 X84.820 Y88.765 E0.01697
G1 X95.180 Y99.125 E0.46287
M73 P22 R4
G1 X95.180 Y99.663 E0.01697
G1 X84.820 Y89.303 E0.46287
G1 X84.820 Y89.840 E0.01697
G1 X95.180 Y100.200 E0.46287
G1 X95.180 Y100.737 E0.01697
G1 X84.820 Y90.377 E0.46287
G1 X84.820 Y90.914 E0.01697
G1 X95.180 Y101.275 E0.46287
G1 X95.180 Y101.812 E0.01697
G1 X84.820 Y91.452 E0.46287
M73 P23 R4
G1 X84.820 Y91.989 E0.01697
G1 X95.180 Y102.349 E0.46287
G1 X95.180 Y102.887 E0.01697
G1 X84.820 Y92.526 E0.46287
G1 X84.820 Y93.064 E0.01697
G1 X95.180 Y103.424 E0.46287
G1 X95.180 Y103.961 E0.01697
G1 X84.820 Y93.601 E0.46287
M73 P24 R4
G1 X84.820 Y94.138 E0.01697
G1 X95.180 Y104.499 E0.46287
G1 X95.180 Y105.036 E0.01697
G1 X84.820 Y94.676 E0.46287
G1 X84.820 Y95.213 E0.01697
G1 X95.180 Y105.573 E0.46287
G1 X95.180 Y106.110 E0.01697
G1 X84.820 Y95.750 E0.46287
M73 P25 R4
G1 X84.820 Y96.288 E0.01697
G1 X95.180 Y106.648 E0.46287
G1 X95.180 Y107.185 E0.01697
G1 X84.820 Y96.825 E0.46287
G1 X84.820 Y97.362 E0.01697
G1 X95.180 Y107.722 E0.46287
G1 X95.180 Y108.260 E0.01697
G1 X84.820 Y97.899 E0.46287
G1 X84.820 Y98.437 E0.01697
M73 P26 R4
G1 X95.180 Y108.797 E0.46287
G1 X95.180 Y109.334 E0.01697
G1 X84.820 Y98.974 E0.46287
G1 X84.820 Y99.511 E0.01697
G1 X95.180 Y109.872 E0.46287
G1 X95.180 Y110.409 E0.01697
G1 X84.820 Y100.049 E0.46287
G1 X84.820 Y100.586 E0.01697
G1 X95.180 Y110.946 E0.46287
M73 P27 R4
G1 X95.180 Y111.484 E0.01697
G1 X84.820 Y101.123 E0.46287
G1 X84.820 Y101.661 E0.01697
G1 X94.821 Y111.662 E0.44682
G1 X94.169 Y111.547 E0.02093
G1 X84.820 Y102.198 E0.41767
G1 X84.820 Y102.735 E0.01697
G1 X93.516 Y111.432 E0.38853
M73 P28 R4
G1 X92.864 Y111.317 E0.02093
G1 X84.820 Y103.273 E0.35938
G1 X84.820 Y103.810 E0.01697
G1 X91.940 Y110.930 E0.31811
G1 X91.403 Y110.930 E0.01697
G1 X84.820 Y104.347 E0.29411
G1 X84.820 Y104.884 E0.01697
G1 X90.866 Y110.930 E0.27010
G1 X90.328 Y110.930 E0.01697
G1 X84.820 Y105.422 E0.24610
G1 X84.820 Y105.959 E0.01697
G1 X89.791 Y110.930 E0.22209
G1 X89.254 Y110.930 E0.01697
G1 X84.820 Y106.496 E0.19809
M73 P29 R4
G1 X84.820 Y107.034 E0.01697
G1 X88.716 Y110.930 E0.17408
G1 X88.179 Y110.930 E0.01697
G1 X84.820 Y107.571 E0.15008
G1 X84.820 Y108.108 E0.01697
G1 X87.680 Y110.969 E0.12779
G1 X87.680 Y111.221 E0.00796
G1 X87.438 Y111.263 E0.00778
G1 X84.820 Y108.646 E0.11695
G1 X84.820 Y109.183 E0.01697
G1 X86.981 Y111.344 E0.09655
G1 X86.524 Y111.424 E0.01465
G1 X84.820 Y109.720 E0.07614
G1 X84.820 Y110.258 E0.01697
G1 X86.067 Y111.505 E0.05573
G1 X85.611 Y111.586 E0.01465
G1 X84.820 Y110.795 E0.03532
G1 X84.820 Y111.332 E0.01697
G1 X85.300 Y111.813 E0.02146
M204 S1250
; stop printing object FilingGuide_01.stl id:0 copy 0
M106 S84.15
;LAYER_CHANGE
;Z:0.35
;HEIGHT:0.15
;BEFORE_LAYER_CHANGE
G92 E0.0
;0.35


G1 E-2.24000 F4200.000
;WIPE_START
G1 F7200.000
G1 X84.820 Y111.332 E-0.37647
G1 X84.820 Y110.795 E-0.29776
G1 X85.123 Y111.098 E-0.23777
;WIPE_END
G1 E-0.04800 F4200.000
G1 Z0.400 F9000.000
;AFTER_LAYER_CHANGE
;0.35
G1 X81.522 Y113.829
G1 Z0.350
G1 E3.20000 F2400.000
;TYPE:Skirt
;WIDTH:0.42
G1 X81.374 Y113.081 E0.01844
G1 X81.373 Y66.996 E1.11456
M73 P30 R4
G1 X81.449 Y66.405 E0.01442
G1 X81.727 Y65.752 E0.01716
G1 X82.183 Y65.213 E0.01707
G1 X82.780 Y64.830 E0.01716
G1 X83.464 Y64.640 E0.01716
G1 X96.254 Y64.623 E0.30932
G1 X97.138 Y64.795 E0.02179
G1 X97.892 Y65.281 E0.02170
G1 X98.412 Y66.013 E0.02170
G1 X98.624 Y66.888 E0.02179
G1 X98.627 Y113.004 E1.11529
G1 X98.551 Y113.595 E0.01442
G1 X98.271 Y114.251 E0.01725
G1 X97.806 Y114.797 E0.01734
G1 X97.202 Y115.178 E0.01725
G1 X96.513 Y115.362 E0.01725
G1 X83.739 Y115.377 E0.30896
G1 X83.155 Y115.301 E0.01424
G1 X82.460 Y114.997 E0.01835
G1 X81.897 Y114.489 E0.01835
G1 X81.552 Y113.881 E0.01689
; printing object FilingGuide_01.stl id:0 copy 0
G1 E-2.24000 F4200.000
;WIPE_START
G1 F7200.000
G1 X81.374 Y113.081 E-0.45411
G1 X81.374 Y112.255 E-0.45789
;WIPE_END
G1 E-0.04800 F4200.000
G1 Z0.550 F9000.000
G1 X84.393 Y112.234
G1 Z0.350
G1 E3.20000 F2400.000
M204 S800
;TYPE:Perimeter
;WIDTH:0.45
G1 F3000.000
G1 X84.393 Y67.643 E1.16186
M73 P31 R4
G1 X95.607 Y67.643 E0.29220
G1 X95.607 Y112.234 E1.16186
G1 X91.893 Y111.579 E0.09827
G1 X91.893 Y111.357 E0.00578
G1 X88.107 Y111.357 E0.09864
G1 X88.107 Y111.579 E0.00578
G1 X84.452 Y112.224 E0.09671
M204 S1250
G1 X83.975 Y112.732 F9000.000
M204 S800
;TYPE:External perimeter
G1 F2400.000
G1 X83.975 Y67.225 E1.18572
G1 X96.025 Y67.225 E0.31397
M73 P32 R4
G1 X96.025 Y112.732 E1.18572
G1 X91.475 Y111.930 E0.12038
G1 X91.475 Y111.775 E0.00403
G1 X88.525 Y111.775 E0.07686
G1 X88.525 Y111.930 E0.00403
G1 X84.034 Y112.721 E0.11882
M204 S1250
G1 X84.151 Y112.372 F9000.000
G1 E-2.24000 F4200.000
;WIPE_START
G1 F7200.000
G1 X84.032 Y111.076 E-0.91200
;WIPE_END
G1 E-0.04800 F4200.000
G1 Z0.550 F9000.000
G1 X85.369 Y67.768
G1 Z0.350
G1 E3.20000 F2400.000
M204 S1000
;TYPE:Solid infill
;WIDTH:0.453166
G1 F8400.000
G1 X84.706 Y68.431 E0.02463
G1 X84.706 Y69.027 E0.01563
G1 X85.777 Y67.956 E0.03975
G1 X86.372 Y67.956 E0.01563
G1 X84.706 Y69.622 E0.06185
G1 X84.706 Y70.217 E0.01563
G1 X86.967 Y67.956 E0.08396
G1 X87.563 Y67.956 E0.01563
G1 X84.706 Y70.813 E0.10606
G1 X84.706 Y71.408 E0.01563
G1 X88.158 Y67.956 E0.12817
G1 X88.754 Y67.956 E0.01563
G1 X84.706 Y72.004 E0.15027
G1 X84.706 Y72.599 E0.01563
G1 X89.349 Y67.956 E0.17237
M73 P33 R4
G1 X89.944 Y67.956 E0.01563
G1 X84.706 Y73.194 E0.19448
G1 X84.706 Y73.790 E0.01563
G1 X90.540 Y67.956 E0.21658
G1 X91.135 Y67.956 E0.01563
G1 X84.706 Y74.385 E0.23869
G1 X84.706 Y74.980 E0.01563
G1 X91.730 Y67.956 E0.26079
G1 X92.326 Y67.956 E0.01563
G1 X84.706 Y75.576 E0.28289
G1 X84.706 Y76.171 E0.01563
G1 X92.921 Y67.956 E0.30500
G1 X93.516 Y67.956 E0.01563
G1 X84.706 Y76.766 E0.32710
G1 X84.706 Y77.362 E0.01563
G1 X94.112 Y67.956 E0.34921
G1 X94.707 Y67.956 E0.01563
G1 X84.706 Y77.957 E0.37131
G1 X84.706 Y78.552 E0.01563
G1 X95.294 Y67.965 E0.39310
G1 X95.294 Y68.560 E0.01563
G1 X84.706 Y79.148 E0.39310
G1 X84.706 Y79.743 E0.01563
G1 X95.294 Y69.155 E0.39310
G1 X95.294 Y69.751 E0.01563
G1 X84.706 Y80.338 E0.39310
G1 X84.706 Y80.934 E0.01563
G1 X95.294 Y70.346 E0.39310
M73 P34 R4
G1 X95.294 Y70.941 E0.01563
G1 X84.706 Y81.529 E0.39310
G1 X84.706 Y82.124 E0.01563
G1 X95.294 Y71.537 E0.39310
G1 X95.294 Y72.132 E0.01563
G1 X84.706 Y82.720 E0.39310
G1 X84.706 Y83.315 E0.01563
G1 X95.294 Y72.728 E0.39310
G1 X95.294 Y73.323 E0.01563
G1 X84.706 Y83.911 E0.39310
G1 X84.706 Y84.506 E0.01563
G1 X95.294 Y73.918 E0.39310
G1 X95.294 Y74.514 E0.01563
G1 X84.706 Y85.101 E0.39310
G1 X84.706 Y85.697 E0.01563
G1 X95.294 Y75.109 E0.39310
G1 X95.294 Y75.704 E0.01563
G1 X84.706 Y86.292 E0.39310
G1 X84.706 Y86.887 E0.01563
G1 X95.294 Y76.300 E0.39310
G1 X95.294 Y76.895 E0.01563
G1 X84.706 Y87.483 E0.39310
G1 X84.706 Y88.078 E0.01563
G1 X95.294 Y77.490 E0.39310
G1 X95.294 Y78.086 E0.01563
G1 X84.706 Y88.673 E0.39310
M73 P35 R4
G1 X84.706 Y89.269 E0.01563
G1 X95.294 Y78.681 E0.39310
G1 X95.294 Y79.276 E0.01563
G1 X84.706 Y89.864 E0.39310
G1 X84.706 Y90.459 E0.01563
G1 X95.294 Y79.872 E0.39310
G1 X95.294 Y80.467 E0.01563
G1 X84.706 Y91.055 E0.39310
G1 X84.706 Y91.650 E0.01563
G1 X95.294 Y81.062 E0.39310
G1 X95.294 Y81.658 E0.01563
G1 X84.706 Y92.245 E0.39310
G1 X84.706 Y92.841 E0.01563
G1 X95.294 Y82.253 E0.39310
G1 X95.294 Y82.848 E0.01563
G1 X84.706 Y93.436 E0.39310
G1 X84.706 Y94.031 E0.01563
G1 X95.294 Y83.444 E0.39310
G1 X95.294 Y84.039 E0.01563
G1 X84.706 Y94.627 E0.39310
G1 X84.706 Y95.222 E0.01563
G1 X95.294 Y84.635 E0.39310
G1 X95.294 Y85.230 E0.01563
G1 X84.706 Y95.818 E0.39310
G1 X84.706 Y96.413 E0.01563
G1 X95.294 Y85.825 E0.39310
M73 P36 R4
G1 X95.294 Y86.421 E0.01563
G1 X84.706 Y97.008 E0.39310
G1 X84.706 Y97.604 E0.01563
G1 X95.294 Y87.016 E0.39310
G1 X95.294 Y87.611 E0.01563
G1 X84.706 Y98.199 E0.39310
G1 X84.706 Y98.794 E0.01563
G1 X95.294 Y88.207 E0.39310
G1 X95.294 Y88.802 E0.01563
G1 X84.706 Y99.390 E0.39310
G1 X84.706 Y99.985 E0.01563
G1 X95.294 Y89.397 E0.39310
G1 X95.294 Y89.993 E0.01563
G1 X84.706 Y100.580 E0.39310
G1 X84.706 Y101.176 E0.01563
G1 X95.294 Y90.588 E0.39310
G1 X95.294 Y91.183 E0.01563
G1 X84.706 Y101.771 E0.39310
G1 X84.706 Y102.366 E0.01563
G1 X95.294 Y91.779 E0.39310
G1 X95.294 Y92.374 E0.01563
G1 X84.706 Y102.962 E0.39310
M73 P36 R3
G1 X84.706 Y103.557 E0.01563
G1 X95.294 Y92.969 E0.39310
G1 X95.294 Y93.565 E0.01563
G1 X84.706 Y104.152 E0.39310
M73 P37 R3
G1 X84.706 Y104.748 E0.01563
G1 X95.294 Y94.160 E0.39310
G1 X95.294 Y94.755 E0.01563
G1 X84.706 Y105.343 E0.39310
G1 X84.706 Y105.938 E0.01563
G1 X95.294 Y95.351 E0.39310
G1 X95.294 Y95.946 E0.01563
G1 X84.706 Y106.534 E0.39310
G1 X84.706 Y107.129 E0.01563
G1 X95.294 Y96.542 E0.39310
G1 X95.294 Y97.137 E0.01563
G1 X84.706 Y107.725 E0.39310
G1 X84.706 Y108.320 E0.01563
G1 X95.294 Y97.732 E0.39310
G1 X95.294 Y98.328 E0.01563
G1 X84.706 Y108.915 E0.39310
G1 X84.706 Y109.511 E0.01563
G1 X95.294 Y98.923 E0.39310
G1 X95.294 Y99.518 E0.01563
G1 X84.706 Y110.106 E0.39310
G1 X84.706 Y110.701 E0.01563
G1 X95.294 Y100.114 E0.39310
G1 X95.294 Y100.709 E0.01563
G1 X84.706 Y111.297 E0.39310
G1 X84.706 Y111.860 E0.01480
G1 X84.744 Y111.854 E0.00102
G1 X95.294 Y101.304 E0.39168
M73 P38 R3
G1 X95.294 Y101.900 E0.01563
G1 X85.467 Y111.726 E0.36484
