; generated by PrusaSlicer 2.3.0+win64 on 2021-04-18 at 20:33:59 UTC


;
;

;
;
; 

; external perimeters extrusion width = 0.45mm
; perimeters extrusion width = 0.45mm
; infill extrusion width = 0.45mm
; solid infill extrusion width = 0.45mm
; top infill extrusion width = 0.40mm
; first layer extrusion width = 0.42mm

M73 P0 R5
M201 X1250 Y1250 Z400 E5000 ; sets maximum accelerations, mm/sec^2
M203 X180 Y180 Z12 E80 ; sets maximum feedrates, mm/sec
M204 P1250 R1250 T1250 ; sets acceleration (P, T) and retract acceleration (R), mm/sec^2
M205 X8.00 Y8.00 Z2.00 E10.00 ; sets the jerk limits, mm/sec
M205 S0 T0 ; sets the minimum extruding and travel feed rate, mm/sec
M107
;TYPE:Custom
G90 ; use absolute coordinates
M83 ; extruder relative mode
M104 S170 ; set extruder temp for bed leveling
M140 S60 ; set bed temp
M109 R170 ; wait for bed leveling temp
M190 S60 ; wait for bed temp
G28 ; home all without mesh bed level
G29 ; mesh bed leveling 
M104 S215 ; set extruder temp
G92 E0.0
G1 Y-2.0 X179 F2400
M73 P1 R5
G1 Z3 F720
M109 S215 ; wait for extruder temp

; intro line
G1 X170 F1000
G1 Z0.2 F720
G1 X110.0 E8.0 F900
M73 P3 R5
G1 X40.0 E10.0 F700
G92 E0.0

M221 S95 ; set flow
G21 ; set units to millimeters
G90 ; use absolute coordinates
M83 ; use relative distances for extrusion
M900 K0.2 ; Filament gcode LA 1.5
; ; Filament gcode LA 1.0
;LAYER_CHANGE
;Z:0.2
;HEIGHT:0.2
;BEFORE_LAYER_CHANGE
G92 E0.0
;0.2


M73 P4 R5
G1 E-3.20000 F4200.000
M73 P5 R5
G1 Z0.200 F9000.000
;AFTER_LAYER_CHANGE
;0.2
G1 Z0.400
G1 X59.762 Y92.332
G1 Z0.200
G1 E3.20000 F2400.000
M204 S800
;TYPE:Skirt
;WIDTH:0.42
G1 F1200.000
G1 X59.536 Y91.510 E0.02673
G1 X59.529 Y88.590 E0.09155
G1 X59.709 Y87.787 E0.02579
G1 X60.036 Y87.231 E0.02024
G1 X60.497 Y86.784 E0.02012
G1 X61.064 Y86.477 E0.02024
G1 X61.694 Y86.333 E0.02024
G1 X118.100 Y86.323 E1.76859
M73 P6 R5
G1 X118.992 Y86.498 E0.02849
G1 X119.755 Y86.998 E0.02860
G1 X120.274 Y87.748 E0.02860
G1 X120.472 Y88.635 E0.02849
G1 X120.470 Y91.425 E0.08750
G1 X120.279 Y92.241 E0.02626
G1 X119.950 Y92.787 E0.02000
G1 X119.491 Y93.225 E0.01989
G1 X118.929 Y93.526 E0.02000
G1 X118.306 Y93.667 E0.02000
G1 X61.816 Y93.675 E1.77121
M73 P7 R5
G1 X60.984 Y93.491 E0.02673
G1 X60.267 Y93.023 E0.02684
G1 X59.798 Y92.380 E0.02496
M204 S1250
; printing object FilingBlock2_cutdown.stl id:0 copy 0
G1 E-2.24000 F4200.000
;WIPE_START
G1 F7200.000
G1 X59.536 Y91.510 E-0.50361
G1 X59.534 Y90.773 E-0.40839
;WIPE_END
G1 E-0.04800 F4200.000
G1 Z0.400 F9000.000
G1 X62.491 Y90.713
G1 Z0.200
G1 E3.20000 F2400.000
M204 S800
;TYPE:Perimeter
G1 F1200.000
G1 X62.491 Y89.287 E0.04468
G1 X63.417 Y89.287 E0.02903
G1 X63.417 Y90.713 E0.04468
G1 X62.551 Y90.713 E0.02715
M204 S1250
G1 X62.114 Y91.090 F9000.000
M204 S800
;TYPE:External perimeter
G1 F1200.000
G1 X62.114 Y88.910 E0.06833
G1 X63.794 Y88.910 E0.05268
G1 X63.794 Y91.090 E0.06833
G1 X62.174 Y91.090 E0.05079
M204 S1250
G1 X62.201 Y90.699 F9000.000
G1 E-2.24000 F4200.000
;WIPE_START
G1 F7200.000
G1 X62.129 Y89.445 E-0.91200
;WIPE_END
G1 E-0.04800 F4200.000
G1 Z0.400 F9000.000
G1 X66.700 Y90.513
G1 Z0.200
G1 E3.20000 F2400.000
M204 S800
;TYPE:Perimeter
G1 F1200.000
G1 X66.700 Y89.487 E0.03214
G1 X117.309 Y89.487 E1.58681
M73 P8 R5
G1 X117.309 Y90.513 E0.03214
G1 X66.760 Y90.513 E1.58493
M204 S1250
M73 P9 R5
G1 X66.323 Y90.890 F9000.000
M204 S800
;TYPE:External perimeter
G1 F1200.000
G1 X66.323 Y89.110 E0.05579
G1 X117.686 Y89.110 E1.61046
M73 P10 R5
G1 X117.686 Y90.890 E0.05579
G1 X66.383 Y90.890 E1.60858
M204 S1250
M73 P11 R5
G1 X66.519 Y90.541 F9000.000
G1 E-2.24000 F4200.000
;WIPE_START
G1 F7200.000
G1 X66.328 Y89.245 E-0.91200
;WIPE_END
G1 E-0.04800 F4200.000
G1 Z0.400 F9000.000
G1 X116.433 Y89.601
G1 Z0.200
G1 E3.20000 F2400.000
M204 S800
;TYPE:Solid infill
;WIDTH:0.420464
G1 F1200.000
G1 X117.026 Y90.194 E0.02635
G1 X117.026 Y90.230 E0.00112
G1 X116.528 Y90.230 E0.01564
G1 X116.069 Y89.770 E0.02040
G1 X115.535 Y89.770 E0.01676
G1 X115.994 Y90.230 E0.02040
G1 X115.460 Y90.230 E0.01676
G1 X115.001 Y89.770 E0.02040
G1 X114.467 Y89.770 E0.01676
G1 X114.926 Y90.230 E0.02040
G1 X114.392 Y90.230 E0.01676
G1 X113.933 Y89.770 E0.02040
G1 X113.399 Y89.770 E0.01676
G1 X113.858 Y90.230 E0.02040
G1 X113.324 Y90.230 E0.01676
G1 X112.865 Y89.770 E0.02040
G1 X112.331 Y89.770 E0.01676
G1 X112.791 Y90.230 E0.02040
G1 X112.257 Y90.230 E0.01676
G1 X111.797 Y89.770 E0.02040
G1 X111.263 Y89.770 E0.01676
G1 X111.723 Y90.230 E0.02040
G1 X111.189 Y90.230 E0.01676
G1 X110.729 Y89.770 E0.02040
G1 X110.195 Y89.770 E0.01676
G1 X110.655 Y90.230 E0.02040
G1 X110.121 Y90.230 E0.01676
G1 X109.661 Y89.770 E0.02040
G1 X109.127 Y89.770 E0.01676
G1 X109.587 Y90.230 E0.02040
G1 X109.053 Y90.230 E0.01676
G1 X108.594 Y89.770 E0.02040
G1 X108.060 Y89.770 E0.01676
G1 X108.519 Y90.230 E0.02040
G1 X107.985 Y90.230 E0.01676
G1 X107.526 Y89.770 E0.02040
G1 X106.992 Y89.770 E0.01676
G1 X107.451 Y90.230 E0.02040
G1 X106.917 Y90.230 E0.01676
G1 X106.458 Y89.770 E0.02040
G1 X105.924 Y89.770 E0.01676
G1 X106.383 Y90.230 E0.02040
M73 P12 R5
G1 X105.849 Y90.230 E0.01676
G1 X105.390 Y89.770 E0.02040
G1 X104.856 Y89.770 E0.01676
G1 X105.316 Y90.230 E0.02040
G1 X104.782 Y90.230 E0.01676
G1 X104.322 Y89.770 E0.02040
G1 X103.788 Y89.770 E0.01676
G1 X104.248 Y90.230 E0.02040
G1 X103.714 Y90.230 E0.01676
G1 X103.254 Y89.770 E0.02040
G1 X102.720 Y89.770 E0.01676
G1 X103.180 Y90.230 E0.02040
G1 X102.646 Y90.230 E0.01676
G1 X102.186 Y89.770 E0.02040
G1 X101.652 Y89.770 E0.01676
G1 X102.112 Y90.230 E0.02040
G1 X101.578 Y90.230 E0.01676
G1 X101.119 Y89.770 E0.02040
G1 X100.585 Y89.770 E0.01676
G1 X101.044 Y90.230 E0.02040
G1 X100.510 Y90.230 E0.01676
G1 X100.051 Y89.770 E0.02040
G1 X99.517 Y89.770 E0.01676
G1 X99.976 Y90.230 E0.02040
G1 X99.442 Y90.230 E0.01676
G1 X98.983 Y89.770 E0.02040
G1 X98.449 Y89.770 E0.01676
G1 X98.908 Y90.230 E0.02040
G1 X98.374 Y90.230 E0.01676
G1 X97.915 Y89.770 E0.02040
G1 X97.381 Y89.770 E0.01676
G1 X97.841 Y90.230 E0.02040
G1 X97.307 Y90.230 E0.01676
G1 X96.847 Y89.770 E0.02040
G1 X96.313 Y89.770 E0.01676
G1 X96.773 Y90.230 E0.02040
G1 X96.239 Y90.230 E0.01676
G1 X95.779 Y89.770 E0.02040
G1 X95.245 Y89.770 E0.01676
G1 X95.705 Y90.230 E0.02040
G1 X95.171 Y90.230 E0.01676
G1 X94.711 Y89.770 E0.02040
G1 X94.177 Y89.770 E0.01676
G1 X94.637 Y90.230 E0.02040
G1 X94.103 Y90.230 E0.01676
G1 X93.644 Y89.770 E0.02040
G1 X93.110 Y89.770 E0.01676
G1 X93.569 Y90.230 E0.02040
G1 X93.035 Y90.230 E0.01676
G1 X92.576 Y89.770 E0.02040
G1 X92.042 Y89.770 E0.01676
G1 X92.501 Y90.230 E0.02040
G1 X91.967 Y90.230 E0.01676
G1 X91.508 Y89.770 E0.02040
G1 X90.974 Y89.770 E0.01676
G1 X91.433 Y90.230 E0.02040
G1 X90.899 Y90.230 E0.01676
G1 X90.440 Y89.770 E0.02040
G1 X89.906 Y89.770 E0.01676
G1 X90.366 Y90.230 E0.02040
G1 X89.832 Y90.230 E0.01676
G1 X89.372 Y89.770 E0.02040
G1 X88.838 Y89.770 E0.01676
G1 X89.298 Y90.230 E0.02040
G1 X88.764 Y90.230 E0.01676
G1 X88.304 Y89.770 E0.02040
G1 X87.770 Y89.770 E0.01676
G1 X88.230 Y90.230 E0.02040
G1 X87.696 Y90.230 E0.01676
G1 X87.236 Y89.770 E0.02040
G1 X86.702 Y89.770 E0.01676
G1 X87.162 Y90.230 E0.02040
G1 X86.628 Y90.230 E0.01676
G1 X86.169 Y89.770 E0.02040
G1 X85.635 Y89.770 E0.01676
G1 X86.094 Y90.230 E0.02040
G1 X85.560 Y90.230 E0.01676
G1 X85.101 Y89.770 E0.02040
G1 X84.567 Y89.770 E0.01676
G1 X85.026 Y90.230 E0.02040
G1 X84.492 Y90.230 E0.01676
G1 X84.033 Y89.770 E0.02040
G1 X83.499 Y89.770 E0.01676
G1 X83.958 Y90.230 E0.02040
G1 X83.424 Y90.230 E0.01676
G1 X82.965 Y89.770 E0.02040
M73 P13 R5
G1 X82.431 Y89.770 E0.01676
G1 X82.891 Y90.230 E0.02040
G1 X82.357 Y90.230 E0.01676
G1 X81.897 Y89.770 E0.02040
G1 X81.363 Y89.770 E0.01676
G1 X81.823 Y90.230 E0.02040
G1 X81.289 Y90.230 E0.01676
G1 X80.829 Y89.770 E0.02040
G1 X80.295 Y89.770 E0.01676
G1 X80.755 Y90.230 E0.02040
G1 X80.221 Y90.230 E0.01676
G1 X79.761 Y89.770 E0.02040
G1 X79.227 Y89.770 E0.01676
G1 X79.687 Y90.230 E0.02040
G1 X79.153 Y90.230 E0.01676
G1 X78.694 Y89.770 E0.02040
G1 X78.160 Y89.770 E0.01676
G1 X78.619 Y90.230 E0.02040
G1 X78.085 Y90.230 E0.01676
G1 X77.626 Y89.770 E0.02040
G1 X77.092 Y89.770 E0.01676
G1 X77.551 Y90.230 E0.02040
G1 X77.017 Y90.230 E0.01676
G1 X76.558 Y89.770 E0.02040
G1 X76.024 Y89.770 E0.01676
G1 X76.483 Y90.230 E0.02040
G1 X75.949 Y90.230 E0.01676
G1 X75.490 Y89.770 E0.02040
G1 X74.956 Y89.770 E0.01676
G1 X75.416 Y90.230 E0.02040
G1 X74.882 Y90.230 E0.01676
G1 X74.422 Y89.770 E0.02040
G1 X73.888 Y89.770 E0.01676
G1 X74.348 Y90.230 E0.02040
G1 X73.814 Y90.230 E0.01676
G1 X73.354 Y89.770 E0.02040
G1 X72.820 Y89.770 E0.01676
G1 X73.280 Y90.230 E0.02040
G1 X72.746 Y90.230 E0.01676
G1 X72.286 Y89.770 E0.02040
G1 X71.752 Y89.770 E0.01676
G1 X72.212 Y90.230 E0.02040
G1 X71.678 Y90.230 E0.01676
G1 X71.219 Y89.770 E0.02040
G1 X70.685 Y89.770 E0.01676
G1 X71.144 Y90.230 E0.02040
G1 X70.610 Y90.230 E0.01676
G1 X70.151 Y89.770 E0.02040
G1 X69.617 Y89.770 E0.01676
G1 X70.076 Y90.230 E0.02040
G1 X69.542 Y90.230 E0.01676
G1 X69.083 Y89.770 E0.02040
G1 X68.549 Y89.770 E0.01676
G1 X69.008 Y90.230 E0.02040
G1 X68.475 Y90.230 E0.01676
G1 X68.015 Y89.770 E0.02040
G1 X67.481 Y89.770 E0.01676
G1 X67.941 Y90.230 E0.02040
G1 X67.407 Y90.230 E0.01676
G1 X66.813 Y89.636 E0.02635
M204 S1250
; stop printing object FilingBlock2_cutdown.stl id:0 copy 0
M106 S84.15
;LAYER_CHANGE
;Z:0.45
;HEIGHT:0.25
;BEFORE_LAYER_CHANGE
G92 E0.0
;0.45


G1 E-2.24000 F4200.000
;WIPE_START
M73 P13 R4
G1 F7200.000
G1 X67.407 Y90.230 E-0.46510
G1 X67.941 Y90.230 E-0.29589
G1 X67.748 Y90.037 E-0.15102
;WIPE_END
G1 E-0.04800 F4200.000
G1 Z0.400 F9000.000
G1 Z0.450
;AFTER_LAYER_CHANGE
;0.45
G1 Z0.650
G1 X60.984 Y93.491
G1 Z0.450
G1 E3.20000 F2400.000
;TYPE:Skirt
;WIDTH:0.42
G1 F2364
G1 X60.267 Y93.023 E0.03260
G1 X59.762 Y92.332 E0.03260
G1 X59.536 Y91.510 E0.03246
G1 X59.529 Y88.590 E0.11119
G1 X59.709 Y87.787 E0.03131
G1 X60.036 Y87.231 E0.02458
G1 X60.497 Y86.784 E0.02444
G1 X61.064 Y86.477 E0.02458
G1 X61.694 Y86.333 E0.02458
G1 X118.100 Y86.323 E2.14782
M73 P14 R4
G1 X118.992 Y86.498 E0.03459
G1 X119.755 Y86.998 E0.03474
G1 X120.274 Y87.748 E0.03474
G1 X120.472 Y88.635 E0.03460
G1 X120.470 Y91.425 E0.10626
G1 X120.279 Y92.241 E0.03189
G1 X119.950 Y92.787 E0.02429
G1 X119.491 Y93.225 E0.02415
G1 X118.929 Y93.526 E0.02429
G1 X118.306 Y93.667 E0.02429
G1 X61.816 Y93.675 E2.15101
G1 X61.042 Y93.504 E0.03017
; printing object FilingBlock2_cutdown.stl id:0 copy 0
G1 E-2.24000 F4200.000
;WIPE_START
G1 F7200.000
G1 X60.267 Y93.023 E-0.50568
G1 X59.835 Y92.431 E-0.40632
;WIPE_END
M73 P15 R4
G1 E-0.04800 F4200.000
G1 Z0.650 F9000.000
G1 X66.759 Y90.678
G1 Z0.450
G1 E3.20000 F2400.000
M204 S800
;TYPE:Perimeter
;WIDTH:0.45
G1 F2364
G1 X66.759 Y89.322 E0.05588
G1 X117.475 Y89.322 E2.08926
G1 X117.475 Y90.678 E0.05588
G1 X66.819 Y90.678 E2.08679
M204 S1250
G1 X66.363 Y91.075 F9000.000
M204 S800
;TYPE:External perimeter
G1 F2364
G1 X66.363 Y88.925 E0.08854
M73 P16 R4
G1 X117.871 Y88.925 E2.12192
G1 X117.871 Y91.075 E0.08854
G1 X66.423 Y91.075 E2.11945
M204 S1250
G1 X66.558 Y90.725 F9000.000
G1 E-2.24000 F4200.000
;WIPE_START
G1 F7200.000
G1 X66.377 Y89.430 E-0.91200
;WIPE_END
G1 E-0.04800 F4200.000
G1 Z0.650 F9000.000
G1 X116.553 Y90.559
M73 P17 R4
G1 Z0.450
G1 E3.20000 F2400.000
M204 S1000
;TYPE:Solid infill
;WIDTH:0.450826
G1 F2364
G1 X117.178 Y89.935 E0.03647
G1 X117.178 Y89.619 E0.01304
G1 X116.932 Y89.619 E0.01015
G1 X116.170 Y90.381 E0.04449
G1 X115.608 Y90.381 E0.02319
G1 X116.370 Y89.619 E0.04449
G1 X115.808 Y89.619 E0.02319
G1 X115.046 Y90.381 E0.04449
G1 X114.485 Y90.381 E0.02319
G1 X115.247 Y89.619 E0.04449
G1 X114.685 Y89.619 E0.02319
G1 X113.923 Y90.381 E0.04449
G1 X113.361 Y90.381 E0.02319
G1 X114.123 Y89.619 E0.04449
G1 X113.562 Y89.619 E0.02319
G1 X112.799 Y90.381 E0.04449
G1 X112.238 Y90.381 E0.02319
G1 X113.000 Y89.619 E0.04449
G1 X112.438 Y89.619 E0.02319
G1 X111.676 Y90.381 E0.04449
G1 X111.114 Y90.381 E0.02319
G1 X111.876 Y89.619 E0.04449
G1 X111.315 Y89.619 E0.02319
G1 X110.553 Y90.381 E0.04449
G1 X109.991 Y90.381 E0.02319
G1 X110.753 Y89.619 E0.04449
G1 X110.191 Y89.619 E0.02319
G1 X109.429 Y90.381 E0.04449
G1 X108.868 Y90.381 E0.02319
G1 X109.630 Y89.619 E0.04449
G1 X109.068 Y89.619 E0.02319
G1 X108.306 Y90.381 E0.04449
G1 X107.744 Y90.381 E0.02319
G1 X108.506 Y89.619 E0.04449
G1 X107.945 Y89.619 E0.02319
G1 X107.183 Y90.381 E0.04449
G1 X106.621 Y90.381 E0.02319
G1 X107.383 Y89.619 E0.04449
G1 X106.821 Y89.619 E0.02319
G1 X106.059 Y90.381 E0.04449
G1 X105.497 Y90.381 E0.02319
G1 X106.260 Y89.619 E0.04449
G1 X105.698 Y89.619 E0.02319
G1 X104.936 Y90.381 E0.04449
G1 X104.374 Y90.381 E0.02319
G1 X105.136 Y89.619 E0.04449
G1 X104.574 Y89.619 E0.02319
G1 X103.812 Y90.381 E0.04449
G1 X103.251 Y90.381 E0.02319
G1 X104.013 Y89.619 E0.04449
G1 X103.451 Y89.619 E0.02319
G1 X102.689 Y90.381 E0.04449
G1 X102.127 Y90.381 E0.02319
G1 X102.889 Y89.619 E0.04449
G1 X102.328 Y89.619 E0.02319
G1 X101.566 Y90.381 E0.04449
G1 X101.004 Y90.381 E0.02319
G1 X101.766 Y89.619 E0.04449
G1 X101.204 Y89.619 E0.02319
G1 X100.442 Y90.381 E0.04449
G1 X99.881 Y90.381 E0.02319
G1 X100.643 Y89.619 E0.04449
G1 X100.081 Y89.619 E0.02319
G1 X99.319 Y90.381 E0.04449
G1 X98.757 Y90.381 E0.02319
G1 X99.519 Y89.619 E0.04449
G1 X98.958 Y89.619 E0.02319
G1 X98.196 Y90.381 E0.04449
M73 P18 R4
G1 X97.634 Y90.381 E0.02319
G1 X98.396 Y89.619 E0.04449
G1 X97.834 Y89.619 E0.02319
G1 X97.072 Y90.381 E0.04449
G1 X96.510 Y90.381 E0.02319
G1 X97.272 Y89.619 E0.04449
G1 X96.711 Y89.619 E0.02319
G1 X95.949 Y90.381 E0.04449
G1 X95.387 Y90.381 E0.02319
G1 X96.149 Y89.619 E0.04449
G1 X95.587 Y89.619 E0.02319
G1 X94.825 Y90.381 E0.04449
G1 X94.264 Y90.381 E0.02319
G1 X95.026 Y89.619 E0.04449
G1 X94.464 Y89.619 E0.02319
G1 X93.702 Y90.381 E0.04449
G1 X93.140 Y90.381 E0.02319
G1 X93.902 Y89.619 E0.04449
G1 X93.341 Y89.619 E0.02319
G1 X92.579 Y90.381 E0.04449
G1 X92.017 Y90.381 E0.02319
G1 X92.779 Y89.619 E0.04449
G1 X92.217 Y89.619 E0.02319
G1 X91.455 Y90.381 E0.04449
G1 X90.894 Y90.381 E0.02319
G1 X91.656 Y89.619 E0.04449
G1 X91.094 Y89.619 E0.02319
G1 X90.332 Y90.381 E0.04449
G1 X89.770 Y90.381 E0.02319
G1 X90.532 Y89.619 E0.04449
G1 X89.970 Y89.619 E0.02319
G1 X89.208 Y90.381 E0.04449
G1 X88.647 Y90.381 E0.02319
G1 X89.409 Y89.619 E0.04449
G1 X88.847 Y89.619 E0.02319
G1 X88.085 Y90.381 E0.04449
G1 X87.523 Y90.381 E0.02319
G1 X88.285 Y89.619 E0.04449
G1 X87.724 Y89.619 E0.02319
G1 X86.962 Y90.381 E0.04449
G1 X86.400 Y90.381 E0.02319
G1 X87.162 Y89.619 E0.04449
G1 X86.600 Y89.619 E0.02319
G1 X85.838 Y90.381 E0.04449
G1 X85.277 Y90.381 E0.02319
G1 X86.039 Y89.619 E0.04449
G1 X85.477 Y89.619 E0.02319
G1 X84.715 Y90.381 E0.04449
G1 X84.153 Y90.381 E0.02319
G1 X84.915 Y89.619 E0.04449
G1 X84.354 Y89.619 E0.02319
G1 X83.592 Y90.381 E0.04449
G1 X83.030 Y90.381 E0.02319
G1 X83.792 Y89.619 E0.04449
G1 X83.230 Y89.619 E0.02319
G1 X82.468 Y90.381 E0.04449
G1 X81.906 Y90.381 E0.02319
G1 X82.669 Y89.619 E0.04449
G1 X82.107 Y89.619 E0.02319
G1 X81.345 Y90.381 E0.04449
G1 X80.783 Y90.381 E0.02319
G1 X81.545 Y89.619 E0.04449
G1 X80.983 Y89.619 E0.02319
G1 X80.221 Y90.381 E0.04449
G1 X79.660 Y90.381 E0.02319
G1 X80.422 Y89.619 E0.04449
G1 X79.860 Y89.619 E0.02319
G1 X79.098 Y90.381 E0.04449
G1 X78.536 Y90.381 E0.02319
G1 X79.298 Y89.619 E0.04449
G1 X78.737 Y89.619 E0.02319
G1 X77.975 Y90.381 E0.04449
G1 X77.413 Y90.381 E0.02319
G1 X78.175 Y89.619 E0.04449
G1 X77.613 Y89.619 E0.02319
G1 X76.851 Y90.381 E0.04449
M73 P19 R4
G1 X76.290 Y90.381 E0.02319
G1 X77.052 Y89.619 E0.04449
G1 X76.490 Y89.619 E0.02319
G1 X75.728 Y90.381 E0.04449
G1 X75.166 Y90.381 E0.02319
G1 X75.928 Y89.619 E0.04449
G1 X75.367 Y89.619 E0.02319
G1 X74.604 Y90.381 E0.04449
G1 X74.043 Y90.381 E0.02319
G1 X74.805 Y89.619 E0.04449
G1 X74.243 Y89.619 E0.02319
G1 X73.481 Y90.381 E0.04449
G1 X72.919 Y90.381 E0.02319
G1 X73.681 Y89.619 E0.04449
G1 X73.120 Y89.619 E0.02319
G1 X72.358 Y90.381 E0.04449
G1 X71.796 Y90.381 E0.02319
G1 X72.558 Y89.619 E0.04449
G1 X71.996 Y89.619 E0.02319
G1 X71.234 Y90.381 E0.04449
G1 X70.673 Y90.381 E0.02319
G1 X71.435 Y89.619 E0.04449
G1 X70.873 Y89.619 E0.02319
G1 X70.111 Y90.381 E0.04449
