; generated by PrusaSlicer 2.3.0+win64 on 2021-04-19 at 09:36:29 UTC


;
;

;
;
; 

; external perimeters extrusion width = 0.45mm
; perimeters extrusion width = 0.45mm
; infill extrusion width = 0.45mm
; solid infill extrusion width = 0.45mm
; top infill extrusion width = 0.40mm
; first layer extrusion width = 0.42mm

M73 P0 R44
M201 X1250 Y1250 Z400 E5000 ; sets maximum accelerations, mm/sec^2
M203 X180 Y180 Z12 E80 ; sets maximum feedrates, mm/sec
M204 P1250 R1250 T1250 ; sets acceleration (P, T) and retract acceleration (R), mm/sec^2
M205 X8.00 Y8.00 Z2.00 E10.00 ; sets the jerk limits, mm/sec
M205 S0 T0 ; sets the minimum extruding and travel feed rate, mm/sec
M107
;TYPE:Custom
G90 ; use absolute coordinates
M83 ; extruder relative mode
M104 S170 ; set extruder temp for bed leveling
M140 S60 ; set bed temp
M109 R170 ; wait for bed leveling temp
M190 S60 ; wait for bed temp
G28 ; home all without mesh bed level
G29 ; mesh bed leveling 
M104 S215 ; set extruder temp
G92 E0.0
G1 Y-2.0 X179 F2400
G1 Z3 F720
M109 S215 ; wait for extruder temp

; intro line
G1 X170 F1000
G1 Z0.2 F720
G1 X110.0 E8.0 F900
G1 X40.0 E10.0 F700
G92 E0.0

M221 S95 ; set flow
G21 ; set units to millimeters
G90 ; use absolute coordinates
M83 ; use relative distances for extrusion
M900 K0.2 ; Filament gcode LA 1.5
; ; Filament gcode LA 1.0
;LAYER_CHANGE
;Z:0.2
;HEIGHT:0.2
;BEFORE_LAYER_CHANGE
G92 E0.0
;0.2


G1 E-3.20000 F4200.000
G1 Z0.200 F9000.000
;AFTER_LAYER_CHANGE
;0.2
G1 Z0.400
G1 X59.625 Y46.824
G1 Z0.200
G1 E3.20000 F2400.000
M204 S800
;TYPE:Skirt
;WIDTH:0.42
G1 F1200.000
G1 X59.905 Y46.213 E0.02107
G1 X60.277 Y45.767 E0.01823
G1 X60.747 Y45.424 E0.01823
G1 X61.285 Y45.205 E0.01823
G1 X61.861 Y45.123 E0.01823
G1 X118.100 Y45.123 E1.76334
G1 X118.995 Y45.299 E0.02860
G1 X119.758 Y45.800 E0.02860
G1 X120.276 Y46.551 E0.02860
G1 X120.473 Y47.446 E0.02872
G1 X120.473 Y132.511 E2.66718
G1 X120.375 Y133.176 E0.02107
G1 X120.095 Y133.787 E0.02107
G1 X119.720 Y134.236 E0.01835
G1 X119.247 Y134.580 E0.01835
G1 X118.704 Y134.798 E0.01835
G1 X118.124 Y134.877 E0.01835
G1 X61.889 Y134.877 E1.76322
M73 P1 R43
G1 X61.228 Y134.779 E0.02095
G1 X60.617 Y134.499 E0.02107
G1 X60.168 Y134.124 E0.01835
G1 X59.822 Y133.647 E0.01846
G1 X59.604 Y133.100 E0.01846
G1 X59.527 Y132.520 E0.01835
G1 X59.527 Y47.489 E2.66610
G1 X59.616 Y46.883 E0.01919
M204 S1250
; printing object FilingBlock2.stl id:0 copy 0
G1 E-2.24000 F4200.000
;WIPE_START
G1 F7200.000
G1 X59.905 Y46.213 E-0.40439
G1 X60.277 Y45.767 E-0.32215
G1 X60.548 Y45.569 E-0.18546
;WIPE_END
G1 E-0.04800 F4200.000
G1 Z0.400 F9000.000
G1 X62.691 Y105.787
G1 Z0.200
G1 E3.20000 F2400.000
M204 S800
;TYPE:Perimeter
G1 F1200.000
G1 X63.217 Y105.787 E0.01649
G1 X63.217 Y131.713 E0.81289
G1 X62.691 Y131.713 E0.01649
G1 X62.691 Y105.847 E0.81101
M204 S1250
G1 X62.314 Y105.410 F9000.000
M204 S800
;TYPE:External perimeter
G1 F1200.000
G1 X63.594 Y105.410 E0.04013
G1 X63.594 Y132.090 E0.83653
G1 X62.314 Y132.090 E0.04013
G1 X62.314 Y105.470 E0.83465
M204 S1250
G1 X62.663 Y105.604 F9000.000
G1 E-2.24000 F4200.000
;WIPE_START
G1 F7200.000
G1 X63.594 Y105.410 E-0.71011
G1 X63.594 Y105.774 E-0.20189
;WIPE_END
G1 E-0.04800 F4200.000
G1 Z0.400 F9000.000
G1 X62.954 Y131.524
G1 Z0.200
G1 E3.20000 F2400.000
M204 S800
;TYPE:Gap fill
;WIDTH:0.191684
G1 F1200.000
G1 X62.954 Y105.976 E0.31603
M204 S1250
G1 E-2.24000 F4200.000
;WIPE_START
G1 F7200.000
G1 X62.954 Y107.621 E-0.91200
;WIPE_END
G1 E-0.04800 F4200.000
G1 Z0.400 F9000.000
G1 X93.081 Y122.617
G1 Z0.200
G1 E3.20000 F2400.000
M204 S800
;TYPE:Perimeter
;WIDTH:0.42
G1 F1200.000
G1 X93.394 Y122.234 E0.01550
G1 X93.758 Y121.945 E0.01456
G1 X94.084 Y121.769 E0.01162
G1 X94.547 Y121.622 E0.01523
G1 X95.009 Y121.579 E0.01456
G1 X95.379 Y121.609 E0.01162
G1 X95.848 Y121.740 E0.01526
G1 X96.285 Y121.972 E0.01553
G1 X96.662 Y122.292 E0.01550
G1 X96.945 Y122.660 E0.01456
G1 X97.115 Y122.990 E0.01162
G1 X97.252 Y123.451 E0.01508
G1 X97.289 Y123.859 E0.01286
G1 X97.252 Y124.283 E0.01335
G1 X97.115 Y124.744 E0.01505
G1 X96.956 Y125.057 E0.01103
G1 X96.663 Y125.443 E0.01520
G1 X96.294 Y125.757 E0.01519
G1 X95.989 Y125.933 E0.01103
G1 X95.533 Y126.096 E0.01520
G1 X95.041 Y126.158 E0.01553
G1 X94.559 Y126.114 E0.01519
G1 X94.220 Y126.020 E0.01103
G1 X93.784 Y125.809 E0.01520
G1 X93.403 Y125.509 E0.01520
G1 X93.171 Y125.245 E0.01103
G1 X92.921 Y124.829 E0.01520
G1 X92.763 Y124.360 E0.01553
G1 X92.710 Y123.878 E0.01519
G1 X92.736 Y123.528 E0.01103
G1 X92.857 Y123.058 E0.01520
G1 X93.054 Y122.670 E0.01365
M204 S1250
G1 X93.390 Y122.841 F9000.000
M204 S800
;TYPE:External perimeter
G1 F1200.000
G1 X93.660 Y122.504 E0.01353
G1 X93.966 Y122.261 E0.01225
G1 X94.232 Y122.118 E0.00946
G1 X94.623 Y121.994 E0.01285
G1 X95.011 Y121.957 E0.01225
G1 X95.312 Y121.982 E0.00946
G1 X95.707 Y122.092 E0.01286
G1 X96.073 Y122.286 E0.01296
G1 X96.387 Y122.553 E0.01295
G1 X96.625 Y122.863 E0.01225
G1 X96.763 Y123.131 E0.00946
G1 X96.880 Y123.522 E0.01280
G1 X96.911 Y123.860 E0.01063
G1 X96.880 Y124.212 E0.01109
G1 X96.764 Y124.603 E0.01279
G1 X96.635 Y124.856 E0.00889
G1 X96.388 Y125.182 E0.01284
G1 X96.076 Y125.447 E0.01284
G1 X95.830 Y125.589 E0.00889
G1 X95.445 Y125.727 E0.01284
G1 X95.035 Y125.779 E0.01296
G1 X94.627 Y125.742 E0.01284
G1 X94.354 Y125.666 E0.00889
G1 X93.985 Y125.487 E0.01284
G1 X93.664 Y125.234 E0.01284
G1 X93.476 Y125.021 E0.00888
G1 X93.265 Y124.670 E0.01284
G1 X93.133 Y124.279 E0.01296
G1 X93.089 Y123.871 E0.01284
G1 X93.109 Y123.589 E0.00889
G1 X93.212 Y123.192 E0.01284
G1 X93.363 Y122.894 E0.01048
M204 S1250
G1 X93.207 Y122.485 F9000.000
G1 E-2.24000 F4200.000
;WIPE_START
G1 F7200.000
G1 X93.660 Y122.504 E-0.27174
G1 X93.966 Y122.261 E-0.21651
G1 X94.232 Y122.118 E-0.16720
G1 X94.623 Y121.994 E-0.22714
G1 X94.675 Y121.989 E-0.02940
;WIPE_END
G1 E-0.04800 F4200.000
G1 Z0.400 F9000.000
G1 X95.041 Y56.017
G1 Z0.200
G1 E3.20000 F2400.000
M204 S800
;TYPE:Perimeter
G1 F1200.000
G1 X94.549 Y55.972 E0.01550
G1 X94.106 Y55.834 E0.01456
G1 X93.777 Y55.663 E0.01162
G1 X93.395 Y55.361 E0.01526
G1 X93.081 Y54.978 E0.01553
G1 X92.857 Y54.536 E0.01553
G1 X92.736 Y54.067 E0.01520
G1 X92.710 Y53.716 E0.01103
G1 X92.763 Y53.234 E0.01520
G1 X92.918 Y52.775 E0.01519
G1 X93.088 Y52.467 E0.01103
G1 X93.388 Y52.101 E0.01486
G1 X93.656 Y51.873 E0.01103
G1 X94.076 Y51.631 E0.01520
G1 X94.547 Y51.481 E0.01550
G1 X95.009 Y51.438 E0.01456
G1 X95.379 Y51.468 E0.01162
G1 X95.848 Y51.599 E0.01526
G1 X96.285 Y51.831 E0.01553
G1 X96.663 Y52.151 E0.01553
G1 X96.956 Y52.537 E0.01520
G1 X97.115 Y52.851 E0.01103
G1 X97.252 Y53.310 E0.01501
G1 X97.289 Y53.718 E0.01286
G1 X97.252 Y54.142 E0.01335
G1 X97.112 Y54.613 E0.01539
G1 X96.878 Y55.037 E0.01519
G1 X96.655 Y55.309 E0.01103
G1 X96.285 Y55.623 E0.01520
G1 X95.857 Y55.850 E0.01520
G1 X95.522 Y55.956 E0.01103
G1 X95.101 Y56.009 E0.01331
M204 S1250
G1 X95.053 Y55.635 F9000.000
M204 S800
;TYPE:External perimeter
G1 F1200.000
G1 X94.623 Y55.601 E0.01353
G1 X94.250 Y55.484 E0.01225
G1 X93.983 Y55.345 E0.00946
G1 X93.661 Y55.090 E0.01286
G1 X93.399 Y54.771 E0.01296
G1 X93.212 Y54.402 E0.01296
G1 X93.109 Y54.006 E0.01284
G1 X93.089 Y53.723 E0.00889
G1 X93.133 Y53.316 E0.01284
G1 X93.264 Y52.928 E0.01284
G1 X93.401 Y52.680 E0.00889
G1 X93.658 Y52.366 E0.01272
G1 X93.874 Y52.183 E0.00888
G1 X94.229 Y51.978 E0.01284
G1 X94.623 Y51.853 E0.01295
G1 X95.011 Y51.816 E0.01225
G1 X95.312 Y51.841 E0.00946
G1 X95.707 Y51.951 E0.01286
G1 X96.073 Y52.145 E0.01296
G1 X96.388 Y52.412 E0.01296
G1 X96.635 Y52.738 E0.01284
G1 X96.764 Y52.991 E0.00889
G1 X96.880 Y53.381 E0.01277
G1 X96.911 Y53.719 E0.01063
G1 X96.880 Y54.071 E0.01109
G1 X96.763 Y54.466 E0.01291
G1 X96.564 Y54.824 E0.01284
G1 X96.385 Y55.044 E0.00889
G1 X96.073 Y55.309 E0.01284
G1 X95.711 Y55.501 E0.01284
G1 X95.441 Y55.586 E0.00889
G1 X95.113 Y55.628 E0.01036
M204 S1250
G1 X94.858 Y55.984 F9000.000
G1 E-2.24000 F4200.000
;WIPE_START
G1 F7200.000
G1 X94.623 Y55.601 E-0.27174
G1 X94.250 Y55.484 E-0.21651
G1 X93.983 Y55.345 E-0.16720
G1 X93.661 Y55.090 E-0.22736
G1 X93.627 Y55.050 E-0.02919
;WIPE_END
G1 E-0.04800 F4200.000
G1 Z0.400 F9000.000
G1 X72.691 Y105.787
G1 Z0.200
G1 E3.20000 F2400.000
M204 S800
;TYPE:Perimeter
G1 F1200.000
G1 X72.691 Y74.213 E0.98999
G1 X66.700 Y74.213 E0.18784
G1 X66.700 Y48.287 E0.81289
G1 X117.309 Y48.287 E1.58681
G1 X117.309 Y131.713 E2.61576
M73 P2 R43
G1 X66.700 Y131.713 E1.58681
G1 X66.700 Y105.787 E0.81289
G1 X72.631 Y105.787 E0.18596
M204 S1250
G1 X72.314 Y105.410 F9000.000
M204 S800
;TYPE:External perimeter
G1 F1200.000
G1 X72.314 Y74.590 E0.96634
G1 X66.323 Y74.590 E0.18784
G1 X66.323 Y47.910 E0.83653
G1 X117.686 Y47.910 E1.61046
G1 X117.686 Y132.090 E2.63940
G1 X66.323 Y132.090 E1.61046
G1 X66.323 Y105.410 E0.83653
G1 X72.254 Y105.410 E0.18596
M204 S1250
G1 X72.674 Y105.236 F9000.000
G1 E-2.24000 F4200.000
;WIPE_START
G1 F7200.000
G1 X72.257 Y103.764 E-0.91200
;WIPE_END
G1 E-0.04800 F4200.000
G1 Z0.400 F9000.000
G1 X117.196 Y49.165
G1 Z0.200
G1 E3.20000 F2400.000
M204 S800
;TYPE:Solid infill
;WIDTH:0.420961
G1 F1200.000
G1 X116.601 Y48.570 E0.02643
G1 X116.067 Y48.570 E0.01681
G1 X117.026 Y49.529 E0.04266
G1 X117.026 Y50.064 E0.01681
G1 X115.532 Y48.570 E0.06642
G1 X114.997 Y48.570 E0.01681
G1 X117.026 Y50.599 E0.09019
G1 X117.026 Y51.133 E0.01681
G1 X114.463 Y48.570 E0.11396
G1 X113.928 Y48.570 E0.01681
G1 X117.026 Y51.668 E0.13772
G1 X117.026 Y52.203 E0.01681
G1 X113.394 Y48.570 E0.16149
G1 X112.859 Y48.570 E0.01681
G1 X117.026 Y52.737 E0.18526
G1 X117.026 Y53.272 E0.01681
G1 X112.324 Y48.570 E0.20903
G1 X111.790 Y48.570 E0.01681
G1 X117.026 Y53.806 E0.23279
G1 X117.026 Y54.341 E0.01681
G1 X111.255 Y48.570 E0.25656
G1 X110.720 Y48.570 E0.01681
G1 X117.026 Y54.876 E0.28033
G1 X117.026 Y55.410 E0.01681
G1 X110.186 Y48.570 E0.30409
G1 X109.651 Y48.570 E0.01681
G1 X117.026 Y55.945 E0.32786
G1 X117.026 Y56.480 E0.01681
G1 X109.117 Y48.570 E0.35163
G1 X108.582 Y48.570 E0.01681
G1 X117.026 Y57.014 E0.37539
M73 P3 R43
G1 X117.026 Y57.549 E0.01681
G1 X108.047 Y48.570 E0.39916
G1 X107.513 Y48.570 E0.01681
G1 X117.026 Y58.084 E0.42293
G1 X117.026 Y58.618 E0.01681
G1 X106.978 Y48.570 E0.44669
G1 X106.443 Y48.570 E0.01681
G1 X117.026 Y59.153 E0.47046
G1 X117.026 Y59.687 E0.01681
G1 X105.909 Y48.570 E0.49423
G1 X105.374 Y48.570 E0.01681
G1 X117.026 Y60.222 E0.51799
G1 X117.026 Y60.757 E0.01681
G1 X104.840 Y48.570 E0.54176
G1 X104.305 Y48.570 E0.01681
G1 X117.026 Y61.291 E0.56553
G1 X117.026 Y61.826 E0.01681
G1 X103.770 Y48.570 E0.58930
M73 P3 R42
G1 X103.236 Y48.570 E0.01681
G1 X117.026 Y62.361 E0.61306
G1 X117.026 Y62.895 E0.01681
G1 X102.701 Y48.570 E0.63683
G1 X102.166 Y48.570 E0.01681
G1 X117.026 Y63.430 E0.66060
G1 X117.026 Y63.964 E0.01681
G1 X101.632 Y48.570 E0.68436
G1 X101.097 Y48.570 E0.01681
G1 X117.026 Y64.499 E0.70813
G1 X117.026 Y65.034 E0.01681
G1 X100.562 Y48.570 E0.73190
G1 X100.028 Y48.570 E0.01681
G1 X117.026 Y65.568 E0.75566
G1 X117.026 Y66.103 E0.01681
G1 X99.493 Y48.570 E0.77943
G1 X98.959 Y48.570 E0.01681
G1 X117.026 Y66.638 E0.80320
G1 X117.026 Y67.172 E0.01681
G1 X98.424 Y48.570 E0.82696
G1 X97.889 Y48.570 E0.01681
G1 X117.026 Y67.707 E0.85073
G1 X117.026 Y68.242 E0.01681
G1 X97.355 Y48.570 E0.87450
G1 X96.820 Y48.570 E0.01681
G1 X117.026 Y68.776 E0.89826
G1 X117.026 Y69.311 E0.01681
G1 X96.285 Y48.570 E0.92203
G1 X95.751 Y48.570 E0.01681
G1 X117.026 Y69.845 E0.94580
M73 P4 R42
G1 X117.026 Y70.380 E0.01681
G1 X95.216 Y48.570 E0.96956
G1 X94.682 Y48.570 E0.01681
G1 X117.026 Y70.915 E0.99333
G1 X117.026 Y71.449 E0.01681
G1 X94.147 Y48.570 E1.01710
G1 X93.612 Y48.570 E0.01681
G1 X117.026 Y71.984 E1.04087
G1 X117.026 Y72.519 E0.01681
G1 X97.432 Y52.925 E0.87105
G1 X97.379 Y52.746 E0.00587
G1 X97.197 Y52.386 E0.01266
G1 X96.870 Y51.956 E0.01701
G1 X96.445 Y51.595 E0.01750
G1 X95.953 Y51.334 E0.01750
G1 X95.800 Y51.292 E0.00501
G1 X93.078 Y48.570 E0.12100
G1 X92.543 Y48.570 E0.01681
G1 X95.138 Y51.165 E0.11535
G1 X95.008 Y51.154 E0.00410
G1 X94.628 Y51.190 E0.01199
G1 X92.008 Y48.570 E0.11646
G1 X91.474 Y48.570 E0.01681
G1 X94.199 Y51.295 E0.12115
G1 X93.961 Y51.370 E0.00784
G1 X93.821 Y51.451 E0.00510
G1 X90.939 Y48.570 E0.12810
G1 X90.404 Y48.570 E0.01681
G1 X93.483 Y51.649 E0.13687
G1 X93.194 Y51.894 E0.01192
G1 X89.870 Y48.570 E0.14779
G1 X89.335 Y48.570 E0.01681
G1 X92.952 Y52.187 E0.16079
G1 X92.853 Y52.308 E0.00492
G1 X92.741 Y52.510 E0.00727
G1 X88.801 Y48.570 E0.17517
G1 X88.266 Y48.570 E0.01681
G1 X92.582 Y52.886 E0.19186
G1 X92.485 Y53.173 E0.00953
G1 X92.470 Y53.309 E0.00429
G1 X87.731 Y48.570 E0.21067
G1 X87.197 Y48.570 E0.01681
G1 X92.617 Y53.990 E0.24095
M204 S1250
G1 E-2.24000 F4200.000
;WIPE_START
G1 F7200.000
G1 X91.453 Y52.826 E-0.91200
;WIPE_END
G1 E-0.04800 F4200.000
G1 Z0.400 F9000.000
G1 X97.374 Y53.401
G1 Z0.200
G1 E3.20000 F2400.000
M204 S800
G1 F1200.000
G1 X117.026 Y73.053 E0.87365
G1 X117.026 Y73.588 E0.01681
G1 X97.540 Y54.101 E0.86627
G1 X97.531 Y54.196 E0.00298
G1 X97.432 Y54.529 E0.01092
G1 X117.026 Y74.122 E0.87104
G1 X117.026 Y74.657 E0.01681
G1 X97.274 Y54.905 E0.87808
G1 X97.076 Y55.241 E0.01227
G1 X117.026 Y75.192 E0.88689
G1 X117.026 Y75.726 E0.01681
G1 X96.831 Y55.531 E0.89779
G1 X96.542 Y55.776 E0.01192
G1 X117.026 Y76.261 E0.91064
G1 X117.026 Y76.796 E0.01681
G1 X96.212 Y55.982 E0.92528
G1 X95.967 Y56.112 E0.00872
G1 X95.846 Y56.150 E0.00400
G1 X117.026 Y77.330 E0.94157
G1 X117.026 Y77.865 E0.01681
G1 X95.416 Y56.254 E0.96068
M73 P5 R42
G1 X95.046 Y56.301 E0.01171
G1 X94.916 Y56.290 E0.00410
G1 X117.026 Y78.400 E0.98289
G1 X117.026 Y78.934 E0.01681
G1 X94.275 Y56.183 E1.01139
G1 X93.998 Y56.096 E0.00915
G1 X93.623 Y55.901 E0.01328
G1 X93.196 Y55.564 E0.01711
G1 X92.843 Y55.133 E0.01750
G1 X92.591 Y54.637 E0.01750
G1 X92.543 Y54.451 E0.00603
G1 X86.662 Y48.570 E0.26143
G1 X86.127 Y48.570 E0.01681
G1 X117.026 Y79.469 E1.37360
G1 X117.026 Y80.003 E0.01681
G1 X85.593 Y48.570 E1.39737
G1 X85.058 Y48.570 E0.01681
G1 X117.026 Y80.538 E1.42114
G1 X117.026 Y81.073 E0.01681
G1 X84.524 Y48.570 E1.44490
G1 X83.989 Y48.570 E0.01681
G1 X117.026 Y81.607 E1.46867
M73 P5 R41
G1 X117.026 Y82.142 E0.01681
G1 X83.454 Y48.570 E1.49244
G1 X82.920 Y48.570 E0.01681
G1 X117.026 Y82.677 E1.51620
G1 X117.026 Y83.211 E0.01681
G1 X82.385 Y48.570 E1.53997
G1 X81.850 Y48.570 E0.01681
G1 X117.026 Y83.746 E1.56374
G1 X117.026 Y84.280 E0.01681
G1 X81.316 Y48.570 E1.58750
M73 P6 R41
G1 X80.781 Y48.570 E0.01681
G1 X117.026 Y84.815 E1.61127
G1 X117.026 Y85.350 E0.01681
G1 X80.246 Y48.570 E1.63504
G1 X79.712 Y48.570 E0.01681
G1 X117.026 Y85.884 E1.65880
G1 X117.026 Y86.419 E0.01681
G1 X79.177 Y48.570 E1.68257
G1 X78.643 Y48.570 E0.01681
G1 X117.026 Y86.954 E1.70634
G1 X117.026 Y87.488 E0.01681
G1 X78.108 Y48.570 E1.73010
G1 X77.573 Y48.570 E0.01681
G1 X117.026 Y88.023 E1.75387
G1 X117.026 Y88.557 E0.01681
G1 X77.039 Y48.570 E1.77764
G1 X76.504 Y48.570 E0.01681
G1 X117.026 Y89.092 E1.80141
M73 P7 R41
G1 X117.026 Y89.627 E0.01681
G1 X75.969 Y48.570 E1.82517
G1 X75.435 Y48.570 E0.01681
G1 X117.026 Y90.161 E1.84894
G1 X117.026 Y90.696 E0.01681
G1 X74.900 Y48.570 E1.87271
G1 X74.366 Y48.570 E0.01681
G1 X117.026 Y91.231 E1.89647
G1 X117.026 Y91.765 E0.01681
G1 X73.831 Y48.570 E1.92024
G1 X73.296 Y48.570 E0.01681
G1 X117.026 Y92.300 E1.94401
G1 X117.026 Y92.835 E0.01681
G1 X72.762 Y48.570 E1.96777
M73 P7 R40
G1 X72.227 Y48.570 E0.01681
G1 X117.026 Y93.369 E1.99154
G1 X117.026 Y93.904 E0.01681
G1 X71.692 Y48.570 E2.01531
M73 P8 R40
G1 X71.158 Y48.570 E0.01681
G1 X117.026 Y94.438 E2.03907
G1 X117.026 Y94.973 E0.01681
G1 X70.623 Y48.570 E2.06284
G1 X70.089 Y48.570 E0.01681
G1 X117.026 Y95.508 E2.08661
G1 X117.026 Y96.042 E0.01681
G1 X69.554 Y48.570 E2.11037
G1 X69.019 Y48.570 E0.01681
G1 X117.026 Y96.577 E2.13414
G1 X117.026 Y97.112 E0.01681
G1 X68.485 Y48.570 E2.15791
G1 X67.950 Y48.570 E0.01681
G1 X117.026 Y97.646 E2.18167
G1 X117.026 Y98.181 E0.01681
G1 X67.415 Y48.570 E2.20544
M73 P9 R40
G1 X66.983 Y48.570 E0.01359
G1 X66.983 Y48.672 E0.00321
G1 X117.026 Y98.715 E2.22467
G1 X117.026 Y99.250 E0.01681
G1 X66.983 Y49.207 E2.22467
G1 X66.983 Y49.741 E0.01681
