; generated by PrusaSlicer 2.2.0+win64 on 2020-10-03 at 15:58:53 UTC


;
;

;
;
; 

; external perimeters extrusion width = 0.45mm
; perimeters extrusion width = 0.45mm
; infill extrusion width = 0.45mm
; solid infill extrusion width = 0.45mm
; top infill extrusion width = 0.40mm
; first layer extrusion width = 0.42mm

M73 P0 R31
M201 X1250 Y1250 Z400 E5000 ; sets maximum accelerations, mm/sec^2
M203 X180 Y180 Z12 E80 ; sets maximum feedrates, mm/sec
M204 P1250 R1250 T1250 ; sets acceleration (P, T) and retract acceleration (R), mm/sec^2
M205 X8.00 Y8.00 Z2.00 E10.00 ; sets the jerk limits, mm/sec
M205 S0 T0 ; sets the minimum extruding and travel feed rate, mm/sec
M107
G90 ; use absolute coordinates
M83 ; extruder relative mode
M104 S170 ; set extruder temp for bed leveling
M140 S60 ; set bed temp
M109 R170 ; wait for bed leveling temp
M190 S60 ; wait for bed temp
G28 ; home all without mesh bed level
G29 ; mesh bed leveling 
M104 S215 ; set extruder temp
G92 E0.0
G1 Y-2.0 X179 F2400
G1 Z3 F720
M109 S215 ; wait for extruder temp

; intro line
G1 X170 F1000
G1 Z0.2 F720
G1 X110.0 E8.0 F900
M73 P0 R31
G1 X40.0 E10.0 F700
G92 E0.0

M221 S95 ; set flow
G21 ; set units to millimeters
G90 ; use absolute coordinates
M83 ; use relative distances for extrusion
M900 K0.2 ; Filament gcode LA 1.5
; ; Filament gcode LA 1.0
;BEFORE_LAYER_CHANGE
G92 E0.0
;0.2


G1 Z0.200 F9000.000
;AFTER_LAYER_CHANGE
;0.2
G1 E-3.20000 F4200.00000
G1 Z0.400 F9000.000
G1 X68.158 Y68.175
G1 Z0.200
G1 E3.20000 F2400.00000
M204 S800
G1 F1200.000
G1 X70.452 Y66.098 E0.09703
G1 X72.937 Y64.266 E0.09678
G1 X75.588 Y62.693 E0.09667
G1 X77.964 Y61.565 E0.08247
G1 X80.854 Y60.509 E0.09647
G1 X83.849 Y59.742 E0.09694
G1 X86.905 Y59.278 E0.09691
G1 X89.999 Y59.123 E0.09715
G1 X93.086 Y59.278 E0.09691
G1 X96.146 Y59.741 E0.09703
G1 X99.143 Y60.508 E0.09700
G1 X102.031 Y61.564 E0.09643
G1 X104.402 Y62.687 E0.08226
G1 X107.064 Y64.266 E0.09703
G1 X109.531 Y66.085 E0.09612
G1 X111.825 Y68.158 E0.09694
G1 X113.902 Y70.452 E0.09703
G1 X115.734 Y72.937 E0.09678
G1 X117.307 Y75.588 E0.09667
G1 X118.435 Y77.964 E0.08247
G1 X119.491 Y80.854 E0.09647
G1 X120.258 Y83.849 E0.09694
G1 X120.722 Y86.905 E0.09691
G1 X120.877 Y89.996 E0.09703
G1 X120.722 Y93.086 E0.09703
G1 X120.259 Y96.146 E0.09703
G1 X119.492 Y99.143 E0.09700
G1 X118.436 Y102.031 E0.09643
G1 X117.313 Y104.402 E0.08226
G1 X115.734 Y107.064 E0.09703
G1 X113.915 Y109.531 E0.09612
G1 X111.842 Y111.825 E0.09694
G1 X109.548 Y113.902 E0.09703
G1 X107.063 Y115.734 E0.09678
G1 X104.412 Y117.307 E0.09667
G1 X102.036 Y118.435 E0.08247
G1 X99.146 Y119.491 E0.09647
G1 X96.148 Y120.259 E0.09705
G1 X93.095 Y120.722 E0.09680
G1 X90.006 Y120.877 E0.09697
G1 X86.909 Y120.722 E0.09724
G1 X83.854 Y120.259 E0.09687
G1 X80.857 Y119.492 E0.09700
G1 X77.969 Y118.436 E0.09643
G1 X75.598 Y117.313 E0.08226
G1 X72.936 Y115.734 E0.09703
G1 X70.469 Y113.915 E0.09612
G1 X68.175 Y111.842 E0.09694
G1 X66.098 Y109.548 E0.09703
G1 X64.266 Y107.063 E0.09678
G1 X62.693 Y104.412 E0.09667
G1 X61.565 Y102.036 E0.08247
G1 X60.509 Y99.146 E0.09647
G1 X59.741 Y96.148 E0.09705
G1 X59.278 Y93.095 E0.09680
G1 X59.123 Y90.001 E0.09715
G1 X59.278 Y86.914 E0.09691
G1 X59.741 Y83.854 E0.09703
G1 X60.508 Y80.857 E0.09700
G1 X61.564 Y77.969 E0.09643
G1 X62.687 Y75.598 E0.08226
G1 X64.266 Y72.936 E0.09703
G1 X66.085 Y70.469 E0.09612
G1 X68.118 Y68.220 E0.09506
M204 S1250
G1 E-2.24000 F4200.00000
G1 F7200.000
G1 X69.336 Y67.113 E-0.91200
G1 E-0.04800 F4200.00000
G1 Z0.400 F9000.000
G1 X77.613 Y77.613
G1 Z0.200
G1 E3.20000 F2400.00000
M204 S800
G1 F1200.000
G1 X102.387 Y77.613 E0.77678
G1 X102.387 Y102.387 E0.77678
G1 X77.613 Y102.387 E0.77678
G1 X77.613 Y77.673 E0.77490
M204 S1250
G1 X77.990 Y77.990 F9000.000
M204 S800
G1 F1200.000
G1 X102.010 Y77.990 E0.75313
G1 X102.010 Y102.010 E0.75313
G1 X77.990 Y102.010 E0.75313
G1 X77.990 Y78.050 E0.75125
M204 S1250
G1 X77.886 Y77.604 F9000.000
G1 E-2.24000 F4200.00000
G1 F7200.000
G1 X79.636 Y78.046 E-0.91200
G1 E-0.04800 F4200.00000
G1 Z0.400 F9000.000
G1 X70.317 Y70.504
G1 Z0.200
G1 E3.20000 F2400.00000
M204 S800
G1 F1200.000
G1 X70.734 Y70.079 E0.01867
G1 X71.757 Y69.139 E0.04356
G1 X72.824 Y68.252 E0.04352
G1 X73.559 Y67.691 E0.02900
G1 X74.700 Y66.894 E0.04363
G1 X75.877 Y66.156 E0.04356
G1 X77.090 Y65.478 E0.04356
G1 X78.335 Y64.862 E0.04356
G1 X79.609 Y64.309 E0.04356
G1 X80.910 Y63.821 E0.04356
G1 X82.233 Y63.398 E0.04356
G1 X83.576 Y63.042 E0.04356
G1 X84.935 Y62.754 E0.04356
G1 X86.306 Y62.535 E0.04356
G1 X87.687 Y62.384 E0.04356
G1 X89.074 Y62.303 E0.04356
G1 X90.462 Y62.291 E0.04352
G1 X91.386 Y62.322 E0.02900
G1 X92.774 Y62.426 E0.04363
G1 X94.152 Y62.600 E0.04356
G1 X95.520 Y62.843 E0.04356
G1 X96.874 Y63.153 E0.04356
G1 X98.211 Y63.532 E0.04356
G1 X99.527 Y63.976 E0.04356
G1 X100.819 Y64.486 E0.04356
G1 X102.084 Y65.060 E0.04356
G1 X103.318 Y65.697 E0.04356
G1 X104.519 Y66.395 E0.04356
G1 X105.684 Y67.152 E0.04356
G1 X106.809 Y67.967 E0.04356
G1 X107.892 Y68.837 E0.04356
G1 X108.930 Y69.760 E0.04356
G1 X109.921 Y70.734 E0.04356
G1 X110.861 Y71.757 E0.04356
G1 X111.749 Y72.825 E0.04356
G1 X112.582 Y73.936 E0.04356
G1 X113.359 Y75.088 E0.04356
G1 X114.077 Y76.278 E0.04356
G1 X114.734 Y77.501 E0.04356
G1 X115.329 Y78.756 E0.04356
G1 X115.861 Y80.039 E0.04352
G1 X116.179 Y80.907 E0.02900
G1 X116.602 Y82.233 E0.04363
G1 X116.958 Y83.576 E0.04356
G1 X117.246 Y84.935 E0.04356
G1 X117.465 Y86.306 E0.04356
G1 X117.616 Y87.687 E0.04356
G1 X117.697 Y89.074 E0.04356
G1 X117.709 Y90.463 E0.04356
G1 X117.651 Y91.851 E0.04356
G1 X117.523 Y93.237 E0.04363
G1 X117.400 Y94.150 E0.02889
G1 X117.157 Y95.520 E0.04363
G1 X116.847 Y96.874 E0.04356
G1 X116.468 Y98.211 E0.04356
G1 X116.024 Y99.527 E0.04356
G1 X115.514 Y100.819 E0.04356
G1 X114.940 Y102.084 E0.04356
G1 X114.303 Y103.318 E0.04356
G1 X113.605 Y104.519 E0.04356
G1 X112.848 Y105.684 E0.04356
G1 X112.033 Y106.809 E0.04356
G1 X111.163 Y107.892 E0.04356
G1 X110.240 Y108.930 E0.04356
G1 X109.266 Y109.921 E0.04356
G1 X108.243 Y110.861 E0.04356
G1 X107.175 Y111.749 E0.04356
G1 X106.064 Y112.582 E0.04356
G1 X104.912 Y113.359 E0.04356
G1 X103.722 Y114.077 E0.04356
G1 X102.499 Y114.734 E0.04356
G1 X101.244 Y115.329 E0.04356
G1 X99.961 Y115.861 E0.04352
G1 X99.093 Y116.179 E0.02900
G1 X97.767 Y116.602 E0.04363
G1 X96.424 Y116.958 E0.04356
G1 X95.065 Y117.246 E0.04356
G1 X93.694 Y117.465 E0.04356
G1 X92.313 Y117.616 E0.04356
G1 X90.926 Y117.697 E0.04355
G1 X89.537 Y117.709 E0.04356
G1 X88.149 Y117.651 E0.04356
G1 X86.763 Y117.523 E0.04363
G1 X85.850 Y117.400 E0.02888
G1 X84.480 Y117.157 E0.04363
G1 X83.126 Y116.847 E0.04356
G1 X81.789 Y116.468 E0.04356
G1 X80.473 Y116.024 E0.04356
G1 X79.181 Y115.514 E0.04356
G1 X77.916 Y114.940 E0.04356
G1 X76.682 Y114.303 E0.04356
G1 X75.481 Y113.605 E0.04356
G1 X74.316 Y112.848 E0.04356
G1 X73.191 Y112.033 E0.04356
G1 X72.108 Y111.163 E0.04356
G1 X71.070 Y110.240 E0.04356
G1 X70.079 Y109.266 E0.04356
G1 X69.139 Y108.243 E0.04356
G1 X68.251 Y107.175 E0.04356
G1 X67.418 Y106.064 E0.04356
G1 X66.641 Y104.912 E0.04356
G1 X65.923 Y103.722 E0.04356
G1 X65.266 Y102.499 E0.04356
G1 X64.671 Y101.244 E0.04356
G1 X64.139 Y99.961 E0.04352
G1 X63.821 Y99.093 E0.02900
G1 X63.398 Y97.767 E0.04363
G1 X63.042 Y96.424 E0.04356
G1 X62.754 Y95.065 E0.04356
G1 X62.535 Y93.694 E0.04356
G1 X62.384 Y92.313 E0.04356
G1 X62.303 Y90.926 E0.04356
G1 X62.291 Y89.537 E0.04356
G1 X62.349 Y88.149 E0.04356
G1 X62.477 Y86.763 E0.04363
G1 X62.600 Y85.850 E0.02888
G1 X62.843 Y84.480 E0.04363
G1 X63.153 Y83.126 E0.04356
G1 X63.532 Y81.789 E0.04356
G1 X63.976 Y80.473 E0.04356
G1 X64.486 Y79.181 E0.04356
G1 X65.060 Y77.916 E0.04356
G1 X65.697 Y76.682 E0.04356
G1 X66.395 Y75.481 E0.04356
G1 X67.152 Y74.316 E0.04356
G1 X67.967 Y73.191 E0.04356
G1 X68.837 Y72.108 E0.04356
G1 X69.760 Y71.070 E0.04356
G1 X70.275 Y70.547 E0.02300
M204 S1250
G1 X70.006 Y70.282 F9000.000
M204 S800
G1 F1200.000
G1 X70.472 Y69.808 E0.02085
G1 X71.508 Y68.855 E0.04415
G1 X72.589 Y67.957 E0.04406
G1 X73.337 Y67.386 E0.02950
G1 X74.492 Y66.579 E0.04418
G1 X75.685 Y65.831 E0.04415
G1 X76.914 Y65.144 E0.04415
G1 X78.176 Y64.520 E0.04415
G1 X79.468 Y63.959 E0.04415
G1 X80.786 Y63.464 E0.04415
G1 X82.127 Y63.036 E0.04415
G1 X83.488 Y62.675 E0.04415
G1 X84.866 Y62.383 E0.04415
G1 X86.256 Y62.161 E0.04415
G1 X87.656 Y62.008 E0.04415
G1 X89.061 Y61.926 E0.04415
G1 X90.467 Y61.914 E0.04406
G1 X91.407 Y61.945 E0.02950
G1 X92.812 Y62.051 E0.04418
G1 X94.209 Y62.227 E0.04415
G1 X95.595 Y62.473 E0.04415
G1 X96.967 Y62.788 E0.04415
G1 X98.322 Y63.171 E0.04415
G1 X99.656 Y63.622 E0.04415
G1 X100.966 Y64.139 E0.04415
G1 X102.248 Y64.721 E0.04415
G1 X103.500 Y65.367 E0.04415
G1 X104.717 Y66.074 E0.04415
G1 X105.897 Y66.842 E0.04415
G1 X107.038 Y67.667 E0.04415
G1 X108.136 Y68.549 E0.04415
G1 X109.188 Y69.485 E0.04415
G1 X110.192 Y70.472 E0.04415
G1 X111.145 Y71.508 E0.04415
G1 X112.045 Y72.591 E0.04415
G1 X112.890 Y73.718 E0.04415
G1 X113.677 Y74.885 E0.04415
G1 X114.404 Y76.091 E0.04415
G1 X115.071 Y77.331 E0.04415
G1 X115.674 Y78.603 E0.04415
G1 X116.212 Y79.902 E0.04406
G1 X116.535 Y80.785 E0.02950
G1 X116.964 Y82.127 E0.04418
G1 X117.325 Y83.488 E0.04415
G1 X117.617 Y84.866 E0.04415
G1 X117.839 Y86.256 E0.04415
G1 X117.992 Y87.656 E0.04415
G1 X118.074 Y89.061 E0.04415
G1 X118.086 Y90.469 E0.04415
G1 X118.027 Y91.876 E0.04415
G1 X117.898 Y93.279 E0.04418
G1 X117.773 Y94.208 E0.02938
G1 X117.527 Y95.595 E0.04418
G1 X117.212 Y96.967 E0.04415
G1 X116.829 Y98.322 E0.04415
G1 X116.378 Y99.656 E0.04415
G1 X115.861 Y100.966 E0.04415
G1 X115.279 Y102.248 E0.04415
G1 X114.633 Y103.500 E0.04415
G1 X113.926 Y104.717 E0.04415
G1 X113.158 Y105.897 E0.04415
G1 X112.333 Y107.038 E0.04415
G1 X111.451 Y108.136 E0.04415
G1 X110.515 Y109.188 E0.04415
G1 X109.528 Y110.192 E0.04415
G1 X108.492 Y111.145 E0.04415
G1 X107.409 Y112.045 E0.04415
G1 X106.282 Y112.890 E0.04415
G1 X105.115 Y113.677 E0.04415
G1 X103.909 Y114.404 E0.04415
G1 X102.669 Y115.071 E0.04415
G1 X101.397 Y115.674 E0.04415
G1 X100.098 Y116.212 E0.04406
G1 X99.215 Y116.535 E0.02950
G1 X97.873 Y116.964 E0.04418
G1 X96.512 Y117.325 E0.04415
G1 X95.134 Y117.617 E0.04415
G1 X93.744 Y117.839 E0.04415
G1 X92.344 Y117.992 E0.04416
G1 X90.939 Y118.074 E0.04414
G1 X89.531 Y118.086 E0.04415
G1 X88.124 Y118.027 E0.04415
G1 X86.721 Y117.898 E0.04418
G1 X85.792 Y117.773 E0.02938
G1 X84.405 Y117.527 E0.04418
G1 X83.033 Y117.212 E0.04415
G1 X81.678 Y116.829 E0.04415
G1 X80.344 Y116.378 E0.04415
G1 X79.034 Y115.861 E0.04415
G1 X77.752 Y115.279 E0.04415
G1 X76.500 Y114.633 E0.04415
G1 X75.283 Y113.926 E0.04415
G1 X74.103 Y113.158 E0.04415
G1 X72.962 Y112.333 E0.04415
G1 X71.864 Y111.451 E0.04415
G1 X70.812 Y110.515 E0.04415
G1 X69.808 Y109.528 E0.04415
G1 X68.855 Y108.492 E0.04415
G1 X67.955 Y107.409 E0.04415
G1 X67.110 Y106.282 E0.04415
G1 X66.323 Y105.115 E0.04415
G1 X65.596 Y103.909 E0.04415
G1 X64.929 Y102.669 E0.04415
G1 X64.326 Y101.397 E0.04415
G1 X63.788 Y100.098 E0.04406
G1 X63.465 Y99.215 E0.02950
G1 X63.036 Y97.873 E0.04418
G1 X62.675 Y96.512 E0.04415
G1 X62.383 Y95.134 E0.04415
G1 X62.161 Y93.744 E0.04415
G1 X62.008 Y92.344 E0.04415
G1 X61.926 Y90.939 E0.04415
G1 X61.914 Y89.531 E0.04415
G1 X61.973 Y88.124 E0.04415
G1 X62.102 Y86.721 E0.04418
G1 X62.227 Y85.792 E0.02938
G1 X62.473 Y84.405 E0.04418
G1 X62.788 Y83.033 E0.04415
G1 X63.171 Y81.678 E0.04415
G1 X63.622 Y80.344 E0.04415
G1 X64.139 Y79.034 E0.04415
G1 X64.721 Y77.752 E0.04415
G1 X65.367 Y76.500 E0.04415
G1 X66.074 Y75.283 E0.04415
G1 X66.842 Y74.103 E0.04415
G1 X67.667 Y72.962 E0.04415
G1 X68.549 Y71.864 E0.04415
G1 X69.485 Y70.812 E0.04415
G1 X69.964 Y70.325 E0.02142
M204 S1250
G1 X70.394 Y70.378 F9000.000
G1 E-2.24000 F4200.00000
G1 F7200.000
G1 X70.472 Y69.808 E-0.40171
G1 X71.150 Y69.185 E-0.51029
G1 E-0.04800 F4200.00000
G1 Z0.400 F9000.000
G1 X87.405 Y62.529
G1 Z0.200
G1 E3.20000 F2400.00000
M204 S800
G1 F1200.000
G1 X102.206 Y77.330 E0.65842
G1 X101.671 Y77.330 E0.01683
G1 X87.076 Y62.735 E0.64923
G1 X86.594 Y62.788 E0.01526
G1 X101.136 Y77.330 E0.64689
G1 X100.601 Y77.330 E0.01683
G1 X86.122 Y62.850 E0.64410
G1 X85.661 Y62.924 E0.01469
G1 X100.066 Y77.330 E0.64081
G1 X99.531 Y77.330 E0.01683
G1 X85.199 Y62.998 E0.63753
G1 X84.749 Y63.083 E0.01442
G1 X98.996 Y77.330 E0.63377
G1 X98.461 Y77.330 E0.01683
G1 X84.307 Y63.176 E0.62961
G1 X83.866 Y63.270 E0.01419
G1 X97.927 Y77.330 E0.62545
G1 X97.392 Y77.330 E0.01683
G1 X83.434 Y63.372 E0.62088
G1 X83.011 Y63.484 E0.01376
G1 X96.857 Y77.330 E0.61590
G1 X96.322 Y77.330 E0.01683
G1 X82.588 Y63.596 E0.61091
G1 X82.312 Y63.670 E0.00898
G1 X82.171 Y63.715 E0.00466
G1 X95.787 Y77.330 E0.60566
G1 X95.252 Y77.330 E0.01683
G1 X81.766 Y63.844 E0.59990
M73 P3 R30
G1 X81.360 Y63.974 E0.01339
G1 X94.717 Y77.330 E0.59414
G1 X94.182 Y77.330 E0.01683
G1 X80.957 Y64.105 E0.58829
G1 X80.568 Y64.251 E0.01307
G1 X93.647 Y77.330 E0.58179
G1 X93.112 Y77.330 E0.01683
G1 X80.179 Y64.397 E0.57530
G1 X79.790 Y64.543 E0.01307
G1 X92.577 Y77.330 E0.56880
G1 X92.042 Y77.330 E0.01683
G1 X79.414 Y64.702 E0.56173
G1 X79.041 Y64.864 E0.01279
G1 X91.507 Y77.330 E0.55453
G1 X90.972 Y77.330 E0.01683
G1 X78.668 Y65.026 E0.54733
G1 X78.301 Y65.194 E0.01269
G1 X90.437 Y77.330 E0.53984
G1 X89.902 Y77.330 E0.01683
G1 X77.943 Y65.371 E0.53196
G1 X77.585 Y65.548 E0.01256
G1 X89.367 Y77.330 E0.52408
G1 X88.832 Y77.330 E0.01683
G1 X77.227 Y65.726 E0.51621
G1 X76.884 Y65.917 E0.01237
G1 X88.297 Y77.330 E0.50768
G1 X87.762 Y77.330 E0.01683
G1 X76.541 Y66.109 E0.49915
G1 X76.198 Y66.301 E0.01237
G1 X87.227 Y77.330 E0.49062
G1 X86.692 Y77.330 E0.01683
G1 X75.861 Y66.499 E0.48178
G1 X75.533 Y66.706 E0.01221
G1 X86.157 Y77.330 E0.47261
G1 X85.622 Y77.330 E0.01683
G1 X75.204 Y66.912 E0.46344
G1 X74.875 Y67.118 E0.01221
G1 X85.087 Y77.330 E0.45428
G1 X84.552 Y77.330 E0.01683
G1 X74.559 Y67.337 E0.44452
G1 X74.244 Y67.557 E0.01208
G1 X84.017 Y77.330 E0.43473
G1 X83.482 Y77.330 E0.01683
G1 X73.929 Y67.777 E0.42494
G1 X73.619 Y68.001 E0.01205
G1 X82.947 Y77.330 E0.41497
G1 X82.412 Y77.330 E0.01683
G1 X73.315 Y68.233 E0.40467
G1 X73.012 Y68.464 E0.01201
G1 X81.877 Y77.330 E0.39437
G1 X81.342 Y77.330 E0.01683
G1 X72.719 Y68.707 E0.38359
G1 X72.427 Y68.950 E0.01195
G1 X80.807 Y77.330 E0.37279
G1 X80.272 Y77.330 E0.01683
G1 X72.135 Y69.192 E0.36199
G1 X71.847 Y69.440 E0.01193
G1 X79.738 Y77.330 E0.35098
G1 X79.203 Y77.330 E0.01683
G1 X71.569 Y69.696 E0.33958
G1 X71.290 Y69.953 E0.01191
G1 X78.668 Y77.330 E0.32818
G1 X78.133 Y77.330 E0.01683
G1 X71.011 Y70.209 E0.31677
G1 X70.742 Y70.475 E0.01190
G1 X77.598 Y77.330 E0.30495
G1 X77.330 Y77.330 E0.00841
G1 X77.330 Y77.598 E0.00841
G1 X70.477 Y70.744 E0.30485
G1 X70.212 Y71.014 E0.01190
G1 X77.330 Y78.133 E0.31665
G1 X77.330 Y78.668 E0.01683
G1 X69.948 Y71.285 E0.32840
G1 X69.696 Y71.568 E0.01192
G1 X77.330 Y79.202 E0.33960
G1 X77.330 Y79.737 E0.01683
G1 X69.444 Y71.851 E0.35080
G1 X69.192 Y72.134 E0.01192
G1 X77.330 Y80.272 E0.36201
G1 X77.330 Y80.807 E0.01683
G1 X68.946 Y72.424 E0.37294
G1 X68.708 Y72.720 E0.01197
G1 X77.330 Y81.342 E0.38354
G1 X77.330 Y81.877 E0.01683
G1 X68.470 Y73.017 E0.39414
G1 X68.231 Y73.314 E0.01197
G1 X77.330 Y82.412 E0.40474
G1 X77.330 Y82.947 E0.01683
G1 X68.004 Y73.622 E0.41484
G1 X67.780 Y73.932 E0.01205
G1 X77.330 Y83.482 E0.42483
G1 X77.330 Y84.017 E0.01683
G1 X67.555 Y74.242 E0.43482
G1 X67.334 Y74.556 E0.01207
G1 X77.330 Y84.552 E0.44466
G1 X77.330 Y85.087 E0.01683
G1 X67.123 Y74.880 E0.45404
G1 X66.912 Y75.204 E0.01216
G1 X77.330 Y85.622 E0.46342
G1 X77.330 Y86.157 E0.01683
G1 X66.701 Y75.528 E0.47279
G1 X66.500 Y75.862 E0.01226
G1 X77.330 Y86.692 E0.48173
G1 X77.330 Y87.227 E0.01683
G1 X66.304 Y76.201 E0.49048
G1 X66.107 Y76.539 E0.01231
G1 X77.330 Y87.762 E0.49923
G1 X77.330 Y88.297 E0.01683
G1 X65.913 Y76.880 E0.50786
G1 X65.731 Y77.233 E0.01249
G1 X77.330 Y88.832 E0.51596
G1 X77.330 Y89.367 E0.01683
G1 X65.549 Y77.586 E0.52405
G1 X65.367 Y77.939 E0.01249
G1 X77.330 Y89.902 E0.53215
G1 X77.330 Y90.437 E0.01683
G1 X65.196 Y78.302 E0.53977
G1 X65.029 Y78.670 E0.01271
G1 X77.330 Y90.972 E0.54720
G1 X77.330 Y91.507 E0.01683
