; generated by PrusaSlicer 2.2.0+win64 on 2020-10-03 at 17:07:56 UTC


;
;

;
;
; 

; external perimeters extrusion width = 0.45mm
; perimeters extrusion width = 0.45mm
; infill extrusion width = 0.45mm
; solid infill extrusion width = 0.45mm
; top infill extrusion width = 0.40mm
; first layer extrusion width = 0.42mm

M73 P0 R38
M201 X1250 Y1250 Z400 E5000 ; sets maximum accelerations, mm/sec^2
M203 X180 Y180 Z12 E80 ; sets maximum feedrates, mm/sec
M204 P1250 R1250 T1250 ; sets acceleration (P, T) and retract acceleration (R), mm/sec^2
M205 X8.00 Y8.00 Z2.00 E10.00 ; sets the jerk limits, mm/sec
M205 S0 T0 ; sets the minimum extruding and travel feed rate, mm/sec
M107
G90 ; use absolute coordinates
M83 ; extruder relative mode
M104 S170 ; set extruder temp for bed leveling
M140 S60 ; set bed temp
M109 R170 ; wait for bed leveling temp
M190 S60 ; wait for bed temp
G28 ; home all without mesh bed level
G29 ; mesh bed leveling 
M104 S215 ; set extruder temp
G92 E0.0
G1 Y-2.0 X179 F2400
G1 Z3 F720
M109 S215 ; wait for extruder temp

; intro line
G1 X170 F1000
G1 Z0.2 F720
G1 X110.0 E8.0 F900
M73 P0 R38
G1 X40.0 E10.0 F700
G92 E0.0

M221 S95 ; set flow
G21 ; set units to millimeters
G90 ; use absolute coordinates
M83 ; use relative distances for extrusion
M900 K0.2 ; Filament gcode LA 1.5
; ; Filament gcode LA 1.0
;BEFORE_LAYER_CHANGE
G92 E0.0
;0.2


G1 Z0.200 F9000.000
;AFTER_LAYER_CHANGE
;0.2
G1 E-3.20000 F4200.00000
G1 Z0.400 F9000.000
G1 X63.529 Y67.813
G1 Z0.200
G1 E3.20000 F2400.00000
M204 S800
G1 F1200.000
G1 X65.067 Y66.421 E0.06505
G1 X66.687 Y65.142 E0.06470
G1 X68.405 Y63.963 E0.06535
G1 X70.601 Y62.688 E0.07961
G1 X72.454 Y61.788 E0.06460
G1 X74.388 Y61.005 E0.06541
G1 X76.348 Y60.361 E0.06470
G1 X78.365 Y59.845 E0.06529
G1 X80.868 Y59.401 E0.07968
G1 X82.936 Y59.192 E0.06518
G1 X85.005 Y59.123 E0.06490
G1 X87.579 Y59.231 E0.08077
G1 X90.138 Y59.553 E0.08087
G1 X92.651 Y60.085 E0.08053
G1 X95.135 Y60.833 E0.08134
G1 X123.155 Y71.946 E0.94512
G1 X124.091 Y72.469 E0.03362
G1 X124.887 Y73.222 E0.03438
G1 X125.307 Y73.833 E0.02323
G1 X125.579 Y74.401 E0.01973
G1 X125.794 Y75.129 E0.02382
G1 X125.877 Y75.800 E0.02117
G1 X125.881 Y104.042 E0.88551
G1 X125.760 Y105.024 E0.03105
G1 X125.461 Y105.873 E0.02821
G1 X124.919 Y106.738 E0.03198
G1 X124.287 Y107.378 E0.02824
G1 X123.792 Y107.731 E0.01904
G1 X123.143 Y108.058 E0.02281
G1 X95.153 Y119.161 E0.94412
G1 X93.141 Y119.785 E0.06604
G1 X90.648 Y120.357 E0.08022
G1 X88.587 Y120.668 E0.06535
G1 X86.036 Y120.860 E0.08021
G1 X84.467 Y120.872 E0.04919
G1 X82.427 Y120.769 E0.06405
G1 X80.872 Y120.599 E0.04906
G1 X78.883 Y120.264 E0.06324
G1 X75.836 Y119.485 E0.09861
G1 X73.934 Y118.825 E0.06311
G1 X72.457 Y118.213 E0.05012
G1 X70.640 Y117.333 E0.06332
G1 X69.268 Y116.567 E0.04927
G1 X67.939 Y115.734 E0.04918
G1 X66.275 Y114.549 E0.06404
G1 X65.053 Y113.566 E0.04919
G1 X63.538 Y112.196 E0.06405
G1 X62.128 Y110.740 E0.06354
G1 X61.094 Y109.539 E0.04969
G1 X59.831 Y107.881 E0.06534
G1 X58.447 Y105.753 E0.07959
G1 X57.445 Y103.927 E0.06533
G1 X56.578 Y102.058 E0.06458
G1 X55.838 Y100.139 E0.06448
G1 X55.218 Y98.138 E0.06568
G1 X54.650 Y95.663 E0.07962
G1 X54.337 Y93.604 E0.06530
G1 X54.165 Y91.548 E0.06470
G1 X54.131 Y89.464 E0.06535
G1 X54.279 Y86.933 E0.07951
G1 X54.555 Y84.869 E0.06529
G1 X54.967 Y82.843 E0.06482
G1 X55.518 Y80.833 E0.06535
G1 X56.367 Y78.452 E0.07926
G1 X57.207 Y76.554 E0.06506
G1 X58.177 Y74.711 E0.06530
G1 X59.269 Y72.936 E0.06535
G1 X60.466 Y71.256 E0.06470
G1 X62.087 Y69.306 E0.07950
G1 X63.487 Y67.856 E0.06319
M204 S1250
G1 E-2.24000 F4200.00000
G1 F7200.000
G1 X64.705 Y66.750 E-0.91200
G1 E-0.04800 F4200.00000
G1 Z0.400 F9000.000
G1 X120.423 Y103.134
G1 Z0.200
G1 E3.20000 F2400.00000
M204 S800
G1 F1200.000
G1 X120.590 Y102.947 E0.00787
G1 X120.788 Y102.791 E0.00788
G1 X121.019 Y102.678 E0.00807
G1 X121.375 Y102.595 E0.01146
G1 X121.630 Y102.595 E0.00801
G1 X121.876 Y102.641 E0.00784
G1 X122.111 Y102.730 E0.00788
G1 X122.325 Y102.864 E0.00792
G1 X122.507 Y103.037 E0.00785
G1 X122.653 Y103.240 E0.00786
G1 X122.753 Y103.473 E0.00795
G1 X122.809 Y103.812 E0.01076
G1 X122.809 Y104.142 E0.01037
G1 X122.763 Y104.372 E0.00735
G1 X122.678 Y104.588 E0.00727
G1 X122.556 Y104.785 E0.00727
G1 X122.401 Y104.958 E0.00727
G1 X122.215 Y105.103 E0.00742
G1 X121.909 Y105.248 E0.01060
G1 X121.674 Y105.301 E0.00757
G1 X121.336 Y105.301 E0.01060
G1 X121.105 Y105.249 E0.00742
G1 X120.891 Y105.159 E0.00727
G1 X120.697 Y105.033 E0.00727
G1 X120.527 Y104.875 E0.00727
G1 X120.388 Y104.689 E0.00727
G1 X120.282 Y104.478 E0.00742
G1 X120.201 Y104.150 E0.01058
G1 X120.194 Y103.918 E0.00728
G1 X120.231 Y103.590 E0.01036
G1 X120.302 Y103.355 E0.00768
G1 X120.394 Y103.187 E0.00603
M204 S1250
G1 X120.319 Y102.906 F9000.000
G1 X120.275 Y102.733
M204 S800
G1 F1200.000
G1 X120.292 Y102.006 E0.02279
G1 X120.292 Y78.495 E0.73717
G1 X120.273 Y77.262 E0.03867
G1 X120.389 Y77.382 E0.00522
G1 X120.656 Y77.572 E0.01027
G1 X120.955 Y77.700 E0.01021
G1 X121.265 Y77.773 E0.00997
G1 X121.585 Y77.787 E0.01004
G1 X121.914 Y77.742 E0.01041
G1 X122.343 Y77.579 E0.01437
G1 X122.620 Y77.382 E0.01067
G1 X122.734 Y77.264 E0.00513
G1 X122.718 Y77.993 E0.02286
G1 X122.718 Y101.504 E0.73717
G1 X122.736 Y102.735 E0.03858
G1 X122.557 Y102.565 E0.00772
G1 X122.280 Y102.391 E0.01027
G1 X121.978 Y102.276 E0.01013
G1 X121.665 Y102.218 E0.00999
G1 X121.331 Y102.218 E0.01046
G1 X120.891 Y102.320 E0.01417
G1 X120.586 Y102.470 E0.01067
G1 X120.315 Y102.688 E0.01089
M204 S1250
G1 E-2.24000 F4200.00000
G1 F7200.000
G1 X120.292 Y102.006 E-0.37802
G1 X120.292 Y101.043 E-0.53398
G1 E-0.04800 F4200.00000
G1 Z0.400 F9000.000
G1 X121.469 Y77.404
G1 Z0.200
G1 E3.20000 F2400.00000
M204 S800
G1 F1200.000
G1 X121.317 Y77.398 E0.00476
G1 X121.074 Y77.341 E0.00783
G1 X120.842 Y77.241 E0.00791
G1 X120.636 Y77.095 E0.00792
G1 X120.462 Y76.915 E0.00785
G1 X120.328 Y76.702 E0.00788
G1 X120.243 Y76.468 E0.00781
G1 X120.196 Y76.133 E0.01062
G1 X120.208 Y75.801 E0.01041
G1 X120.264 Y75.572 E0.00738
G1 X120.359 Y75.361 E0.00727
G1 X120.492 Y75.165 E0.00742
G1 X120.739 Y74.934 E0.01060
G1 X120.943 Y74.814 E0.00742
G1 X121.161 Y74.734 E0.00727
G1 X121.389 Y74.693 E0.00727
G1 X121.621 Y74.693 E0.00727
G1 X121.849 Y74.734 E0.00727
G1 X122.071 Y74.816 E0.00742
G1 X122.355 Y75.000 E0.01060
G1 X122.520 Y75.169 E0.00742
G1 X122.653 Y75.364 E0.00742
G1 X122.777 Y75.679 E0.01060
G1 X122.814 Y75.910 E0.00734
G1 X122.813 Y76.137 E0.00710
G1 X122.767 Y76.468 E0.01049
G1 X122.682 Y76.702 E0.00781
G1 X122.547 Y76.915 E0.00788
G1 X122.373 Y77.095 E0.00785
G1 X122.164 Y77.244 E0.00806
G1 X121.820 Y77.374 E0.01152
G1 X121.529 Y77.407 E0.00920
M204 S1250
G1 X121.399 Y77.539 F9000.000
G1 E-2.24000 F4200.00000
G1 F7200.000
G1 X121.317 Y77.398 E-0.11732
G1 X121.074 Y77.341 E-0.13845
G1 X120.842 Y77.241 E-0.13987
G1 X120.636 Y77.095 E-0.13994
G1 X120.462 Y76.915 E-0.13871
G1 X120.328 Y76.702 E-0.13932
G1 X120.267 Y76.535 E-0.09840
G1 E-0.04800 F4200.00000
G1 Z0.400 F9000.000
G1 X123.189 Y75.893
G1 Z0.200
G1 E3.20000 F2400.00000
M204 S800
G1 F1200.000
G1 X123.117 Y76.988 E0.03442
G1 X123.095 Y77.997 E0.03166
G1 X123.095 Y101.501 E0.73695
G1 X123.117 Y103.009 E0.04729
G1 X123.193 Y103.997 E0.03106
G1 X123.162 Y104.316 E0.01004
G1 X123.074 Y104.621 E0.00996
G1 X122.928 Y104.907 E0.01006
G1 X122.805 Y105.075 E0.00654
G1 X122.662 Y105.228 E0.00655
G1 X122.409 Y105.425 E0.01006
G1 X122.126 Y105.569 E0.00996
G1 X121.821 Y105.657 E0.00996
G1 X121.505 Y105.687 E0.00995
G1 X121.189 Y105.657 E0.00995
G1 X120.884 Y105.569 E0.00996
G1 X120.601 Y105.425 E0.00996
G1 X120.350 Y105.230 E0.00996
G1 X120.140 Y104.992 E0.00996
G1 X119.978 Y104.718 E0.00996
G1 X119.871 Y104.419 E0.00996
G1 X119.821 Y104.107 E0.00991
G1 X119.847 Y103.514 E0.01862
G1 X119.892 Y103.012 E0.01581
G1 X119.915 Y102.002 E0.03166
G1 X119.915 Y78.498 E0.73695
G1 X119.892 Y76.990 E0.04729
G1 X119.817 Y75.999 E0.03117
G1 X119.830 Y75.788 E0.00661
G1 X119.869 Y75.583 E0.00656
G1 X119.978 Y75.281 E0.01006
G1 X120.140 Y75.008 E0.00996
G1 X120.350 Y74.770 E0.00996
G1 X120.601 Y74.575 E0.00995
G1 X120.884 Y74.431 E0.00996
G1 X121.192 Y74.341 E0.01006
G1 X121.399 Y74.315 E0.00655
G1 X121.607 Y74.315 E0.00653
G1 X121.924 Y74.365 E0.01007
G1 X122.223 Y74.473 E0.00996
G1 X122.497 Y74.635 E0.00996
G1 X122.737 Y74.847 E0.01006
G1 X122.868 Y75.005 E0.00643
G1 X123.032 Y75.281 E0.01006
G1 X123.139 Y75.580 E0.00996
G1 X123.179 Y75.833 E0.00804
M204 S1250
G1 X122.851 Y76.106 F9000.000
G1 X122.940 Y76.607
M204 S800
G1 F1200.000
G1 X122.907 Y76.754 E0.00104
G1 X122.881 Y76.796 E0.00034
M204 S1250
M204 S800
G1 X122.833 Y76.859 E0.00041
M204 S1250
G1 X122.605 Y78.259 F9000.000
M204 S800
G1 F1200.000
G1 X122.259 Y77.913 E0.01534
G1 X121.984 Y78.017 E0.00923
G1 X121.848 Y78.036 E0.00432
G1 X122.435 Y78.623 E0.02606
G1 X122.435 Y79.157 E0.01677
G1 X121.337 Y78.059 E0.04877
G1 X121.226 Y78.054 E0.00349
G1 X120.867 Y77.970 E0.01159
G1 X120.598 Y77.855 E0.00917
G1 X122.435 Y79.691 E0.08157
G1 X122.435 Y80.225 E0.01677
G1 X120.573 Y78.363 E0.08271
G1 X120.575 Y78.899 E0.01683
G1 X122.435 Y80.759 E0.08263
G1 X122.435 Y81.294 E0.01677
G1 X120.575 Y79.433 E0.08263
G1 X120.575 Y79.967 E0.01677
G1 X122.435 Y81.828 E0.08263
G1 X122.435 Y82.362 E0.01677
G1 X120.575 Y80.501 E0.08263
G1 X120.575 Y81.035 E0.01677
G1 X122.435 Y82.896 E0.08263
G1 X122.435 Y83.430 E0.01677
G1 X120.575 Y81.570 E0.08263
G1 X120.575 Y82.104 E0.01677
G1 X122.435 Y83.964 E0.08263
G1 X122.435 Y84.498 E0.01677
G1 X120.575 Y82.638 E0.08263
G1 X120.575 Y83.172 E0.01677
G1 X122.435 Y85.032 E0.08263
G1 X122.435 Y85.567 E0.01677
G1 X120.575 Y83.706 E0.08263
G1 X120.575 Y84.240 E0.01677
G1 X122.435 Y86.101 E0.08263
G1 X122.435 Y86.635 E0.01677
G1 X120.575 Y84.774 E0.08263
G1 X120.575 Y85.308 E0.01677
G1 X122.435 Y87.169 E0.08263
G1 X122.435 Y87.703 E0.01677
G1 X120.575 Y85.843 E0.08263
G1 X120.575 Y86.377 E0.01677
G1 X122.435 Y88.237 E0.08263
G1 X122.435 Y88.771 E0.01677
G1 X120.575 Y86.911 E0.08263
G1 X120.575 Y87.445 E0.01677
G1 X122.435 Y89.305 E0.08263
G1 X122.435 Y89.839 E0.01677
G1 X120.575 Y87.979 E0.08263
G1 X120.575 Y88.513 E0.01677
G1 X122.435 Y90.374 E0.08263
G1 X122.435 Y90.908 E0.01677
G1 X120.575 Y89.047 E0.08263
G1 X120.575 Y89.581 E0.01677
G1 X122.435 Y91.442 E0.08263
G1 X122.435 Y91.976 E0.01677
G1 X120.575 Y90.115 E0.08263
G1 X120.575 Y90.650 E0.01677
G1 X122.435 Y92.510 E0.08263
G1 X122.435 Y93.044 E0.01677
G1 X120.575 Y91.184 E0.08263
G1 X120.575 Y91.718 E0.01677
G1 X122.435 Y93.578 E0.08263
G1 X122.435 Y94.112 E0.01677
G1 X120.575 Y92.252 E0.08263
G1 X120.575 Y92.786 E0.01677
G1 X122.435 Y94.646 E0.08263
G1 X122.435 Y95.181 E0.01677
G1 X120.574 Y93.320 E0.08263
G1 X120.574 Y93.854 E0.01677
G1 X122.435 Y95.715 E0.08263
G1 X122.435 Y96.249 E0.01677
G1 X120.574 Y94.388 E0.08263
G1 X120.574 Y94.922 E0.01677
G1 X122.435 Y96.783 E0.08263
G1 X122.435 Y97.317 E0.01677
G1 X120.574 Y95.457 E0.08263
G1 X120.574 Y95.991 E0.01677
G1 X122.435 Y97.851 E0.08263
G1 X122.435 Y98.385 E0.01677
G1 X120.574 Y96.525 E0.08263
G1 X120.574 Y97.059 E0.01677
G1 X122.435 Y98.919 E0.08263
G1 X122.435 Y99.454 E0.01677
G1 X120.574 Y97.593 E0.08263
G1 X120.574 Y98.127 E0.01677
G1 X122.435 Y99.988 E0.08263
G1 X122.435 Y100.522 E0.01677
G1 X120.574 Y98.661 E0.08263
G1 X120.574 Y99.195 E0.01677
G1 X122.435 Y101.056 E0.08263
G1 X122.436 Y101.591 E0.01681
G1 X120.574 Y99.730 E0.08268
G1 X120.574 Y100.264 E0.01677
G1 X122.444 Y102.134 E0.08305
G1 X122.445 Y102.160 E0.00083
G1 X122.055 Y102.003 E0.01320
G1 X121.716 Y101.940 E0.01081
G1 X120.574 Y100.798 E0.05071
G1 X120.574 Y101.332 E0.01677
G1 X121.200 Y101.958 E0.02780
G1 X120.772 Y102.064 E0.01385
G1 X120.405 Y101.696 E0.01632
M204 S1250
G1 E-2.24000 F4200.00000
G1 F7200.000
G1 X120.772 Y102.064 E-0.28790
G1 X121.200 Y101.958 E-0.24449
G1 X120.716 Y101.473 E-0.37961
G1 E-0.04800 F4200.00000
G1 Z0.400 F9000.000
G1 X120.152 Y103.190
G1 Z0.200
G1 E3.20000 F2400.00000
M204 S800
G1 F1200.000
G1 X120.092 Y103.276 E0.00056
G1 X120.070 Y103.393 E0.00065
M204 S1250
G1 E-2.24000 F4200.00000
G1 F7200.000
G1 X120.092 Y103.276 E-0.06627
G1 X120.152 Y103.190 E-0.05759
G1 E-0.83614 F4200.00000
G1 Z0.400 F9000.000
G1 X122.934 Y103.364
G1 Z0.200
G1 E3.20000 F2400.00000
M204 S800
G1 F1200.000
G1 X122.876 Y103.127 E0.00191
M204 S1250
G1 X122.808 Y103.094 F9000.000
M204 S800
G1 F1200.000
G1 X122.948 Y103.269 E0.00105
M204 S1250
G1 E-2.24000 F4200.00000
G1 F7200.000
G1 X122.808 Y103.094 E-0.12403
G1 E-0.83597 F4200.00000
G1 Z0.400 F9000.000
G1 X120.177 Y76.859
G1 Z0.200
G1 E3.20000 F2400.00000
M204 S800
G1 F1200.000
G1 X120.104 Y76.758 E0.00062
G1 X120.075 Y76.623 E0.00069
M204 S1250
G1 E-2.24000 F4200.00000
G1 F7200.000
G1 X120.104 Y76.758 E-0.07635
G1 X120.177 Y76.859 E-0.06882
G1 E-0.81483 F4200.00000
G1 Z0.400 F9000.000
G1 X97.390 Y77.613
G1 Z0.200
G1 E3.20000 F2400.00000
M204 S800
G1 F1200.000
G1 X97.390 Y102.387 E0.77678
G1 X72.616 Y102.387 E0.77678
G1 X72.616 Y77.613 E0.77678
G1 X97.330 Y77.613 E0.77490
M204 S1250
G1 X97.013 Y77.990 F9000.000
M204 S800
G1 F1200.000
G1 X97.013 Y102.010 E0.75313
G1 X72.993 Y102.010 E0.75313
G1 X72.993 Y77.990 E0.75313
G1 X96.953 Y77.990 E0.75125
M204 S1250
G1 X97.399 Y77.886 F9000.000
G1 E-2.24000 F4200.00000
G1 F7200.000
G1 X96.957 Y79.636 E-0.91200
G1 E-0.04800 F4200.00000
G1 Z0.400 F9000.000
G1 X104.499 Y70.317
G1 Z0.200
G1 E3.20000 F2400.00000
M204 S800
G1 F1200.000
G1 X104.924 Y70.734 E0.01867
G1 X105.864 Y71.757 E0.04356
G1 X106.752 Y72.825 E0.04356
G1 X107.585 Y73.936 E0.04356
G1 X108.362 Y75.088 E0.04356
G1 X109.080 Y76.278 E0.04356
G1 X109.737 Y77.501 E0.04356
G1 X110.332 Y78.756 E0.04356
G1 X110.864 Y80.040 E0.04356
G1 X111.331 Y81.348 E0.04356
G1 X111.732 Y82.681 E0.04363
G1 X111.960 Y83.573 E0.02888
G1 X112.249 Y84.935 E0.04363
G1 X112.468 Y86.306 E0.04356
G1 X112.619 Y87.687 E0.04356
G1 X112.700 Y89.074 E0.04356
G1 X112.712 Y90.463 E0.04356
G1 X112.654 Y91.851 E0.04356
G1 X112.526 Y93.237 E0.04363
G1 X112.403 Y94.150 E0.02889
G1 X112.160 Y95.520 E0.04363
G1 X111.850 Y96.874 E0.04356
G1 X111.471 Y98.211 E0.04356
G1 X111.027 Y99.527 E0.04356
G1 X110.517 Y100.819 E0.04356
G1 X109.942 Y102.084 E0.04356
G1 X109.306 Y103.318 E0.04356
G1 X108.608 Y104.519 E0.04356
G1 X107.850 Y105.684 E0.04356
G1 X107.036 Y106.809 E0.04356
G1 X106.166 Y107.892 E0.04356
G1 X105.243 Y108.930 E0.04356
G1 X104.269 Y109.921 E0.04356
G1 X103.246 Y110.861 E0.04356
G1 X102.178 Y111.749 E0.04356
G1 X101.066 Y112.582 E0.04356
G1 X99.915 Y113.359 E0.04356
G1 X98.725 Y114.077 E0.04356
G1 X97.502 Y114.734 E0.04356
G1 X96.247 Y115.329 E0.04356
G1 X94.963 Y115.861 E0.04356
G1 X93.655 Y116.328 E0.04356
G1 X92.322 Y116.729 E0.04363
G1 X91.430 Y116.957 E0.02888
G1 X90.068 Y117.246 E0.04363
G1 X88.697 Y117.465 E0.04356
G1 X87.316 Y117.616 E0.04356
G1 X85.929 Y117.697 E0.04356
G1 X84.540 Y117.709 E0.04356
G1 X83.152 Y117.651 E0.04356
G1 X81.766 Y117.523 E0.04363
G1 X80.853 Y117.400 E0.02888
G1 X79.483 Y117.157 E0.04363
G1 X78.129 Y116.847 E0.04356
G1 X76.792 Y116.468 E0.04356
G1 X75.476 Y116.024 E0.04356
G1 X74.184 Y115.514 E0.04356
G1 X72.919 Y114.940 E0.04356
G1 X71.685 Y114.303 E0.04356
G1 X70.484 Y113.605 E0.04356
G1 X69.319 Y112.848 E0.04356
G1 X68.194 Y112.033 E0.04356
G1 X67.111 Y111.163 E0.04356
G1 X66.073 Y110.240 E0.04356
G1 X65.082 Y109.266 E0.04356
G1 X64.142 Y108.243 E0.04356
G1 X63.254 Y107.175 E0.04356
G1 X62.421 Y106.064 E0.04356
G1 X61.644 Y104.912 E0.04356
G1 X60.926 Y103.722 E0.04356
G1 X60.269 Y102.499 E0.04356
G1 X59.674 Y101.244 E0.04356
G1 X59.142 Y99.960 E0.04356
G1 X58.675 Y98.652 E0.04356
G1 X58.274 Y97.319 E0.04363
G1 X58.046 Y96.427 E0.02888
G1 X57.757 Y95.065 E0.04363
G1 X57.537 Y93.694 E0.04356
G1 X57.387 Y92.313 E0.04356
G1 X57.306 Y90.926 E0.04356
G1 X57.294 Y89.537 E0.04356
G1 X57.352 Y88.149 E0.04356
G1 X57.480 Y86.763 E0.04363
G1 X57.603 Y85.850 E0.02888
G1 X57.846 Y84.480 E0.04363
G1 X58.156 Y83.126 E0.04356
G1 X58.534 Y81.789 E0.04356
G1 X58.979 Y80.473 E0.04356
G1 X59.489 Y79.181 E0.04356
G1 X60.063 Y77.916 E0.04356
G1 X60.700 Y76.682 E0.04356
G1 X61.398 Y75.481 E0.04356
