; generated by PrusaSlicer 2.3.0+win64 on 2021-08-26 at 14:48:58 UTC


;
;

;
;
; 

; external perimeters extrusion width = 0.45mm
; perimeters extrusion width = 0.45mm
; infill extrusion width = 0.45mm
; solid infill extrusion width = 0.45mm
; top infill extrusion width = 0.40mm
; first layer extrusion width = 0.42mm

M73 P0 R28
M201 X1250 Y1250 Z400 E5000 ; sets maximum accelerations, mm/sec^2
M203 X180 Y180 Z12 E80 ; sets maximum feedrates, mm/sec
M204 P1250 R1250 T1250 ; sets acceleration (P, T) and retract acceleration (R), mm/sec^2
M205 X8.00 Y8.00 Z2.00 E10.00 ; sets the jerk limits, mm/sec
M205 S0 T0 ; sets the minimum extruding and travel feed rate, mm/sec
M107
;TYPE:Custom
G90 ; use absolute coordinates
M83 ; extruder relative mode
M104 S170 ; set extruder temp for bed leveling
M140 S60 ; set bed temp
M109 R170 ; wait for bed leveling temp
M190 S60 ; wait for bed temp
G28 ; home all without mesh bed level
G29 ; mesh bed leveling 
M104 S215 ; set extruder temp
G92 E0.0
G1 Y-2.0 X179 F2400
G1 Z3 F720
M109 S215 ; wait for extruder temp

; intro line
G1 X170 F1000
M73 P0 R27
G1 Z0.2 F720
G1 X110.0 E8.0 F900
G1 X40.0 E10.0 F700
G92 E0.0

M221 S95 ; set flow
G21 ; set units to millimeters
G90 ; use absolute coordinates
M83 ; use relative distances for extrusion
M900 K0.2 ; Filament gcode LA 1.5
; ; Filament gcode LA 1.0
;LAYER_CHANGE
;Z:0.2
;HEIGHT:0.2
;BEFORE_LAYER_CHANGE
G92 E0.0
;0.2


G1 E-3.20000 F4200.000
G1 Z0.200 F9000.000
;AFTER_LAYER_CHANGE
;0.2
G1 Z0.400
G1 X71.525 Y59.095
G1 Z0.200
G1 E3.20000 F2400.000
M204 S800
;TYPE:Skirt
;WIDTH:0.42
G1 F1200.000
G1 X72.000 Y58.715 E0.01906
G1 X72.555 Y58.468 E0.01906
G1 X73.155 Y58.370 E0.01906
G1 X106.768 Y58.368 E1.05393
M73 P1 R27
G1 X107.433 Y58.464 E0.02107
G1 X108.048 Y58.745 E0.02119
G1 X108.559 Y59.187 E0.02119
G1 X108.924 Y59.752 E0.02109
G1 X109.816 Y61.850 E0.07147
G1 X110.476 Y64.034 E0.07156
G1 X110.744 Y65.303 E0.04065
G1 X111.029 Y67.618 E0.07314
G1 X111.076 Y112.565 E1.40930
G1 X110.945 Y114.767 E0.06916
G1 X110.762 Y116.044 E0.04045
G1 X110.250 Y118.264 E0.07142
G1 X109.883 Y119.407 E0.03764
G1 X109.624 Y119.957 E0.01906
G1 X109.076 Y120.663 E0.02801
G1 X108.415 Y121.169 E0.02611
G1 X107.635 Y121.502 E0.02659
G1 X106.816 Y121.630 E0.02600
G1 X73.237 Y121.631 E1.05283
G1 X72.413 Y121.516 E0.02608
G1 X71.649 Y121.205 E0.02588
G1 X70.990 Y120.727 E0.02552
G1 X70.463 Y120.101 E0.02564
G1 X70.134 Y119.453 E0.02279
G1 X69.765 Y118.311 E0.03763
G1 X69.218 Y115.928 E0.07667
G1 X68.965 Y113.737 E0.06913
G1 X68.923 Y112.520 E0.03820
G1 X68.970 Y67.628 E1.40756
G1 X69.265 Y65.246 E0.07525
G1 X69.799 Y63.020 E0.07179
G1 X70.591 Y60.814 E0.07346
G1 X71.161 Y59.586 E0.04247
G1 X71.489 Y59.143 E0.01729
M204 S1250
; printing object fwls-feather-mount.stl id:1 copy 0
G1 E-2.24000 F4200.000
;WIPE_START
G1 F7200.000
G1 X72.000 Y58.715 E-0.36906
G1 X72.555 Y58.468 E-0.33681
G1 X72.922 Y58.408 E-0.20613
;WIPE_END
G1 E-0.04800 F4200.000
G1 Z0.400 F9000.000
G1 X84.425 Y95.841
G1 Z0.200
G1 E3.20000 F2400.000
M204 S800
;TYPE:Perimeter
G1 F1200.000
G1 X85.412 Y95.541 E0.03234
G1 X86.415 Y95.300 E0.03234
G1 X87.430 Y95.119 E0.03234
G1 X88.455 Y94.997 E0.03234
G1 X89.484 Y94.936 E0.03234
G1 X90.516 Y94.936 E0.03234
G1 X91.545 Y94.997 E0.03234
G1 X92.570 Y95.119 E0.03234
G1 X93.585 Y95.300 E0.03234
G1 X94.588 Y95.541 E0.03234
G1 X95.575 Y95.841 E0.03234
G1 X96.542 Y96.199 E0.03234
G1 X97.487 Y96.613 E0.03234
G1 X98.406 Y97.081 E0.03234
G1 X99.295 Y97.604 E0.03234
G1 X100.152 Y98.177 E0.03234
G1 X100.974 Y98.801 E0.03234
G1 X101.758 Y99.472 E0.03234
G1 X102.501 Y100.187 E0.03234
G1 X103.200 Y100.946 E0.03234
G1 X103.853 Y101.744 E0.03234
G1 X104.458 Y102.579 E0.03234
G1 X105.013 Y103.449 E0.03234
G1 X105.516 Y104.349 E0.03234
G1 X105.964 Y105.278 E0.03234
G1 X106.357 Y106.232 E0.03234
G1 X106.694 Y107.207 E0.03234
G1 X106.981 Y108.232 E0.03337
G1 X107.029 Y108.601 E0.01167
G1 X106.990 Y109.005 E0.01272
G1 X106.861 Y109.389 E0.01272
G1 X106.649 Y109.735 E0.01272
G1 X106.364 Y110.024 E0.01272
G1 X106.022 Y110.242 E0.01272
G1 X105.640 Y110.378 E0.01272
G1 X105.281 Y110.418 E0.01130
G1 X74.719 Y110.418 E0.95828
G1 X74.360 Y110.378 E0.01130
G1 X73.978 Y110.242 E0.01272
G1 X73.636 Y110.024 E0.01272
G1 X73.351 Y109.735 E0.01272
G1 X73.139 Y109.389 E0.01272
G1 X73.010 Y109.005 E0.01272
G1 X72.971 Y108.601 E0.01272
G1 X73.019 Y108.232 E0.01167
G1 X73.306 Y107.207 E0.03337
G1 X73.643 Y106.232 E0.03234
G1 X74.036 Y105.278 E0.03234
G1 X74.484 Y104.349 E0.03235
G1 X74.996 Y103.434 E0.03286
G1 X75.542 Y102.579 E0.03181
G1 X76.147 Y101.744 E0.03234
G1 X76.800 Y100.946 E0.03234
G1 X77.499 Y100.187 E0.03234
G1 X78.242 Y99.472 E0.03234
G1 X79.026 Y98.801 E0.03234
G1 X79.848 Y98.177 E0.03234
G1 X80.705 Y97.604 E0.03234
G1 X81.594 Y97.081 E0.03234
G1 X82.513 Y96.613 E0.03234
G1 X83.458 Y96.199 E0.03234
G1 X84.369 Y95.862 E0.03046
M204 S1250
G1 E-2.24000 F4200.000
;WIPE_START
G1 F7200.000
G1 X85.412 Y95.541 E-0.60480
G1 X85.951 Y95.412 E-0.30720
;WIPE_END
G1 E-0.04800 F4200.000
G1 Z0.400 F9000.000
G1 X105.554 Y110.008
G1 Z0.200
G1 E3.20000 F2400.000
M204 S800
;TYPE:External perimeter
G1 F1200.000
G1 X105.260 Y110.041 E0.00929
G1 X74.740 Y110.041 E0.95694
M73 P2 R27
G1 X74.446 Y110.008 E0.00929
G1 X74.144 Y109.901 E0.01003
G1 X73.875 Y109.729 E0.01002
G1 X73.650 Y109.501 E0.01003
G1 X73.483 Y109.229 E0.01003
G1 X73.381 Y108.926 E0.01002
G1 X73.351 Y108.607 E0.01003
G1 X73.390 Y108.308 E0.00948
G1 X73.667 Y107.319 E0.03218
G1 X73.995 Y106.365 E0.03164
G1 X74.380 Y105.432 E0.03164
G1 X74.819 Y104.523 E0.03165
G1 X75.320 Y103.628 E0.03216
G1 X75.854 Y102.791 E0.03112
G1 X76.446 Y101.974 E0.03164
G1 X77.085 Y101.193 E0.03164
G1 X77.769 Y100.451 E0.03164
G1 X78.496 Y99.751 E0.03164
G1 X79.262 Y99.095 E0.03164
G1 X80.067 Y98.485 E0.03164
G1 X80.905 Y97.923 E0.03164
G1 X81.775 Y97.412 E0.03164
G1 X82.674 Y96.953 E0.03164
G1 X83.599 Y96.548 E0.03164
G1 X84.545 Y96.199 E0.03164
G1 X85.511 Y95.905 E0.03164
G1 X86.492 Y95.669 E0.03164
G1 X87.486 Y95.492 E0.03164
G1 X88.488 Y95.373 E0.03164
G1 X89.495 Y95.313 E0.03164
G1 X90.505 Y95.313 E0.03164
G1 X91.512 Y95.373 E0.03164
G1 X92.514 Y95.492 E0.03164
G1 X93.508 Y95.669 E0.03164
G1 X94.489 Y95.905 E0.03164
G1 X95.455 Y96.199 E0.03164
G1 X96.401 Y96.548 E0.03164
G1 X97.326 Y96.953 E0.03164
G1 X98.225 Y97.412 E0.03164
G1 X99.095 Y97.923 E0.03164
G1 X99.933 Y98.485 E0.03164
G1 X100.738 Y99.095 E0.03164
G1 X101.504 Y99.751 E0.03164
G1 X102.231 Y100.451 E0.03164
G1 X102.915 Y101.193 E0.03164
G1 X103.554 Y101.974 E0.03164
G1 X104.146 Y102.791 E0.03164
G1 X104.689 Y103.642 E0.03164
G1 X105.181 Y104.523 E0.03164
G1 X105.620 Y105.432 E0.03164
G1 X106.005 Y106.365 E0.03164
G1 X106.333 Y107.319 E0.03164
G1 X106.610 Y108.308 E0.03218
G1 X106.649 Y108.607 E0.00948
G1 X106.619 Y108.926 E0.01003
G1 X106.517 Y109.229 E0.01002
G1 X106.350 Y109.501 E0.01003
G1 X106.125 Y109.729 E0.01003
G1 X105.856 Y109.901 E0.01002
G1 X105.611 Y109.988 E0.00814
M204 S1250
G1 X105.468 Y110.291 F9000.000
G1 E-2.24000 F4200.000
;WIPE_START
G1 F7200.000
G1 X105.260 Y110.041 E-0.19666
G1 X103.969 Y110.041 E-0.71534
;WIPE_END
G1 E-0.04800 F4200.000
G1 Z0.400 F9000.000
G1 X106.504 Y118.285
G1 Z0.200
G1 E3.20000 F2400.000
M204 S800
;TYPE:Perimeter
G1 F1200.000
G1 X106.526 Y118.131 E0.00489
G1 X106.795 Y117.290 E0.02769
G1 X107.032 Y116.380 E0.02947
G1 X107.220 Y115.460 E0.02947
G1 X107.359 Y114.530 E0.02947
G1 X107.448 Y113.595 E0.02947
G1 X107.487 Y112.621 E0.03056
G1 X107.450 Y112.253 E0.01159
G1 X107.321 Y111.869 E0.01269
G1 X107.108 Y111.525 E0.01269
G1 X106.824 Y111.236 E0.01269
G1 X106.483 Y111.019 E0.01269
G1 X106.101 Y110.885 E0.01269
G1 X105.744 Y110.844 E0.01126
G1 X74.256 Y110.844 E0.98729
G1 X73.899 Y110.885 E0.01126
G1 X73.517 Y111.019 E0.01269
G1 X73.176 Y111.236 E0.01269
G1 X72.892 Y111.525 E0.01269
G1 X72.679 Y111.869 E0.01269
G1 X72.550 Y112.253 E0.01269
G1 X72.513 Y112.621 E0.01159
G1 X72.552 Y113.595 E0.03056
G1 X72.641 Y114.530 E0.02947
G1 X72.780 Y115.460 E0.02947
G1 X72.968 Y116.380 E0.02947
G1 X73.205 Y117.290 E0.02947
G1 X73.497 Y118.235 E0.03103
G1 X73.483 Y118.333 E0.00311
G1 X73.424 Y118.414 E0.00311
G1 X73.335 Y118.457 E0.00311
G1 X73.236 Y118.455 E0.00311
G1 X73.149 Y118.406 E0.00311
G1 X73.079 Y118.290 E0.00426
G1 X72.789 Y117.382 E0.02989
G1 X72.541 Y116.423 E0.03104
G1 X72.347 Y115.453 E0.03104
G1 X72.206 Y114.473 E0.03104
G1 X72.119 Y113.487 E0.03104
G1 X72.088 Y112.497 E0.03104
G1 X72.110 Y111.507 E0.03104
G1 X72.188 Y110.520 E0.03104
G1 X72.320 Y109.539 E0.03104
G1 X72.506 Y108.567 E0.03104
G1 X72.745 Y107.606 E0.03104
G1 X73.037 Y106.660 E0.03104
G1 X73.381 Y105.732 E0.03104
G1 X73.776 Y104.824 E0.03104
G1 X74.220 Y103.939 E0.03104
G1 X74.712 Y103.081 E0.03104
G1 X75.252 Y102.250 E0.03104
G1 X75.836 Y101.451 E0.03104
G1 X76.463 Y100.685 E0.03104
G1 X77.132 Y99.955 E0.03104
G1 X77.840 Y99.263 E0.03104
G1 X78.581 Y98.615 E0.03087
G1 X79.365 Y98.002 E0.03122
G1 X80.178 Y97.437 E0.03104
G1 X81.020 Y96.917 E0.03104
G1 X81.890 Y96.444 E0.03104
G1 X82.785 Y96.021 E0.03104
G1 X83.702 Y95.647 E0.03104
G1 X84.638 Y95.325 E0.03104
G1 X85.590 Y95.055 E0.03104
G1 X86.556 Y94.838 E0.03104
G1 X87.533 Y94.674 E0.03104
G1 X88.517 Y94.565 E0.03104
G1 X89.505 Y94.510 E0.03104
G1 X90.495 Y94.510 E0.03104
G1 X91.483 Y94.565 E0.03104
G1 X92.467 Y94.674 E0.03104
G1 X93.444 Y94.838 E0.03104
G1 X94.410 Y95.055 E0.03104
G1 X95.362 Y95.325 E0.03104
G1 X96.298 Y95.647 E0.03104
G1 X97.215 Y96.021 E0.03104
G1 X98.110 Y96.444 E0.03104
G1 X98.980 Y96.917 E0.03104
G1 X99.822 Y97.437 E0.03104
G1 X100.635 Y98.002 E0.03104
G1 X101.415 Y98.612 E0.03104
G1 X102.160 Y99.263 E0.03104
G1 X102.868 Y99.955 E0.03104
G1 X103.537 Y100.685 E0.03104
G1 X104.164 Y101.451 E0.03104
G1 X104.748 Y102.250 E0.03104
G1 X105.288 Y103.081 E0.03104
G1 X105.780 Y103.939 E0.03104
G1 X106.224 Y104.824 E0.03104
G1 X106.619 Y105.732 E0.03104
G1 X106.963 Y106.660 E0.03104
G1 X107.255 Y107.606 E0.03104
G1 X107.494 Y108.567 E0.03104
G1 X107.680 Y109.539 E0.03104
G1 X107.812 Y110.520 E0.03104
G1 X107.890 Y111.507 E0.03104
G1 X107.912 Y112.497 E0.03104
G1 X107.881 Y113.487 E0.03104
G1 X107.794 Y114.473 E0.03104
G1 X107.653 Y115.453 E0.03104
G1 X107.459 Y116.423 E0.03104
G1 X107.211 Y117.382 E0.03104
G1 X106.921 Y118.291 E0.02992
G1 X106.851 Y118.406 E0.00423
G1 X106.715 Y118.462 E0.00461
G1 X106.618 Y118.441 E0.00311
G1 X106.522 Y118.342 E0.00430
M204 S1250
G1 X106.128 Y118.341 F9000.000
M204 S800
;TYPE:External perimeter
G1 F1200.000
G1 X106.125 Y118.199 E0.00444
G1 X106.161 Y118.033 E0.00535
G1 X106.432 Y117.184 E0.02793
G1 X106.665 Y116.295 E0.02883
G1 X106.849 Y115.394 E0.02883
G1 X106.985 Y114.485 E0.02883
G1 X107.071 Y113.569 E0.02883
G1 X107.109 Y112.632 E0.02941
G1 X107.079 Y112.333 E0.00942
G1 X106.977 Y112.031 E0.01000
G1 X106.810 Y111.759 E0.01000
G1 X106.586 Y111.532 E0.01000
G1 X106.317 Y111.361 E0.01000
G1 X106.016 Y111.254 E0.01000
G1 X105.723 Y111.221 E0.00924
G1 X74.277 Y111.221 E0.98595
G1 X73.984 Y111.254 E0.00924
G1 X73.683 Y111.361 E0.01000
G1 X73.414 Y111.532 E0.01000
G1 X73.190 Y111.759 E0.01000
G1 X73.023 Y112.031 E0.01000
G1 X72.921 Y112.333 E0.01000
G1 X72.891 Y112.632 E0.00942
G1 X72.929 Y113.569 E0.02941
G1 X73.015 Y114.485 E0.02883
G1 X73.151 Y115.394 E0.02883
G1 X73.335 Y116.295 E0.02883
G1 X73.568 Y117.184 E0.02883
G1 X73.839 Y118.032 E0.02790
G1 X73.875 Y118.199 E0.00537
G1 X73.871 Y118.341 E0.00444
G1 X73.834 Y118.477 E0.00444
G1 X73.765 Y118.601 E0.00444
G1 X73.668 Y118.704 E0.00444
G1 X73.550 Y118.782 E0.00444
G1 X73.416 Y118.828 E0.00444
G1 X73.275 Y118.842 E0.00444
G1 X73.135 Y118.821 E0.00444
G1 X73.004 Y118.767 E0.00444
G1 X72.890 Y118.684 E0.00444
G1 X72.799 Y118.576 E0.00444
G1 X72.728 Y118.431 E0.00504
G1 X72.427 Y117.486 E0.03110
G1 X72.174 Y116.508 E0.03169
G1 X71.975 Y115.517 E0.03169
G1 X71.831 Y114.516 E0.03169
G1 X71.743 Y113.509 E0.03169
G1 X71.710 Y112.499 E0.03169
G1 X71.734 Y111.488 E0.03169
G1 X71.813 Y110.481 E0.03169
G1 X71.948 Y109.479 E0.03169
G1 X72.137 Y108.486 E0.03169
G1 X72.382 Y107.505 E0.03169
G1 X72.680 Y106.539 E0.03169
G1 X73.031 Y105.591 E0.03169
G1 X73.434 Y104.664 E0.03169
G1 X73.888 Y103.761 E0.03169
G1 X74.390 Y102.884 E0.03169
G1 X74.941 Y102.036 E0.03169
G1 X75.537 Y101.220 E0.03169
G1 X76.178 Y100.438 E0.03169
G1 X76.861 Y99.693 E0.03169
G1 X77.584 Y98.986 E0.03169
G1 X78.341 Y98.325 E0.03152
G1 X79.141 Y97.699 E0.03187
G1 X79.971 Y97.121 E0.03169
G1 X80.831 Y96.590 E0.03169
G1 X81.720 Y96.108 E0.03169
G1 X82.633 Y95.675 E0.03169
G1 X83.569 Y95.294 E0.03169
G1 X84.525 Y94.965 E0.03169
G1 X85.497 Y94.689 E0.03169
G1 X86.484 Y94.467 E0.03169
G1 X87.481 Y94.301 E0.03169
G1 X88.485 Y94.189 E0.03169
G1 X89.495 Y94.133 E0.03169
G1 X90.505 Y94.133 E0.03169
G1 X91.515 Y94.189 E0.03169
G1 X92.519 Y94.301 E0.03169
G1 X93.516 Y94.467 E0.03169
G1 X94.503 Y94.689 E0.03169
G1 X95.475 Y94.965 E0.03169
G1 X96.431 Y95.294 E0.03169
G1 X97.367 Y95.675 E0.03169
G1 X98.280 Y96.108 E0.03169
G1 X99.169 Y96.590 E0.03169
G1 X100.029 Y97.121 E0.03169
G1 X100.859 Y97.699 E0.03169
G1 X101.655 Y98.321 E0.03169
G1 X102.416 Y98.986 E0.03169
G1 X103.139 Y99.693 E0.03169
G1 X103.822 Y100.438 E0.03169
G1 X104.463 Y101.220 E0.03169
G1 X105.059 Y102.036 E0.03169
G1 X105.610 Y102.884 E0.03169
G1 X106.112 Y103.761 E0.03169
G1 X106.566 Y104.664 E0.03169
G1 X106.969 Y105.591 E0.03169
G1 X107.320 Y106.539 E0.03169
G1 X107.618 Y107.505 E0.03169
G1 X107.863 Y108.486 E0.03169
G1 X108.052 Y109.479 E0.03169
G1 X108.187 Y110.481 E0.03169
G1 X108.266 Y111.488 E0.03169
G1 X108.290 Y112.499 E0.03169
G1 X108.257 Y113.509 E0.03169
G1 X108.169 Y114.516 E0.03169
G1 X108.025 Y115.517 E0.03169
G1 X107.826 Y116.508 E0.03169
G1 X107.573 Y117.486 E0.03169
G1 X107.272 Y118.432 E0.03112
G1 X107.201 Y118.576 E0.00501
G1 X107.110 Y118.684 E0.00444
G1 X106.996 Y118.767 E0.00444
G1 X106.865 Y118.821 E0.00444
G1 X106.725 Y118.842 E0.00444
G1 X106.584 Y118.828 E0.00444
G1 X106.450 Y118.782 E0.00444
G1 X106.332 Y118.704 E0.00444
G1 X106.235 Y118.601 E0.00444
G1 X106.144 Y118.399 E0.00695
M204 S1250
G1 X106.236 Y118.249 F9000.000
G1 E-2.24000 F4200.000
;WIPE_START
G1 F7200.000
G1 X106.125 Y118.199 E-0.11101
G1 X106.161 Y118.033 E-0.09447
G1 X106.432 Y117.184 E-0.49363
G1 X106.529 Y116.813 E-0.21289
;WIPE_END
G1 E-0.04800 F4200.000
G1 Z0.400 F9000.000
G1 X107.664 Y113.515
G1 Z0.200
G1 E3.20000 F2400.000
M204 S800
;TYPE:Gap fill
;WIDTH:0.0940573
G1 F1200.000
G1 X107.671 Y113.361 E0.00065
M204 S1250
G1 X107.697 Y112.590 F9000.000
M204 S800
;WIDTH:0.102408
G1 F1200.000
G1 X107.676 Y112.209 E0.00189
G1 X107.636 Y111.975 E0.00117
M204 S1250
M204 S800
;WIDTH:0.217308
G1 X107.596 Y111.751 E0.00330
M204 S1250
G1 X107.458 Y111.663 F9000.000
M204 S800
;WIDTH:0.118998
G1 F1200.000
G1 X107.380 Y111.563 E0.00080
M204 S1250
G1 X107.458 Y111.663 F9000.000
M204 S800
;WIDTH:0.148704
G1 F1200.000
G1 X107.713 Y112.016 E0.00383
M204 S1250
G1 E-2.24000 F4200.000
;WIPE_START
G1 F7200.000
G1 X107.458 Y111.663 E-0.24139
;WIPE_END
G1 E-0.71861 F4200.000
G1 Z0.400 F9000.000
G1 X107.643 Y110.114
G1 Z0.200
G1 E3.20000 F2400.000
M204 S800
;TYPE:Solid infill
;WIDTH:0.421089
G1 F1200.000
G1 X107.145 Y109.616 E0.02215
G1 X107.074 Y109.583 E0.00248
G1 X106.885 Y109.891 E0.01136
G1 X107.529 Y110.534 E0.02862
G1 X107.575 Y111.116 E0.01834
G1 X106.623 Y110.164 E0.04232
G1 X106.543 Y110.246 E0.00360
G1 X106.315 Y110.391 E0.00850
G1 X107.360 Y111.435 E0.04645
M204 S1250
G1 E-2.24000 F4200.000
;WIPE_START
G1 F7200.000
G1 X106.315 Y110.391 E-0.81861
M73 P3 R27
G1 X106.458 Y110.300 E-0.09339
;WIPE_END
G1 E-0.04800 F4200.000
G1 Z0.400 F9000.000
G1 X105.769 Y110.596
G1 Z0.200
G1 E3.20000 F2400.000
M204 S800
;TYPE:Gap fill
;WIDTH:0.164127
G1 F1200.000
G1 X105.698 Y110.608 E0.00072
M204 S1250
M204 S800
;WIDTH:0.138706
G1 X105.283 Y110.632 E0.00331
M204 S1250
G1 E-2.24000 F4200.000
;WIPE_START
G1 F7200.000
G1 X105.698 Y110.608 E-0.23064
;WIPE_END
G1 E-0.72936 F4200.000
G1 Z0.400 F9000.000
G1 X107.116 Y109.291
G1 Z0.200
G1 E3.20000 F2400.000
M204 S800
;WIDTH:0.119193
G1 F1200.000
G1 X107.170 Y109.176 E0.00080
M204 S1250
M204 S800
;WIDTH:0.149126
