; generated by PrusaSlicer 2.2.0+win64 on 2020-11-07 at 15:45:40 UTC


;
;

;
;
; 

; external perimeters extrusion width = 0.45mm
; perimeters extrusion width = 0.45mm
; infill extrusion width = 0.45mm
; solid infill extrusion width = 0.45mm
; top infill extrusion width = 0.40mm
; first layer extrusion width = 0.42mm

M73 P0 R87
M201 X1250 Y1250 Z400 E5000 ; sets maximum accelerations, mm/sec^2
M203 X180 Y180 Z12 E80 ; sets maximum feedrates, mm/sec
M204 P1250 R1250 T1250 ; sets acceleration (P, T) and retract acceleration (R), mm/sec^2
M205 X8.00 Y8.00 Z2.00 E10.00 ; sets the jerk limits, mm/sec
M205 S0 T0 ; sets the minimum extruding and travel feed rate, mm/sec
M107
G90 ; use absolute coordinates
M83 ; extruder relative mode
M104 S170 ; set extruder temp for bed leveling
M140 S60 ; set bed temp
M109 R170 ; wait for bed leveling temp
M190 S60 ; wait for bed temp
G28 ; home all without mesh bed level
G29 ; mesh bed leveling 
M104 S215 ; set extruder temp
G92 E0.0
G1 Y-2.0 X179 F2400
G1 Z3 F720
M109 S215 ; wait for extruder temp

; intro line
G1 X170 F1000
G1 Z0.2 F720
G1 X110.0 E8.0 F900
M73 P0 R87
G1 X40.0 E10.0 F700
G92 E0.0

M221 S95 ; set flow
G21 ; set units to millimeters
G90 ; use absolute coordinates
M83 ; use relative distances for extrusion
M900 K0.2 ; Filament gcode LA 1.5
; ; Filament gcode LA 1.0
;BEFORE_LAYER_CHANGE
G92 E0.0
;0.2


G1 Z0.200 F9000.000
;AFTER_LAYER_CHANGE
;0.2
G1 E-3.20000 F4200.00000
G1 Z0.400 F9000.000
G1 X57.332 Y45.758
G1 Z0.200
G1 E3.20000 F2400.00000
M204 S800
G1 F1200.000
G1 X57.493 Y45.173 E0.01906
G1 X57.814 Y44.609 E0.02034
G1 X58.465 Y43.786 E0.03288
G1 X59.121 Y43.162 E0.02840
G1 X59.804 Y42.660 E0.02659
G1 X60.698 Y42.172 E0.03192
G1 X61.467 Y41.890 E0.02570
G1 X62.259 Y41.726 E0.02535
G1 X63.543 Y41.627 E0.04036
G1 X66.767 Y41.572 E0.10111
G1 X87.941 Y41.544 E0.66390
G1 X108.286 Y41.567 E0.63791
G1 X113.288 Y41.692 E0.15688
G1 X114.723 Y42.006 E0.04604
G1 X116.049 Y42.676 E0.04658
G1 X117.296 Y43.710 E0.05081
G1 X118.148 Y44.820 E0.04386
G1 X118.349 Y45.349 E0.01775
G1 X118.419 Y45.911 E0.01775
G1 X118.381 Y99.703 E1.68662
G1 X118.114 Y100.601 E0.02936
G1 X117.620 Y101.379 E0.02892
G1 X103.013 Y118.496 E0.70553
G1 X102.149 Y119.297 E0.03693
G1 X101.173 Y119.903 E0.03604
G1 X99.794 Y120.417 E0.04614
G1 X98.364 Y120.618 E0.04529
G1 X77.719 Y120.619 E0.64730
G1 X76.782 Y120.560 E0.02944
G1 X75.671 Y120.314 E0.03568
G1 X74.697 Y119.923 E0.03291
G1 X73.728 Y119.332 E0.03558
G1 X72.973 Y118.665 E0.03157
G1 X58.095 Y101.365 E0.71544
G1 X57.666 Y100.710 E0.02454
G1 X57.419 Y100.056 E0.02191
G1 X57.308 Y99.204 E0.02697
G1 X57.332 Y45.818 E1.67385
M204 S1250
G1 E-2.24000 F4200.00000
G1 F7200.000
G1 X57.493 Y45.173 E-0.36897
G1 X57.814 Y44.609 E-0.35948
G1 X58.020 Y44.349 E-0.18355
G1 E-0.04800 F4200.00000
G1 Z0.400 F9000.000
G1 X89.882 Y104.547
G1 Z0.200
G1 E3.20000 F2400.00000
M204 S800
G1 F1200.000
G1 X87.811 Y104.552 E0.06495
G1 X87.230 Y104.537 E0.01820
G1 X86.820 Y104.503 E0.01290
G1 X86.492 Y104.554 E0.01041
G1 X86.138 Y104.801 E0.01355
G1 X85.931 Y105.118 E0.01187
G1 X85.814 Y105.386 E0.00919
G1 X85.596 Y106.018 E0.02095
G1 X84.999 Y107.944 E0.06322
G1 X84.487 Y109.456 E0.05006
G1 X83.983 Y110.800 E0.04499
G1 X83.495 Y111.972 E0.03980
G1 X83.028 Y112.974 E0.03466
G1 X82.589 Y113.810 E0.02962
G1 X82.183 Y114.488 E0.02478
G1 X81.734 Y115.127 E0.02449
G1 X81.227 Y115.718 E0.02440
G1 X80.696 Y116.221 E0.02294
G1 X80.142 Y116.641 E0.02179
G1 X79.876 Y116.809 E0.00986
G1 X79.461 Y117.029 E0.01472
G1 X78.900 Y117.254 E0.01897
G1 X78.642 Y117.329 E0.00841
G1 X78.242 Y117.411 E0.01279
G1 X77.707 Y117.455 E0.01684
G1 X77.469 Y117.449 E0.00748
G1 X77.085 Y117.406 E0.01210
G1 X76.852 Y117.359 E0.00748
G1 X76.494 Y117.252 E0.01171
G1 X75.992 Y117.029 E0.01721
G1 X75.599 Y116.779 E0.01461
G1 X75.344 Y116.561 E0.01051
G1 X75.184 Y116.398 E0.00716
G1 X74.807 Y115.924 E0.01899
G1 X74.486 Y115.432 E0.01844
G1 X74.088 Y114.730 E0.02529
G1 X73.088 Y112.856 E0.06659
G1 X72.674 Y112.186 E0.02470
G1 X72.262 Y111.616 E0.02207
G1 X71.675 Y110.948 E0.02787
G1 X71.124 Y110.420 E0.02394
G1 X70.372 Y109.773 E0.03111
G1 X69.237 Y108.842 E0.04602
G1 X68.733 Y108.373 E0.02159
G1 X68.462 Y108.089 E0.01231
G1 X68.115 Y107.674 E0.01696
G1 X67.933 Y107.420 E0.00978
G1 X67.700 Y107.035 E0.01413
G1 X67.442 Y106.455 E0.01992
G1 X67.382 Y106.264 E0.00627
G1 X67.321 Y105.958 E0.00976
G1 X67.284 Y105.531 E0.01346
G1 X67.272 Y105.079 E0.01417
G1 X67.288 Y104.095 E0.03085
G1 X67.357 Y103.736 E0.01146
G1 X67.552 Y103.286 E0.01539
G1 X67.811 Y102.862 E0.01558
G1 X68.349 Y102.198 E0.02678
G1 X68.488 Y101.950 E0.00892
G1 X68.589 Y101.685 E0.00890
G1 X68.659 Y101.243 E0.01401
G1 X68.611 Y100.775 E0.01476
G1 X68.458 Y100.366 E0.01366
G1 X68.209 Y100.005 E0.01379
G1 X67.953 Y99.769 E0.01089
G1 X67.664 Y99.590 E0.01067
G1 X67.350 Y99.470 E0.01053
G1 X67.018 Y99.411 E0.01059
G1 X60.676 Y99.404 E0.19884
G1 X60.552 Y99.352 E0.00422
G1 X60.500 Y99.289 E0.00256
G1 X60.472 Y99.156 E0.00426
G1 X60.472 Y46.338 E1.65607
G1 X60.606 Y46.148 E0.00729
G1 X60.911 Y45.808 E0.01431
G1 X61.253 Y45.509 E0.01425
G1 X61.629 Y45.252 E0.01428
G1 X62.011 Y45.052 E0.01354
G1 X62.279 Y44.951 E0.00896
G1 X62.703 Y44.860 E0.01361
G1 X63.141 Y44.816 E0.01380
G1 X65.048 Y44.755 E0.05980
G1 X68.102 Y44.728 E0.09578
G1 X88.917 Y44.709 E0.65263
G1 X106.647 Y44.723 E0.55591
G1 X110.380 Y44.749 E0.11706
G1 X112.593 Y44.810 E0.06940
G1 X113.084 Y44.854 E0.01546
G1 X113.410 Y44.913 E0.01041
G1 X113.699 Y45.002 E0.00948
G1 X114.073 Y45.179 E0.01295
G1 X114.456 Y45.419 E0.01418
G1 X114.808 Y45.702 E0.01417
G1 X115.126 Y46.026 E0.01424
G1 X115.255 Y46.190 E0.00653
G1 X115.234 Y99.273 E1.66437
G1 X115.188 Y99.340 E0.00257
G1 X115.094 Y99.395 E0.00342
G1 X108.837 Y99.410 E0.19617
G1 X108.484 Y99.473 E0.01125
G1 X108.140 Y99.611 E0.01160
G1 X107.870 Y99.786 E0.01012
G1 X107.599 Y100.049 E0.01183
G1 X107.356 Y100.428 E0.01411
G1 X107.217 Y100.863 E0.01431
G1 X107.190 Y101.295 E0.01358
G1 X107.256 Y101.679 E0.01221
G1 X107.339 Y101.911 E0.00772
G1 X107.479 Y102.172 E0.00928
G1 X108.036 Y102.865 E0.02788
G1 X108.195 Y103.097 E0.00883
G1 X108.353 Y103.379 E0.01012
G1 X108.499 Y103.804 E0.01409
G1 X108.590 Y104.338 E0.01698
G1 X108.619 Y104.799 E0.01448
G1 X108.615 Y105.108 E0.00971
G1 X108.550 Y105.751 E0.02026
G1 X108.497 Y106.018 E0.00853
G1 X108.385 Y106.406 E0.01265
G1 X108.157 Y106.968 E0.01902
G1 X107.966 Y107.315 E0.01244
G1 X107.725 Y107.663 E0.01327
G1 X107.406 Y108.043 E0.01555
G1 X107.140 Y108.322 E0.01210
G1 X106.597 Y108.832 E0.02334
G1 X105.267 Y109.964 E0.05476
G1 X104.671 Y110.498 E0.02509
G1 X103.957 Y111.184 E0.03106
G1 X103.594 Y111.582 E0.01688
G1 X103.281 Y112.021 E0.01693
G1 X102.801 Y112.793 E0.02849
G1 X102.411 Y113.474 E0.02459
G1 X101.544 Y115.082 E0.05730
G1 X101.280 Y115.527 E0.01622
G1 X100.935 Y116.039 E0.01934
G1 X100.651 Y116.389 E0.01414
G1 X100.400 Y116.639 E0.01111
G1 X100.051 Y116.904 E0.01374
G1 X99.721 Y117.090 E0.01188
G1 X99.497 Y117.191 E0.00769
G1 X99.132 Y117.318 E0.01212
G1 X98.899 Y117.377 E0.00752
G1 X98.524 Y117.437 E0.01191
G1 X98.141 Y117.457 E0.01205
G1 X97.899 Y117.449 E0.00759
G1 X97.360 Y117.375 E0.01704
G1 X96.962 Y117.272 E0.01291
G1 X96.703 Y117.182 E0.00860
G1 X96.291 Y117.001 E0.01409
G1 X96.035 Y116.863 E0.00911
G1 X95.490 Y116.504 E0.02046
G1 X95.239 Y116.305 E0.01006
G1 X94.886 Y115.985 E0.01493
G1 X94.496 Y115.572 E0.01783
G1 X94.237 Y115.263 E0.01263
G1 X93.833 Y114.718 E0.02129
G1 X93.564 Y114.313 E0.01523
G1 X93.147 Y113.612 E0.02559
G1 X92.869 Y113.095 E0.01839
G1 X92.293 Y111.884 E0.04205
G1 X91.900 Y110.944 E0.03195
G1 X91.682 Y110.367 E0.01934
G1 X90.860 Y107.982 E0.07910
G1 X90.201 Y105.898 E0.06852
G1 X89.896 Y104.606 E0.04164
M204 S1250
G1 X89.584 Y104.925 F9000.000
M204 S800
G1 F1200.000
G1 X87.806 Y104.929 E0.05573
G1 X87.210 Y104.914 E0.01871
G1 X86.834 Y104.882 E0.01183
G1 X86.636 Y104.913 E0.00626
G1 X86.414 Y105.068 E0.00851
G1 X86.264 Y105.298 E0.00860
G1 X86.165 Y105.524 E0.00773
G1 X85.954 Y106.135 E0.02028
G1 X85.358 Y108.060 E0.06319
G1 X84.842 Y109.583 E0.05041
G1 X84.334 Y110.939 E0.04540
G1 X83.840 Y112.124 E0.04026
G1 X83.366 Y113.141 E0.03518
G1 X82.918 Y113.995 E0.03023
G1 X82.500 Y114.694 E0.02555
G1 X82.032 Y115.359 E0.02549
G1 X81.501 Y115.978 E0.02558
G1 X80.940 Y116.509 E0.02420
G1 X80.357 Y116.951 E0.02295
G1 X80.065 Y117.135 E0.01080
G1 X79.620 Y117.372 E0.01580
G1 X79.023 Y117.611 E0.02018
G1 X78.733 Y117.695 E0.00947
G1 X78.296 Y117.785 E0.01399
G1 X77.718 Y117.832 E0.01817
G1 X77.443 Y117.826 E0.00862
G1 X77.027 Y117.779 E0.01315
G1 X76.760 Y117.725 E0.00853
G1 X76.363 Y117.606 E0.01299
G1 X75.813 Y117.362 E0.01886
G1 X75.375 Y117.083 E0.01631
G1 X75.086 Y116.837 E0.01187
G1 X74.901 Y116.648 E0.00830
G1 X74.501 Y116.145 E0.02014
G1 X74.164 Y115.628 E0.01936
G1 X73.757 Y114.912 E0.02581
G1 X72.761 Y113.044 E0.06637
G1 X72.361 Y112.396 E0.02389
G1 X71.967 Y111.851 E0.02107
G1 X71.403 Y111.209 E0.02680
G1 X70.871 Y110.699 E0.02311
G1 X70.129 Y110.061 E0.03065
G1 X68.989 Y109.126 E0.04624
G1 X68.468 Y108.642 E0.02231
G1 X68.180 Y108.340 E0.01306
G1 X67.817 Y107.905 E0.01778
G1 X67.619 Y107.628 E0.01066
G1 X67.369 Y107.218 E0.01507
G1 X67.236 Y106.951 E0.00936
G1 X67.086 Y106.582 E0.01249
G1 X67.016 Y106.357 E0.00738
G1 X66.947 Y106.012 E0.01104
G1 X66.907 Y105.552 E0.01446
G1 X66.895 Y105.081 E0.01479
G1 X66.911 Y104.069 E0.03173
G1 X66.936 Y103.864 E0.00647
G1 X66.999 Y103.615 E0.00806
G1 X67.217 Y103.112 E0.01719
G1 X67.503 Y102.644 E0.01719
G1 X68.036 Y101.985 E0.02657
G1 X68.146 Y101.790 E0.00703
G1 X68.222 Y101.587 E0.00679
G1 X68.279 Y101.233 E0.01126
G1 X68.240 Y100.861 E0.01170
G1 X68.121 Y100.542 E0.01069
G1 X67.922 Y100.253 E0.01100
G1 X67.724 Y100.071 E0.00845
G1 X67.496 Y99.929 E0.00841
G1 X67.249 Y99.835 E0.00828
G1 X66.984 Y99.788 E0.00844
G1 X60.635 Y99.781 E0.19909
G1 X60.485 Y99.748 E0.00480
G1 X60.306 Y99.645 E0.00648
G1 X60.173 Y99.487 E0.00647
G1 X60.117 Y99.350 E0.00463
G1 X60.095 Y99.180 E0.00537
G1 X60.095 Y46.218 E1.66060
G1 X60.311 Y45.913 E0.01172
G1 X60.645 Y45.540 E0.01570
G1 X61.021 Y45.210 E0.01568
G1 X61.434 Y44.928 E0.01569
G1 X61.857 Y44.707 E0.01495
G1 X62.172 Y44.588 E0.01055
G1 X62.644 Y44.487 E0.01516
G1 X63.116 Y44.439 E0.01487
G1 X65.040 Y44.378 E0.06034
G1 X68.100 Y44.351 E0.09596
G1 X88.917 Y44.332 E0.65268
G1 X106.648 Y44.346 E0.55596
G1 X110.386 Y44.372 E0.11721
G1 X112.615 Y44.433 E0.06989
G1 X113.134 Y44.480 E0.01635
G1 X113.500 Y44.546 E0.01166
G1 X113.837 Y44.650 E0.01105
G1 X114.254 Y44.848 E0.01448
G1 X114.675 Y45.111 E0.01557
G1 X115.062 Y45.422 E0.01557
G1 X115.410 Y45.777 E0.01559
G1 X115.632 Y46.060 E0.01127
G1 X115.620 Y99.305 E1.66945
G1 X115.577 Y99.442 E0.00450
G1 X115.458 Y99.611 E0.00648
G1 X115.289 Y99.729 E0.00647
G1 X115.152 Y99.772 E0.00451
G1 X108.870 Y99.787 E0.19695
G1 X108.588 Y99.837 E0.00900
G1 X108.315 Y99.947 E0.00922
G1 X108.106 Y100.083 E0.00782
G1 X107.893 Y100.289 E0.00930
G1 X107.700 Y100.590 E0.01120
G1 X107.590 Y100.933 E0.01130
G1 X107.569 Y101.274 E0.01071
G1 X107.622 Y101.582 E0.00980
G1 X107.685 Y101.757 E0.00584
G1 X107.795 Y101.963 E0.00731
G1 X108.339 Y102.640 E0.02723
G1 X108.515 Y102.898 E0.00980
G1 X108.694 Y103.217 E0.01145
G1 X108.804 Y103.496 E0.00940
G1 X108.868 Y103.721 E0.00733
G1 X108.966 Y104.294 E0.01824
G1 X108.996 Y104.789 E0.01555
G1 X108.992 Y105.130 E0.01067
G1 X108.923 Y105.807 E0.02134
G1 X108.864 Y106.107 E0.00959
G1 X108.742 Y106.529 E0.01377
G1 X108.498 Y107.130 E0.02034
G1 X108.286 Y107.514 E0.01375
G1 X108.025 Y107.892 E0.01441
G1 X107.688 Y108.294 E0.01647
G1 X107.406 Y108.590 E0.01281
G1 X106.849 Y109.114 E0.02396
G1 X105.515 Y110.248 E0.05491
G1 X104.927 Y110.774 E0.02473
G1 X104.227 Y111.447 E0.03046
G1 X103.888 Y111.819 E0.01578
G1 X103.595 Y112.231 E0.01584
G1 X103.125 Y112.987 E0.02791
G1 X102.741 Y113.657 E0.02422
G1 X101.872 Y115.268 E0.05740
G1 X101.598 Y115.729 E0.01680
G1 X101.238 Y116.263 E0.02020
G1 X100.931 Y116.642 E0.01529
G1 X100.648 Y116.924 E0.01254
G1 X100.258 Y117.220 E0.01535
G1 X99.891 Y117.427 E0.01322
G1 X99.637 Y117.541 E0.00874
G1 X99.240 Y117.679 E0.01316
G1 X98.975 Y117.746 E0.00856
G1 X98.564 Y117.812 E0.01305
G1 X98.144 Y117.834 E0.01319
G1 X97.867 Y117.825 E0.00871
G1 X97.287 Y117.746 E0.01835
G1 X96.852 Y117.633 E0.01409
G1 X96.564 Y117.533 E0.00955
G1 X96.126 Y117.340 E0.01502
G1 X95.842 Y117.188 E0.01011
G1 X95.269 Y116.810 E0.02151
G1 X94.995 Y116.593 E0.01097
G1 X94.622 Y116.255 E0.01578
G1 X94.214 Y115.823 E0.01864
G1 X93.941 Y115.496 E0.01333
G1 X93.524 Y114.934 E0.02194
G1 X93.245 Y114.514 E0.01583
G1 X92.818 Y113.798 E0.02614
G1 X92.533 Y113.265 E0.01894
G1 X91.949 Y112.038 E0.04263
G1 X91.549 Y111.083 E0.03245
G1 X91.327 Y110.495 E0.01972
G1 X90.502 Y108.100 E0.07941
G1 X89.837 Y105.999 E0.06911
G1 X89.598 Y104.983 E0.03270
M204 S1250
G1 X89.546 Y104.527 F9000.000
G1 X89.796 Y104.434
M204 S800
G1 F1200.000
G1 X60.762 Y75.400 E1.28980
G1 X60.762 Y75.935 E0.01679
G1 X89.094 Y104.266 E1.25859
G1 X88.560 Y104.267 E0.01675
G1 X60.762 Y76.469 E1.23490
G1 X60.762 Y77.003 E0.01679
G1 X88.027 Y104.268 E1.21121
G1 X87.485 Y104.261 E0.01702
G1 X60.762 Y77.538 E1.18713
G1 X60.762 Y78.072 E0.01679
G1 X86.917 Y104.227 E1.16189
G1 X86.810 Y104.218 E0.00337
G1 X86.433 Y104.277 E0.01201
G1 X60.763 Y78.607 E1.14036
M73 P1 R86
G1 X60.763 Y79.141 E0.01679
G1 X86.103 Y104.481 E1.12569
G1 X85.931 Y104.601 E0.00658
G1 X85.835 Y104.748 E0.00551
G1 X60.763 Y79.675 E1.11380
G1 X60.763 Y80.210 E0.01679
G1 X85.637 Y105.084 E1.10501
G1 X85.487 Y105.468 E0.01294
G1 X60.763 Y80.744 E1.09831
G1 X60.763 Y81.278 E0.01679
G1 X85.350 Y105.865 E1.09222
G1 X85.221 Y106.271 E0.01338
G1 X60.763 Y81.813 E1.08652
G1 X60.763 Y82.347 E0.01679
G1 X85.095 Y106.679 E1.08090
G1 X84.969 Y107.087 E0.01341
G1 X60.764 Y82.882 E1.07528
G1 X60.764 Y83.416 E0.01679
G1 X84.842 Y107.494 E1.06965
G1 X84.715 Y107.901 E0.01339
G1 X60.764 Y83.950 E1.06399
G1 X60.764 Y84.485 E0.01679
G1 X84.580 Y108.301 E1.05798
G1 X84.445 Y108.700 E0.01324
G1 X60.764 Y85.019 E1.05197
G1 X60.764 Y85.553 E0.01679
G1 X84.310 Y109.099 E1.04597
G1 X84.171 Y109.494 E0.01317
G1 X60.764 Y86.088 E1.03980
G1 X60.764 Y86.622 E0.01679
G1 X84.025 Y109.883 E1.03332
G1 X83.879 Y110.271 E0.01304
G1 X60.765 Y87.157 E1.02684
G1 X60.765 Y87.691 E0.01679
G1 X83.734 Y110.660 E1.02037
G1 X83.578 Y111.038 E0.01285
G1 X60.765 Y88.225 E1.01343
G1 X60.765 Y88.760 E0.01679
G1 X83.421 Y111.415 E1.00644
G1 X83.263 Y111.792 E0.01283
G1 X60.765 Y89.294 E0.99945
G1 X60.765 Y89.829 E0.01679
G1 X83.096 Y112.159 E0.99200
G1 X82.926 Y112.523 E0.01263
G1 X60.765 Y90.363 E0.98445
G1 X60.765 Y90.897 E0.01679
G1 X82.755 Y112.886 E0.97683
G1 X82.571 Y113.237 E0.01243
G1 X60.766 Y91.432 E0.96866
G1 X60.766 Y91.966 E0.01679
G1 X82.387 Y113.587 E0.96048
G1 X82.191 Y113.925 E0.01228
G1 X68.836 Y100.571 E0.59324
G1 X68.888 Y100.710 E0.00466
G1 X68.940 Y101.208 E0.01574
G1 X81.991 Y114.259 E0.57977
G1 X81.775 Y114.578 E0.01208
G1 X68.876 Y101.679 E0.57301
G1 X68.863 Y101.758 E0.00250
G1 X68.741 Y102.078 E0.01078
G1 X81.554 Y114.891 E0.56921
G1 X81.312 Y115.184 E0.01192
G1 X68.540 Y102.411 E0.56741
G1 X68.301 Y102.707 E0.01193
G1 X81.066 Y115.472 E0.56707
G1 X80.796 Y115.736 E0.01187
G1 X68.062 Y103.002 E0.56571
G1 X67.856 Y103.331 E0.01218
G1 X80.522 Y115.996 E0.56264
G1 X80.219 Y116.228 E0.01197
G1 X67.684 Y103.693 E0.55685
G1 X67.626 Y103.827 E0.00461
G1 X67.571 Y104.113 E0.00915
G1 X79.910 Y116.453 E0.54816
G1 X79.573 Y116.650 E0.01227
G1 X67.562 Y104.639 E0.53356
G1 X67.557 Y105.168 E0.01663
G1 X79.213 Y116.824 E0.51778
G1 X78.831 Y116.977 E0.01291
G1 X67.585 Y105.731 E0.49958
G1 X67.655 Y106.186 E0.01447
G1 X67.743 Y106.423 E0.00793
G1 X78.408 Y117.088 E0.47379
G1 X78.202 Y117.130 E0.00660
G1 X77.938 Y117.152 E0.00834
G1 X73.063 Y112.277 E0.21656
G1 X73.333 Y112.715 E0.01619
G1 X73.753 Y113.501 E0.02797
G1 X77.409 Y117.158 E0.16245
G1 X77.129 Y117.127 E0.00885
G1 X76.751 Y117.033 E0.01224
G1 X74.367 Y114.650 E0.10588
G1 X74.728 Y115.285 E0.02292
G1 X75.037 Y115.759 E0.01777
G1 X75.397 Y116.211 E0.01816
