; generated by PrusaSlicer 2.3.0+win64 on 2021-05-20 at 12:11:48 UTC


;
;

;
;
; 

; external perimeters extrusion width = 0.45mm
; perimeters extrusion width = 0.45mm
; infill extrusion width = 0.45mm
; solid infill extrusion width = 0.45mm
; top infill extrusion width = 0.40mm
; first layer extrusion width = 0.42mm

M73 P0 R1
M201 X1250 Y1250 Z400 E5000 ; sets maximum accelerations, mm/sec^2
M203 X180 Y180 Z12 E80 ; sets maximum feedrates, mm/sec
M204 P1250 R1250 T1250 ; sets acceleration (P, T) and retract acceleration (R), mm/sec^2
M205 X8.00 Y8.00 Z2.00 E10.00 ; sets the jerk limits, mm/sec
M205 S0 T0 ; sets the minimum extruding and travel feed rate, mm/sec
M107
;TYPE:Custom
G90 ; use absolute coordinates
M83 ; extruder relative mode
M104 S170 ; set extruder temp for bed leveling
M140 S60 ; set bed temp
M109 R170 ; wait for bed leveling temp
M190 S60 ; wait for bed temp
G28 ; home all without mesh bed level
G29 ; mesh bed leveling 
M104 S215 ; set extruder temp
G92 E0.0
G1 Y-2.0 X179 F2400
M73 P5 R1
G1 Z3 F720
M109 S215 ; wait for extruder temp

; intro line
G1 X170 F1000
M73 P6 R1
G1 Z0.2 F720
G1 X110.0 E8.0 F900
M73 P11 R1
G1 X40.0 E10.0 F700
G92 E0.0

M221 S95 ; set flow
G21 ; set units to millimeters
G90 ; use absolute coordinates
M83 ; use relative distances for extrusion
M900 K0.2 ; Filament gcode LA 1.5
; ; Filament gcode LA 1.0
;LAYER_CHANGE
;Z:0.2
;HEIGHT:0.2
;BEFORE_LAYER_CHANGE
G92 E0.0
;0.2


M73 P18 R1
G1 E-3.20000 F4200.000
G1 Z0.200 F9000.000
;AFTER_LAYER_CHANGE
;0.2
G1 Z0.400
G1 X82.813 Y82.860
M73 P19 R1
G1 Z0.200
G1 E3.20000 F2400.000
M204 S800
;TYPE:Skirt
;WIDTH:0.42
G1 F1200.000
G1 X84.361 Y81.583 E0.06288
M73 P20 R1
G1 X85.233 Y81.060 E0.03190
G1 X86.162 Y80.624 E0.03218
G1 X87.130 Y80.284 E0.03218
G1 X88.120 Y80.045 E0.03191
G1 X89.136 Y79.906 E0.03218
G1 X90.123 Y79.870 E0.03095
G1 X91.923 Y80.053 E0.05675
G1 X92.881 Y80.287 E0.03092
G1 X93.877 Y80.640 E0.03313
G1 X94.774 Y81.064 E0.03108
G1 X95.653 Y81.593 E0.03218
G1 X96.468 Y82.202 E0.03190
G1 X97.224 Y82.897 E0.03218
G1 X97.905 Y83.664 E0.03218
G1 X98.501 Y84.489 E0.03190
G1 X99.015 Y85.377 E0.03218
M73 P21 R1
G1 X99.423 Y86.280 E0.03108
G1 X99.934 Y88.012 E0.05662
G1 X100.081 Y88.988 E0.03092
G1 X100.131 Y90.043 E0.03314
G1 X100.078 Y91.033 E0.03108
G1 X99.922 Y92.048 E0.03218
G1 X99.667 Y93.033 E0.03190
G1 X99.310 Y93.995 E0.03218
G1 X98.858 Y94.916 E0.03218
G1 X98.321 Y95.780 E0.03190
G1 X97.693 Y96.592 E0.03218
G1 X97.015 Y97.309 E0.03095
G1 X95.602 Y98.441 E0.05675
G1 X94.755 Y98.946 E0.03092
G1 X93.797 Y99.392 E0.03314
M73 P22 R1
G1 X92.861 Y99.719 E0.03108
G1 X91.868 Y99.958 E0.03204
G1 X90.855 Y100.095 E0.03204
G1 X89.838 Y100.130 E0.03190
G1 X88.814 Y100.062 E0.03218
G1 X87.836 Y99.897 E0.03108
G1 X86.114 Y99.356 E0.05662
G1 X84.347 Y98.407 E0.06288
G1 X83.529 Y97.795 E0.03204
G1 X82.773 Y97.100 E0.03218
G1 X82.095 Y96.336 E0.03204
G1 X81.497 Y95.508 E0.03204
G1 X80.985 Y94.623 E0.03204
G1 X80.577 Y93.720 E0.03108
M73 P23 R1
G1 X80.066 Y91.988 E0.05662
G1 X79.919 Y91.012 E0.03092
G1 X79.869 Y89.957 E0.03314
G1 X80.076 Y87.961 E0.06291
G1 X80.332 Y86.972 E0.03204
G1 X80.676 Y86.037 E0.03122
G1 X81.135 Y85.095 E0.03286
G1 X81.657 Y84.252 E0.03108
G1 X82.775 Y82.906 E0.05487
M204 S1250
G1 X83.064 Y83.145 F9000.000
M204 S800
G1 F1200.000
G1 X84.569 Y81.897 E0.06132
G1 X86.304 Y80.973 E0.06162
G1 X88.193 Y80.415 E0.06175
M73 P24 R1
G1 X90.122 Y80.247 E0.06073
G1 X91.847 Y80.423 E0.05437
G1 X93.731 Y80.988 E0.06166
G1 X95.442 Y81.905 E0.06086
G1 X96.954 Y83.160 E0.06162
G1 X98.186 Y84.697 E0.06175
G1 X99.073 Y86.419 E0.06073
G1 X99.563 Y88.082 E0.05437
M73 P25 R1
G1 X99.754 Y90.040 E0.06166
G1 X99.553 Y91.970 E0.06086
G1 X98.964 Y93.845 E0.06163
G1 X98.009 Y95.568 E0.06175
G1 X96.751 Y97.040 E0.06073
G1 X95.397 Y98.124 E0.05437
G1 X93.658 Y99.042 E0.06166
G1 X91.795 Y99.588 E0.06086
G1 X89.841 Y99.753 E0.06150
M73 P26 R1
G1 X88.851 Y99.686 E0.03111
G1 X87.881 Y99.521 E0.03085
G1 X86.045 Y98.916 E0.06060
G1 X84.531 Y98.077 E0.05428
G1 X83.040 Y96.834 E0.06086
G1 X81.814 Y95.303 E0.06150
G1 X80.926 Y93.577 E0.06086
G1 X80.393 Y91.685 E0.06163
G1 X80.246 Y89.960 E0.05428
G1 X80.445 Y88.038 E0.06060
M73 P27 R1
G1 X81.023 Y86.185 E0.06086
G1 X81.968 Y84.466 E0.06150
G1 X83.025 Y83.191 E0.05193
M204 S1250
G1 X83.314 Y83.431 F9000.000
M204 S800
G1 F1200.000
G1 X84.779 Y82.211 E0.05976
G1 X86.450 Y81.321 E0.05937
G1 X88.262 Y80.785 E0.05925
G1 X90.122 Y80.624 E0.05854
G1 X91.772 Y80.792 E0.05199
G1 X93.585 Y81.336 E0.05936
M73 P28 R1
G1 X95.231 Y82.217 E0.05854
G1 X96.688 Y83.427 E0.05937
G1 X97.870 Y84.901 E0.05925
G1 X98.724 Y86.561 E0.05854
G1 X99.193 Y88.152 E0.05199
G1 X99.377 Y90.036 E0.05936
G1 X99.184 Y91.893 E0.05854
G1 X98.618 Y93.696 E0.05925
M73 P29 R1
G1 X97.700 Y95.352 E0.05937
G1 X96.487 Y96.771 E0.05854
G1 X95.193 Y97.808 E0.05199
G1 X93.518 Y98.692 E0.05936
G1 X91.727 Y99.217 E0.05854
G1 X89.847 Y99.376 E0.05913
G1 X87.993 Y99.160 E0.05854
G1 X86.411 Y98.663 E0.05199
G1 X84.769 Y97.783 E0.05841
G1 X83.310 Y96.570 E0.05949
M73 P30 R1
G1 X82.128 Y95.096 E0.05925
G1 X81.276 Y93.439 E0.05842
G1 X80.807 Y91.848 E0.05199
G1 X80.623 Y89.964 E0.05936
G1 X80.815 Y88.111 E0.05842
G1 X81.370 Y86.332 E0.05842
G1 X82.281 Y84.676 E0.05925
G1 X83.276 Y83.477 E0.04885
M204 S1250
; printing object HandbagFootShroudBasic1.stl id:0 copy 0
G1 E-2.24000 F4200.000
;WIPE_START
M73 P31 R1
G1 F7200.000
G1 X84.534 Y82.417 E-0.91200
;WIPE_END
G1 E-0.04800 F4200.000
G1 Z0.400 F9000.000
G1 X84.054 Y88.157
G1 Z0.200
G1 E3.20000 F2400.000
M204 S800
;TYPE:Perimeter
G1 F1200.000
G1 X85.213 Y88.262 E0.03650
G1 X85.213 Y91.738 E0.10899
G1 X84.054 Y91.843 E0.03649
G1 X83.877 Y91.051 E0.02544
G1 X83.802 Y90.419 E0.01993
G1 X83.791 Y89.785 E0.01989
G1 X83.819 Y89.376 E0.01285
M73 P32 R1
G1 X83.916 Y88.742 E0.02012
G1 X84.040 Y88.216 E0.01696
M204 S1250
G1 X84.085 Y87.781 F9000.000
M204 S800
;TYPE:External perimeter
G1 F1200.000
G1 X84.062 Y87.779 E0.00071
G1 X84.468 Y86.962 E0.02859
G1 X84.702 Y86.569 E0.01435
G1 X84.965 Y86.195 E0.01433
G1 X85.225 Y85.874 E0.01296
G1 X85.732 Y85.351 E0.02286
G1 X86.260 Y84.916 E0.02145
G1 X86.639 Y84.658 E0.01439
G1 X86.997 Y84.450 E0.01296
G1 X87.657 Y84.140 E0.02286
G1 X88.305 Y83.921 E0.02145
G1 X88.751 Y83.814 E0.01439
G1 X89.204 Y83.739 E0.01439
G1 X89.884 Y83.690 E0.02138
G1 X90.343 Y83.698 E0.01439
G1 X90.798 Y83.739 E0.01433
G1 X91.249 Y83.814 E0.01433
G1 X91.694 Y83.920 E0.01433
G1 X92.129 Y84.059 E0.01433
G1 X92.554 Y84.228 E0.01433
G1 X92.965 Y84.428 E0.01433
G1 X93.360 Y84.658 E0.01433
G1 X93.738 Y84.915 E0.01433
G1 X94.096 Y85.199 E0.01433
G1 X94.433 Y85.508 E0.01433
G1 X94.747 Y85.841 E0.01433
G1 X95.035 Y86.195 E0.01433
G1 X95.298 Y86.569 E0.01433
G1 X95.532 Y86.962 E0.01435
M73 P33 R1
G1 X95.938 Y87.779 E0.02859
G1 X94.984 Y87.877 E0.03005
G1 X94.410 Y87.899 E0.01803
G1 X94.410 Y92.101 E0.13172
G1 X94.984 Y92.123 E0.01803
G1 X95.938 Y92.221 E0.03005
G1 X95.532 Y93.038 E0.02859
G1 X95.297 Y93.432 E0.01441
G1 X94.895 Y93.983 E0.02138
G1 X94.593 Y94.329 E0.01439
G1 X94.267 Y94.650 E0.01433
G1 X93.920 Y94.946 E0.01433
G1 X93.550 Y95.218 E0.01439
G1 X92.965 Y95.572 E0.02144
G1 X92.343 Y95.860 E0.02150
G1 X91.695 Y96.079 E0.02143
G1 X91.249 Y96.186 E0.01439
G1 X90.796 Y96.261 E0.01439
G1 X90.116 Y96.310 E0.02138
G1 X89.657 Y96.302 E0.01439
M73 P34 R1
G1 X89.202 Y96.261 E0.01433
G1 X88.751 Y96.186 E0.01433
G1 X88.306 Y96.080 E0.01433
G1 X87.871 Y95.941 E0.01433
G1 X87.446 Y95.772 E0.01433
G1 X87.035 Y95.572 E0.01433
G1 X86.640 Y95.342 E0.01433
G1 X86.262 Y95.085 E0.01433
G1 X85.904 Y94.801 E0.01433
G1 X85.567 Y94.492 E0.01433
G1 X85.253 Y94.159 E0.01433
G1 X84.965 Y93.805 E0.01433
G1 X84.702 Y93.431 E0.01433
G1 X84.468 Y93.038 E0.01435
G1 X84.062 Y92.221 E0.02859
G1 X85.016 Y92.123 E0.03005
G1 X85.590 Y92.101 E0.01803
G1 X85.590 Y87.899 E0.13172
G1 X85.016 Y87.877 E0.01803
G1 X84.144 Y87.787 E0.02746
M204 S1250
G1 X84.071 Y87.800 F9000.000
G1 E-2.24000 F4200.000
;WIPE_START
M73 P35 R1
G1 F7200.000
G1 X84.062 Y87.779 E-0.04574
G1 X84.468 Y86.962 E-0.50535
G1 X84.702 Y86.569 E-0.25363
G1 X84.813 Y86.411 E-0.10728
;WIPE_END
G1 E-0.04800 F4200.000
G1 Z0.400 F9000.000
G1 X94.787 Y88.262
G1 Z0.200
G1 E3.20000 F2400.000
M204 S800
;TYPE:Perimeter
G1 F1200.000
G1 X95.946 Y88.157 E0.03649
G1 X96.123 Y88.949 E0.02544
G1 X96.198 Y89.581 E0.01993
G1 X96.209 Y90.215 E0.01989
G1 X96.181 Y90.624 E0.01285
G1 X96.084 Y91.258 E0.02011
G1 X95.946 Y91.843 E0.01884
G1 X94.787 Y91.738 E0.03650
G1 X94.787 Y88.322 E0.10711
M204 S1250
M73 P36 R1
G1 E-2.24000 F4200.000
;WIPE_START
G1 F7200.000
G1 X95.946 Y88.157 E-0.64884
G1 X96.050 Y88.621 E-0.26316
;WIPE_END
G1 E-0.04800 F4200.000
G1 Z0.400 F9000.000
G1 X96.134 Y87.350
G1 Z0.200
G1 E3.20000 F2400.000
M204 S800
;TYPE:External perimeter
G1 F1200.000
G1 X96.407 Y88.449 E0.03553
G1 X96.496 Y88.890 E0.01409
G1 X96.575 Y89.555 E0.02101
G1 X96.586 Y90.224 E0.02099
G1 X96.556 Y90.665 E0.01385
G1 X96.455 Y91.330 E0.02109
G1 X96.134 Y92.651 E0.04262
G1 X96.053 Y92.843 E0.00655
G1 X95.734 Y93.443 E0.02131
G1 X95.491 Y93.819 E0.01405
G1 X95.075 Y94.356 E0.02130
G1 X94.608 Y94.847 E0.02124
M73 P37 R1
G1 X94.094 Y95.289 E0.02124
G1 X93.538 Y95.676 E0.02124
G1 X92.945 Y96.005 E0.02124
G1 X92.323 Y96.272 E0.02124
G1 X91.676 Y96.474 E0.02124
G1 X91.013 Y96.611 E0.02124
G1 X90.339 Y96.680 E0.02124
G1 X89.661 Y96.680 E0.02124
G1 X88.987 Y96.611 E0.02124
G1 X88.324 Y96.474 E0.02124
G1 X87.677 Y96.272 E0.02124
G1 X87.053 Y96.004 E0.02130
G1 X86.657 Y95.793 E0.01405
G1 X86.087 Y95.424 E0.02130
G1 X85.559 Y95.000 E0.02124
G1 X85.076 Y94.525 E0.02124
G1 X84.642 Y94.002 E0.02130
G1 X84.385 Y93.635 E0.01405
G1 X84.046 Y93.046 E0.02131
G1 X83.866 Y92.650 E0.01363
G1 X83.593 Y91.551 E0.03553
G1 X83.504 Y91.110 E0.01409
G1 X83.425 Y90.445 E0.02101
G1 X83.414 Y89.776 E0.02099
G1 X83.444 Y89.335 E0.01385
M73 P38 R1
G1 X83.545 Y88.670 E0.02109
G1 X83.807 Y87.563 E0.03567
G1 X83.931 Y87.190 E0.01234
G1 X84.152 Y86.755 E0.01526
G1 X84.511 Y86.179 E0.02128
G1 X84.925 Y85.644 E0.02124
G1 X85.392 Y85.153 E0.02124
G1 X85.906 Y84.711 E0.02124
G1 X86.462 Y84.324 E0.02124
G1 X87.055 Y83.995 E0.02124
G1 X87.677 Y83.728 E0.02124
G1 X88.324 Y83.526 E0.02124
G1 X88.987 Y83.389 E0.02124
G1 X89.662 Y83.320 E0.02125
G1 X90.296 Y83.319 E0.01988
G1 X90.788 Y83.358 E0.01547
G1 X91.457 Y83.473 E0.02128
G1 X92.110 Y83.654 E0.02124
G1 X92.741 Y83.899 E0.02124
G1 X93.344 Y84.208 E0.02124
G1 X93.913 Y84.576 E0.02124
G1 X94.441 Y85.000 E0.02124
G1 X94.924 Y85.475 E0.02124
G1 X95.358 Y85.998 E0.02130
G1 X95.614 Y86.365 E0.01405
G1 X95.954 Y86.954 E0.02131
M73 P39 R1
G1 X96.109 Y87.295 E0.01175
M204 S1250
G1 X95.869 Y87.650 F9000.000
G1 E-2.24000 F4200.000
;WIPE_START
G1 F7200.000
G1 X96.407 Y88.449 E-0.66063
G1 X96.496 Y88.890 E-0.24900
G1 X96.496 Y88.894 E-0.00237
;WIPE_END
G1 E-0.04800 F4200.000
G1 Z0.400 F9000.000
G1 X96.045 Y89.252
G1 Z0.200
G1 E3.20000 F2400.000
M204 S800
;TYPE:Solid infill
;WIDTH:0.430636
G1 F1200.000
G1 X95.293 Y88.500 E0.03428
G1 X95.070 Y88.520 E0.00724
G1 X95.070 Y88.825 E0.00982
G1 X95.917 Y89.672 E0.03862
G1 X95.924 Y90.228 E0.01793
G1 X95.070 Y89.373 E0.03897
G1 X95.070 Y89.921 E0.01768
G1 X95.879 Y90.730 E0.03689
G1 X95.806 Y91.206 E0.01551
G1 X95.070 Y90.470 E0.03357
M73 P40 R1
G1 X95.070 Y91.018 E0.01768
G1 X95.764 Y91.713 E0.03167
M204 S1250
G1 E-2.24000 F4200.000
;WIPE_START
G1 F7200.000
G1 X95.070 Y91.018 E-0.54441
G1 X95.070 Y90.470 E-0.30386
G1 X95.151 Y90.551 E-0.06373
;WIPE_END
G1 E-0.04800 F4200.000
G1 Z0.400 F9000.000
G1 X84.235 Y88.289
G1 Z0.200
G1 E3.20000 F2400.000
M204 S800
;WIDTH:0.430052
G1 F1200.000
G1 X84.930 Y88.985 E0.03168
G1 X84.930 Y89.533 E0.01762
G1 X84.193 Y88.796 E0.03354
G1 X84.121 Y89.271 E0.01547
G1 X84.930 Y90.080 E0.03684
M73 P41 R1
G1 X84.930 Y90.628 E0.01762
G1 X84.076 Y89.773 E0.03891
G1 X84.083 Y90.328 E0.01787
G1 X84.930 Y91.175 E0.03856
G1 X84.930 Y91.480 E0.00980
G1 X84.707 Y91.500 E0.00721
G1 X83.955 Y90.747 E0.03426
M204 S1250
; stop printing object HandbagFootShroudBasic1.stl id:0 copy 0
M106 S84.15
;LAYER_CHANGE
;Z:0.45
;HEIGHT:0.25
;BEFORE_LAYER_CHANGE
G92 E0.0
;0.45


G1 E-2.24000 F4200.000
;WIPE_START
G1 F7200.000
G1 X84.707 Y91.500 E-0.58980
G1 X84.930 Y91.480 E-0.12404
G1 X84.930 Y91.175 E-0.16871
G1 X84.893 Y91.138 E-0.02945
;WIPE_END
G1 E-0.04800 F4200.000
G1 Z0.400 F9000.000
G1 Z0.450
;AFTER_LAYER_CHANGE
;0.45
G1 Z0.650
G1 X80.066 Y91.988
G1 Z0.450
G1 E3.20000 F2400.000
;TYPE:Skirt
;WIDTH:0.42
G1 F1608
G1 X79.919 Y91.012 E0.03755
M73 P42 R1
G1 X79.869 Y89.957 E0.04024
G1 X80.076 Y87.961 E0.07640
G1 X80.332 Y86.972 E0.03891
G1 X80.676 Y86.037 E0.03791
G1 X81.135 Y85.095 E0.03991
G1 X81.657 Y84.252 E0.03775
G1 X82.813 Y82.860 E0.06892
G1 X84.361 Y81.583 E0.07637
G1 X85.233 Y81.060 E0.03874
G1 X86.162 Y80.624 E0.03908
G1 X87.130 Y80.284 E0.03908
G1 X88.120 Y80.045 E0.03875
G1 X89.136 Y79.906 E0.03908
G1 X90.123 Y79.870 E0.03758
G1 X91.923 Y80.053 E0.06892
G1 X92.881 Y80.287 E0.03755
G1 X93.877 Y80.640 E0.04024
G1 X94.774 Y81.064 E0.03775
G1 X95.653 Y81.593 E0.03908
M73 P43 R1
G1 X96.468 Y82.202 E0.03874
G1 X97.224 Y82.897 E0.03908
G1 X97.905 Y83.664 E0.03908
G1 X98.501 Y84.489 E0.03875
G1 X99.015 Y85.377 E0.03908
G1 X99.423 Y86.280 E0.03775
G1 X99.934 Y88.012 E0.06876
G1 X100.081 Y88.988 E0.03755
G1 X100.131 Y90.043 E0.04024
G1 X100.078 Y91.033 E0.03775
G1 X99.922 Y92.048 E0.03908
G1 X99.667 Y93.033 E0.03875
G1 X99.310 Y93.995 E0.03908
G1 X98.858 Y94.916 E0.03908
G1 X98.321 Y95.780 E0.03874
G1 X97.693 Y96.592 E0.03908
G1 X97.015 Y97.309 E0.03758
G1 X95.602 Y98.441 E0.06892
G1 X94.755 Y98.946 E0.03755
G1 X93.797 Y99.392 E0.04024
M73 P44 R1
G1 X92.861 Y99.719 E0.03775
G1 X91.868 Y99.958 E0.03891
G1 X90.855 Y100.095 E0.03891
G1 X89.838 Y100.130 E0.03874
G1 X88.814 Y100.062 E0.03908
G1 X87.836 Y99.897 E0.03775
G1 X86.114 Y99.356 E0.06876
G1 X84.347 Y98.407 E0.07637
G1 X83.529 Y97.795 E0.03891
G1 X82.773 Y97.100 E0.03908
G1 X82.095 Y96.336 E0.03891
G1 X81.497 Y95.508 E0.03891
G1 X80.985 Y94.623 E0.03891
G1 X80.577 Y93.720 E0.03775
G1 X80.083 Y92.045 E0.06647
G1 X80.393 Y91.685 F9000.000
G1 F1608
G1 X80.246 Y89.960 E0.06592
G1 X80.445 Y88.038 E0.07360
M73 P45 R1
G1 X81.023 Y86.185 E0.07391
G1 X81.968 Y84.466 E0.07468
G1 X83.078 Y83.128 E0.06618
G1 X84.569 Y81.897 E0.07365
G1 X86.304 Y80.973 E0.07484
G1 X88.193 Y80.415 E0.07500
G1 X90.122 Y80.247 E0.07375
G1 X91.847 Y80.423 E0.06603
G1 X93.731 Y80.988 E0.07489
G1 X95.442 Y81.905 E0.07391
G1 X96.954 Y83.160 E0.07484
G1 X98.186 Y84.697 E0.07500
M73 P46 R1
G1 X99.073 Y86.419 E0.07375
G1 X99.563 Y88.082 E0.06603
G1 X99.754 Y90.040 E0.07489
G1 X99.553 Y91.970 E0.07391
G1 X98.964 Y93.845 E0.07484
G1 X98.009 Y95.568 E0.07500
G1 X96.751 Y97.040 E0.07375
G1 X95.397 Y98.124 E0.06603
G1 X93.658 Y99.042 E0.07489
G1 X91.795 Y99.588 E0.07391
G1 X89.841 Y99.753 E0.07468
M73 P47 R1
G1 X88.851 Y99.686 E0.03778
G1 X87.881 Y99.521 E0.03747
G1 X86.045 Y98.916 E0.07360
G1 X84.531 Y98.077 E0.06592
G1 X83.040 Y96.834 E0.07391
G1 X81.814 Y95.303 E0.07468
G1 X80.926 Y93.577 E0.07391
G1 X80.409 Y91.743 E0.07256
G1 X80.793 Y91.706 F9000.000
G1 F1608
G1 X80.623 Y89.964 E0.06664
G1 X80.815 Y88.111 E0.07095
G1 X81.370 Y86.332 E0.07095
G1 X82.281 Y84.676 E0.07196
G1 X83.342 Y83.397 E0.06328
M73 P48 R1
G1 X84.779 Y82.211 E0.07094
G1 X86.450 Y81.321 E0.07210
G1 X88.262 Y80.785 E0.07196
G1 X90.122 Y80.624 E0.07109
G1 X91.772 Y80.792 E0.06314
G1 X93.585 Y81.336 E0.07209
G1 X95.231 Y82.217 E0.07109
G1 X96.688 Y83.427 E0.07210
G1 X97.870 Y84.901 E0.07196
G1 X98.724 Y86.561 E0.07109
G1 X99.193 Y88.152 E0.06314
G1 X99.377 Y90.036 E0.07209
M73 P49 R1
G1 X99.184 Y91.893 E0.07109
G1 X98.618 Y93.696 E0.07196
G1 X97.700 Y95.352 E0.07210
G1 X96.487 Y96.771 E0.07109
G1 X95.193 Y97.808 E0.06314
G1 X93.518 Y98.692 E0.07209
G1 X91.727 Y99.217 E0.07109
G1 X89.847 Y99.376 E0.07181
G1 X87.993 Y99.160 E0.07109
G1 X86.411 Y98.663 E0.06314
G1 X84.769 Y97.783 E0.07093
G1 X83.310 Y96.570 E0.07225
M73 P50 R1
G1 X82.128 Y95.096 E0.07196
G1 X81.276 Y93.439 E0.07095
G1 X80.807 Y91.848 E0.06314
G1 X80.799 Y91.765 E0.00317
