; generated by PrusaSlicer 2.3.0+win64 on 2021-05-24 at 09:08:42 UTC


;
;

;
;
; 

; external perimeters extrusion width = 0.45mm
; perimeters extrusion width = 0.45mm
; infill extrusion width = 0.45mm
; solid infill extrusion width = 0.45mm
; top infill extrusion width = 0.40mm
; first layer extrusion width = 0.42mm

M73 P0 R17
M201 X1250 Y1250 Z400 E5000 ; sets maximum accelerations, mm/sec^2
M203 X180 Y180 Z12 E80 ; sets maximum feedrates, mm/sec
M204 P1250 R1250 T1250 ; sets acceleration (P, T) and retract acceleration (R), mm/sec^2
M205 X8.00 Y8.00 Z2.00 E10.00 ; sets the jerk limits, mm/sec
M205 S0 T0 ; sets the minimum extruding and travel feed rate, mm/sec
M107
;TYPE:Custom
G90 ; use absolute coordinates
M83 ; extruder relative mode
M104 S170 ; set extruder temp for bed leveling
M140 S60 ; set bed temp
M109 R170 ; wait for bed leveling temp
M190 S60 ; wait for bed temp
G28 ; home all without mesh bed level
G29 ; mesh bed leveling 
M104 S215 ; set extruder temp
G92 E0.0
G1 Y-2.0 X179 F2400
G1 Z3 F720
M109 S215 ; wait for extruder temp

; intro line
G1 X170 F1000
G1 Z0.2 F720
G1 X110.0 E8.0 F900
G1 X40.0 E10.0 F700
G92 E0.0

M221 S95 ; set flow
G21 ; set units to millimeters
G90 ; use absolute coordinates
M83 ; use relative distances for extrusion
M900 K0.2 ; Filament gcode LA 1.5
; ; Filament gcode LA 1.0
;LAYER_CHANGE
;Z:0.2
;HEIGHT:0.2
;BEFORE_LAYER_CHANGE
G92 E0.0
;0.2


M73 P1 R16
G1 E-3.20000 F4200.000
G1 Z0.200 F9000.000
;AFTER_LAYER_CHANGE
;0.2
G1 Z0.400
G1 X73.139 Y73.097
G1 Z0.200
G1 E3.20000 F2400.000
M204 S800
;TYPE:Skirt
;WIDTH:0.42
G1 F1200.000
G1 X74.662 Y71.961 E0.05958
G1 X76.386 Y71.153 E0.05971
G1 X78.231 Y70.709 E0.05948
G1 X79.492 Y70.623 E0.03965
G1 X100.403 Y70.623 E0.65564
G1 X101.988 Y70.752 E0.04987
G1 X103.582 Y71.163 E0.05160
G1 X105.034 Y71.820 E0.04998
G1 X106.346 Y72.705 E0.04962
G1 X107.498 Y73.807 E0.04997
G1 X108.443 Y75.080 E0.04972
G1 X109.159 Y76.494 E0.04970
G1 X109.625 Y78.001 E0.04944
G1 X109.841 Y79.904 E0.06007
G1 X109.826 Y100.527 E0.64662
G1 X109.652 Y101.874 E0.04257
G1 X109.313 Y103.099 E0.03986
G1 X108.806 Y104.277 E0.04022
G1 X108.141 Y105.378 E0.04034
G1 X107.550 Y106.134 E0.03007
G1 X106.767 Y106.935 E0.03513
G1 X105.946 Y107.600 E0.03313
G1 X105.114 Y108.136 E0.03102
G1 X104.110 Y108.633 E0.03512
M73 P2 R16
G1 X103.110 Y108.991 E0.03329
G1 X102.152 Y109.220 E0.03091
G1 X101.037 Y109.358 E0.03523
G1 X78.878 Y109.356 E0.69478
G1 X77.617 Y109.186 E0.03989
G1 X76.375 Y108.842 E0.04040
G1 X75.102 Y108.286 E0.04357
G1 X74.013 Y107.613 E0.04012
G1 X73.247 Y107.000 E0.03076
G1 X72.479 Y106.233 E0.03404
G1 X71.800 Y105.377 E0.03425
G1 X71.283 Y104.552 E0.03053
G1 X70.811 Y103.576 E0.03400
G1 X70.486 Y102.658 E0.03053
G1 X70.238 Y101.598 E0.03412
G1 X70.121 Y100.628 E0.03065
G1 X70.122 Y79.368 E0.66658
G1 X70.293 Y78.109 E0.03986
G1 X70.638 Y76.873 E0.04021
G1 X71.143 Y75.707 E0.03984
G1 X71.869 Y74.526 E0.04348
G1 X73.099 Y73.142 E0.05804
M204 S1250
; printing object HandbagFootShroudCantedPair01.stl id:0 copy 1
G1 E-2.24000 F4200.000
;WIPE_START
G1 F7200.000
G1 X74.412 Y72.150 E-0.91200
;WIPE_END
G1 E-0.04800 F4200.000
G1 Z0.400 F9000.000
G1 X105.150 Y97.432
G1 Z0.200
G1 E3.20000 F2400.000
M204 S800
;TYPE:Perimeter
G1 F1200.000
G1 X104.701 Y98.287 E0.03027
G1 X103.557 Y98.287 E0.03588
G1 X103.557 Y101.713 E0.10741
G1 X104.701 Y101.713 E0.03588
G1 X105.146 Y102.561 E0.03004
G1 X104.623 Y103.295 E0.02827
G1 X104.186 Y103.785 E0.02056
G1 X103.689 Y104.220 E0.02072
G1 X103.142 Y104.591 E0.02072
G1 X102.553 Y104.892 E0.02073
G1 X101.932 Y105.118 E0.02073
G1 X101.288 Y105.266 E0.02073
G1 X100.636 Y105.333 E0.02055
G1 X100.189 Y105.333 E0.01402
G1 X99.743 Y105.297 E0.01402
G1 X99.099 Y105.176 E0.02055
G1 X98.469 Y104.976 E0.02073
G1 X97.868 Y104.699 E0.02073
G1 X97.307 Y104.351 E0.02072
G1 X96.792 Y103.937 E0.02072
G1 X96.331 Y103.461 E0.02078
G1 X95.669 Y102.568 E0.03485
G1 X96.117 Y101.713 E0.03027
G1 X97.262 Y101.713 E0.03588
G1 X97.262 Y98.287 E0.10741
G1 X96.117 Y98.287 E0.03588
G1 X95.672 Y97.439 E0.03004
G1 X96.196 Y96.705 E0.02827
G1 X96.632 Y96.215 E0.02057
G1 X97.130 Y95.780 E0.02072
G1 X97.677 Y95.409 E0.02072
G1 X98.265 Y95.108 E0.02073
G1 X98.887 Y94.882 E0.02073
G1 X99.532 Y94.734 E0.02075
G1 X100.198 Y94.667 E0.02101
G1 X100.630 Y94.667 E0.01354
G1 X101.075 Y94.704 E0.01401
G1 X101.720 Y94.824 E0.02055
G1 X102.350 Y95.025 E0.02073
G1 X102.950 Y95.301 E0.02073
G1 X103.512 Y95.649 E0.02072
G1 X104.027 Y96.064 E0.02072
G1 X104.488 Y96.540 E0.02078
G1 X105.114 Y97.384 E0.03297
M204 S1250
G1 X104.706 Y97.467 F9000.000
M204 S800
;TYPE:External perimeter
G1 F1200.000
G1 X104.473 Y97.910 E0.01570
G1 X103.180 Y97.910 E0.04055
G1 X103.180 Y102.090 E0.13106
G1 X104.473 Y102.090 E0.04055
G1 X104.705 Y102.531 E0.01561
G1 X104.328 Y103.060 E0.02036
G1 X103.920 Y103.517 E0.01919
G1 X103.458 Y103.921 E0.01925
G1 X102.950 Y104.266 E0.01926
G1 X102.403 Y104.546 E0.01927
G1 X101.825 Y104.756 E0.01927
G1 X101.226 Y104.893 E0.01928
G1 X100.616 Y104.956 E0.01921
G1 X100.204 Y104.956 E0.01292
G1 X99.793 Y104.922 E0.01292
G1 X99.191 Y104.810 E0.01921
G1 X98.605 Y104.623 E0.01927
G1 X98.047 Y104.367 E0.01927
G1 X97.525 Y104.043 E0.01926
G1 X97.047 Y103.658 E0.01926
G1 X96.619 Y103.216 E0.01927
G1 X96.113 Y102.533 E0.02665
G1 X96.345 Y102.090 E0.01570
G1 X97.639 Y102.090 E0.04055
G1 X97.639 Y97.910 E0.13106
G1 X96.345 Y97.910 E0.04055
G1 X96.114 Y97.469 E0.01561
G1 X96.491 Y96.941 E0.02036
G1 X96.898 Y96.484 E0.01920
G1 X97.360 Y96.079 E0.01925
G1 X97.869 Y95.734 E0.01926
G1 X98.416 Y95.455 E0.01927
G1 X98.994 Y95.245 E0.01927
G1 X99.593 Y95.107 E0.01928
G1 X100.217 Y95.044 E0.01967
G1 X100.615 Y95.044 E0.01246
G1 X101.025 Y95.078 E0.01292
G1 X101.627 Y95.191 E0.01921
G1 X102.213 Y95.377 E0.01927
G1 X102.771 Y95.634 E0.01927
G1 X103.294 Y95.957 E0.01926
G1 X103.772 Y96.343 E0.01926
G1 X104.199 Y96.784 E0.01927
G1 X104.670 Y97.419 E0.02477
M204 S1250
G1 X105.033 Y97.698 F9000.000
G1 X105.746 Y96.795
M204 S800
;TYPE:Perimeter
G1 F1200.000
G1 X105.964 Y97.172 E0.01364
G1 X106.223 Y97.746 E0.01974
G1 X106.422 Y98.343 E0.01973
G1 X106.560 Y98.957 E0.01973
G1 X106.634 Y99.583 E0.01979
G1 X106.647 Y100.115 E0.01666
G1 X106.617 Y100.625 E0.01603
G1 X106.521 Y101.249 E0.01981
G1 X106.363 Y101.858 E0.01973
G1 X106.143 Y102.448 E0.01973
G1 X105.865 Y103.013 E0.01974
G1 X105.531 Y103.547 E0.01975
G1 X105.145 Y104.045 E0.01976
G1 X104.709 Y104.501 E0.01977
G1 X104.230 Y104.911 E0.01978
G1 X103.711 Y105.271 E0.01979
G1 X103.157 Y105.578 E0.01987
G1 X102.669 Y105.791 E0.01669
G1 X102.180 Y105.957 E0.01618
G1 X101.563 Y106.105 E0.01990
G1 X100.937 Y106.190 E0.01982
G1 X100.304 Y106.211 E0.01985
G1 X99.671 Y106.169 E0.01990
G1 X99.150 Y106.084 E0.01655
G1 X98.535 Y105.925 E0.01990
G1 X97.951 Y105.710 E0.01954
G1 X97.475 Y105.482 E0.01653
G1 X96.931 Y105.157 E0.01987
G1 X96.425 Y104.780 E0.01979
G1 X95.960 Y104.354 E0.01978
G1 X95.540 Y103.884 E0.01977
G1 X95.170 Y103.374 E0.01976
G1 X94.855 Y102.829 E0.01975
G1 X94.596 Y102.255 E0.01974
G1 X94.397 Y101.658 E0.01973
G1 X94.259 Y101.044 E0.01973
G1 X94.184 Y100.417 E0.01980
G1 X94.171 Y99.893 E0.01643
G1 X94.215 Y99.263 E0.01980
G1 X94.321 Y98.643 E0.01972
G1 X94.490 Y98.037 E0.01974
G1 X94.717 Y97.457 E0.01952
G1 X94.953 Y96.988 E0.01645
G1 X95.288 Y96.452 E0.01983
G1 X95.675 Y95.955 E0.01976
G1 X96.110 Y95.499 E0.01977
G1 X96.589 Y95.089 E0.01978
G1 X97.108 Y94.729 E0.01979
G1 X97.663 Y94.422 E0.01987
G1 X98.148 Y94.210 E0.01661
G1 X98.639 Y94.043 E0.01626
G1 X99.256 Y93.895 E0.01990
G1 X99.883 Y93.810 E0.01982
G1 X100.515 Y93.789 E0.01982
G1 X101.146 Y93.831 E0.01982
G1 X101.769 Y93.937 E0.01982
G1 X102.380 Y94.106 E0.01989
G1 X102.875 Y94.294 E0.01657
G1 X103.432 Y94.566 E0.01947
G1 X103.969 Y94.899 E0.01980
G1 X104.469 Y95.283 E0.01978
G1 X104.929 Y95.718 E0.01984
G1 X105.277 Y96.115 E0.01655
G1 X105.716 Y96.744 E0.02404
M204 S1250
G1 X106.042 Y96.554 F9000.000
M204 S800
;TYPE:External perimeter
G1 F1200.000
G1 X106.300 Y96.999 E0.01612
M73 P3 R16
G1 X106.574 Y97.608 E0.02094
G1 X106.786 Y98.241 E0.02093
G1 X106.932 Y98.893 E0.02093
G1 X107.011 Y99.556 E0.02095
G1 X107.025 Y100.121 E0.01772
G1 X106.992 Y100.665 E0.01708
G1 X106.891 Y101.326 E0.02096
G1 X106.723 Y101.972 E0.02093
G1 X106.490 Y102.598 E0.02094
G1 X106.195 Y103.197 E0.02094
G1 X105.841 Y103.764 E0.02095
G1 X105.431 Y104.291 E0.02096
G1 X104.969 Y104.775 E0.02097
G1 X104.460 Y105.210 E0.02098
G1 X103.910 Y105.592 E0.02099
G1 X103.324 Y105.916 E0.02102
G1 X102.805 Y106.143 E0.01774
G1 X102.285 Y106.320 E0.01723
G1 X101.633 Y106.476 E0.02104
G1 X100.968 Y106.566 E0.02102
G1 X100.297 Y106.589 E0.02105
G1 X99.628 Y106.544 E0.02105
G1 X99.072 Y106.454 E0.01765
G1 X98.423 Y106.286 E0.02104
G1 X97.804 Y106.057 E0.02068
G1 X97.296 Y105.815 E0.01763
G1 X96.721 Y105.471 E0.02102
G1 X96.184 Y105.071 E0.02099
G1 X95.691 Y104.620 E0.02098
G1 X95.246 Y104.121 E0.02097
G1 X94.854 Y103.579 E0.02096
G1 X94.519 Y103.001 E0.02095
G1 X94.244 Y102.392 E0.02094
G1 X94.033 Y101.759 E0.02093
G1 X93.887 Y101.108 E0.02093
G1 X93.808 Y100.444 E0.02095
G1 X93.794 Y99.885 E0.01753
G1 X93.840 Y99.218 E0.02095
G1 X93.953 Y98.560 E0.02093
G1 X94.132 Y97.917 E0.02094
G1 X94.372 Y97.304 E0.02066
G1 X94.624 Y96.803 E0.01755
G1 X94.978 Y96.236 E0.02098
G1 X95.389 Y95.708 E0.02096
G1 X95.850 Y95.224 E0.02097
G1 X96.359 Y94.790 E0.02098
G1 X96.909 Y94.408 E0.02099
G1 X97.496 Y94.084 E0.02102
G1 X98.012 Y93.858 E0.01766
G1 X98.534 Y93.681 E0.01730
G1 X99.187 Y93.524 E0.02104
G1 X99.851 Y93.434 E0.02102
G1 X100.521 Y93.411 E0.02102
G1 X101.190 Y93.457 E0.02102
G1 X101.851 Y93.569 E0.02102
G1 X102.498 Y93.747 E0.02104
G1 X103.025 Y93.947 E0.01767
G1 X103.615 Y94.236 E0.02060
G1 X104.184 Y94.588 E0.02099
G1 X104.714 Y94.996 E0.02098
G1 X105.201 Y95.456 E0.02099
G1 X105.572 Y95.879 E0.01766
G1 X106.012 Y96.503 E0.02392
M204 S1250
G1 X105.858 Y96.909 F9000.000
G1 X105.491 Y97.189
M204 S800
;TYPE:Gap fill
;WIDTH:0.546298
G1 F1200.000
G1 X104.930 Y96.392 E0.04080
G1 X104.609 Y96.026 E0.02036
G1 X104.332 Y95.752 E0.01632
M204 S1250
M204 S800
;WIDTH:0.537354
G1 X103.752 Y95.284 E0.03064
G1 X103.170 Y94.924 E0.02813
G1 X102.521 Y94.625 E0.02939
G1 X101.840 Y94.407 E0.02939
G1 X101.121 Y94.270 E0.03010
G1 X100.638 Y94.233 E0.01990
G1 X100.164 Y94.234 E0.01949
G1 X99.446 Y94.308 E0.02969
G1 X98.761 Y94.463 E0.02888
G1 X98.105 Y94.704 E0.02870
G1 X97.442 Y95.042 E0.03063
G1 X96.874 Y95.424 E0.02813
G1 X96.414 Y95.820 E0.02495
G1 X96.011 Y96.245 E0.02408
G1 X95.651 Y96.706 E0.02406
G1 X95.328 Y97.189 E0.02389
M204 S1250
G1 E-2.24000 F4200.000
;WIPE_START
G1 F7200.000
G1 X95.651 Y96.706 E-0.32203
G1 X96.011 Y96.245 E-0.32427
G1 X96.341 Y95.897 E-0.26570
;WIPE_END
G1 E-0.04800 F4200.000
G1 Z0.400 F9000.000
G1 X96.351 Y98.400
G1 Z0.200
G1 E3.20000 F2400.000
M204 S800
;TYPE:Solid infill
;WIDTH:0.436797
G1 F1200.000
G1 X96.979 Y99.029 E0.02910
G1 X96.979 Y99.586 E0.01824
G1 X94.973 Y97.580 E0.09291
G1 X94.816 Y97.980 E0.01408
G1 X96.979 Y100.143 E0.10017
G1 X96.979 Y100.700 E0.01824
G1 X94.682 Y98.403 E0.10639
G1 X94.572 Y98.850 E0.01509
G1 X96.979 Y101.257 E0.11145
G1 X96.979 Y101.430 E0.00569
G1 X96.595 Y101.430 E0.01256
G1 X94.494 Y99.328 E0.09736
G1 X94.458 Y99.850 E0.01711
G1 X96.038 Y101.430 E0.07321
G1 X95.946 Y101.430 E0.00301
G1 X95.786 Y101.735 E0.01128
G1 X94.469 Y100.418 E0.06100
G1 X94.552 Y101.058 E0.02113
G1 X95.595 Y102.100 E0.04829
G1 X95.437 Y102.401 E0.01112
G1 X95.377 Y102.440 E0.00233
G1 X94.489 Y101.552 E0.04115
M204 S1250
G1 E-2.24000 F4200.000
;WIPE_START
G1 F7200.000
G1 X95.377 Y102.440 E-0.69635
G1 X95.437 Y102.401 E-0.03948
G1 X95.585 Y102.120 E-0.17617
;WIPE_END
G1 E-0.04800 F4200.000
G1 Z0.400 F9000.000
G1 X95.328 Y102.811
G1 Z0.200
G1 E3.20000 F2400.000
M204 S800
;TYPE:Gap fill
;WIDTH:0.538298
G1 F1200.000
G1 X95.886 Y103.605 E0.03999
G1 X96.276 Y104.042 E0.02411
G1 X96.708 Y104.438 E0.02413
G1 X97.177 Y104.790 E0.02415
G1 X97.682 Y105.096 E0.02434
G1 X98.326 Y105.386 E0.02910
G1 X99.008 Y105.600 E0.02943
G1 X99.720 Y105.734 E0.02985
G1 X100.181 Y105.768 E0.01902
G1 X100.645 Y105.766 E0.01913
G1 X101.344 Y105.697 E0.02890
G1 X102.059 Y105.537 E0.03018
G1 X102.713 Y105.297 E0.02872
G1 X103.377 Y104.958 E0.03069
G1 X103.962 Y104.564 E0.02906
G1 X104.483 Y104.106 E0.02857
G1 X104.972 Y103.557 E0.03027
M204 S1250
M204 S800
;WIDTH:0.551224
G1 X105.490 Y102.811 E0.03840
M204 S1250
G1 E-2.24000 F4200.000
;WIPE_START
G1 F7200.000
G1 X104.972 Y103.557 E-0.50349
;WIPE_END
G1 E-0.45651 F4200.000
G1 Z0.400 F9000.000
G1 X106.330 Y98.449
G1 Z0.200
G1 E3.20000 F2400.000
M204 S800
;TYPE:Solid infill
;WIDTH:0.436796
G1 F1200.000
G1 X105.441 Y97.560 E0.04116
G1 X105.382 Y97.599 E0.00233
G1 X105.224 Y97.900 E0.01112
G1 X106.267 Y98.943 E0.04829
G1 X106.349 Y99.582 E0.02113
G1 X105.032 Y98.265 E0.06100
G1 X104.872 Y98.570 E0.01128
G1 X104.780 Y98.570 E0.00302
G1 X106.362 Y100.152 E0.07326
G1 X106.324 Y100.671 E0.01704
G1 X104.223 Y98.570 E0.09729
G1 X103.840 Y98.570 E0.01255
G1 X103.840 Y98.744 E0.00569
G1 X106.249 Y101.153 E0.11160
G1 X106.138 Y101.599 E0.01504
G1 X103.840 Y99.301 E0.10643
G1 X103.840 Y99.858 E0.01824
G1 X106.001 Y102.019 E0.10010
G1 X105.843 Y102.418 E0.01405
G1 X103.840 Y100.415 E0.09278
G1 X103.840 Y100.972 E0.01824
G1 X104.468 Y101.600 E0.02909
M204 S1250
G1 E-2.24000 F4200.000
;WIPE_START
G1 F7200.000
G1 X103.840 Y100.972 E-0.49224
G1 X103.840 Y100.415 E-0.30868
G1 X103.982 Y100.557 E-0.11108
;WIPE_END
G1 E-0.04800 F4200.000
G1 Z0.400 F9000.000
G1 X84.241 Y102.561
G1 Z0.200
G1 E3.20000 F2400.000
M204 S800
;TYPE:Perimeter
;WIDTH:0.42
G1 F1200.000
G1 X83.717 Y103.295 E0.02827
G1 X83.281 Y103.785 E0.02056
G1 X82.784 Y104.220 E0.02072
G1 X82.237 Y104.591 E0.02072
G1 X81.648 Y104.892 E0.02073
G1 X81.027 Y105.118 E0.02073
G1 X80.382 Y105.266 E0.02073
G1 X79.724 Y105.334 E0.02074
G1 X79.069 Y105.320 E0.02055
G1 X78.626 Y105.265 E0.01402
G1 X78.188 Y105.174 E0.01402
G1 X77.564 Y104.975 E0.02054
G1 X76.963 Y104.699 E0.02073
G1 X76.401 Y104.351 E0.02072
G1 X75.887 Y103.936 E0.02072
G1 X75.426 Y103.460 E0.02078
G1 X74.763 Y102.568 E0.03485
G1 X75.212 Y101.713 E0.03027
G1 X76.356 Y101.713 E0.03588
G1 X76.356 Y98.287 E0.10741
G1 X75.212 Y98.287 E0.03588
G1 X74.767 Y97.439 E0.03004
G1 X75.291 Y96.705 E0.02827
G1 X75.727 Y96.215 E0.02056
G1 X76.224 Y95.780 E0.02072
G1 X76.771 Y95.409 E0.02072
G1 X77.360 Y95.108 E0.02073
G1 X77.981 Y94.882 E0.02073
G1 X78.626 Y94.734 E0.02075
G1 X79.287 Y94.667 E0.02084
G1 X79.725 Y94.667 E0.01371
G1 X80.170 Y94.703 E0.01401
G1 X80.814 Y94.824 E0.02055
G1 X81.444 Y95.024 E0.02073
G1 X82.045 Y95.301 E0.02073
G1 X82.607 Y95.649 E0.02072
G1 X83.121 Y96.063 E0.02072
G1 X83.582 Y96.539 E0.02078
G1 X84.245 Y97.432 E0.03485
G1 X83.796 Y98.287 E0.03027
G1 X82.652 Y98.287 E0.03588
G1 X82.652 Y101.713 E0.10741
G1 X83.796 Y101.713 E0.03588
G1 X84.213 Y102.508 E0.02816
M204 S1250
M73 P4 R16
G1 X83.799 Y102.531 F9000.000
M204 S800
;TYPE:External perimeter
G1 F1200.000
G1 X83.422 Y103.059 E0.02036
G1 X83.015 Y103.516 E0.01919
G1 X82.553 Y103.921 E0.01925
G1 X82.044 Y104.266 E0.01926
G1 X81.497 Y104.545 E0.01927
G1 X80.920 Y104.755 E0.01927
G1 X80.321 Y104.893 E0.01928
G1 X79.709 Y104.956 E0.01928
G1 X79.096 Y104.943 E0.01921
G1 X78.687 Y104.893 E0.01292
G1 X78.284 Y104.809 E0.01292
G1 X77.700 Y104.623 E0.01921
G1 X77.142 Y104.366 E0.01927
G1 X76.620 Y104.043 E0.01926
G1 X76.141 Y103.657 E0.01926
G1 X75.714 Y103.216 E0.01927
G1 X75.207 Y102.533 E0.02665
G1 X75.440 Y102.090 E0.01570
G1 X76.733 Y102.090 E0.04055
G1 X76.733 Y97.910 E0.13106
G1 X75.440 Y97.910 E0.04055
G1 X75.209 Y97.469 E0.01561
G1 X75.586 Y96.940 E0.02036
G1 X75.993 Y96.483 E0.01919
G1 X76.455 Y96.079 E0.01925
G1 X76.964 Y95.734 E0.01926
G1 X77.511 Y95.454 E0.01927
G1 X78.088 Y95.244 E0.01927
G1 X78.688 Y95.107 E0.01928
G1 X79.306 Y95.044 E0.01950
G1 X79.709 Y95.044 E0.01263
G1 X80.120 Y95.078 E0.01292
G1 X80.722 Y95.190 E0.01921
G1 X81.308 Y95.377 E0.01927
G1 X81.866 Y95.633 E0.01927
G1 X82.388 Y95.957 E0.01926
G1 X82.867 Y96.342 E0.01926
G1 X83.294 Y96.784 E0.01927
G1 X83.801 Y97.467 E0.02665
