; generated by PrusaSlicer 2.3.0+win64 on 2021-05-20 at 12:28:07 UTC


;
;

;
;
; 

; external perimeters extrusion width = 0.45mm
; perimeters extrusion width = 0.45mm
; infill extrusion width = 0.45mm
; solid infill extrusion width = 0.45mm
; top infill extrusion width = 0.40mm
; first layer extrusion width = 0.42mm

M73 P0 R2
M201 X1250 Y1250 Z400 E5000 ; sets maximum accelerations, mm/sec^2
M203 X180 Y180 Z12 E80 ; sets maximum feedrates, mm/sec
M204 P1250 R1250 T1250 ; sets acceleration (P, T) and retract acceleration (R), mm/sec^2
M205 X8.00 Y8.00 Z2.00 E10.00 ; sets the jerk limits, mm/sec
M205 S0 T0 ; sets the minimum extruding and travel feed rate, mm/sec
M107
;TYPE:Custom
G90 ; use absolute coordinates
M83 ; extruder relative mode
M104 S170 ; set extruder temp for bed leveling
M140 S60 ; set bed temp
M109 R170 ; wait for bed leveling temp
M190 S60 ; wait for bed temp
G28 ; home all without mesh bed level
G29 ; mesh bed leveling 
M104 S215 ; set extruder temp
G92 E0.0
G1 Y-2.0 X179 F2400
M73 P4 R2
G1 Z3 F720
M109 S215 ; wait for extruder temp

; intro line
G1 X170 F1000
M73 P5 R2
G1 Z0.2 F720
G1 X110.0 E8.0 F900
M73 P9 R1
G1 X40.0 E10.0 F700
G92 E0.0

M221 S95 ; set flow
G21 ; set units to millimeters
G90 ; use absolute coordinates
M83 ; use relative distances for extrusion
M900 K0.2 ; Filament gcode LA 1.5
; ; Filament gcode LA 1.0
;LAYER_CHANGE
;Z:0.2
;HEIGHT:0.2
;BEFORE_LAYER_CHANGE
G92 E0.0
;0.2


M73 P15 R1
G1 E-3.20000 F4200.000
G1 Z0.200 F9000.000
;AFTER_LAYER_CHANGE
;0.2
G1 Z0.400
G1 X82.813 Y82.860
M73 P16 R1
G1 Z0.200
G1 E3.20000 F2400.000
M204 S800
;TYPE:Skirt
;WIDTH:0.42
G1 F1200.000
G1 X84.361 Y81.583 E0.06288
G1 X85.233 Y81.060 E0.03190
G1 X86.162 Y80.624 E0.03218
M73 P17 R1
G1 X87.130 Y80.284 E0.03218
G1 X88.120 Y80.045 E0.03191
G1 X89.136 Y79.906 E0.03218
G1 X90.123 Y79.870 E0.03095
G1 X91.923 Y80.053 E0.05676
G1 X92.886 Y80.288 E0.03106
G1 X93.882 Y80.642 E0.03314
G1 X94.774 Y81.064 E0.03094
G1 X95.653 Y81.593 E0.03218
G1 X96.468 Y82.202 E0.03190
G1 X97.224 Y82.897 E0.03218
G1 X97.905 Y83.664 E0.03218
G1 X98.501 Y84.489 E0.03190
G1 X99.015 Y85.377 E0.03218
G1 X99.422 Y86.276 E0.03094
G1 X99.934 Y88.012 E0.05676
G1 X100.081 Y88.988 E0.03092
G1 X100.131 Y90.043 E0.03314
M73 P18 R1
G1 X100.078 Y91.033 E0.03108
G1 X99.922 Y92.048 E0.03218
G1 X99.667 Y93.033 E0.03190
G1 X99.310 Y93.995 E0.03218
G1 X98.858 Y94.916 E0.03218
G1 X98.321 Y95.780 E0.03190
G1 X97.693 Y96.592 E0.03218
G1 X97.015 Y97.309 E0.03095
G1 X95.602 Y98.441 E0.05676
G1 X94.755 Y98.946 E0.03092
G1 X93.797 Y99.392 E0.03314
G1 X92.861 Y99.719 E0.03108
G1 X91.868 Y99.958 E0.03204
G1 X90.855 Y100.095 E0.03204
G1 X89.838 Y100.130 E0.03190
G1 X88.814 Y100.062 E0.03218
G1 X87.836 Y99.897 E0.03108
G1 X86.114 Y99.356 E0.05662
M73 P19 R1
G1 X84.347 Y98.407 E0.06288
G1 X83.529 Y97.795 E0.03204
G1 X82.773 Y97.100 E0.03218
G1 X82.095 Y96.336 E0.03204
G1 X81.497 Y95.508 E0.03204
G1 X80.985 Y94.623 E0.03204
G1 X80.577 Y93.720 E0.03108
G1 X80.066 Y91.988 E0.05662
G1 X79.919 Y91.012 E0.03092
G1 X79.869 Y89.957 E0.03314
G1 X80.076 Y87.961 E0.06291
G1 X80.332 Y86.972 E0.03204
G1 X80.674 Y86.041 E0.03108
G1 X81.135 Y85.095 E0.03300
G1 X81.655 Y84.256 E0.03095
G1 X82.775 Y82.906 E0.05501
M204 S1250
M73 P20 R1
G1 X83.064 Y83.145 F9000.000
M204 S800
G1 F1200.000
G1 X84.569 Y81.897 E0.06132
G1 X86.304 Y80.973 E0.06163
G1 X88.193 Y80.415 E0.06175
G1 X90.122 Y80.247 E0.06073
G1 X91.847 Y80.423 E0.05437
G1 X93.731 Y80.988 E0.06167
G1 X95.442 Y81.905 E0.06086
G1 X96.954 Y83.160 E0.06162
G1 X98.186 Y84.697 E0.06175
G1 X99.073 Y86.419 E0.06073
M73 P21 R1
G1 X99.563 Y88.082 E0.05437
G1 X99.754 Y90.040 E0.06166
G1 X99.553 Y91.970 E0.06086
G1 X98.964 Y93.845 E0.06163
G1 X98.009 Y95.568 E0.06175
G1 X96.751 Y97.040 E0.06073
G1 X95.397 Y98.124 E0.05437
G1 X93.658 Y99.042 E0.06166
G1 X91.795 Y99.588 E0.06086
G1 X89.841 Y99.753 E0.06150
M73 P22 R1
G1 X88.851 Y99.686 E0.03111
G1 X87.881 Y99.521 E0.03085
G1 X86.045 Y98.916 E0.06060
G1 X84.531 Y98.077 E0.05428
G1 X83.040 Y96.834 E0.06086
G1 X81.814 Y95.303 E0.06150
G1 X80.926 Y93.577 E0.06086
G1 X80.393 Y91.685 E0.06163
G1 X80.246 Y89.960 E0.05428
G1 X80.446 Y88.034 E0.06073
G1 X81.023 Y86.185 E0.06073
G1 X81.970 Y84.463 E0.06163
M73 P23 R1
G1 X83.025 Y83.191 E0.05180
M204 S1250
G1 X83.317 Y83.435 F9000.000
M204 S800
G1 F1200.000
G1 X83.381 Y83.359 E0.00314
G1 X84.785 Y82.207 E0.05692
G1 X86.453 Y81.320 E0.05925
G1 X88.266 Y80.785 E0.05925
G1 X90.122 Y80.624 E0.05842
G1 X91.772 Y80.792 E0.05199
G1 X93.585 Y81.336 E0.05936
G1 X95.231 Y82.217 E0.05854
G1 X96.685 Y83.424 E0.05925
G1 X97.870 Y84.901 E0.05937
M73 P24 R1
G1 X98.724 Y86.561 E0.05854
G1 X99.193 Y88.152 E0.05199
G1 X99.377 Y90.036 E0.05936
G1 X99.184 Y91.893 E0.05854
G1 X98.618 Y93.696 E0.05925
G1 X97.700 Y95.352 E0.05937
G1 X96.487 Y96.771 E0.05854
G1 X95.193 Y97.808 E0.05199
G1 X93.518 Y98.692 E0.05936
G1 X91.727 Y99.217 E0.05854
G1 X89.847 Y99.376 E0.05913
M73 P25 R1
G1 X87.993 Y99.160 E0.05854
G1 X86.411 Y98.663 E0.05199
G1 X84.769 Y97.783 E0.05841
G1 X83.310 Y96.570 E0.05949
G1 X82.128 Y95.096 E0.05925
G1 X81.276 Y93.439 E0.05842
G1 X80.807 Y91.848 E0.05199
G1 X80.623 Y89.964 E0.05936
G1 X80.815 Y88.111 E0.05842
G1 X81.373 Y86.325 E0.05866
G1 X82.285 Y84.670 E0.05925
M73 P26 R1
G1 X83.279 Y83.481 E0.04857
M204 S1250
; printing object HandbagFootShroudBasic2.stl id:0 copy 0
G1 E-2.24000 F4200.000
;WIPE_START
G1 F7200.000
G1 X83.381 Y83.359 E-0.08873
G1 X84.530 Y82.416 E-0.82327
;WIPE_END
G1 E-0.04800 F4200.000
G1 Z0.400 F9000.000
G1 X94.726 Y87.433
G1 Z0.200
G1 E3.20000 F2400.000
M204 S800
;TYPE:Perimeter
G1 F1200.000
G1 X94.277 Y88.287 E0.03024
G1 X93.139 Y88.287 E0.03569
G1 X93.139 Y91.713 E0.10741
G1 X94.277 Y91.713 E0.03569
M73 P27 R1
G1 X94.726 Y92.567 E0.03024
G1 X94.066 Y93.459 E0.03481
G1 X93.607 Y93.936 E0.02074
G1 X93.094 Y94.350 E0.02068
G1 X92.534 Y94.699 E0.02068
G1 X91.935 Y94.975 E0.02068
G1 X91.307 Y95.176 E0.02068
G1 X90.658 Y95.297 E0.02068
G1 X90.000 Y95.338 E0.02068
G1 X89.342 Y95.297 E0.02068
G1 X88.693 Y95.176 E0.02068
G1 X88.065 Y94.975 E0.02068
G1 X87.466 Y94.699 E0.02068
G1 X86.906 Y94.350 E0.02068
G1 X86.393 Y93.936 E0.02068
G1 X85.934 Y93.459 E0.02074
G1 X85.274 Y92.567 E0.03481
G1 X85.723 Y91.713 E0.03024
G1 X86.861 Y91.713 E0.03569
G1 X86.861 Y88.287 E0.10741
G1 X85.723 Y88.287 E0.03569
M73 P28 R1
G1 X85.274 Y87.433 E0.03024
G1 X85.934 Y86.541 E0.03481
G1 X86.393 Y86.064 E0.02074
G1 X86.906 Y85.650 E0.02068
G1 X87.466 Y85.301 E0.02068
G1 X88.065 Y85.025 E0.02068
G1 X88.693 Y84.824 E0.02068
G1 X89.341 Y84.703 E0.02066
G1 X89.969 Y84.662 E0.01973
G1 X90.657 Y84.702 E0.02161
G1 X91.307 Y84.824 E0.02072
G1 X91.935 Y85.025 E0.02068
G1 X92.534 Y85.301 E0.02068
G1 X93.094 Y85.650 E0.02068
G1 X93.607 Y86.064 E0.02068
G1 X94.066 Y86.541 E0.02074
G1 X94.690 Y87.385 E0.03293
M204 S1250
G1 X94.282 Y87.467 F9000.000
M204 S800
;TYPE:External perimeter
G1 F1200.000
G1 X94.049 Y87.910 E0.01568
G1 X92.762 Y87.910 E0.04037
G1 X92.762 Y92.090 E0.13106
M73 P29 R1
G1 X94.049 Y92.090 E0.04037
G1 X94.282 Y92.533 E0.01568
G1 X93.777 Y93.215 E0.02662
G1 X93.351 Y93.657 E0.01924
G1 X92.875 Y94.042 E0.01922
G1 X92.354 Y94.366 E0.01922
G1 X91.798 Y94.623 E0.01922
G1 X91.214 Y94.810 E0.01922
G1 X90.612 Y94.923 E0.01922
G1 X90.000 Y94.960 E0.01922
G1 X89.388 Y94.923 E0.01922
G1 X88.786 Y94.810 E0.01922
G1 X88.202 Y94.623 E0.01922
G1 X87.646 Y94.366 E0.01922
G1 X87.125 Y94.042 E0.01922
G1 X86.649 Y93.657 E0.01922
G1 X86.223 Y93.215 E0.01924
G1 X85.718 Y92.533 E0.02662
G1 X85.951 Y92.090 E0.01568
G1 X87.238 Y92.090 E0.04037
G1 X87.238 Y87.910 E0.13106
G1 X85.951 Y87.910 E0.04037
M73 P30 R1
G1 X85.718 Y87.467 E0.01568
G1 X86.223 Y86.785 E0.02662
G1 X86.649 Y86.343 E0.01924
G1 X87.125 Y85.958 E0.01922
G1 X87.646 Y85.634 E0.01922
G1 X88.202 Y85.377 E0.01922
G1 X88.786 Y85.190 E0.01922
G1 X89.388 Y85.077 E0.01921
G1 X89.970 Y85.040 E0.01829
G1 X90.611 Y85.077 E0.02013
G1 X91.214 Y85.190 E0.01923
G1 X91.798 Y85.377 E0.01922
G1 X92.354 Y85.634 E0.01922
G1 X92.875 Y85.958 E0.01922
G1 X93.351 Y86.343 E0.01922
G1 X93.777 Y86.785 E0.01924
G1 X94.246 Y87.419 E0.02474
M204 S1250
G1 X94.609 Y87.698 F9000.000
G1 X95.276 Y86.728
M204 S800
;TYPE:Perimeter
G1 F1200.000
G1 X95.623 Y87.359 E0.02258
G1 X95.854 Y87.921 E0.01903
G1 X95.986 Y88.338 E0.01371
G1 X96.124 Y88.956 E0.01986
G1 X96.198 Y89.581 E0.01973
G1 X96.209 Y90.210 E0.01973
G1 X96.155 Y90.842 E0.01989
G1 X96.086 Y91.246 E0.01285
G1 X95.927 Y91.860 E0.01989
G1 X95.709 Y92.450 E0.01973
G1 X95.432 Y93.015 E0.01973
M73 P31 R1
G1 X95.099 Y93.549 E0.01973
G1 X94.714 Y94.046 E0.01973
G1 X94.280 Y94.503 E0.01973
G1 X93.802 Y94.912 E0.01973
G1 X93.286 Y95.272 E0.01973
G1 X92.736 Y95.577 E0.01973
G1 X92.158 Y95.825 E0.01973
G1 X91.557 Y96.014 E0.01973
G1 X90.941 Y96.141 E0.01973
G1 X90.315 Y96.204 E0.01973
G1 X89.685 Y96.204 E0.01973
G1 X89.059 Y96.141 E0.01973
G1 X88.438 Y96.013 E0.01989
G1 X88.045 Y95.897 E0.01285
G1 X87.454 Y95.667 E0.01989
G1 X86.894 Y95.380 E0.01973
G1 X86.366 Y95.038 E0.01973
G1 X85.875 Y94.644 E0.01973
G1 X85.426 Y94.203 E0.01973
G1 X85.024 Y93.719 E0.01973
G1 X84.673 Y93.196 E0.01973
G1 X84.377 Y92.641 E0.01974
G1 X84.146 Y92.079 E0.01903
G1 X84.014 Y91.662 E0.01371
G1 X83.876 Y91.044 E0.01986
G1 X83.802 Y90.419 E0.01973
G1 X83.791 Y89.790 E0.01973
G1 X83.844 Y89.163 E0.01973
G1 X83.961 Y88.545 E0.01973
G1 X84.139 Y87.941 E0.01974
G1 X84.368 Y87.379 E0.01903
G1 X84.566 Y86.989 E0.01371
M73 P32 R1
G1 X84.901 Y86.451 E0.01986
G1 X85.286 Y85.954 E0.01973
G1 X85.720 Y85.497 E0.01973
G1 X86.198 Y85.088 E0.01973
G1 X86.714 Y84.728 E0.01973
G1 X87.264 Y84.423 E0.01973
G1 X87.842 Y84.175 E0.01973
G1 X88.443 Y83.986 E0.01973
G1 X89.059 Y83.859 E0.01973
G1 X89.686 Y83.796 E0.01974
G1 X90.293 Y83.795 E0.01903
G1 X90.729 Y83.831 E0.01371
G1 X91.353 Y83.937 E0.01986
G1 X91.960 Y84.105 E0.01973
G1 X92.546 Y84.333 E0.01973
G1 X93.106 Y84.620 E0.01973
G1 X93.634 Y84.962 E0.01973
G1 X94.125 Y85.356 E0.01973
G1 X94.574 Y85.797 E0.01973
G1 X94.976 Y86.281 E0.01973
G1 X95.243 Y86.678 E0.01500
M204 S1250
G1 X95.556 Y86.468 F9000.000
M204 S800
;TYPE:External perimeter
G1 F1200.000
G1 X95.650 Y86.609 E0.00533
G1 X95.965 Y87.198 E0.02093
G1 X96.208 Y87.792 E0.02011
G1 X96.350 Y88.239 E0.01472
G1 X96.496 Y88.892 E0.02098
G1 X96.575 Y89.555 E0.02093
G1 X96.586 Y90.223 E0.02093
G1 X96.529 Y90.889 E0.02099
G1 X96.455 Y91.325 E0.01385
G1 X96.287 Y91.973 E0.02099
G1 X96.056 Y92.599 E0.02093
M73 P33 R1
G1 X95.762 Y93.198 E0.02093
G1 X95.409 Y93.764 E0.02093
G1 X95.000 Y94.292 E0.02093
G1 X94.540 Y94.776 E0.02093
G1 X94.034 Y95.211 E0.02093
G1 X93.486 Y95.592 E0.02093
G1 X92.902 Y95.916 E0.02093
G1 X92.289 Y96.180 E0.02093
G1 X91.652 Y96.379 E0.02093
G1 X90.998 Y96.514 E0.02093
G1 X90.334 Y96.581 E0.02093
G1 X89.666 Y96.581 E0.02093
G1 X89.002 Y96.514 E0.02093
G1 X88.347 Y96.379 E0.02099
G1 X87.923 Y96.254 E0.01385
G1 X87.299 Y96.011 E0.02099
G1 X86.705 Y95.707 E0.02093
G1 X86.145 Y95.344 E0.02093
G1 X85.624 Y94.927 E0.02093
G1 X85.148 Y94.459 E0.02093
G1 X84.722 Y93.945 E0.02093
G1 X84.350 Y93.391 E0.02093
G1 X84.035 Y92.802 E0.02093
G1 X83.792 Y92.208 E0.02011
G1 X83.650 Y91.761 E0.01472
G1 X83.504 Y91.108 E0.02098
G1 X83.425 Y90.445 E0.02093
G1 X83.414 Y89.777 E0.02093
G1 X83.470 Y89.112 E0.02093
G1 X83.594 Y88.456 E0.02093
M73 P34 R1
G1 X83.783 Y87.816 E0.02093
G1 X84.025 Y87.222 E0.02011
G1 X84.238 Y86.803 E0.01472
G1 X84.591 Y86.236 E0.02098
G1 X85.000 Y85.708 E0.02093
G1 X85.460 Y85.224 E0.02093
G1 X85.966 Y84.789 E0.02093
G1 X86.514 Y84.408 E0.02093
G1 X87.098 Y84.084 E0.02093
G1 X87.711 Y83.820 E0.02093
G1 X88.348 Y83.621 E0.02093
G1 X89.002 Y83.486 E0.02093
G1 X89.666 Y83.419 E0.02093
G1 X90.308 Y83.418 E0.02011
G1 X90.776 Y83.456 E0.01472
G1 X91.435 Y83.569 E0.02098
G1 X92.079 Y83.747 E0.02093
G1 X92.701 Y83.989 E0.02093
G1 X93.295 Y84.293 E0.02093
G1 X93.855 Y84.656 E0.02093
G1 X94.376 Y85.073 E0.02093
G1 X94.852 Y85.541 E0.02093
G1 X95.278 Y86.055 E0.02093
G1 X95.522 Y86.418 E0.01372
M204 S1250
G1 X95.484 Y86.622 F9000.000
G1 E-2.24000 F4200.000
;WIPE_START
G1 F7200.000
G1 X95.650 Y86.609 E-0.12748
G1 X95.965 Y87.198 E-0.37001
G1 X96.208 Y87.792 E-0.35548
G1 X96.241 Y87.893 E-0.05903
;WIPE_END
G1 E-0.04800 F4200.000
G1 Z0.400 F9000.000
G1 X93.170 Y84.796
M73 P35 R1
G1 Z0.200
G1 E3.20000 F2400.000
M204 S800
;TYPE:Solid infill
;WIDTH:0.424939
G1 F1200.000
G1 X94.382 Y86.009 E0.05445
G1 X94.749 Y86.451 E0.01824
G1 X95.084 Y86.949 E0.01908
G1 X95.404 Y87.570 E0.02219
G1 X92.124 Y84.291 E0.14733
M204 S1250
G1 X92.416 Y85.122 F9000.000
M204 S800
G1 F1200.000
G1 X91.589 Y84.296 E0.03712
G1 X91.291 Y84.213 E0.00982
G1 X90.900 Y84.147 E0.01262
G1 X91.286 Y84.532 E0.01733
G1 X90.630 Y84.417 E0.02113
G1 X90.281 Y84.078 E0.01547
G1 X89.751 Y84.078 E0.01685
G1 X90.057 Y84.384 E0.01373
G1 X89.539 Y84.407 E0.01647
M73 P36 R1
G1 X89.256 Y84.124 E0.01271
G1 X89.102 Y84.139 E0.00491
G1 X88.795 Y84.203 E0.00997
G1 X89.060 Y84.468 E0.01191
G1 X88.607 Y84.555 E0.01465
G1 X88.360 Y84.308 E0.01107
G1 X87.949 Y84.437 E0.01369
G1 X88.197 Y84.686 E0.01115
G1 X87.962 Y84.761 E0.00783
G1 X87.805 Y84.833 E0.00551
G1 X87.570 Y84.599 E0.01053
G1 X87.389 Y84.677 E0.00627
G1 X87.208 Y84.777 E0.00656
G1 X87.435 Y85.004 E0.01020
G1 X87.092 Y85.201 E0.01257
G1 X86.861 Y84.970 E0.01037
G1 X86.543 Y85.192 E0.01233
G1 X86.759 Y85.408 E0.00972
G1 X86.458 Y85.648 E0.01221
G1 X86.237 Y85.427 E0.00995
G1 X85.946 Y85.676 E0.01217
G1 X86.164 Y85.894 E0.00981
G1 X85.899 Y86.169 E0.01214
G1 X85.680 Y85.950 E0.00985
G1 X85.501 Y86.138 E0.00823
G1 X85.426 Y86.236 E0.00393
G1 X85.645 Y86.456 E0.00987
G1 X85.416 Y86.766 E0.01227
G1 X85.190 Y86.541 E0.01014
G1 X85.134 Y86.613 E0.00291
G1 X84.976 Y86.867 E0.00949
G1 X85.186 Y87.077 E0.00945
G1 X84.956 Y87.387 E0.01227
G1 X84.647 Y87.079 E0.01387
M204 S1250
G1 E-2.24000 F4200.000
;WIPE_START
G1 F7200.000
G1 X84.956 Y87.387 E-0.24203
G1 X85.186 Y87.077 E-0.21406
G1 X84.976 Y86.867 E-0.16482
G1 X85.134 Y86.613 E-0.16562
G1 X85.190 Y86.541 E-0.05078
G1 X85.285 Y86.636 E-0.07469
;WIPE_END
G1 E-0.04800 F4200.000
G1 Z0.400 F9000.000
G1 X85.969 Y88.400
G1 Z0.200
M73 P37 R1
G1 E3.20000 F2400.000
M204 S800
G1 F1200.000
G1 X86.578 Y89.010 E0.02738
G1 X86.578 Y89.550 E0.01716
G1 X84.596 Y87.568 E0.08904
G1 X84.440 Y87.952 E0.01317
G1 X86.578 Y90.090 E0.09607
G1 X86.578 Y90.630 E0.01716
G1 X84.310 Y88.362 E0.10192
G1 X84.202 Y88.794 E0.01415
G1 X86.578 Y91.171 E0.10677
G1 X86.578 Y91.430 E0.00824
G1 X86.298 Y91.430 E0.00892
G1 X84.121 Y89.253 E0.09779
M73 P38 R1
G1 X84.079 Y89.751 E0.01588
G1 X85.757 Y91.430 E0.07542
G1 X85.552 Y91.430 E0.00651
G1 X85.437 Y91.650 E0.00788
G1 X84.083 Y90.296 E0.06082
G1 X84.144 Y90.897 E0.01919
G1 X85.251 Y92.004 E0.04973
G1 X85.064 Y92.358 E0.01271
G1 X84.062 Y91.355 E0.04505
M204 S1250
G1 E-2.24000 F4200.000
;WIPE_START
G1 F7200.000
G1 X85.064 Y92.358 E-0.78588
G1 X85.170 Y92.156 E-0.12612
;WIPE_END
G1 E-0.04800 F4200.000
G1 Z0.400 F9000.000
G1 X95.939 Y88.645
M73 P39 R1
G1 Z0.200
G1 E3.20000 F2400.000
M204 S800
G1 F1200.000
G1 X94.936 Y87.642 E0.04505
G1 X94.749 Y87.996 E0.01271
G1 X95.856 Y89.103 E0.04973
G1 X95.917 Y89.704 E0.01919
G1 X94.563 Y88.350 E0.06083
G1 X94.448 Y88.570 E0.00788
G1 X94.243 Y88.570 E0.00652
G1 X95.921 Y90.249 E0.07542
G1 X95.879 Y90.747 E0.01588
G1 X93.702 Y88.570 E0.09780
G1 X93.422 Y88.570 E0.00892
G1 X93.422 Y88.829 E0.00824
G1 X95.803 Y91.211 E0.10699
M73 P40 R1
G1 X95.692 Y91.640 E0.01408
G1 X93.422 Y89.370 E0.10199
G1 X93.422 Y89.910 E0.01716
G1 X95.557 Y92.045 E0.09593
G1 X95.403 Y92.431 E0.01321
G1 X93.422 Y90.450 E0.08900
G1 X93.422 Y90.990 E0.01716
G1 X94.031 Y91.600 E0.02737
M204 S1250
G1 X94.694 Y92.263 F9000.000
M204 S800
G1 F1200.000
G1 X95.225 Y92.794 E0.02384
G1 X95.024 Y93.133 E0.01253
G1 X94.814 Y92.923 E0.00945
G1 X94.584 Y93.234 E0.01227
G1 X94.810 Y93.460 E0.01014
G1 X94.574 Y93.764 E0.01223
G1 X94.355 Y93.544 E0.00987
G1 X94.101 Y93.831 E0.01216
G1 X94.320 Y94.050 E0.00985
M73 P41 R1
G1 X94.085 Y94.297 E0.01084
G1 X94.054 Y94.324 E0.00130
G1 X93.835 Y94.106 E0.00981
G1 X93.542 Y94.352 E0.01218
G1 X93.763 Y94.574 E0.00995
