; generated by PrusaSlicer 2.3.0+win64 on 2021-08-27 at 07:57:46 UTC


;
;

;
;
; 

; external perimeters extrusion width = 0.45mm
; perimeters extrusion width = 0.45mm
; infill extrusion width = 0.45mm
; solid infill extrusion width = 0.45mm
; top infill extrusion width = 0.40mm
; first layer extrusion width = 0.42mm

M73 P0 R16
M201 X1250 Y1250 Z400 E5000 ; sets maximum accelerations, mm/sec^2
M203 X180 Y180 Z12 E80 ; sets maximum feedrates, mm/sec
M204 P1250 R1250 T1250 ; sets acceleration (P, T) and retract acceleration (R), mm/sec^2
M205 X8.00 Y8.00 Z2.00 E10.00 ; sets the jerk limits, mm/sec
M205 S0 T0 ; sets the minimum extruding and travel feed rate, mm/sec
M107
;TYPE:Custom
G90 ; use absolute coordinates
M83 ; extruder relative mode
M104 S170 ; set extruder temp for bed leveling
M140 S60 ; set bed temp
M109 R170 ; wait for bed leveling temp
M190 S60 ; wait for bed temp
G28 ; home all without mesh bed level
G29 ; mesh bed leveling 
M104 S215 ; set extruder temp
G92 E0.0
G1 Y-2.0 X179 F2400
G1 Z3 F720
M109 S215 ; wait for extruder temp

; intro line
G1 X170 F1000
G1 Z0.2 F720
G1 X110.0 E8.0 F900
G1 X40.0 E10.0 F700
G92 E0.0

M221 S95 ; set flow
G21 ; set units to millimeters
G90 ; use absolute coordinates
M83 ; use relative distances for extrusion
M900 K0.2 ; Filament gcode LA 1.5
; ; Filament gcode LA 1.0
;LAYER_CHANGE
;Z:0.2
;HEIGHT:0.2
;BEFORE_LAYER_CHANGE
G92 E0.0
;0.2


M73 P1 R16
G1 E-3.20000 F4200.000
G1 Z0.200 F9000.000
;AFTER_LAYER_CHANGE
;0.2
G1 Z0.400
G1 X76.849 Y76.630
G1 Z0.200
G1 E3.20000 F2400.000
M204 S800
;TYPE:Skirt
;WIDTH:0.42
G1 F1200.000
G1 X78.121 Y75.488 E0.05360
G1 X79.786 Y74.271 E0.06468
G1 X81.251 Y73.411 E0.05325
G1 X83.108 Y72.558 E0.06408
G1 X84.723 Y72.003 E0.05353
G1 X86.370 Y71.601 E0.05315
G1 X88.398 Y71.314 E0.06423
G1 X90.094 Y71.246 E0.05322
G1 X91.806 Y71.333 E0.05374
G1 X93.849 Y71.645 E0.06480
G1 X95.497 Y72.070 E0.05336
G1 X97.409 Y72.772 E0.06388
G1 X98.948 Y73.518 E0.05363
G1 X100.402 Y74.396 E0.05325
G1 X102.037 Y75.619 E0.06401
G1 X103.299 Y76.777 E0.05372
G1 X104.668 Y78.315 E0.06456
G1 X105.671 Y79.699 E0.05359
G1 X106.542 Y81.165 E0.05346
G1 X107.401 Y83.006 E0.06370
G1 X107.965 Y84.620 E0.05360
G1 X108.381 Y86.282 E0.05371
G1 X108.676 Y88.293 E0.06376
G1 X108.754 Y90.027 E0.05440
G1 X108.640 Y92.062 E0.06391
G1 X108.375 Y93.751 E0.05360
G1 X107.854 Y95.737 E0.06438
G1 X107.256 Y97.344 E0.05378
G1 X106.515 Y98.885 E0.05360
G1 X105.441 Y100.643 E0.06458
G1 X104.409 Y102.004 E0.05357
G1 X103.023 Y103.494 E0.06379
G1 X101.741 Y104.624 E0.05359
G1 X100.363 Y105.630 E0.05349
M73 P2 R16
G1 X98.612 Y106.660 E0.06371
G1 X97.030 Y107.386 E0.05457
G1 X95.102 Y108.047 E0.06391
G1 X93.441 Y108.436 E0.05348
G1 X91.748 Y108.672 E0.05359
G1 X89.703 Y108.752 E0.06417
G1 X87.988 Y108.646 E0.05389
G1 X85.973 Y108.317 E0.06401
G1 X84.324 Y107.875 E0.05355
G1 X82.732 Y107.289 E0.05317
G1 X80.892 Y106.394 E0.06414
G1 X79.440 Y105.499 E0.05350
G1 X77.803 Y104.246 E0.06463
G1 X76.558 Y103.078 E0.05352
G1 X75.423 Y101.801 E0.05358
G1 X74.229 Y100.149 E0.06391
G1 X73.370 Y98.671 E0.05360
G1 X72.651 Y97.124 E0.05348
G1 X71.981 Y95.199 E0.06391
G1 X71.583 Y93.543 E0.05342
G1 X71.337 Y91.853 E0.05353
G1 X71.246 Y89.794 E0.06463
G1 X71.343 Y88.089 E0.05354
G1 X71.666 Y86.051 E0.06469
G1 X72.099 Y84.408 E0.05327
G1 X72.811 Y82.500 E0.06386
G1 X73.568 Y80.960 E0.05383
G1 X74.455 Y79.508 E0.05332
G1 X75.682 Y77.887 E0.06376
G1 X76.808 Y76.674 E0.05190
M204 S1250
G1 X77.084 Y76.930 F9000.000
M204 S800
G1 F1200.000
G1 X78.357 Y75.782 E0.05375
G1 X79.990 Y74.588 E0.06344
G1 X81.424 Y73.747 E0.05212
G1 X83.251 Y72.907 E0.06302
G1 X84.828 Y72.366 E0.05230
G1 X86.442 Y71.971 E0.05210
G1 X88.434 Y71.690 E0.06307
G1 X90.091 Y71.623 E0.05200
G1 X91.766 Y71.708 E0.05259
G1 X93.770 Y72.014 E0.06355
G1 X95.387 Y72.430 E0.05235
G1 X97.264 Y73.120 E0.06269
G1 X98.767 Y73.849 E0.05240
G1 X100.190 Y74.707 E0.05210
G1 X101.798 Y75.910 E0.06295
G1 X103.030 Y77.042 E0.05245
G1 X104.376 Y78.553 E0.06345
G1 X105.355 Y79.905 E0.05235
G1 X106.208 Y81.340 E0.05234
G1 X107.052 Y83.150 E0.06262
G1 X107.605 Y84.730 E0.05246
G1 X108.011 Y86.353 E0.05246
G1 X108.301 Y88.331 E0.06270
G1 X108.376 Y90.027 E0.05321
G1 X108.264 Y92.028 E0.06284
G1 X108.006 Y93.673 E0.05224
G1 X107.494 Y95.625 E0.06325
G1 X106.908 Y97.198 E0.05266
G1 X106.185 Y98.703 E0.05235
G1 X105.130 Y100.430 E0.06344
G1 X104.121 Y101.760 E0.05235
G1 X102.759 Y103.225 E0.06272
G1 X101.485 Y104.345 E0.05319
G1 X99.869 Y105.502 E0.06232
G1 X98.415 Y106.337 E0.05255
G1 X96.892 Y107.035 E0.05255
G1 X94.996 Y107.685 E0.06283
G1 X93.374 Y108.065 E0.05224
G1 X91.720 Y108.296 E0.05235
G1 X89.706 Y108.375 E0.06320
G1 X88.029 Y108.271 E0.05271
G1 X86.028 Y107.943 E0.06355
G1 X84.418 Y107.509 E0.05231
G1 X82.559 Y106.803 E0.06233
G1 X81.052 Y106.052 E0.05280
G1 X79.635 Y105.175 E0.05223
G1 X78.043 Y103.955 E0.06291
G1 X76.827 Y102.814 E0.05228
G1 X75.716 Y101.563 E0.05245
G1 X74.532 Y99.923 E0.06344
G1 X73.695 Y98.478 E0.05235
G1 X72.875 Y96.667 E0.06233
G1 X72.336 Y95.070 E0.05286
G1 X71.949 Y93.451 E0.05219
G1 X71.681 Y91.463 E0.06288
G1 X71.624 Y89.796 E0.05231
G1 X71.718 Y88.131 E0.05228
G1 X72.034 Y86.132 E0.06345
G1 X72.458 Y84.522 E0.05222
G1 X73.158 Y82.648 E0.06272
G1 X73.900 Y81.139 E0.05270
G1 X74.768 Y79.718 E0.05223
G1 X75.972 Y78.128 E0.06254
G1 X77.043 Y76.974 E0.04937
M204 S1250
; printing object Helix02.stl id:0 copy 0
G1 E-2.24000 F4200.000
;WIPE_START
G1 F7200.000
G1 X78.262 Y75.868 E-0.91200
;WIPE_END
G1 E-0.04800 F4200.000
G1 Z0.400 F9000.000
G1 X80.462 Y80.414
G1 Z0.200
G1 E3.20000 F2400.000
M204 S800
;TYPE:Perimeter
G1 F1200.000
G1 X81.211 Y79.717 E0.03209
G1 X81.737 Y79.290 E0.02123
G1 X82.283 Y78.890 E0.02123
G1 X82.849 Y78.518 E0.02123
G1 X83.432 Y78.174 E0.02123
G1 X84.033 Y77.860 E0.02123
G1 X84.648 Y77.577 E0.02123
G1 X85.276 Y77.325 E0.02123
G1 X85.916 Y77.104 E0.02123
G1 X86.567 Y76.916 E0.02123
G1 X87.226 Y76.761 E0.02123
G1 X87.892 Y76.638 E0.02123
G1 X88.563 Y76.550 E0.02123
G1 X89.238 Y76.495 E0.02122
G1 X89.851 Y76.474 E0.01924
G1 X90.925 Y76.505 E0.03370
G1 X91.604 Y76.569 E0.02138
G1 X92.274 Y76.666 E0.02123
G1 X92.939 Y76.796 E0.02123
G1 X93.596 Y76.960 E0.02123
G1 X94.244 Y77.156 E0.02123
G1 X94.881 Y77.385 E0.02123
G1 X95.507 Y77.645 E0.02123
G1 X96.118 Y77.936 E0.02123
M73 P3 R16
G1 X96.714 Y78.257 E0.02123
G1 X97.293 Y78.608 E0.02123
G1 X97.854 Y78.987 E0.02123
G1 X98.396 Y79.394 E0.02123
G1 X98.916 Y79.828 E0.02123
G1 X99.414 Y80.287 E0.02123
G1 X99.888 Y80.770 E0.02123
G1 X100.338 Y81.276 E0.02123
G1 X100.761 Y81.805 E0.02123
G1 X101.158 Y82.353 E0.02123
G1 X101.526 Y82.921 E0.02123
G1 X101.866 Y83.507 E0.02123
G1 X102.176 Y84.109 E0.02123
G1 X102.456 Y84.726 E0.02123
G1 X102.704 Y85.356 E0.02123
G1 X102.921 Y85.997 E0.02123
G1 X103.105 Y86.649 E0.02123
G1 X103.257 Y87.313 E0.02135
G1 X103.420 Y88.308 E0.03161
G1 X103.488 Y88.985 E0.02135
G1 X103.522 Y89.661 E0.02123
G1 X103.522 Y90.339 E0.02123
G1 X103.488 Y91.015 E0.02123
G1 X103.421 Y91.689 E0.02123
G1 X103.319 Y92.362 E0.02135
G1 X103.106 Y93.347 E0.03161
G1 X102.921 Y94.003 E0.02135
G1 X102.704 Y94.644 E0.02123
G1 X102.456 Y95.274 E0.02123
G1 X102.176 Y95.891 E0.02123
G1 X101.866 Y96.493 E0.02123
G1 X101.526 Y97.079 E0.02123
G1 X101.158 Y97.647 E0.02123
G1 X100.761 Y98.195 E0.02123
G1 X100.338 Y98.724 E0.02123
G1 X99.888 Y99.230 E0.02123
G1 X99.414 Y99.713 E0.02123
G1 X98.916 Y100.172 E0.02123
G1 X98.396 Y100.606 E0.02123
G1 X97.854 Y101.013 E0.02123
G1 X97.293 Y101.392 E0.02123
G1 X96.714 Y101.743 E0.02123
G1 X96.118 Y102.064 E0.02123
G1 X95.507 Y102.355 E0.02123
G1 X94.881 Y102.615 E0.02123
G1 X94.244 Y102.844 E0.02123
G1 X93.596 Y103.040 E0.02123
G1 X92.939 Y103.204 E0.02123
G1 X92.274 Y103.334 E0.02123
G1 X91.604 Y103.431 E0.02123
G1 X90.930 Y103.495 E0.02123
G1 X90.253 Y103.525 E0.02123
G1 X89.576 Y103.520 E0.02123
G1 X88.900 Y103.482 E0.02123
G1 X88.227 Y103.410 E0.02123
G1 X87.554 Y103.304 E0.02135
G1 X86.570 Y103.085 E0.03161
G1 X85.916 Y102.896 E0.02135
G1 X85.276 Y102.675 E0.02123
G1 X84.648 Y102.423 E0.02123
G1 X84.033 Y102.140 E0.02123
G1 X83.432 Y101.826 E0.02123
G1 X82.849 Y101.482 E0.02123
G1 X82.283 Y101.110 E0.02123
G1 X81.737 Y100.710 E0.02123
G1 X81.211 Y100.283 E0.02123
G1 X80.708 Y99.831 E0.02123
G1 X80.227 Y99.353 E0.02123
G1 X79.771 Y98.852 E0.02123
G1 X79.341 Y98.329 E0.02123
G1 X78.938 Y97.786 E0.02123
G1 X78.562 Y97.222 E0.02123
G1 X78.215 Y96.641 E0.02123
G1 X77.897 Y96.043 E0.02123
G1 X77.610 Y95.430 E0.02123
G1 X77.354 Y94.803 E0.02123
G1 X77.129 Y94.164 E0.02123
G1 X76.937 Y93.515 E0.02123
G1 X76.778 Y92.857 E0.02123
G1 X76.651 Y92.191 E0.02123
G1 X76.558 Y91.521 E0.02123
G1 X76.499 Y90.846 E0.02123
G1 X76.474 Y90.166 E0.02133
G1 X76.499 Y89.158 E0.03163
G1 X76.558 Y88.479 E0.02135
G1 X76.651 Y87.809 E0.02123
G1 X76.778 Y87.143 E0.02123
G1 X76.937 Y86.485 E0.02123
G1 X77.129 Y85.836 E0.02123
G1 X77.354 Y85.197 E0.02123
G1 X77.610 Y84.570 E0.02123
G1 X77.897 Y83.957 E0.02123
G1 X78.215 Y83.359 E0.02123
G1 X78.562 Y82.778 E0.02123
G1 X78.938 Y82.214 E0.02123
G1 X79.341 Y81.671 E0.02123
G1 X79.771 Y81.148 E0.02123
G1 X80.419 Y80.456 E0.02971
M204 S1250
G1 X80.685 Y80.724 F9000.000
M204 S800
;TYPE:External perimeter
G1 F1200.000
G1 X81.456 Y80.004 E0.03308
G1 X81.967 Y79.589 E0.02064
G1 X82.498 Y79.200 E0.02064
G1 X83.048 Y78.838 E0.02064
G1 X83.616 Y78.504 E0.02064
G1 X84.199 Y78.199 E0.02064
G1 X84.797 Y77.923 E0.02064
G1 X85.408 Y77.678 E0.02064
G1 X86.030 Y77.464 E0.02064
G1 X86.662 Y77.281 E0.02064
G1 X87.303 Y77.130 E0.02064
G1 X87.951 Y77.011 E0.02064
G1 X88.603 Y76.925 E0.02064
G1 X89.259 Y76.871 E0.02064
G1 X89.852 Y76.852 E0.01859
G1 X90.902 Y76.881 E0.03295
G1 X91.559 Y76.943 E0.02069
G1 X92.211 Y77.038 E0.02064
G1 X92.857 Y77.164 E0.02064
G1 X93.496 Y77.324 E0.02064
G1 X94.126 Y77.514 E0.02064
G1 X94.745 Y77.736 E0.02064
G1 X95.353 Y77.989 E0.02064
G1 X95.947 Y78.272 E0.02064
G1 X96.527 Y78.585 E0.02064
G1 X97.090 Y78.926 E0.02064
G1 X97.635 Y79.294 E0.02064
G1 X98.161 Y79.690 E0.02064
G1 X98.667 Y80.111 E0.02064
G1 X99.151 Y80.557 E0.02064
G1 X99.612 Y81.027 E0.02064
G1 X100.049 Y81.520 E0.02064
G1 X100.461 Y82.033 E0.02064
G1 X100.847 Y82.567 E0.02064
G1 X101.205 Y83.119 E0.02064
G1 X101.535 Y83.688 E0.02064
G1 X101.837 Y84.273 E0.02064
G1 X102.109 Y84.873 E0.02064
G1 X102.350 Y85.485 E0.02064
G1 X102.560 Y86.109 E0.02064
G1 X102.739 Y86.743 E0.02064
G1 X102.887 Y87.385 E0.02068
G1 X103.046 Y88.357 E0.03087
G1 X103.112 Y89.013 E0.02068
G1 X103.145 Y89.671 E0.02064
G1 X103.145 Y90.329 E0.02064
G1 X103.112 Y90.987 E0.02064
G1 X103.046 Y91.642 E0.02064
G1 X102.948 Y92.294 E0.02068
G1 X102.740 Y93.256 E0.03087
G1 X102.560 Y93.891 E0.02068
G1 X102.350 Y94.515 E0.02064
G1 X102.109 Y95.127 E0.02064
G1 X101.837 Y95.727 E0.02064
G1 X101.535 Y96.312 E0.02064
G1 X101.205 Y96.881 E0.02064
G1 X100.847 Y97.433 E0.02064
G1 X100.461 Y97.967 E0.02064
G1 X100.049 Y98.480 E0.02064
G1 X99.612 Y98.973 E0.02064
G1 X99.151 Y99.443 E0.02064
G1 X98.667 Y99.889 E0.02064
G1 X98.161 Y100.310 E0.02064
G1 X97.635 Y100.706 E0.02064
G1 X97.090 Y101.074 E0.02064
G1 X96.527 Y101.415 E0.02064
G1 X95.947 Y101.728 E0.02064
G1 X95.353 Y102.011 E0.02064
G1 X94.745 Y102.264 E0.02064
G1 X94.126 Y102.486 E0.02064
G1 X93.496 Y102.676 E0.02064
G1 X92.857 Y102.836 E0.02064
G1 X92.211 Y102.962 E0.02064
G1 X91.559 Y103.057 E0.02064
G1 X90.904 Y103.119 E0.02064
G1 X90.246 Y103.147 E0.02064
G1 X89.588 Y103.143 E0.02064
G1 X88.931 Y103.106 E0.02064
G1 X88.276 Y103.036 E0.02064
G1 X87.625 Y102.934 E0.02068
G1 X86.664 Y102.720 E0.03087
G1 X86.030 Y102.536 E0.02068
G1 X85.408 Y102.322 E0.02064
G1 X84.797 Y102.077 E0.02064
G1 X84.199 Y101.801 E0.02064
G1 X83.616 Y101.496 E0.02064
G1 X83.048 Y101.162 E0.02064
G1 X82.498 Y100.800 E0.02064
G1 X81.967 Y100.411 E0.02064
G1 X81.456 Y99.996 E0.02064
G1 X80.967 Y99.556 E0.02064
G1 X80.500 Y99.092 E0.02064
G1 X80.057 Y98.606 E0.02064
G1 X79.638 Y98.097 E0.02064
G1 X79.246 Y97.569 E0.02064
G1 X78.881 Y97.021 E0.02064
G1 X78.544 Y96.456 E0.02064
G1 X78.235 Y95.874 E0.02064
G1 X77.956 Y95.278 E0.02064
G1 X77.707 Y94.669 E0.02064
G1 X77.488 Y94.048 E0.02064
G1 X77.301 Y93.417 E0.02064
G1 X77.146 Y92.777 E0.02064
G1 X77.023 Y92.130 E0.02064
G1 X76.933 Y91.478 E0.02064
G1 X76.876 Y90.822 E0.02064
G1 X76.851 Y90.164 E0.02066
G1 X76.875 Y89.179 E0.03089
G1 X76.933 Y88.522 E0.02068
G1 X77.023 Y87.870 E0.02064
G1 X77.146 Y87.223 E0.02064
G1 X77.301 Y86.583 E0.02064
G1 X77.488 Y85.952 E0.02064
G1 X77.707 Y85.331 E0.02064
G1 X77.956 Y84.722 E0.02064
G1 X78.235 Y84.126 E0.02064
G1 X78.544 Y83.544 E0.02064
G1 X78.881 Y82.979 E0.02064
G1 X79.246 Y82.431 E0.02064
G1 X79.638 Y81.903 E0.02064
G1 X80.057 Y81.394 E0.02064
G1 X80.642 Y80.766 E0.02694
M204 S1250
G1 X80.583 Y80.337 F9000.000
G1 E-2.24000 F4200.000
;WIPE_START
G1 F7200.000
G1 X81.456 Y80.004 E-0.61799
G1 X81.868 Y79.669 E-0.29401
;WIPE_END
G1 E-0.04800 F4200.000
G1 Z0.400 F9000.000
G1 X79.163 Y79.328
G1 Z0.200
G1 E3.20000 F2400.000
M204 S800
;TYPE:Perimeter
G1 F1200.000
G1 X79.826 Y78.689 E0.02885
G1 X80.610 Y78.031 E0.03210
G1 X81.154 Y77.623 E0.02133
G1 X81.716 Y77.240 E0.02133
G1 X82.292 Y76.884 E0.02123
G1 X83.192 Y76.396 E0.03210
G1 X83.807 Y76.105 E0.02133
G1 X84.434 Y75.842 E0.02133
G1 X85.073 Y75.607 E0.02133
G1 X85.718 Y75.402 E0.02123
G1 X86.712 Y75.147 E0.03220
G1 X87.376 Y75.015 E0.02123
G1 X88.049 Y74.913 E0.02133
G1 X88.725 Y74.841 E0.02133
G1 X89.401 Y74.799 E0.02123
G1 X90.425 Y74.793 E0.03210
G1 X91.104 Y74.827 E0.02133
G1 X91.781 Y74.892 E0.02133
G1 X92.455 Y74.987 E0.02133
G1 X93.124 Y75.111 E0.02133
G1 X93.786 Y75.266 E0.02133
G1 X94.438 Y75.449 E0.02123
G1 X95.409 Y75.782 E0.03220
G1 X96.033 Y76.035 E0.02112
G1 X96.962 Y76.474 E0.03220
G1 X97.557 Y76.797 E0.02123
G1 X98.139 Y77.148 E0.02133
G1 X98.706 Y77.525 E0.02133
G1 X99.252 Y77.925 E0.02123
G1 X100.043 Y78.574 E0.03210
G1 X100.544 Y79.035 E0.02133
G1 X101.024 Y79.517 E0.02133
G1 X101.481 Y80.020 E0.02133
G1 X101.916 Y80.544 E0.02133
G1 X102.325 Y81.083 E0.02123
G1 X102.898 Y81.935 E0.03220
G1 X103.244 Y82.517 E0.02123
G1 X103.566 Y83.116 E0.02133
G1 X103.858 Y83.727 E0.02123
G1 X104.249 Y84.673 E0.03210
G1 X104.473 Y85.315 E0.02133
G1 X104.668 Y85.967 E0.02133
G1 X104.834 Y86.627 E0.02133
G1 X104.970 Y87.293 E0.02133
G1 X105.076 Y87.965 E0.02133
G1 X105.151 Y88.638 E0.02123
G1 X105.208 Y89.663 E0.03220
G1 X105.208 Y90.340 E0.02123
G1 X105.178 Y91.020 E0.02133
M73 P4 R16
G1 X105.118 Y91.694 E0.02123
G1 X104.969 Y92.707 E0.03210
G1 X104.834 Y93.373 E0.02133
G1 X104.668 Y94.033 E0.02133
G1 X104.473 Y94.685 E0.02133
G1 X104.250 Y95.324 E0.02123
G1 X103.858 Y96.273 E0.03220
G1 X103.566 Y96.884 E0.02123
G1 X103.246 Y97.480 E0.02123
G1 X102.711 Y98.357 E0.03220
G1 X102.327 Y98.914 E0.02123
G1 X101.916 Y99.456 E0.02133
G1 X101.481 Y99.980 E0.02133
G1 X101.024 Y100.483 E0.02133
G1 X100.544 Y100.965 E0.02133
G1 X100.046 Y101.424 E0.02123
G1 X99.252 Y102.075 E0.03220
G1 X98.706 Y102.475 E0.02123
G1 X98.139 Y102.852 E0.02133
G1 X97.557 Y103.203 E0.02133
G1 X96.959 Y103.528 E0.02133
G1 X96.350 Y103.824 E0.02123
G1 X95.406 Y104.219 E0.03210
G1 X94.765 Y104.447 E0.02133
G1 X94.115 Y104.646 E0.02133
G1 X93.456 Y104.815 E0.02133
G1 X92.790 Y104.955 E0.02133
G1 X92.119 Y105.064 E0.02133
G1 X91.446 Y105.144 E0.02123
G1 X90.421 Y105.207 E0.03220
G1 X89.744 Y105.211 E0.02123
G1 X89.065 Y105.184 E0.02133
G1 X88.390 Y105.127 E0.02123
G1 X87.376 Y104.985 E0.03210
G1 X86.709 Y104.853 E0.02133
G1 X86.048 Y104.691 E0.02133
G1 X85.396 Y104.499 E0.02133
G1 X84.755 Y104.280 E0.02123
G1 X83.807 Y103.895 E0.03210
G1 X83.192 Y103.604 E0.02133
G1 X82.590 Y103.287 E0.02133
G1 X82.004 Y102.942 E0.02133
G1 X81.433 Y102.572 E0.02133
G1 X80.882 Y102.178 E0.02123
G1 X80.084 Y101.537 E0.03210
G1 X79.578 Y101.083 E0.02133
G1 X79.093 Y100.606 E0.02133
G1 X78.630 Y100.107 E0.02133
G1 X78.189 Y99.589 E0.02133
G1 X77.773 Y99.052 E0.02133
G1 X77.382 Y98.499 E0.02123
G1 X76.837 Y97.628 E0.03220
G1 X76.511 Y97.035 E0.02123
G1 X76.210 Y96.425 E0.02133
G1 X75.937 Y95.802 E0.02133
G1 X75.691 Y95.168 E0.02133
G1 X75.476 Y94.526 E0.02123
