; generated by PrusaSlicer 2.3.0+win64 on 2021-08-27 at 08:48:15 UTC


;
;

;
;
; 

; external perimeters extrusion width = 0.45mm
; perimeters extrusion width = 0.45mm
; infill extrusion width = 0.45mm
; solid infill extrusion width = 0.45mm
; top infill extrusion width = 0.40mm
; first layer extrusion width = 0.42mm

M73 P0 R12
M201 X1250 Y1250 Z400 E5000 ; sets maximum accelerations, mm/sec^2
M203 X180 Y180 Z12 E80 ; sets maximum feedrates, mm/sec
M204 P1250 R1250 T1250 ; sets acceleration (P, T) and retract acceleration (R), mm/sec^2
M205 X8.00 Y8.00 Z2.00 E10.00 ; sets the jerk limits, mm/sec
M205 S0 T0 ; sets the minimum extruding and travel feed rate, mm/sec
M107
;TYPE:Custom
G90 ; use absolute coordinates
M83 ; extruder relative mode
M104 S170 ; set extruder temp for bed leveling
M140 S60 ; set bed temp
M109 R170 ; wait for bed leveling temp
M190 S60 ; wait for bed temp
G28 ; home all without mesh bed level
G29 ; mesh bed leveling 
M104 S215 ; set extruder temp
G92 E0.0
G1 Y-2.0 X179 F2400
G1 Z3 F720
M109 S215 ; wait for extruder temp

; intro line
G1 X170 F1000
G1 Z0.2 F720
G1 X110.0 E8.0 F900
M73 P1 R12
G1 X40.0 E10.0 F700
G92 E0.0

M221 S95 ; set flow
G21 ; set units to millimeters
G90 ; use absolute coordinates
M83 ; use relative distances for extrusion
M900 K0.2 ; Filament gcode LA 1.5
; ; Filament gcode LA 1.0
;LAYER_CHANGE
;Z:0.2
;HEIGHT:0.2
;BEFORE_LAYER_CHANGE
G92 E0.0
;0.2


M73 P2 R11
G1 E-3.20000 F4200.000
G1 Z0.200 F9000.000
;AFTER_LAYER_CHANGE
;0.2
G1 Z0.400
G1 X77.222 Y77.053
G1 Z0.200
G1 E3.20000 F2400.000
M204 S800
;TYPE:Skirt
;WIDTH:0.42
G1 F1200.000
G1 X78.473 Y75.928 E0.05276
G1 X79.820 Y74.925 E0.05266
G1 X81.540 Y73.896 E0.06284
G1 X83.062 Y73.184 E0.05270
G1 X84.645 Y72.615 E0.05272
G1 X86.585 Y72.132 E0.06270
G1 X88.235 Y71.895 E0.05226
G1 X89.911 Y71.809 E0.05263
G1 X91.925 Y71.911 E0.06323
G1 X93.581 Y72.165 E0.05252
G1 X95.209 Y72.571 E0.05261
G1 X97.082 Y73.244 E0.06242
G1 X98.602 Y73.972 E0.05284
G1 X100.050 Y74.837 E0.05288
G1 X101.657 Y76.035 E0.06284
G1 X102.886 Y77.160 E0.05227
G1 X104.025 Y78.415 E0.05313
G1 X105.208 Y80.019 E0.06249
G1 X106.067 Y81.471 E0.05288
G1 X106.782 Y82.980 E0.05236
G1 X107.452 Y84.870 E0.06288
G1 X107.850 Y86.496 E0.05250
G1 X108.098 Y88.159 E0.05270
G1 X108.191 Y90.000 E0.05781
G1 X108.098 Y91.835 E0.05759
G1 X107.852 Y93.496 E0.05265
G1 X107.456 Y95.119 E0.05239
G1 X106.786 Y97.009 E0.06287
G1 X106.070 Y98.525 E0.05259
G1 X105.215 Y99.971 E0.05266
G1 X104.033 Y101.575 E0.06246
G1 X102.898 Y102.828 E0.05302
G1 X101.405 Y104.171 E0.06297
G1 X100.054 Y105.160 E0.05250
G1 X98.617 Y106.021 E0.05252
G1 X97.099 Y106.749 E0.05278
G1 X95.214 Y107.428 E0.06283
G1 X93.585 Y107.834 E0.05263
G1 X91.582 Y108.122 E0.06345
G1 X89.923 Y108.191 E0.05208
G1 X88.260 Y108.108 E0.05218
G1 X86.589 Y107.868 E0.05293
G1 X84.655 Y107.388 E0.06249
G1 X83.066 Y106.818 E0.05293
G1 X81.551 Y106.110 E0.05243
G1 X79.823 Y105.078 E0.06310
G1 X78.476 Y104.075 E0.05264
G1 X77.225 Y102.950 E0.05278
G1 X75.880 Y101.469 E0.06270
G1 X74.883 Y100.119 E0.05264
G1 X74.015 Y98.682 E0.05264
G1 X73.157 Y96.872 E0.06279
M73 P3 R11
G1 X72.598 Y95.298 E0.05240
G1 X72.183 Y93.670 E0.05266
G1 X71.887 Y91.679 E0.06311
G1 X71.809 Y90.003 E0.05263
G1 X71.886 Y88.326 E0.05263
G1 X72.180 Y86.343 E0.06283
G1 X72.593 Y84.716 E0.05264
G1 X73.152 Y83.141 E0.05239
G1 X74.008 Y81.330 E0.06283
G1 X74.880 Y79.886 E0.05289
G1 X75.877 Y78.534 E0.05265
G1 X77.181 Y77.098 E0.06084
M204 S1250
G1 X77.460 Y77.351 F9000.000
M204 S800
G1 F1200.000
G1 X78.710 Y76.220 E0.05284
G1 X80.028 Y75.239 E0.05151
G1 X81.718 Y74.228 E0.06176
G1 X83.204 Y73.533 E0.05144
G1 X84.752 Y72.977 E0.05157
G1 X86.659 Y72.502 E0.06163
G1 X88.274 Y72.270 E0.05113
G1 X89.914 Y72.186 E0.05150
G1 X91.889 Y72.287 E0.06200
G1 X93.505 Y72.534 E0.05126
G1 X95.098 Y72.931 E0.05148
G1 X96.938 Y73.593 E0.06130
G1 X98.426 Y74.305 E0.05173
G1 X99.839 Y75.150 E0.05162
G1 X101.418 Y76.327 E0.06175
G1 X102.621 Y77.429 E0.05116
G1 X103.732 Y78.653 E0.05185
G1 X104.895 Y80.229 E0.06140
G1 X105.735 Y81.649 E0.05174
G1 X106.433 Y83.123 E0.05113
G1 X107.092 Y84.980 E0.06176
G1 X107.481 Y86.572 E0.05139
G1 X107.722 Y88.194 E0.05144
G1 X107.814 Y89.997 E0.05661
G1 X107.723 Y91.799 E0.05657
G1 X107.482 Y93.421 E0.05139
G1 X107.095 Y95.009 E0.05127
G1 X106.437 Y96.866 E0.06176
G1 X105.737 Y98.347 E0.05136
G1 X104.901 Y99.761 E0.05151
G1 X103.743 Y101.335 E0.06126
G1 X102.632 Y102.560 E0.05185
G1 X101.166 Y103.880 E0.06185
G1 X99.843 Y104.848 E0.05141
G1 X98.440 Y105.688 E0.05126
G1 X96.955 Y106.400 E0.05163
G1 X95.106 Y107.066 E0.06163
G1 X93.513 Y107.464 E0.05150
G1 X91.901 Y107.712 E0.05112
G1 X89.926 Y107.814 E0.06203
G1 X88.298 Y107.732 E0.05108
G1 X86.664 Y107.499 E0.05178
G1 X84.763 Y107.026 E0.06141
G1 X83.211 Y106.470 E0.05167
G1 X81.730 Y105.777 E0.05128
G1 X80.031 Y104.763 E0.06202
G1 X78.717 Y103.785 E0.05138
G1 X77.492 Y102.684 E0.05163
G1 X76.171 Y101.229 E0.06163
G1 X75.197 Y99.911 E0.05138
G1 X74.348 Y98.505 E0.05149
G1 X73.505 Y96.727 E0.06171
G1 X72.959 Y95.190 E0.05114
G1 X72.553 Y93.597 E0.05151
G1 X72.262 Y91.641 E0.06202
G1 X72.186 Y90.000 E0.05149
G1 X72.262 Y88.359 E0.05151
G1 X72.551 Y86.416 E0.06161
G1 X72.954 Y84.827 E0.05138
G1 X73.500 Y83.287 E0.05125
G1 X74.342 Y81.506 E0.06174
G1 X75.195 Y80.093 E0.05176
G1 X76.171 Y78.771 E0.05153
G1 X77.420 Y77.395 E0.05826
M204 S1250
; printing object Helix03.stl id:0 copy 0
G1 E-2.24000 F4200.000
;WIPE_START
G1 F7200.000
G1 X78.637 Y76.287 E-0.91200
;WIPE_END
G1 E-0.04800 F4200.000
G1 Z0.400 F9000.000
G1 X81.062 Y81.172
M73 P4 R11
G1 Z0.200
G1 E3.20000 F2400.000
M204 S800
;TYPE:Perimeter
G1 F1200.000
G1 X81.770 Y80.508 E0.03043
G1 X82.277 Y80.092 E0.02057
G1 X82.802 Y79.704 E0.02045
G1 X83.346 Y79.344 E0.02045
G1 X83.908 Y79.013 E0.02045
G1 X84.486 Y78.712 E0.02045
G1 X85.080 Y78.441 E0.02045
G1 X85.686 Y78.201 E0.02044
G1 X86.246 Y78.012 E0.01854
G1 X87.245 Y77.743 E0.03244
G1 X87.890 Y77.616 E0.02060
G1 X88.536 Y77.523 E0.02045
G1 X89.185 Y77.464 E0.02045
G1 X89.837 Y77.439 E0.02045
G1 X90.489 Y77.447 E0.02045
G1 X91.140 Y77.489 E0.02045
G1 X91.787 Y77.565 E0.02044
G1 X92.371 Y77.664 E0.01854
G1 X93.378 Y77.900 E0.03244
G1 X94.006 Y78.093 E0.02060
G1 X94.619 Y78.317 E0.02045
G1 X95.219 Y78.573 E0.02045
G1 X95.805 Y78.859 E0.02045
G1 X96.375 Y79.175 E0.02045
G1 X96.928 Y79.521 E0.02045
G1 X97.463 Y79.895 E0.02045
G1 X97.980 Y80.298 E0.02057
G1 X98.706 Y80.943 E0.03043
G1 X99.167 Y81.410 E0.02057
G1 X99.600 Y81.897 E0.02045
G1 X100.008 Y82.406 E0.02045
G1 X100.388 Y82.936 E0.02045
G1 X100.741 Y83.485 E0.02045
G1 X101.065 Y84.051 E0.02045
G1 X101.359 Y84.633 E0.02045
G1 X101.622 Y85.230 E0.02045
G1 X101.854 Y85.840 E0.02045
G1 X102.054 Y86.461 E0.02045
G1 X102.221 Y87.091 E0.02045
G1 X102.356 Y87.733 E0.02057
G1 X102.495 Y88.694 E0.03043
G1 X102.546 Y89.348 E0.02057
G1 X102.563 Y90.000 E0.02045
G1 X102.546 Y90.652 E0.02045
G1 X102.495 Y91.302 E0.02045
G1 X102.410 Y91.949 E0.02045
G1 X102.292 Y92.594 E0.02057
G1 X102.055 Y93.536 E0.03043
G1 X101.854 Y94.160 E0.02057
G1 X101.620 Y94.773 E0.02057
G1 X101.217 Y95.656 E0.03043
G1 X100.907 Y96.234 E0.02057
G1 X100.568 Y96.792 E0.02045
G1 X100.201 Y97.331 E0.02045
G1 X99.807 Y97.851 E0.02045
G1 X99.387 Y98.349 E0.02045
G1 X98.941 Y98.825 E0.02045
G1 X98.470 Y99.277 E0.02045
G1 X97.977 Y99.704 E0.02045
G1 X97.463 Y100.105 E0.02045
G1 X96.928 Y100.479 E0.02045
G1 X96.375 Y100.825 E0.02045
G1 X95.801 Y101.143 E0.02057
G1 X94.924 Y101.557 E0.03043
G1 X94.314 Y101.799 E0.02057
G1 X93.692 Y102.008 E0.02057
G1 X92.754 Y102.257 E0.03043
G1 X92.110 Y102.384 E0.02057
G1 X91.464 Y102.477 E0.02045
G1 X90.815 Y102.536 E0.02045
G1 X90.163 Y102.561 E0.02045
G1 X89.511 Y102.553 E0.02045
G1 X88.860 Y102.511 E0.02045
G1 X88.213 Y102.435 E0.02044
G1 X87.629 Y102.336 E0.01854
G1 X86.622 Y102.100 E0.03244
G1 X85.994 Y101.907 E0.02060
G1 X85.381 Y101.683 E0.02045
G1 X84.781 Y101.427 E0.02045
G1 X84.192 Y101.139 E0.02057
G1 X83.349 Y100.658 E0.03043
G1 X82.802 Y100.296 E0.02057
G1 X82.277 Y99.908 E0.02045
G1 X81.773 Y99.494 E0.02045
G1 X81.292 Y99.054 E0.02045
G1 X80.833 Y98.590 E0.02045
G1 X80.400 Y98.103 E0.02045
G1 X79.992 Y97.594 E0.02045
G1 X79.612 Y97.064 E0.02045
G1 X79.259 Y96.515 E0.02045
G1 X78.935 Y95.949 E0.02045
G1 X78.641 Y95.367 E0.02045
G1 X78.378 Y94.770 E0.02045
G1 X78.146 Y94.160 E0.02045
G1 X77.945 Y93.536 E0.02057
G1 X77.708 Y92.594 E0.03043
G1 X77.590 Y91.949 E0.02057
G1 X77.505 Y91.302 E0.02045
G1 X77.454 Y90.652 E0.02045
G1 X77.437 Y90.000 E0.02045
G1 X77.454 Y89.348 E0.02044
G1 X77.500 Y88.759 E0.01854
G1 X77.643 Y87.734 E0.03244
G1 X77.779 Y87.091 E0.02060
G1 X77.946 Y86.461 E0.02045
G1 X78.146 Y85.840 E0.02045
G1 X78.378 Y85.230 E0.02045
G1 X78.641 Y84.633 E0.02045
G1 X78.935 Y84.051 E0.02045
G1 X79.259 Y83.485 E0.02044
G1 X79.578 Y82.987 E0.01854
G1 X80.190 Y82.153 E0.03244
G1 X80.613 Y81.651 E0.02060
G1 X81.021 Y81.216 E0.01869
M204 S1250
G1 X81.296 Y81.474 F9000.000
M204 S800
;TYPE:External perimeter
G1 F1200.000
G1 X82.019 Y80.792 E0.03116
G1 X82.509 Y80.389 E0.01988
G1 X83.018 Y80.013 E0.01984
G1 X83.546 Y79.664 E0.01984
G1 X84.091 Y79.343 E0.01984
G1 X84.652 Y79.051 E0.01984
G1 X85.227 Y78.788 E0.01984
G1 X85.816 Y78.556 E0.01983
G1 X86.356 Y78.373 E0.01787
G1 X87.331 Y78.111 E0.03167
G1 X87.953 Y77.988 E0.01989
G1 X88.580 Y77.898 E0.01984
G1 X89.210 Y77.840 E0.01984
G1 X89.842 Y77.816 E0.01984
G1 X90.474 Y77.824 E0.01984
G1 X91.106 Y77.865 E0.01984
G1 X91.734 Y77.939 E0.01983
G1 X92.296 Y78.034 E0.01787
G1 X93.279 Y78.264 E0.03167
G1 X93.886 Y78.451 E0.01989
G1 X94.480 Y78.668 E0.01984
G1 X95.062 Y78.916 E0.01984
G1 X95.630 Y79.194 E0.01984
G1 X96.184 Y79.500 E0.01984
G1 X96.720 Y79.835 E0.01984
G1 X97.239 Y80.198 E0.01984
G1 X97.739 Y80.588 E0.01988
G1 X98.446 Y81.217 E0.02967
G1 X98.891 Y81.668 E0.01988
G1 X99.312 Y82.141 E0.01984
G1 X99.707 Y82.634 E0.01984
G1 X100.076 Y83.148 E0.01984
G1 X100.419 Y83.680 E0.01984
G1 X100.732 Y84.230 E0.01984
G1 X101.018 Y84.795 E0.01984
G1 X101.273 Y85.373 E0.01984
G1 X101.498 Y85.965 E0.01984
G1 X101.692 Y86.567 E0.01984
G1 X101.854 Y87.178 E0.01984
G1 X101.985 Y87.799 E0.01988
G1 X102.120 Y88.735 E0.02967
G1 X102.169 Y89.368 E0.01988
G1 X102.185 Y90.000 E0.01984
G1 X102.169 Y90.632 E0.01984
G1 X102.120 Y91.263 E0.01984
G1 X102.038 Y91.891 E0.01984
G1 X101.923 Y92.514 E0.01988
G1 X101.692 Y93.432 E0.02967
G1 X101.498 Y94.035 E0.01988
G1 X101.272 Y94.628 E0.01988
G1 X100.879 Y95.488 E0.02967
G1 X100.579 Y96.047 E0.01988
G1 X100.251 Y96.588 E0.01984
G1 X99.895 Y97.111 E0.01984
G1 X99.513 Y97.615 E0.01984
G1 X99.105 Y98.099 E0.01984
G1 X98.672 Y98.560 E0.01984
G1 X98.216 Y98.999 E0.01984
G1 X97.738 Y99.413 E0.01984
G1 X97.239 Y99.802 E0.01984
G1 X96.720 Y100.165 E0.01984
G1 X96.184 Y100.500 E0.01984
G1 X95.629 Y100.807 E0.01988
G1 X94.774 Y101.211 E0.02967
G1 X94.184 Y101.444 E0.01988
G1 X93.583 Y101.647 E0.01988
G1 X92.669 Y101.890 E0.02967
G1 X92.047 Y102.012 E0.01988
G1 X91.420 Y102.102 E0.01984
G1 X90.790 Y102.160 E0.01984
G1 X90.158 Y102.184 E0.01984
G1 X89.526 Y102.176 E0.01984
G1 X88.894 Y102.135 E0.01984
G1 X88.266 Y102.061 E0.01983
G1 X87.704 Y101.966 E0.01787
G1 X86.721 Y101.736 E0.03167
G1 X86.114 Y101.549 E0.01989
G1 X85.520 Y101.332 E0.01984
G1 X84.938 Y101.084 E0.01984
G1 X84.368 Y100.806 E0.01988
G1 X83.547 Y100.336 E0.02967
G1 X83.018 Y99.987 E0.01988
G1 X82.509 Y99.611 E0.01984
G1 X82.020 Y99.209 E0.01984
G1 X81.553 Y98.782 E0.01984
G1 X81.109 Y98.332 E0.01984
M73 P5 R11
G1 X80.688 Y97.859 E0.01984
G1 X80.293 Y97.366 E0.01984
G1 X79.924 Y96.852 E0.01984
G1 X79.581 Y96.320 E0.01984
G1 X79.268 Y95.770 E0.01984
G1 X78.982 Y95.205 E0.01984
G1 X78.727 Y94.627 E0.01984
G1 X78.502 Y94.035 E0.01984
G1 X78.308 Y93.432 E0.01988
G1 X78.077 Y92.514 E0.02967
G1 X77.962 Y91.891 E0.01988
G1 X77.880 Y91.263 E0.01984
G1 X77.831 Y90.632 E0.01984
G1 X77.815 Y90.000 E0.01984
G1 X77.831 Y89.368 E0.01983
G1 X77.875 Y88.799 E0.01787
G1 X78.015 Y87.799 E0.03167
G1 X78.146 Y87.178 E0.01989
G1 X78.308 Y86.567 E0.01984
G1 X78.502 Y85.965 E0.01984
G1 X78.727 Y85.373 E0.01984
G1 X78.982 Y84.795 E0.01984
G1 X79.268 Y84.230 E0.01984
G1 X79.581 Y83.681 E0.01983
G1 X79.889 Y83.201 E0.01787
G1 X80.486 Y82.386 E0.03167
G1 X80.895 Y81.901 E0.01989
G1 X81.255 Y81.517 E0.01650
M204 S1250
G1 X81.193 Y81.087 F9000.000
G1 E-2.24000 F4200.000
;WIPE_START
G1 F7200.000
G1 X82.019 Y80.792 E-0.58393
G1 X82.477 Y80.416 E-0.32807
;WIPE_END
G1 E-0.04800 F4200.000
G1 Z0.400 F9000.000
G1 X79.489 Y79.801
G1 Z0.200
G1 E3.20000 F2400.000
M204 S800
;TYPE:Perimeter
G1 F1200.000
G1 X80.214 Y79.098 E0.03165
G1 X80.718 Y78.666 E0.02084
G1 X81.239 Y78.259 E0.02073
G1 X82.061 Y77.688 E0.03135
G1 X82.627 Y77.341 E0.02085
G1 X83.209 Y77.019 E0.02083
G1 X83.805 Y76.725 E0.02084
G1 X84.413 Y76.458 E0.02084
G1 X85.033 Y76.218 E0.02084
G1 X85.660 Y76.008 E0.02073
G1 X86.624 Y75.745 E0.03135
G1 X87.275 Y75.606 E0.02085
G1 X87.930 Y75.497 E0.02083
G1 X88.590 Y75.418 E0.02084
G1 X89.249 Y75.370 E0.02073
G1 X90.249 Y75.353 E0.03135
G1 X90.913 Y75.379 E0.02085
G1 X91.575 Y75.435 E0.02083
G1 X92.234 Y75.522 E0.02084
G1 X92.889 Y75.638 E0.02084
G1 X93.537 Y75.784 E0.02084
G1 X94.175 Y75.958 E0.02073
G1 X95.123 Y76.275 E0.03135
G1 X95.740 Y76.522 E0.02085
G1 X96.346 Y76.796 E0.02083
G1 X96.938 Y77.097 E0.02084
G1 X97.513 Y77.424 E0.02073
G1 X98.353 Y77.965 E0.03135
G1 X98.891 Y78.357 E0.02085
G1 X99.410 Y78.772 E0.02083
G1 X99.909 Y79.210 E0.02084
G1 X100.388 Y79.671 E0.02084
G1 X100.846 Y80.152 E0.02084
G1 X101.281 Y80.654 E0.02084
G1 X101.694 Y81.176 E0.02084
G1 X102.082 Y81.715 E0.02084
G1 X102.443 Y82.269 E0.02073
G1 X102.942 Y83.135 E0.03135
G1 X103.240 Y83.729 E0.02085
G1 X103.511 Y84.336 E0.02083
G1 X103.754 Y84.955 E0.02084
G1 X103.967 Y85.581 E0.02073
G1 X104.237 Y86.547 E0.03146
G1 X104.378 Y87.193 E0.02073
G1 X104.491 Y87.848 E0.02084
G1 X104.573 Y88.507 E0.02084
G1 X104.626 Y89.166 E0.02073
G1 X104.649 Y90.169 E0.03144
G1 X104.626 Y90.830 E0.02075
G1 X104.573 Y91.493 E0.02084
G1 X104.491 Y92.152 E0.02084
G1 X104.379 Y92.804 E0.02073
G1 X104.153 Y93.781 E0.03146
G1 X103.968 Y94.416 E0.02073
G1 X103.754 Y95.045 E0.02084
G1 X103.511 Y95.664 E0.02084
G1 X103.240 Y96.271 E0.02084
G1 X102.943 Y96.862 E0.02073
G1 X102.443 Y97.731 E0.03146
G1 X102.082 Y98.285 E0.02073
G1 X101.694 Y98.824 E0.02084
G1 X101.281 Y99.346 E0.02084
G1 X100.846 Y99.848 E0.02084
G1 X100.391 Y100.327 E0.02073
G1 X99.659 Y101.014 E0.03146
G1 X99.152 Y101.439 E0.02073
G1 X98.624 Y101.842 E0.02084
G1 X98.078 Y102.221 E0.02084
G1 X97.516 Y102.575 E0.02084
G1 X96.941 Y102.901 E0.02073
G1 X96.041 Y103.346 E0.03146
G1 X95.433 Y103.605 E0.02073
G1 X94.810 Y103.837 E0.02084
G1 X94.181 Y104.040 E0.02073
G1 X93.210 Y104.294 E0.03146
G1 X92.562 Y104.424 E0.02073
G1 X91.905 Y104.525 E0.02084
G1 X91.245 Y104.597 E0.02084
G1 X90.581 Y104.638 E0.02084
G1 X89.917 Y104.649 E0.02084
G1 X89.253 Y104.631 E0.02084
G1 X88.590 Y104.582 E0.02084
G1 X87.930 Y104.503 E0.02084
G1 X87.275 Y104.394 E0.02084
G1 X86.628 Y104.256 E0.02073
G1 X85.660 Y103.992 E0.03146
G1 X85.033 Y103.782 E0.02073
G1 X84.413 Y103.542 E0.02084
G1 X83.805 Y103.275 E0.02084
G1 X83.209 Y102.981 E0.02084
G1 X82.627 Y102.659 E0.02084
G1 X82.061 Y102.312 E0.02084
G1 X81.511 Y101.939 E0.02084
G1 X80.981 Y101.544 E0.02073
G1 X80.212 Y100.899 E0.03146
G1 X79.730 Y100.447 E0.02073
G1 X79.266 Y99.970 E0.02084
G1 X78.825 Y99.473 E0.02084
G1 X78.407 Y98.957 E0.02084
G1 X78.015 Y98.424 E0.02073
G1 X77.466 Y97.584 E0.03146
G1 X77.137 Y97.011 E0.02073
G1 X76.832 Y96.420 E0.02084
G1 X76.555 Y95.817 E0.02084
G1 X76.305 Y95.201 E0.02084
G1 X76.083 Y94.574 E0.02084
G1 X75.891 Y93.942 E0.02073
G1 X75.655 Y92.970 E0.03135
G1 X75.485 Y91.984 E0.03135
G1 X75.411 Y91.327 E0.02073
G1 X75.365 Y90.664 E0.02084
G1 X75.350 Y90.000 E0.02084
G1 X75.365 Y89.336 E0.02084
G1 X75.411 Y88.673 E0.02084
G1 X75.485 Y88.016 E0.02073
G1 X75.655 Y87.027 E0.03146
G1 X75.803 Y86.386 E0.02063
G1 X76.083 Y85.426 E0.03135
G1 X76.305 Y84.799 E0.02085
G1 X76.555 Y84.183 E0.02083
G1 X76.831 Y83.583 E0.02073
G1 X77.301 Y82.696 E0.03146
G1 X77.643 Y82.131 E0.02073
