; generated by PrusaSlicer 2.3.0+win64 on 2021-08-26 at 19:57:27 UTC


;
;

;
;
; 

; external perimeters extrusion width = 0.45mm
; perimeters extrusion width = 0.45mm
; infill extrusion width = 0.45mm
; solid infill extrusion width = 0.45mm
; top infill extrusion width = 0.40mm
; first layer extrusion width = 0.42mm

M73 P0 R31
M201 X1250 Y1250 Z400 E5000 ; sets maximum accelerations, mm/sec^2
M203 X180 Y180 Z12 E80 ; sets maximum feedrates, mm/sec
M204 P1250 R1250 T1250 ; sets acceleration (P, T) and retract acceleration (R), mm/sec^2
M205 X8.00 Y8.00 Z2.00 E10.00 ; sets the jerk limits, mm/sec
M205 S0 T0 ; sets the minimum extruding and travel feed rate, mm/sec
M107
;TYPE:Custom
G90 ; use absolute coordinates
M83 ; extruder relative mode
M104 S170 ; set extruder temp for bed leveling
M140 S60 ; set bed temp
M109 R170 ; wait for bed leveling temp
M190 S60 ; wait for bed temp
G28 ; home all without mesh bed level
G29 ; mesh bed leveling 
M104 S215 ; set extruder temp
G92 E0.0
G1 Y-2.0 X179 F2400
G1 Z3 F720
M109 S215 ; wait for extruder temp

; intro line
G1 X170 F1000
G1 Z0.2 F720
G1 X110.0 E8.0 F900
G1 X40.0 E10.0 F700
G92 E0.0

M221 S95 ; set flow
G21 ; set units to millimeters
G90 ; use absolute coordinates
M83 ; use relative distances for extrusion
M900 K0.2 ; Filament gcode LA 1.5
; ; Filament gcode LA 1.0
;LAYER_CHANGE
;Z:0.2
;HEIGHT:0.2
;BEFORE_LAYER_CHANGE
G92 E0.0
;0.2


M73 P0 R30
G1 E-3.20000 F4200.000
G1 Z0.200 F9000.000
;AFTER_LAYER_CHANGE
;0.2
G1 Z0.400
G1 X75.620 Y75.552
G1 Z0.200
G1 E3.20000 F2400.000
M204 S800
;TYPE:Skirt
;WIDTH:0.42
G1 F1200.000
G1 X77.195 Y74.139 E0.06634
G1 X78.617 Y73.089 E0.05544
G1 X80.431 Y72.001 E0.06631
G1 X82.349 Y71.106 E0.06637
G1 X84.007 Y70.516 E0.05518
G1 X86.052 Y70.001 E0.06612
G1 X88.157 Y69.699 E0.06666
G1 X89.907 Y69.616 E0.05494
G1 X92.029 Y69.717 E0.06661
G1 X94.114 Y70.035 E0.06615
G1 X95.832 Y70.468 E0.05552
G1 X97.823 Y71.177 E0.06627
G1 X99.727 Y72.086 E0.06616
G1 X101.245 Y72.998 E0.05552
G1 X102.939 Y74.249 E0.06601
G1 X104.506 Y75.680 E0.06655
G1 X105.686 Y76.983 E0.05510
G1 X106.953 Y78.682 E0.06648
G1 X108.037 Y80.505 E0.06649
G1 X108.789 Y82.096 E0.05518
M73 P1 R30
G1 X109.506 Y84.083 E0.06623
G1 X110.016 Y86.143 E0.06656
G1 X110.274 Y87.887 E0.05527
G1 X110.384 Y89.993 E0.06613
G1 X110.274 Y92.113 E0.06655
G1 X110.016 Y93.857 E0.05527
G1 X109.510 Y95.904 E0.06613
G1 X108.792 Y97.896 E0.06639
G1 X108.039 Y99.492 E0.05534
G1 X106.957 Y101.313 E0.06639
G1 X105.694 Y103.008 E0.06629
G1 X104.509 Y104.318 E0.05537
G1 X102.948 Y105.744 E0.06631
G1 X101.243 Y107.003 E0.06646
G1 X99.737 Y107.908 E0.05509
G1 X97.827 Y108.822 E0.06637
G1 X95.834 Y109.531 E0.06632
G1 X94.122 Y109.963 E0.05536
G1 X92.029 Y110.283 E0.06639
G1 X89.906 Y110.384 E0.06665
G1 X87.780 Y110.263 E0.06676
G1 X86.047 Y109.997 E0.05499
G1 X83.986 Y109.477 E0.06665
G1 X82.002 Y108.750 E0.06624
G1 X80.416 Y107.991 E0.05514
G1 X78.605 Y106.902 E0.06624
G1 X76.910 Y105.626 E0.06654
G1 X75.609 Y104.437 E0.05526
G1 X74.188 Y102.866 E0.06641
G1 X72.940 Y101.158 E0.06632
G1 X72.039 Y99.640 E0.05536
G1 X71.136 Y97.726 E0.06636
G1 X70.437 Y95.730 E0.06632
G1 X70.015 Y94.018 E0.05527
G1 X69.706 Y91.923 E0.06639
G1 X69.616 Y89.811 E0.06629
G1 X69.709 Y88.050 E0.05527
G1 X70.020 Y85.959 E0.06631
G1 X70.547 Y83.908 E0.06638
G1 X71.146 Y82.250 E0.05527
G1 X72.050 Y80.339 E0.06631
G1 X73.149 Y78.529 E0.06637
G1 X74.197 Y77.123 E0.05499
G1 X75.580 Y75.596 E0.06458
M204 S1250
; printing object Helix01.stl id:0 copy 0
G1 E-2.24000 F4200.000
;WIPE_START
G1 F7200.000
G1 X76.802 Y74.494 E-0.91200
;WIPE_END
G1 E-0.04800 F4200.000
G1 Z0.400 F9000.000
G1 X81.441 Y81.616
G1 Z0.200
G1 E3.20000 F2400.000
M204 S800
;TYPE:Perimeter
G1 F1200.000
G1 X81.872 Y81.196 E0.01887
G1 X82.355 Y80.774 E0.02012
G1 X83.109 Y80.198 E0.02975
G1 X83.644 Y79.843 E0.02012
G1 X84.194 Y79.519 E0.02000
G1 X84.760 Y79.225 E0.02000
G1 X85.341 Y78.961 E0.02000
G1 X85.935 Y78.729 E0.02000
G1 X86.544 Y78.528 E0.02012
G1 X87.463 Y78.290 E0.02975
G1 X88.094 Y78.171 E0.02012
G1 X88.726 Y78.086 E0.02000
G1 X89.362 Y78.036 E0.01999
G1 X89.960 Y78.019 E0.01877
G1 X90.951 Y78.056 E0.03109
G1 X91.590 Y78.125 E0.02015
G1 X92.223 Y78.227 E0.02012
G1 X93.148 Y78.440 E0.02975
G1 X93.763 Y78.625 E0.02012
G1 X94.363 Y78.841 E0.02000
G1 X94.950 Y79.089 E0.02000
G1 X95.524 Y79.368 E0.02000
G1 X96.082 Y79.677 E0.02000
G1 X96.626 Y80.018 E0.02012
G1 X97.395 Y80.574 E0.02975
G1 X97.889 Y80.983 E0.02012
G1 X98.361 Y81.418 E0.02012
G1 X99.014 Y82.107 E0.02975
G1 X99.424 Y82.601 E0.02012
G1 X99.804 Y83.113 E0.02000
G1 X100.157 Y83.645 E0.02000
G1 X100.480 Y84.194 E0.02000
G1 X100.775 Y84.760 E0.02000
G1 X101.038 Y85.341 E0.02000
G1 X101.270 Y85.935 E0.02000
G1 X101.472 Y86.545 E0.02012
G1 X101.709 Y87.463 E0.02975
G1 X101.828 Y88.094 E0.02012
G1 X101.913 Y88.726 E0.02000
G1 X101.964 Y89.362 E0.02000
G1 X101.981 Y90.000 E0.02000
G1 X101.964 Y90.638 E0.02000
G1 X101.913 Y91.274 E0.02000
G1 X101.828 Y91.906 E0.01999
G1 X101.718 Y92.494 E0.01877
G1 X101.472 Y93.455 E0.03109
G1 X101.270 Y94.065 E0.02015
G1 X101.038 Y94.659 E0.02000
G1 X100.775 Y95.240 E0.02000
G1 X100.480 Y95.806 E0.02000
G1 X100.157 Y96.355 E0.02000
G1 X99.804 Y96.887 E0.02000
G1 X99.424 Y97.399 E0.02000
G1 X99.014 Y97.893 E0.02012
G1 X98.361 Y98.582 E0.02975
G1 X97.889 Y99.017 E0.02012
G1 X97.395 Y99.426 E0.02012
G1 X96.626 Y99.982 E0.02975
G1 X96.082 Y100.323 E0.02012
G1 X95.521 Y100.634 E0.02012
G1 X94.658 Y101.039 E0.02988
G1 X93.766 Y101.374 E0.02987
G1 X93.152 Y101.559 E0.02012
G1 X92.532 Y101.711 E0.02000
G1 X91.905 Y101.829 E0.02000
G1 X91.273 Y101.914 E0.02000
G1 X90.637 Y101.964 E0.02000
G1 X90.000 Y101.981 E0.02000
G1 X89.362 Y101.964 E0.02000
G1 X88.726 Y101.914 E0.02000
G1 X88.094 Y101.829 E0.02000
G1 X87.463 Y101.710 E0.02012
G1 X86.544 Y101.472 E0.02975
G1 X85.935 Y101.271 E0.02012
G1 X85.341 Y101.039 E0.02000
G1 X84.760 Y100.775 E0.02000
G1 X84.194 Y100.481 E0.02000
G1 X83.644 Y100.157 E0.02000
G1 X83.113 Y99.804 E0.02000
G1 X82.601 Y99.424 E0.02000
G1 X82.107 Y99.014 E0.02012
G1 X81.418 Y98.361 E0.02975
G1 X80.983 Y97.890 E0.02012
G1 X80.573 Y97.396 E0.02012
G1 X80.015 Y96.623 E0.02987
G1 X79.520 Y95.809 E0.02988
G1 X79.224 Y95.240 E0.02012
G1 X78.959 Y94.655 E0.02012
G1 X78.626 Y93.767 E0.02975
G1 X78.440 Y93.152 E0.02012
G1 X78.289 Y92.533 E0.02000
G1 X78.171 Y91.906 E0.02000
G1 X78.086 Y91.274 E0.02000
G1 X78.035 Y90.638 E0.02000
G1 X78.018 Y89.996 E0.02012
G1 X78.056 Y89.048 E0.02975
G1 X78.124 Y88.410 E0.02012
G1 X78.226 Y87.780 E0.02000
G1 X78.360 Y87.156 E0.02000
G1 X78.528 Y86.541 E0.02000
G1 X78.728 Y85.936 E0.01999
G1 X78.946 Y85.378 E0.01877
G1 X79.366 Y84.479 E0.03109
G1 X79.677 Y83.917 E0.02015
G1 X80.017 Y83.373 E0.02012
G1 X80.573 Y82.604 E0.02975
G1 X80.983 Y82.110 E0.02012
G1 X81.399 Y81.659 E0.01925
M204 S1250
G1 X81.676 Y81.915 F9000.000
M204 S800
;TYPE:External perimeter
G1 F1200.000
G1 X82.128 Y81.474 E0.01981
G1 X82.594 Y81.066 E0.01942
G1 X83.328 Y80.505 E0.02897
G1 X83.844 Y80.163 E0.01942
G1 X84.377 Y79.849 E0.01937
G1 X84.925 Y79.564 E0.01937
G1 X85.488 Y79.309 E0.01937
G1 X86.063 Y79.084 E0.01937
G1 X86.651 Y78.889 E0.01942
G1 X87.545 Y78.658 E0.02897
G1 X88.154 Y78.544 E0.01942
G1 X88.766 Y78.462 E0.01937
G1 X89.382 Y78.412 E0.01937
G1 X89.958 Y78.396 E0.01808
G1 X90.924 Y78.433 E0.03030
G1 X91.540 Y78.498 E0.01942
G1 X92.151 Y78.597 E0.01942
G1 X93.051 Y78.804 E0.02897
G1 X93.644 Y78.983 E0.01942
G1 X94.225 Y79.193 E0.01937
G1 X94.794 Y79.433 E0.01937
G1 X95.350 Y79.703 E0.01937
G1 X95.891 Y80.002 E0.01937
G1 X96.415 Y80.331 E0.01942
G1 X97.164 Y80.872 E0.02897
G1 X97.641 Y81.267 E0.01942
G1 X98.096 Y81.687 E0.01942
G1 X98.732 Y82.357 E0.02897
G1 X99.127 Y82.834 E0.01942
G1 X99.495 Y83.330 E0.01937
G1 X99.837 Y83.845 E0.01937
G1 X100.150 Y84.377 E0.01937
G1 X100.435 Y84.925 E0.01937
G1 X100.691 Y85.488 E0.01937
G1 X100.916 Y86.063 E0.01937
G1 X101.110 Y86.651 E0.01942
G1 X101.341 Y87.546 E0.02897
G1 X101.456 Y88.154 E0.01942
G1 X101.538 Y88.767 E0.01937
G1 X101.587 Y89.382 E0.01937
G1 X101.604 Y90.000 E0.01937
G1 X101.587 Y90.618 E0.01937
G1 X101.538 Y91.233 E0.01937
G1 X101.456 Y91.846 E0.01937
G1 X101.350 Y92.412 E0.01808
G1 X101.110 Y93.348 E0.03030
G1 X100.916 Y93.937 E0.01942
G1 X100.691 Y94.512 E0.01937
G1 X100.435 Y95.075 E0.01937
G1 X100.150 Y95.623 E0.01937
G1 X99.837 Y96.155 E0.01937
G1 X99.495 Y96.670 E0.01937
G1 X99.127 Y97.166 E0.01937
G1 X98.732 Y97.643 E0.01942
G1 X98.096 Y98.313 E0.02897
G1 X97.641 Y98.733 E0.01942
G1 X97.164 Y99.128 E0.01942
G1 X96.415 Y99.669 E0.02897
G1 X95.891 Y99.998 E0.01942
G1 X95.349 Y100.298 E0.01942
G1 X94.512 Y100.691 E0.02901
G1 X93.645 Y101.017 E0.02901
G1 X93.053 Y101.195 E0.01942
G1 X92.452 Y101.342 E0.01937
G1 X91.845 Y101.456 E0.01937
G1 X91.233 Y101.538 E0.01937
G1 X90.617 Y101.588 E0.01937
G1 X90.000 Y101.604 E0.01937
G1 X89.382 Y101.588 E0.01937
G1 X88.766 Y101.538 E0.01937
G1 X88.154 Y101.456 E0.01937
G1 X87.545 Y101.342 E0.01942
G1 X86.651 Y101.111 E0.02897
G1 X86.063 Y100.916 E0.01942
G1 X85.488 Y100.691 E0.01937
G1 X84.925 Y100.436 E0.01937
G1 X84.377 Y100.151 E0.01937
G1 X83.844 Y99.837 E0.01937
G1 X83.330 Y99.496 E0.01937
G1 X82.834 Y99.127 E0.01937
G1 X82.357 Y98.732 E0.01942
G1 X81.687 Y98.096 E0.02897
G1 X81.267 Y97.641 E0.01942
G1 X80.871 Y97.165 E0.01942
G1 X80.329 Y96.415 E0.02901
G1 X79.849 Y95.624 E0.02901
G1 X79.564 Y95.075 E0.01942
G1 X79.308 Y94.511 E0.01942
G1 X78.983 Y93.646 E0.02897
G1 X78.804 Y93.053 E0.01942
G1 X78.658 Y92.453 E0.01937
G1 X78.543 Y91.846 E0.01937
G1 X78.461 Y91.233 E0.01937
G1 X78.412 Y90.618 E0.01937
G1 X78.395 Y89.999 E0.01942
G1 X78.432 Y89.076 E0.02897
G1 X78.498 Y88.460 E0.01942
G1 X78.596 Y87.850 E0.01937
G1 X78.727 Y87.246 E0.01937
G1 X78.889 Y86.650 E0.01937
G1 X79.083 Y86.064 E0.01937
G1 X79.293 Y85.526 E0.01808
G1 X79.702 Y84.651 E0.03030
G1 X80.002 Y84.109 E0.01942
G1 X80.330 Y83.584 E0.01942
G1 X80.871 Y82.835 E0.02897
G1 X81.267 Y82.359 E0.01942
G1 X81.635 Y81.959 E0.01706
M204 S1250
G1 X81.567 Y81.530 F9000.000
G1 E-2.24000 F4200.000
;WIPE_START
G1 F7200.000
G1 X82.128 Y81.474 E-0.38326
G1 X82.594 Y81.066 E-0.34315
G1 X82.860 Y80.862 E-0.18559
;WIPE_END
G1 E-0.04800 F4200.000
G1 Z0.400 F9000.000
G1 X77.594 Y78.063
G1 Z0.200
G1 E3.20000 F2400.000
M204 S800
;TYPE:Perimeter
G1 F1200.000
G1 X77.853 Y77.794 E0.01172
G1 X78.649 Y77.050 E0.03414
G1 X79.202 Y76.585 E0.02268
G1 X79.776 Y76.143 E0.02269
G1 X80.364 Y75.728 E0.02259
G1 X81.288 Y75.146 E0.03423
G1 X81.914 Y74.796 E0.02250
G1 X82.894 Y74.314 E0.03423
G1 X83.556 Y74.031 E0.02259
G1 X84.233 Y73.774 E0.02269
G1 X84.917 Y73.547 E0.02259
G1 X85.969 Y73.258 E0.03423
G1 X86.673 Y73.104 E0.02259
G1 X87.383 Y72.980 E0.02259
G1 X88.467 Y72.848 E0.03423
G1 X89.183 Y72.799 E0.02250
G1 X90.271 Y72.782 E0.03414
G1 X90.994 Y72.809 E0.02268
G1 X91.716 Y72.866 E0.02269
G1 X92.431 Y72.952 E0.02259
G1 X93.506 Y73.141 E0.03423
G1 X94.208 Y73.302 E0.02259
G1 X94.903 Y73.493 E0.02259
G1 X95.939 Y73.837 E0.03423
G1 X96.607 Y74.098 E0.02250
G1 X97.602 Y74.549 E0.03423
G1 X98.241 Y74.880 E0.02259
G1 X98.867 Y75.238 E0.02259
G1 X99.782 Y75.828 E0.03414
G1 X100.369 Y76.252 E0.02268
G1 X100.935 Y76.697 E0.02259
G1 X101.753 Y77.415 E0.03414
G1 X102.272 Y77.920 E0.02268
G1 X102.766 Y78.444 E0.02259
G1 X103.473 Y79.276 E0.03423
G1 X103.908 Y79.847 E0.02251
G1 X104.324 Y80.442 E0.02277
G1 X104.713 Y81.053 E0.02269
G1 X105.076 Y81.679 E0.02269
G1 X105.411 Y82.317 E0.02259
G1 X105.865 Y83.306 E0.03413
G1 X106.256 Y84.319 E0.03405
G1 X106.480 Y85.007 E0.02268
G1 X106.675 Y85.704 E0.02269
G1 X106.840 Y86.405 E0.02259
G1 X107.034 Y87.479 E0.03423
G1 X107.124 Y88.191 E0.02250
G1 X107.205 Y89.280 E0.03423
G1 X107.220 Y90.000 E0.02259
G1 X107.205 Y90.720 E0.02259
G1 X107.125 Y91.806 E0.03413
G1 X106.976 Y92.884 E0.03413
G1 X106.841 Y93.592 E0.02259
G1 X106.675 Y94.296 E0.02269
G1 X106.480 Y94.993 E0.02269
G1 X106.256 Y95.678 E0.02259
G1 X105.865 Y96.694 E0.03413
G1 X105.412 Y97.681 E0.03405
G1 X105.077 Y98.319 E0.02258
G1 X104.521 Y99.255 E0.03414
G1 X104.120 Y99.857 E0.02268
G1 X103.693 Y100.441 E0.02269
G1 X103.242 Y101.007 E0.02269
G1 X102.770 Y101.552 E0.02259
G1 X102.013 Y102.337 E0.03423
G1 X101.486 Y102.829 E0.02259
G1 X100.939 Y103.299 E0.02259
G1 X100.075 Y103.965 E0.03423
G1 X99.482 Y104.374 E0.02259
G1 X98.869 Y104.760 E0.02269
G1 X98.241 Y105.120 E0.02269
G1 X97.602 Y105.451 E0.02259
G1 X96.607 Y105.902 E0.03423
G1 X95.939 Y106.163 E0.02250
G1 X94.906 Y106.506 E0.03414
G1 X94.208 Y106.698 E0.02268
G1 X93.506 Y106.859 E0.02259
G1 X92.431 Y107.048 E0.03423
G1 X91.716 Y107.134 E0.02259
G1 X90.997 Y107.191 E0.02259
G1 X89.906 Y107.220 E0.03423
G1 X89.189 Y107.201 E0.02250
G1 X88.103 Y107.115 E0.03414
G1 X87.389 Y107.021 E0.02258
G1 X86.316 Y106.822 E0.03422
G1 X85.615 Y106.653 E0.02259
G1 X84.923 Y106.455 E0.02259
G1 X83.893 Y106.101 E0.03414
G1 X83.222 Y105.830 E0.02268
G1 X82.566 Y105.533 E0.02259
G1 X81.597 Y105.031 E0.03423
G1 X80.975 Y104.666 E0.02259
G1 X80.369 Y104.276 E0.02259
G1 X79.484 Y103.637 E0.03423
G1 X78.925 Y103.187 E0.02250
G1 X78.114 Y102.461 E0.03414
G1 X77.603 Y101.953 E0.02258
G1 X76.873 Y101.145 E0.03414
G1 X76.416 Y100.584 E0.02268
G1 X75.984 Y100.004 E0.02269
G1 X75.576 Y99.407 E0.02269
G1 X75.193 Y98.792 E0.02269
G1 X74.837 Y98.162 E0.02269
G1 X74.509 Y97.521 E0.02259
G1 X74.063 Y96.524 E0.03423
G1 X73.805 Y95.855 E0.02250
G1 X73.467 Y94.817 E0.03423
G1 X73.281 Y94.124 E0.02250
G1 X73.053 Y93.056 E0.03423
G1 X72.940 Y92.345 E0.02259
G1 X72.857 Y91.629 E0.02259
G1 X72.788 Y90.540 E0.03423
G1 X72.780 Y89.819 E0.02259
G1 X72.803 Y89.096 E0.02269
G1 X72.856 Y88.377 E0.02259
G1 X72.993 Y87.297 E0.03414
G1 X73.121 Y86.585 E0.02268
G1 X73.280 Y85.879 E0.02269
G1 X73.467 Y85.183 E0.02259
G1 X73.804 Y84.148 E0.03414
G1 X74.063 Y83.476 E0.02258
G1 X74.509 Y82.479 E0.03422
G1 X74.835 Y81.840 E0.02250
G1 X75.383 Y80.896 E0.03423
G1 X75.776 Y80.292 E0.02259
G1 X76.195 Y79.706 E0.02259
G1 X76.873 Y78.854 E0.03414
G1 X77.552 Y78.106 E0.03166
M204 S1250
G1 X77.280 Y77.844 F9000.000
M204 S800
;TYPE:External perimeter
G1 F1200.000
G1 X77.588 Y77.525 E0.01391
G1 X78.399 Y76.768 E0.03476
G1 X78.966 Y76.291 E0.02324
G1 X79.552 Y75.840 E0.02319
G1 X80.155 Y75.414 E0.02315
G1 X81.095 Y74.822 E0.03485
M73 P2 R30
G1 X81.739 Y74.462 E0.02312
G1 X82.736 Y73.972 E0.03485
G1 X83.415 Y73.681 E0.02315
G1 X84.107 Y73.419 E0.02319
G1 X84.807 Y73.186 E0.02315
G1 X85.879 Y72.892 E0.03485
G1 X86.600 Y72.734 E0.02315
G1 X87.328 Y72.607 E0.02315
G1 X88.431 Y72.473 E0.03485
G1 X89.167 Y72.422 E0.02312
G1 X90.275 Y72.405 E0.03476
G1 X91.016 Y72.432 E0.02324
G1 X91.753 Y72.490 E0.02319
G1 X92.486 Y72.579 E0.02315
G1 X93.581 Y72.771 E0.03485
G1 X94.301 Y72.936 E0.02315
G1 X95.013 Y73.132 E0.02315
G1 X96.067 Y73.482 E0.03485
G1 X96.754 Y73.751 E0.02312
G1 X97.766 Y74.209 E0.03485
G1 X98.422 Y74.549 E0.02315
G1 X99.063 Y74.916 E0.02315
G1 X99.995 Y75.517 E0.03476
G1 X100.596 Y75.950 E0.02324
G1 X101.176 Y76.407 E0.02315
G1 X102.009 Y77.138 E0.03476
G1 X102.540 Y77.655 E0.02324
G1 X103.047 Y78.192 E0.02315
G1 X103.767 Y79.039 E0.03485
G1 X104.213 Y79.625 E0.02307
G1 X104.638 Y80.233 E0.02327
G1 X105.035 Y80.857 E0.02319
G1 X105.406 Y81.497 E0.02319
G1 X105.749 Y82.150 E0.02315
G1 X106.213 Y83.159 E0.03481
G1 X106.611 Y84.193 E0.03473
G1 X106.841 Y84.897 E0.02324
G1 X107.040 Y85.609 E0.02319
G1 X107.209 Y86.328 E0.02315
G1 X107.407 Y87.422 E0.03485
G1 X107.500 Y88.153 E0.02312
G1 X107.581 Y89.262 E0.03485
G1 X107.597 Y90.000 E0.02315
G1 X107.581 Y90.738 E0.02315
G1 X107.500 Y91.846 E0.03481
G1 X107.349 Y92.945 E0.03481
G1 X107.210 Y93.671 E0.02315
G1 X107.040 Y94.391 E0.02319
G1 X106.841 Y95.103 E0.02319
G1 X106.612 Y95.805 E0.02315
G1 X106.213 Y96.841 E0.03481
G1 X105.750 Y97.847 E0.03473
G1 X105.406 Y98.503 E0.02320
G1 X104.840 Y99.456 E0.03476
G1 X104.429 Y100.072 E0.02324
G1 X103.993 Y100.670 E0.02319
G1 X103.533 Y101.248 E0.02319
G1 X103.049 Y101.806 E0.02315
G1 X102.277 Y102.606 E0.03485
G1 X101.738 Y103.110 E0.02315
G1 X101.177 Y103.591 E0.02315
G1 X100.297 Y104.270 E0.03485
G1 X99.689 Y104.689 E0.02315
