; generated by PrusaSlicer 2.2.0+win64 on 2020-10-12 at 13:54:19 UTC


;
;

;
;
; 

; external perimeters extrusion width = 0.45mm
; perimeters extrusion width = 0.45mm
; infill extrusion width = 0.45mm
; solid infill extrusion width = 0.45mm
; top infill extrusion width = 0.40mm
; first layer extrusion width = 0.42mm

M73 P0 R61
M201 X1250 Y1250 Z400 E5000 ; sets maximum accelerations, mm/sec^2
M203 X180 Y180 Z12 E80 ; sets maximum feedrates, mm/sec
M204 P1250 R1250 T1250 ; sets acceleration (P, T) and retract acceleration (R), mm/sec^2
M205 X8.00 Y8.00 Z2.00 E10.00 ; sets the jerk limits, mm/sec
M205 S0 T0 ; sets the minimum extruding and travel feed rate, mm/sec
M107
G90 ; use absolute coordinates
M83 ; extruder relative mode
M104 S170 ; set extruder temp for bed leveling
M140 S60 ; set bed temp
M109 R170 ; wait for bed leveling temp
M190 S60 ; wait for bed temp
G28 ; home all without mesh bed level
G29 ; mesh bed leveling 
M104 S215 ; set extruder temp
G92 E0.0
G1 Y-2.0 X179 F2400
G1 Z3 F720
M109 S215 ; wait for extruder temp

; intro line
G1 X170 F1000
G1 Z0.2 F720
G1 X110.0 E8.0 F900
M73 P0 R61
G1 X40.0 E10.0 F700
G92 E0.0

M221 S95 ; set flow
G21 ; set units to millimeters
G90 ; use absolute coordinates
M83 ; use relative distances for extrusion
M900 K0.2 ; Filament gcode LA 1.5
; ; Filament gcode LA 1.0
;BEFORE_LAYER_CHANGE
G92 E0.0
;0.2


G1 Z0.200 F9000.000
;AFTER_LAYER_CHANGE
;0.2
G1 E-3.20000 F4200.00000
G1 Z0.400 F9000.000
G1 X6.901 Y34.847
G1 Z0.200
G1 E3.20000 F2400.00000
M204 S800
G1 F1200.000
G1 X16.064 Y34.802 E0.28730
G1 X16.640 Y34.874 E0.01823
G1 X17.184 Y35.085 E0.01828
G1 X159.054 Y111.233 E5.04849
G1 X160.468 Y112.126 E0.05244
G1 X161.769 Y113.129 E0.05152
G1 X162.957 Y114.230 E0.05078
G1 X164.044 Y115.436 E0.05091
G1 X165.020 Y116.740 E0.05106
G1 X174.824 Y133.227 E0.60145
G1 X174.971 Y133.699 E0.01550
G1 X175.017 Y134.195 E0.01562
G1 X174.711 Y142.025 E0.24569
G1 X174.539 Y142.903 E0.02803
G1 X174.095 Y143.774 E0.03067
G1 X173.577 Y144.351 E0.02431
G1 X172.867 Y144.834 E0.02691
G1 X172.086 Y145.115 E0.02604
G1 X171.244 Y145.197 E0.02653
G1 X61.157 Y140.903 E3.45433
G1 X59.519 Y140.715 E0.05169
G1 X57.878 Y140.270 E0.05330
G1 X56.124 Y139.467 E0.06049
G1 X9.384 Y112.702 E1.68878
G1 X8.399 Y111.935 E0.03913
G1 X7.680 Y111.236 E0.03144
G1 X7.034 Y110.471 E0.03140
G1 X6.344 Y109.445 E0.03878
G1 X5.871 Y108.540 E0.03201
G1 X5.418 Y107.379 E0.03908
G1 X5.157 Y106.402 E0.03169
G1 X4.987 Y105.320 E0.03435
G1 X4.991 Y36.978 E2.14282
G1 X5.177 Y36.238 E0.02390
G1 X5.590 Y35.593 E0.02402
G1 X6.186 Y35.112 E0.02402
G1 X6.844 Y34.868 E0.02202
M204 S1250
G1 E-2.24000 F4200.00000
G1 F7200.000
G1 X8.490 Y34.856 E-0.91200
G1 E-0.04800 F4200.00000
G1 Z0.400 F9000.000
G1 X144.786 Y124.471
G1 Z0.200
G1 E3.20000 F2400.00000
M204 S800
G1 F1200.000
G1 X145.132 Y123.899 E0.02098
G1 X145.514 Y123.364 E0.02061
G1 X145.935 Y122.859 E0.02061
G1 X146.252 Y122.545 E0.01400
G1 X146.765 Y122.126 E0.02074
G1 X147.321 Y121.768 E0.02074
G1 X147.716 Y121.564 E0.01394
G1 X148.126 Y121.392 E0.01394
G1 X148.757 Y121.193 E0.02074
G1 X149.406 Y121.068 E0.02074
G1 X149.849 Y121.026 E0.01394
G1 X150.293 Y121.017 E0.01394
G1 X150.953 Y121.068 E0.02074
G1 X151.602 Y121.193 E0.02074
G1 X152.031 Y121.319 E0.01400
G1 X152.642 Y121.564 E0.02066
G1 X153.621 Y122.060 E0.03440
G1 X153.997 Y122.322 E0.01438
G1 X154.497 Y122.791 E0.02149
G1 X154.929 Y123.308 E0.02112
G1 X155.298 Y123.871 E0.02109
G1 X155.510 Y124.272 E0.01424
G1 X155.766 Y124.894 E0.02110
G1 X155.949 Y125.542 E0.02110
G1 X156.031 Y125.988 E0.01423
G1 X156.088 Y126.659 E0.02110
G1 X156.069 Y127.331 E0.02110
G1 X156.013 Y127.782 E0.01424
G1 X155.867 Y128.439 E0.02110
G1 X155.648 Y129.072 E0.02101
G1 X155.458 Y129.487 E0.01432
G1 X155.122 Y130.070 E0.02110
G1 X154.723 Y130.608 E0.02101
G1 X154.417 Y130.948 E0.01432
G1 X153.923 Y131.402 E0.02103
G1 X153.561 Y131.675 E0.01424
G1 X152.992 Y132.026 E0.02095
G1 X152.582 Y132.228 E0.01432
G1 X151.955 Y132.465 E0.02103
G1 X151.519 Y132.584 E0.01417
G1 X151.075 Y132.670 E0.01417
G1 X150.407 Y132.733 E0.02103
G1 X149.953 Y132.733 E0.01424
G1 X149.286 Y132.670 E0.02103
G1 X148.840 Y132.584 E0.01424
G1 X148.194 Y132.394 E0.02110
G1 X147.573 Y132.131 E0.02116
G1 X146.987 Y131.801 E0.02110
G1 X146.614 Y131.541 E0.01424
G1 X146.102 Y131.105 E0.02110
G1 X145.642 Y130.614 E0.02110
G1 X145.366 Y130.256 E0.01417
G1 X145.118 Y129.878 E0.01417
G1 X144.804 Y129.283 E0.02110
G1 X144.561 Y128.658 E0.02101
G1 X144.437 Y128.221 E0.01426
G1 X144.347 Y127.778 E0.01417
G1 X144.277 Y127.109 E0.02110
G1 X144.283 Y126.439 E0.02101
G1 X144.331 Y125.984 E0.01432
G1 X144.465 Y125.326 E0.02107
G1 X144.602 Y124.891 E0.01430
G1 X144.762 Y124.526 E0.01249
M204 S1250
G1 X144.572 Y124.133 F9000.000
G1 X144.069 Y125.378
M204 S800
G1 F1200.000
G1 X143.957 Y125.927 E0.01756
G1 X143.906 Y126.417 E0.01546
G1 X143.899 Y127.127 E0.02225
G1 X143.974 Y127.835 E0.02233
G1 X144.070 Y128.310 E0.01519
G1 X144.203 Y128.778 E0.01527
G1 X144.461 Y129.440 E0.02225
G1 X144.793 Y130.070 E0.02233
G1 X145.059 Y130.475 E0.01519
G1 X145.354 Y130.858 E0.01519
G1 X145.841 Y131.378 E0.02234
G1 X146.384 Y131.840 E0.02234
G1 X146.786 Y132.120 E0.01536
G1 X147.406 Y132.470 E0.02234
G1 X148.067 Y132.750 E0.02251
G1 X148.751 Y132.951 E0.02234
G1 X149.232 Y133.043 E0.01536
G1 X149.935 Y133.110 E0.02216
G1 X150.425 Y133.110 E0.01536
G1 X151.129 Y133.043 E0.02216
G1 X151.604 Y132.952 E0.01519
G1 X152.072 Y132.824 E0.01519
G1 X152.733 Y132.574 E0.02216
G1 X153.175 Y132.356 E0.01545
G1 X153.774 Y131.987 E0.02207
G1 X154.165 Y131.692 E0.01536
G1 X154.686 Y131.214 E0.02216
G1 X155.015 Y130.847 E0.01545
G1 X155.438 Y130.277 E0.02225
G1 X155.794 Y129.660 E0.02234
G1 X155.998 Y129.212 E0.01545
G1 X156.230 Y128.541 E0.02225
G1 X156.385 Y127.846 E0.02233
G1 X156.446 Y127.360 E0.01536
G1 X156.466 Y126.648 E0.02233
G1 X156.405 Y125.938 E0.02233
G1 X156.317 Y125.456 E0.01536
G1 X156.123 Y124.771 E0.02234
G1 X155.852 Y124.112 E0.02233
G1 X155.623 Y123.679 E0.01536
G1 X155.232 Y123.083 E0.02234
G1 X154.775 Y122.535 E0.02239
G1 X154.228 Y122.024 E0.02346
G1 X153.860 Y121.768 E0.01407
G1 X154.282 Y121.194 E0.02231
G1 X154.561 Y120.766 E0.01602
G1 X158.207 Y114.424 E0.22938
G1 X158.938 Y114.923 E0.02775
G1 X159.468 Y115.332 E0.02097
G1 X159.979 Y115.764 E0.02097
G1 X160.469 Y116.218 E0.02097
G1 X160.939 Y116.695 E0.02097
G1 X161.386 Y117.192 E0.02097
G1 X161.809 Y117.706 E0.02087
G1 X162.405 Y118.522 E0.03167
G1 X162.766 Y119.081 E0.02087
G1 X163.104 Y119.658 E0.02097
G1 X163.415 Y120.250 E0.02098
G1 X163.699 Y120.856 E0.02097
G1 X163.955 Y121.474 E0.02097
G1 X164.184 Y122.103 E0.02097
G1 X164.383 Y122.741 E0.02097
G1 X164.553 Y123.388 E0.02097
G1 X164.694 Y124.039 E0.02087
G1 X164.850 Y125.037 E0.03167
G1 X164.916 Y125.699 E0.02087
G1 X164.952 Y126.367 E0.02097
G1 X164.958 Y127.036 E0.02097
G1 X164.933 Y127.704 E0.02097
G1 X164.878 Y128.371 E0.02097
G1 X164.793 Y129.035 E0.02097
G1 X164.679 Y129.694 E0.02097
G1 X164.534 Y130.347 E0.02097
G1 X164.360 Y130.993 E0.02098
G1 X164.157 Y131.630 E0.02097
G1 X163.925 Y132.258 E0.02097
G1 X163.666 Y132.873 E0.02094
G1 X162.850 Y134.572 E0.05909
G1 X171.823 Y134.922 E0.28155
G1 X171.555 Y141.787 E0.21542
G1 X171.516 Y141.932 E0.00470
G1 X171.438 Y142.005 E0.00337
G1 X171.290 Y142.032 E0.00470
G1 X61.294 Y137.741 E3.45148
G1 X60.814 Y137.708 E0.01508
G1 X60.104 Y137.605 E0.02248
G1 X59.411 Y137.440 E0.02234
G1 X58.736 Y137.213 E0.02234
G1 X58.080 Y136.924 E0.02248
G1 X57.655 Y136.698 E0.01508
G1 X11.556 Y110.337 E1.66505
G1 X11.176 Y110.094 E0.01414
G1 X10.821 Y109.835 E0.01378
G1 X10.307 Y109.392 E0.02126
G1 X9.839 Y108.906 E0.02116
G1 X9.559 Y108.564 E0.01387
G1 X9.298 Y108.201 E0.01402
G1 X9.060 Y107.822 E0.01402
G1 X8.849 Y107.433 E0.01387
G1 X8.573 Y106.812 E0.02131
G1 X8.426 Y106.395 E0.01387
G1 X8.303 Y105.965 E0.01402
G1 X8.209 Y105.528 E0.01402
G1 X8.147 Y105.122 E0.01289
G1 X8.147 Y37.966 E2.10560
G1 X15.273 Y37.966 E0.22343
G1 X15.273 Y48.596 E0.33330
G1 X22.273 Y48.596 E0.21948
G1 X22.273 Y54.399 E0.18193
G1 X15.273 Y54.399 E0.21948
G1 X15.277 Y101.047 E1.46261
G1 X15.344 Y101.731 E0.02156
G1 X15.491 Y102.409 E0.02174
G1 X15.716 Y103.064 E0.02174
G1 X16.016 Y103.689 E0.02174
G1 X16.387 Y104.275 E0.02174
G1 X16.820 Y104.809 E0.02156
G1 X17.149 Y105.142 E0.01467
G1 X17.503 Y105.448 E0.01467
G1 X18.059 Y105.843 E0.02138
G1 X60.122 Y129.900 E1.51933
G1 X60.694 Y130.187 E0.02006
G1 X61.312 Y130.414 E0.02063
G1 X61.951 Y130.572 E0.02063
G1 X62.597 Y130.657 E0.02046
G1 X134.653 Y133.472 E2.26098
G1 X135.310 Y133.460 E0.02059
G1 X135.974 Y133.372 E0.02100
G1 X136.418 Y133.270 E0.01430
G1 X136.848 Y133.136 E0.01412
G1 X137.267 Y132.969 E0.01412
G1 X137.671 Y132.772 E0.01412
G1 X138.060 Y132.544 E0.01412
G1 X138.430 Y132.288 E0.01412
G1 X138.780 Y132.004 E0.01412
G1 X139.111 Y131.690 E0.01430
G1 X139.540 Y131.200 E0.02042
M73 P1 R60
G1 X144.032 Y125.425 E0.22941
M204 S1250
G1 E-2.24000 F4200.00000
G1 F7200.000
G1 X143.957 Y125.927 E-0.28099
G1 X143.906 Y126.417 E-0.27318
G1 X143.900 Y127.063 E-0.35784
G1 E-0.04800 F4200.00000
G1 Z0.400 F9000.000
G1 X15.650 Y48.219
G1 Z0.200
G1 E3.20000 F2400.00000
M204 S800
G1 F1200.000
G1 X22.650 Y48.219 E0.21948
G1 X22.650 Y54.776 E0.20558
G1 X15.650 Y54.776 E0.21948
G1 X15.654 Y101.028 E1.45021
G1 X15.717 Y101.673 E0.02029
G1 X15.855 Y102.307 E0.02035
G1 X16.066 Y102.921 E0.02036
G1 X16.347 Y103.506 E0.02035
G1 X16.694 Y104.054 E0.02036
G1 X17.102 Y104.557 E0.02029
G1 X17.407 Y104.867 E0.01364
G1 X17.736 Y105.151 E0.01364
G1 X18.262 Y105.525 E0.02023
G1 X60.300 Y129.568 E1.51842
G1 X60.844 Y129.840 E0.01908
G1 X61.423 Y130.053 E0.01932
G1 X62.021 Y130.201 E0.01932
G1 X62.630 Y130.281 E0.01926
G1 X134.657 Y133.095 E2.26010
G1 X135.282 Y133.084 E0.01958
G1 X135.907 Y133.001 E0.01977
G1 X136.320 Y132.906 E0.01329
G1 X136.722 Y132.780 E0.01322
G1 X137.114 Y132.624 E0.01322
G1 X137.493 Y132.439 E0.01322
G1 X137.857 Y132.226 E0.01322
G1 X138.204 Y131.986 E0.01322
G1 X138.531 Y131.720 E0.01322
G1 X138.839 Y131.429 E0.01329
G1 X139.249 Y130.960 E0.01952
G1 X143.996 Y124.858 E0.24240
G1 X144.288 Y124.466 E0.01532
G1 X145.110 Y123.274 E0.04541
G1 X145.396 Y122.903 E0.01469
G1 X145.675 Y122.585 E0.01328
G1 X145.976 Y122.286 E0.01329
G1 X146.296 Y122.010 E0.01324
G1 X146.814 Y121.635 E0.02006
G1 X147.176 Y121.418 E0.01324
G1 X147.553 Y121.224 E0.01329
G1 X147.943 Y121.058 E0.01329
G1 X148.344 Y120.918 E0.01330
G1 X148.753 Y120.806 E0.01330
G1 X149.169 Y120.723 E0.01330
G1 X149.589 Y120.667 E0.01329
G1 X150.012 Y120.642 E0.01329
G1 X150.436 Y120.645 E0.01330
G1 X150.859 Y120.677 E0.01330
G1 X151.279 Y120.738 E0.01330
G1 X151.693 Y120.827 E0.01329
G1 X152.100 Y120.945 E0.01329
G1 X152.499 Y121.090 E0.01330
G1 X152.886 Y121.262 E0.01329
G1 X153.516 Y121.598 E0.02240
G1 X153.972 Y120.979 E0.02409
G1 X154.239 Y120.569 E0.01536
G1 X158.076 Y113.896 E0.24134
G1 X158.601 Y114.226 E0.01943
G1 X159.162 Y114.619 E0.02149
G1 X159.705 Y115.038 E0.02151
G1 X160.229 Y115.481 E0.02151
G1 X160.732 Y115.948 E0.02151
G1 X161.213 Y116.436 E0.02151
G1 X161.672 Y116.946 E0.02151
G1 X162.107 Y117.475 E0.02147
G1 X162.715 Y118.308 E0.03234
G1 X163.087 Y118.883 E0.02147
G1 X163.434 Y119.475 E0.02151
G1 X163.753 Y120.083 E0.02151
G1 X164.044 Y120.704 E0.02151
G1 X164.307 Y121.337 E0.02151
G1 X164.541 Y121.982 E0.02151
G1 X164.746 Y122.637 E0.02151
G1 X164.920 Y123.300 E0.02151
G1 X165.065 Y123.970 E0.02147
G1 X165.224 Y124.989 E0.03234
G1 X165.292 Y125.670 E0.02147
G1 X165.329 Y126.355 E0.02151
G1 X165.335 Y127.041 E0.02151
G1 X165.310 Y127.727 E0.02151
G1 X165.254 Y128.410 E0.02151
G1 X165.166 Y129.091 E0.02151
G1 X165.049 Y129.767 E0.02151
G1 X164.900 Y130.437 E0.02151
G1 X164.722 Y131.099 E0.02151
G1 X164.514 Y131.753 E0.02151
G1 X164.276 Y132.396 E0.02151
G1 X164.010 Y133.028 E0.02150
G1 X163.439 Y134.218 E0.04137
G1 X172.215 Y134.560 E0.27537
G1 X171.931 Y141.826 E0.22801
G1 X171.902 Y141.996 E0.00538
G1 X171.838 Y142.135 E0.00481
G1 X171.740 Y142.253 E0.00481
G1 X171.615 Y142.342 E0.00481
G1 X171.471 Y142.395 E0.00481
G1 X171.300 Y142.410 E0.00538
G1 X61.274 Y138.118 E3.45242
G1 X60.774 Y138.084 E0.01570
G1 X60.034 Y137.976 E0.02346
G1 X59.307 Y137.803 E0.02341
G1 X58.600 Y137.565 E0.02341
G1 X57.915 Y137.264 E0.02346
G1 X57.473 Y137.028 E0.01571
G1 X11.360 Y110.660 E1.66552
G1 X10.963 Y110.406 E0.01480
G1 X10.586 Y110.130 E0.01462
G1 X10.048 Y109.667 E0.02229
G1 X9.557 Y109.156 E0.02219
G1 X9.260 Y108.793 E0.01471
G1 X8.985 Y108.411 E0.01476
G1 X8.735 Y108.012 E0.01476
G1 X8.511 Y107.600 E0.01471
G1 X8.222 Y106.952 E0.02224
G1 X8.066 Y106.509 E0.01471
G1 X7.937 Y106.056 E0.01476
G1 X7.838 Y105.596 E0.01476
G1 X7.770 Y105.150 E0.01415
G1 X7.770 Y37.589 E2.11832
G1 X15.650 Y37.589 E0.24707
G1 X15.650 Y48.159 E0.33141
M204 S1250
G1 X15.734 Y48.610 F9000.000
G1 E-2.24000 F4200.00000
G1 F7200.000
G1 X17.295 Y48.173 E-0.91200
G1 E-0.04800 F4200.00000
G1 Z0.400 F9000.000
G1 X22.160 Y49.310
G1 Z0.200
G1 E3.20000 F2400.00000
M204 S800
G1 F1200.000
G1 X21.729 Y48.879 E0.01912
G1 X21.195 Y48.879 E0.01676
G1 X21.990 Y49.674 E0.03528
G1 X21.990 Y50.208 E0.01676
G1 X20.661 Y48.879 E0.05898
G1 X20.127 Y48.879 E0.01676
G1 X21.990 Y50.742 E0.08268
G1 X21.990 Y51.276 E0.01676
G1 X19.594 Y48.879 E0.10637
G1 X19.060 Y48.879 E0.01676
G1 X21.990 Y51.809 E0.13007
G1 X21.990 Y52.343 E0.01676
G1 X18.526 Y48.879 E0.15377
G1 X17.992 Y48.879 E0.01676
G1 X21.990 Y52.877 E0.17746
G1 X21.990 Y53.411 E0.01676
G1 X17.458 Y48.879 E0.20116
G1 X16.924 Y48.879 E0.01676
G1 X21.990 Y53.945 E0.22486
G1 X21.990 Y54.116 E0.00538
G1 X21.627 Y54.116 E0.01138
G1 X16.391 Y48.879 E0.23246
G1 X15.857 Y48.879 E0.01676
G1 X21.094 Y54.116 E0.23246
G1 X20.560 Y54.116 E0.01676
G1 X8.430 Y41.986 E0.53844
G1 X8.430 Y42.520 E0.01676
G1 X20.026 Y54.116 E0.51474
G1 X19.492 Y54.116 E0.01676
G1 X8.430 Y43.054 E0.49105
G1 X8.430 Y43.588 E0.01676
G1 X18.958 Y54.116 E0.46735
G1 X18.424 Y54.116 E0.01676
G1 X8.430 Y44.121 E0.44365
G1 X8.430 Y44.655 E0.01676
G1 X17.890 Y54.116 E0.41996
G1 X17.357 Y54.116 E0.01676
G1 X8.430 Y45.189 E0.39626
G1 X8.430 Y45.723 E0.01676
G1 X16.823 Y54.116 E0.37256
G1 X16.289 Y54.116 E0.01676
G1 X8.430 Y46.257 E0.34887
G1 X8.430 Y46.791 E0.01676
G1 X15.755 Y54.116 E0.32517
G1 X15.221 Y54.116 E0.01676
G1 X8.430 Y47.324 E0.30147
G1 X8.430 Y47.858 E0.01676
G1 X14.990 Y54.419 E0.29120
G1 X14.990 Y54.952 E0.01676
G1 X8.430 Y48.392 E0.29120
G1 X8.430 Y48.926 E0.01676
G1 X14.990 Y55.486 E0.29121
G1 X14.990 Y56.020 E0.01676
G1 X8.430 Y49.460 E0.29121
G1 X8.430 Y49.994 E0.01676
G1 X14.990 Y56.554 E0.29121
G1 X14.990 Y57.088 E0.01676
G1 X8.430 Y50.528 E0.29121
G1 X8.430 Y51.061 E0.01676
G1 X14.990 Y57.622 E0.29121
G1 X14.990 Y58.156 E0.01676
G1 X8.430 Y51.595 E0.29122
G1 X8.430 Y52.129 E0.01676
G1 X14.990 Y58.690 E0.29122
G1 X14.990 Y59.224 E0.01676
G1 X8.430 Y52.663 E0.29122
G1 X8.430 Y53.197 E0.01676
G1 X14.990 Y59.757 E0.29122
G1 X14.990 Y60.291 E0.01676
G1 X8.430 Y53.731 E0.29122
G1 X8.430 Y54.264 E0.01676
G1 X14.990 Y60.825 E0.29123
G1 X14.990 Y61.359 E0.01676
G1 X8.430 Y54.798 E0.29123
G1 X8.430 Y55.332 E0.01676
G1 X14.991 Y61.893 E0.29123
G1 X14.991 Y62.427 E0.01676
G1 X8.430 Y55.866 E0.29123
G1 X8.430 Y56.400 E0.01676
G1 X14.991 Y62.961 E0.29123
G1 X14.991 Y63.495 E0.01676
G1 X8.430 Y56.934 E0.29124
G1 X8.430 Y57.467 E0.01676
G1 X14.991 Y64.029 E0.29124
G1 X14.991 Y64.562 E0.01676
G1 X8.430 Y58.001 E0.29124
G1 X8.430 Y58.535 E0.01676
G1 X14.991 Y65.096 E0.29124
G1 X14.991 Y65.630 E0.01676
G1 X8.430 Y59.069 E0.29124
G1 X8.430 Y59.603 E0.01676
G1 X14.991 Y66.164 E0.29125
G1 X14.991 Y66.698 E0.01676
G1 X8.430 Y60.137 E0.29125
G1 X8.430 Y60.671 E0.01676
G1 X14.991 Y67.232 E0.29125
G1 X14.991 Y67.766 E0.01676
G1 X8.430 Y61.204 E0.29125
G1 X8.430 Y61.738 E0.01676
G1 X14.991 Y68.300 E0.29126
G1 X14.991 Y68.834 E0.01676
G1 X8.430 Y62.272 E0.29126
G1 X8.430 Y62.806 E0.01676
G1 X14.991 Y69.367 E0.29126
G1 X14.991 Y69.901 E0.01676
G1 X8.430 Y63.340 E0.29126
G1 X8.430 Y63.874 E0.01676
G1 X14.991 Y70.435 E0.29126
G1 X14.991 Y70.969 E0.01676
G1 X8.430 Y64.407 E0.29127
G1 X8.430 Y64.941 E0.01676
