; generated by PrusaSlicer 2.2.0+win64 on 2020-10-12 at 11:53:38 UTC


;
;

;
;
; 

; external perimeters extrusion width = 0.45mm
; perimeters extrusion width = 0.45mm
; infill extrusion width = 0.45mm
; solid infill extrusion width = 0.45mm
; top infill extrusion width = 0.40mm
; first layer extrusion width = 0.42mm

M73 P0 R62
M201 X1250 Y1250 Z400 E5000 ; sets maximum accelerations, mm/sec^2
M203 X180 Y180 Z12 E80 ; sets maximum feedrates, mm/sec
M204 P1250 R1250 T1250 ; sets acceleration (P, T) and retract acceleration (R), mm/sec^2
M205 X8.00 Y8.00 Z2.00 E10.00 ; sets the jerk limits, mm/sec
M205 S0 T0 ; sets the minimum extruding and travel feed rate, mm/sec
M107
G90 ; use absolute coordinates
M83 ; extruder relative mode
M104 S170 ; set extruder temp for bed leveling
M140 S60 ; set bed temp
M109 R170 ; wait for bed leveling temp
M190 S60 ; wait for bed temp
G28 ; home all without mesh bed level
G29 ; mesh bed leveling 
M104 S215 ; set extruder temp
G92 E0.0
G1 Y-2.0 X179 F2400
G1 Z3 F720
M109 S215 ; wait for extruder temp

; intro line
G1 X170 F1000
G1 Z0.2 F720
G1 X110.0 E8.0 F900
M73 P0 R62
G1 X40.0 E10.0 F700
G92 E0.0

M221 S95 ; set flow
G21 ; set units to millimeters
G90 ; use absolute coordinates
M83 ; use relative distances for extrusion
M900 K0.2 ; Filament gcode LA 1.5
; ; Filament gcode LA 1.0
;BEFORE_LAYER_CHANGE
G92 E0.0
;0.2


G1 Z0.200 F9000.000
;AFTER_LAYER_CHANGE
;0.2
G1 E-3.20000 F4200.00000
G1 Z0.400 F9000.000
G1 X173.532 Y34.976
G1 Z0.200
G1 E3.20000 F2400.00000
M204 S800
G1 F1200.000
G1 X174.294 Y35.471 E0.02849
G1 X174.812 Y36.213 E0.02837
G1 X175.016 Y37.098 E0.02849
G1 X175.016 Y105.248 E2.13678
G1 X174.842 Y106.409 E0.03682
G1 X174.497 Y107.633 E0.03987
G1 X174.108 Y108.587 E0.03231
G1 X173.519 Y109.671 E0.03865
G1 X172.929 Y110.519 E0.03240
G1 X172.105 Y111.460 E0.03922
G1 X171.366 Y112.136 E0.03142
G1 X170.361 Y112.872 E0.03904
G1 X123.883 Y139.463 E1.67893
G1 X122.128 Y140.268 E0.06053
G1 X120.484 Y140.715 E0.05344
G1 X118.843 Y140.903 E0.05178
G1 X8.760 Y145.197 E3.45419
G1 X7.903 Y145.113 E0.02700
G1 X7.088 Y144.811 E0.02725
G1 X6.378 Y144.311 E0.02723
G1 X5.824 Y143.655 E0.02693
G1 X5.444 Y142.855 E0.02776
G1 X5.288 Y142.012 E0.02691
G1 X4.983 Y134.194 E0.24529
G1 X5.031 Y133.687 E0.01597
G1 X5.186 Y133.206 E0.01585
G1 X14.988 Y116.728 E0.60115
G1 X15.970 Y115.419 E0.05131
G1 X17.311 Y113.963 E0.06207
G1 X18.539 Y112.874 E0.05147
G1 X19.874 Y111.893 E0.05193
G1 X20.946 Y111.233 E0.03947
G1 X162.870 Y35.057 E5.05040
G1 X163.358 Y34.875 E0.01633
G1 X163.878 Y34.803 E0.01645
G1 X172.644 Y34.802 E0.27486
G1 X173.473 Y34.964 E0.02649
M204 S1250
G1 E-2.24000 F4200.00000
G1 F7200.000
G1 X174.294 Y35.471 E-0.53446
G1 X174.684 Y36.030 E-0.37754
G1 E-0.04800 F4200.00000
G1 Z0.400 F9000.000
G1 X35.213 Y124.469
G1 Z0.200
G1 E3.20000 F2400.00000
M204 S800
G1 F1200.000
G1 X35.399 Y124.893 E0.01452
G1 X35.588 Y125.541 E0.02116
G1 X35.670 Y125.988 E0.01426
G1 X35.728 Y126.658 E0.02108
G1 X35.708 Y127.331 E0.02111
G1 X35.652 Y127.782 E0.01424
G1 X35.507 Y128.434 E0.02095
G1 X35.366 Y128.868 E0.01432
G1 X35.101 Y129.481 E0.02095
G1 X34.880 Y129.881 E0.01432
G1 X34.503 Y130.433 E0.02095
G1 X34.212 Y130.782 E0.01426
G1 X33.897 Y131.106 E0.01417
G1 X33.384 Y131.542 E0.02109
G1 X32.823 Y131.918 E0.02116
G1 X32.228 Y132.225 E0.02101
G1 X31.804 Y132.395 E0.01432
G1 X31.160 Y132.584 E0.02103
G1 X30.714 Y132.670 E0.01424
G1 X30.047 Y132.733 E0.02103
G1 X29.593 Y132.733 E0.01424
G1 X28.923 Y132.669 E0.02110
G1 X28.263 Y132.529 E0.02116
G1 X27.627 Y132.316 E0.02101
G1 X27.210 Y132.130 E0.01432
G1 X26.626 Y131.801 E0.02103
G1 X26.254 Y131.541 E0.01424
G1 X25.741 Y131.105 E0.02110
G1 X25.281 Y130.614 E0.02110
G1 X25.005 Y130.256 E0.01417
G1 X24.757 Y129.878 E0.01417
G1 X24.443 Y129.283 E0.02110
G1 X24.200 Y128.658 E0.02101
G1 X24.076 Y128.219 E0.01432
G1 X23.955 Y127.559 E0.02103
G1 X23.916 Y127.109 E0.01417
G1 X23.912 Y126.657 E0.01417
G1 X23.969 Y125.986 E0.02110
G1 X24.103 Y125.325 E0.02116
G1 X24.312 Y124.683 E0.02116
G1 X24.591 Y124.071 E0.02110
G1 X24.818 Y123.678 E0.01423
G1 X25.208 Y123.131 E0.02104
G1 X25.506 Y122.788 E0.01426
G1 X25.999 Y122.325 E0.02122
G1 X26.380 Y122.060 E0.01455
G1 X27.557 Y121.475 E0.04121
G1 X28.178 Y121.253 E0.02067
G1 X28.613 Y121.143 E0.01408
G1 X29.263 Y121.043 E0.02060
G1 X29.711 Y121.017 E0.01408
G1 X30.370 Y121.042 E0.02068
G1 X30.811 Y121.101 E0.01394
G1 X31.245 Y121.194 E0.01394
G1 X31.874 Y121.392 E0.02068
G1 X32.286 Y121.565 E0.01400
G1 X32.868 Y121.880 E0.02074
G1 X33.410 Y122.258 E0.02074
G1 X33.751 Y122.547 E0.01400
G1 X34.210 Y123.020 E0.02068
G1 X34.487 Y123.365 E0.01387
G1 X34.868 Y123.899 E0.02055
G1 X35.182 Y124.417 E0.01901
M204 S1250
G1 X35.612 Y124.491 F9000.000
G1 X35.935 Y125.383
M204 S800
G1 F1200.000
G1 X40.460 Y131.200 E0.23108
G1 X40.889 Y131.690 E0.02042
G1 X41.220 Y132.004 E0.01429
G1 X41.570 Y132.288 E0.01412
G1 X41.940 Y132.544 E0.01412
G1 X42.329 Y132.772 E0.01412
G1 X42.733 Y132.969 E0.01412
G1 X43.152 Y133.136 E0.01412
G1 X43.582 Y133.270 E0.01412
G1 X44.026 Y133.372 E0.01430
G1 X44.690 Y133.460 E0.02100
G1 X45.347 Y133.472 E0.02059
G1 X117.403 Y130.657 E2.26098
G1 X118.049 Y130.572 E0.02046
G1 X118.688 Y130.414 E0.02063
G1 X119.306 Y130.187 E0.02063
G1 X119.878 Y129.900 E0.02006
G1 X161.749 Y105.957 E1.51232
G1 X162.135 Y105.716 E0.01426
G1 X162.680 Y105.297 E0.02156
G1 X163.176 Y104.813 E0.02174
G1 X163.613 Y104.275 E0.02174
G1 X163.984 Y103.689 E0.02174
G1 X164.284 Y103.064 E0.02174
G1 X164.509 Y102.409 E0.02174
G1 X164.656 Y101.731 E0.02174
G1 X164.723 Y101.047 E0.02156
G1 X164.727 Y54.399 E1.46261
G1 X157.727 Y54.399 E0.21948
G1 X157.727 Y48.596 E0.18193
G1 X164.727 Y48.596 E0.21948
G1 X164.727 Y37.966 E0.33330
G1 X171.853 Y37.966 E0.22343
G1 X171.853 Y105.122 E2.10560
G1 X171.791 Y105.528 E0.01289
G1 X171.698 Y105.960 E0.01388
G1 X171.502 Y106.611 E0.02131
G1 X171.341 Y107.023 E0.01387
G1 X171.156 Y107.422 E0.01378
G1 X170.823 Y108.013 E0.02126
G1 X170.438 Y108.567 E0.02117
G1 X170.158 Y108.909 E0.01387
G1 X169.856 Y109.233 E0.01387
G1 X169.355 Y109.693 E0.02131
G1 X169.007 Y109.965 E0.01387
G1 X168.642 Y110.215 E0.01385
G1 X122.345 Y136.698 E1.67234
G1 X121.920 Y136.924 E0.01508
G1 X121.264 Y137.213 E0.02248
G1 X120.584 Y137.441 E0.02248
G1 X120.132 Y137.556 E0.01462
G1 X119.426 Y137.681 E0.02248
G1 X118.702 Y137.742 E0.02280
G1 X8.723 Y142.032 E3.45094
G1 X8.596 Y142.015 E0.00399
G1 X8.487 Y141.930 E0.00435
G1 X8.460 Y141.864 E0.00223
G1 X8.178 Y134.922 E0.21784
G1 X17.150 Y134.572 E0.28152
G1 X16.334 Y132.873 E0.05909
G1 X16.074 Y132.258 E0.02094
G1 X15.843 Y131.630 E0.02097
G1 X15.640 Y130.993 E0.02097
G1 X15.466 Y130.347 E0.02097
G1 X15.321 Y129.694 E0.02097
G1 X15.207 Y129.035 E0.02097
G1 X15.122 Y128.371 E0.02098
G1 X15.067 Y127.704 E0.02097
G1 X15.042 Y127.036 E0.02097
G1 X15.048 Y126.370 E0.02087
G1 X15.113 Y125.367 E0.03153
G1 X15.194 Y124.702 E0.02101
G1 X15.306 Y124.042 E0.02097
G1 X15.447 Y123.388 E0.02097
G1 X15.617 Y122.741 E0.02097
G1 X15.816 Y122.103 E0.02097
G1 X16.045 Y121.474 E0.02097
G1 X16.300 Y120.859 E0.02087
G1 X16.739 Y119.950 E0.03167
G1 X17.062 Y119.368 E0.02087
G1 X17.412 Y118.798 E0.02097
G1 X17.788 Y118.245 E0.02097
G1 X18.189 Y117.709 E0.02097
G1 X18.614 Y117.192 E0.02097
G1 X19.061 Y116.695 E0.02097
G1 X19.531 Y116.218 E0.02097
G1 X20.021 Y115.764 E0.02097
G1 X20.532 Y115.332 E0.02097
G1 X21.062 Y114.923 E0.02097
G1 X21.793 Y114.424 E0.02775
G1 X25.439 Y120.766 E0.22938
G1 X25.718 Y121.194 E0.01602
G1 X26.140 Y121.768 E0.02231
G1 X25.761 Y122.031 E0.01447
G1 X25.233 Y122.526 E0.02269
G1 X24.911 Y122.898 E0.01544
G1 X24.501 Y123.474 E0.02216
G1 X24.256 Y123.898 E0.01536
G1 X23.960 Y124.546 E0.02234
G1 X23.738 Y125.229 E0.02251
G1 X23.596 Y125.933 E0.02251
G1 X23.535 Y126.642 E0.02234
G1 X23.539 Y127.127 E0.01519
G1 X23.581 Y127.609 E0.01519
G1 X23.708 Y128.305 E0.02216
G1 X23.842 Y128.778 E0.01545
M73 P1 R61
G1 X24.100 Y129.440 E0.02225
G1 X24.432 Y130.070 E0.02233
G1 X24.698 Y130.475 E0.01519
G1 X24.994 Y130.858 E0.01519
G1 X25.480 Y131.378 E0.02234
G1 X26.023 Y131.840 E0.02234
G1 X26.425 Y132.120 E0.01536
G1 X27.040 Y132.468 E0.02216
G1 X27.491 Y132.668 E0.01545
G1 X28.163 Y132.893 E0.02225
G1 X28.866 Y133.043 E0.02251
G1 X29.575 Y133.110 E0.02234
G1 X30.065 Y133.110 E0.01536
G1 X30.768 Y133.043 E0.02216
G1 X31.249 Y132.951 E0.01536
G1 X31.927 Y132.751 E0.02216
G1 X32.385 Y132.568 E0.01545
G1 X33.015 Y132.243 E0.02225
G1 X33.612 Y131.843 E0.02251
G1 X34.155 Y131.382 E0.02233
G1 X34.492 Y131.035 E0.01519
G1 X34.804 Y130.660 E0.01527
G1 X35.201 Y130.079 E0.02208
G1 X35.439 Y129.648 E0.01545
G1 X35.719 Y129.002 E0.02208
G1 X35.872 Y128.533 E0.01545
G1 X36.024 Y127.846 E0.02207
G1 X36.085 Y127.360 E0.01536
G1 X36.105 Y126.647 E0.02235
G1 X36.044 Y125.938 E0.02232
G1 X35.952 Y125.441 E0.01586
M204 S1250
G1 E-2.24000 F4200.00000
G1 F7200.000
G1 X36.966 Y126.737 E-0.91200
G1 E-0.04800 F4200.00000
G1 Z0.400 F9000.000
G1 X16.561 Y134.218
G1 Z0.200
G1 E3.20000 F2400.00000
M204 S800
G1 F1200.000
G1 X15.990 Y133.028 E0.04137
G1 X15.724 Y132.396 E0.02150
G1 X15.486 Y131.753 E0.02151
G1 X15.278 Y131.099 E0.02151
G1 X15.100 Y130.437 E0.02151
G1 X14.951 Y129.767 E0.02151
G1 X14.834 Y129.091 E0.02151
G1 X14.746 Y128.410 E0.02151
G1 X14.690 Y127.727 E0.02151
G1 X14.665 Y127.041 E0.02151
G1 X14.671 Y126.356 E0.02147
G1 X14.738 Y125.332 E0.03220
G1 X14.821 Y124.647 E0.02161
G1 X14.935 Y123.971 E0.02151
G1 X15.080 Y123.300 E0.02151
G1 X15.254 Y122.637 E0.02151
G1 X15.459 Y121.982 E0.02151
G1 X15.693 Y121.337 E0.02151
G1 X15.955 Y120.705 E0.02147
G1 X16.404 Y119.776 E0.03234
G1 X16.736 Y119.177 E0.02147
G1 X17.096 Y118.593 E0.02151
G1 X17.481 Y118.026 E0.02151
G1 X17.892 Y117.476 E0.02151
G1 X18.328 Y116.946 E0.02151
G1 X18.787 Y116.436 E0.02151
G1 X19.268 Y115.948 E0.02151
G1 X19.771 Y115.481 E0.02151
G1 X20.295 Y115.038 E0.02151
G1 X20.838 Y114.619 E0.02151
G1 X21.399 Y114.226 E0.02149
G1 X21.924 Y113.896 E0.01943
G1 X25.761 Y120.569 E0.24134
G1 X26.028 Y120.979 E0.01536
G1 X26.484 Y121.598 E0.02409
G1 X27.114 Y121.262 E0.02240
G1 X27.501 Y121.090 E0.01329
G1 X27.900 Y120.945 E0.01330
G1 X28.307 Y120.827 E0.01329
G1 X28.721 Y120.738 E0.01329
G1 X29.141 Y120.677 E0.01330
G1 X29.564 Y120.645 E0.01330
G1 X29.988 Y120.642 E0.01330
G1 X30.411 Y120.667 E0.01329
G1 X30.831 Y120.723 E0.01329
G1 X31.247 Y120.806 E0.01330
G1 X31.656 Y120.918 E0.01330
G1 X32.057 Y121.058 E0.01330
G1 X32.447 Y121.224 E0.01329
G1 X32.824 Y121.418 E0.01329
G1 X33.187 Y121.636 E0.01330
G1 X33.534 Y121.878 E0.01324
G1 X34.023 Y122.286 E0.01997
G1 X34.325 Y122.585 E0.01332
G1 X34.604 Y122.903 E0.01328
G1 X34.890 Y123.274 E0.01469
G1 X35.712 Y124.466 E0.04541
G1 X36.004 Y124.858 E0.01532
G1 X40.751 Y130.960 E0.24240
G1 X41.161 Y131.429 E0.01952
G1 X41.469 Y131.720 E0.01329
G1 X41.796 Y131.986 E0.01322
G1 X42.143 Y132.226 E0.01322
G1 X42.507 Y132.439 E0.01322
G1 X42.886 Y132.624 E0.01322
G1 X43.278 Y132.780 E0.01322
G1 X43.680 Y132.906 E0.01322
G1 X44.093 Y133.001 E0.01329
G1 X44.718 Y133.084 E0.01977
G1 X45.343 Y133.095 E0.01958
G1 X117.370 Y130.281 E2.26010
G1 X117.979 Y130.201 E0.01926
G1 X118.578 Y130.053 E0.01932
G1 X119.156 Y129.840 E0.01932
G1 X119.700 Y129.568 E0.01908
G1 X161.555 Y105.634 E1.51176
G1 X161.919 Y105.406 E0.01345
G1 X162.432 Y105.012 E0.02029
G1 X162.897 Y104.559 E0.02035
G1 X163.306 Y104.054 E0.02035
G1 X163.653 Y103.506 E0.02035
G1 X163.934 Y102.921 E0.02036
G1 X164.145 Y102.307 E0.02035
G1 X164.283 Y101.673 E0.02035
G1 X164.346 Y101.028 E0.02029
G1 X164.350 Y54.776 E1.45021
G1 X157.350 Y54.776 E0.21948
G1 X157.350 Y48.219 E0.20558
G1 X164.350 Y48.219 E0.21948
G1 X164.350 Y37.589 E0.33330
G1 X172.230 Y37.589 E0.24707
G1 X172.230 Y105.150 E2.11832
G1 X172.162 Y105.596 E0.01415
G1 X172.063 Y106.055 E0.01471
G1 X171.858 Y106.734 E0.02224
G1 X171.688 Y107.171 E0.01471
G1 X171.492 Y107.594 E0.01462
G1 X171.143 Y108.214 E0.02229
G1 X170.739 Y108.795 E0.02219
G1 X170.442 Y109.158 E0.01471
G1 X170.122 Y109.501 E0.01471
G1 X169.599 Y109.981 E0.02224
G1 X169.230 Y110.270 E0.01471
G1 X168.843 Y110.535 E0.01470
G1 X122.527 Y137.028 E1.67300
G1 X122.085 Y137.264 E0.01570
G1 X121.400 Y137.565 E0.02346
G1 X120.691 Y137.803 E0.02346
G1 X120.212 Y137.925 E0.01551
G1 X119.475 Y138.055 E0.02346
G1 X118.725 Y138.118 E0.02360
G1 X8.705 Y142.410 E3.45223
G1 X8.480 Y142.380 E0.00711
G1 X8.300 Y142.285 E0.00638
G1 X8.163 Y142.134 E0.00639
G1 X8.086 Y141.946 E0.00639
G1 X7.786 Y134.560 E0.23176
G1 X16.501 Y134.220 E0.27347
M204 S1250
G1 X16.903 Y134.010 F9000.000
G1 E-2.24000 F4200.00000
G1 F7200.000
G1 X15.990 Y133.028 E-0.71871
G1 X15.855 Y132.707 E-0.19329
G1 E-0.04800 F4200.00000
G1 Z0.400 F9000.000
G1 X8.540 Y141.053
G1 Z0.200
G1 E3.20000 F2400.00000
M204 S800
G1 F1200.000
G1 X9.217 Y141.730 E0.03004
G1 X9.731 Y141.710 E0.01615
G1 X8.695 Y140.673 E0.04601
G1 X8.672 Y140.117 E0.01749
G1 X10.245 Y141.690 E0.06984
G1 X10.759 Y141.670 E0.01615
G1 X8.649 Y139.560 E0.09366
G1 X8.627 Y139.004 E0.01749
G1 X11.273 Y141.649 E0.11749
G1 X11.787 Y141.629 E0.01615
G1 X8.604 Y138.447 E0.14132
G1 X8.582 Y137.890 E0.01749
G1 X12.301 Y141.609 E0.16515
G1 X12.815 Y141.589 E0.01615
G1 X8.559 Y137.334 E0.18897
G1 X8.536 Y136.777 E0.01749
G1 X13.329 Y141.569 E0.21280
G1 X13.843 Y141.549 E0.01615
G1 X8.514 Y136.220 E0.23663
G1 X8.491 Y135.664 E0.01749
G1 X14.357 Y141.529 E0.26045
G1 X14.871 Y141.509 E0.01615
G1 X8.552 Y135.190 E0.28058
G1 X9.066 Y135.170 E0.01615
G1 X15.384 Y141.489 E0.28058
G1 X15.898 Y141.469 E0.01615
G1 X9.580 Y135.150 E0.28058
G1 X10.094 Y135.130 E0.01615
G1 X16.412 Y141.449 E0.28058
G1 X16.926 Y141.429 E0.01615
G1 X10.608 Y135.110 E0.28058
G1 X11.122 Y135.090 E0.01615
G1 X17.440 Y141.409 E0.28058
G1 X17.954 Y141.389 E0.01615
G1 X11.636 Y135.070 E0.28058
G1 X12.150 Y135.050 E0.01615
G1 X18.468 Y141.369 E0.28058
G1 X18.982 Y141.349 E0.01615
G1 X12.664 Y135.030 E0.28058
G1 X13.178 Y135.010 E0.01615
G1 X19.496 Y141.329 E0.28058
G1 X20.010 Y141.309 E0.01615
G1 X13.692 Y134.990 E0.28058
G1 X14.205 Y134.970 E0.01615
G1 X20.524 Y141.289 E0.28058
G1 X21.038 Y141.269 E0.01615
G1 X14.719 Y134.950 E0.28058
G1 X15.233 Y134.930 E0.01615
G1 X21.552 Y141.248 E0.28058
G1 X22.066 Y141.228 E0.01615
G1 X15.747 Y134.910 E0.28058
G1 X16.261 Y134.890 E0.01615
G1 X22.580 Y141.208 E0.28058
G1 X23.094 Y141.188 E0.01615
G1 X16.775 Y134.870 E0.28058
G1 X17.289 Y134.850 E0.01615
G1 X23.608 Y141.168 E0.28058
G1 X24.122 Y141.148 E0.01615
G1 X17.387 Y134.413 E0.29906
G1 X16.894 Y133.386 E0.03578
G1 X24.636 Y141.128 E0.34378
G1 X25.150 Y141.108 E0.01615
G1 X16.441 Y132.399 E0.38671
G1 X16.109 Y131.533 E0.02914
G1 X25.664 Y141.088 E0.42430
G1 X26.178 Y141.068 E0.01615
G1 X15.870 Y130.760 E0.45771
G1 X15.689 Y130.045 E0.02317
G1 X26.692 Y141.048 E0.48859
G1 X27.206 Y141.028 E0.01615
G1 X15.553 Y129.375 E0.51744
G1 X15.454 Y128.742 E0.02011
G1 X27.720 Y141.008 E0.54465
G1 X28.234 Y140.988 E0.01615
G1 X15.386 Y128.140 E0.57048
G1 X15.345 Y127.565 E0.01813
G1 X28.748 Y140.968 E0.59516
G1 X29.262 Y140.948 E0.01615
G1 X15.325 Y127.011 E0.61884
G1 X15.330 Y126.482 E0.01663
G1 X29.776 Y140.928 E0.64146
G1 X30.290 Y140.908 E0.01615
G1 X15.357 Y125.975 E0.66307
G1 X15.390 Y125.474 E0.01578
G1 X30.804 Y140.888 E0.68445
G1 X31.318 Y140.868 E0.01615
G1 X15.444 Y124.994 E0.70487
G1 X15.511 Y124.527 E0.01481
G1 X31.832 Y140.847 E0.72472
G1 X32.346 Y140.827 E0.01615
G1 X15.589 Y124.071 E0.74408
G1 X15.683 Y123.631 E0.01411
G1 X32.860 Y140.807 E0.76269
G1 X33.374 Y140.787 E0.01615
G1 X15.788 Y123.202 E0.78087
G1 X15.901 Y122.781 E0.01369
G1 X34.051 Y140.931 E0.80594
M204 S1250
G1 E-2.24000 F4200.00000
G1 F7200.000
G1 X32.887 Y139.767 E-0.91200
G1 E-0.04800 F4200.00000
G1 Z0.400 F9000.000
G1 X40.232 Y131.091
G1 Z0.200
G1 E3.20000 F2400.00000
M73 P3 R60
M204 S800
G1 F1200.000
G1 X36.371 Y127.230 E0.17145
G1 X36.386 Y126.711 E0.01631
G1 X38.361 Y128.686 E0.08769
M204 S1250
G1 E-2.24000 F4200.00000
G1 F7200.000
G1 X37.197 Y127.522 E-0.91200
G1 E-0.04800 F4200.00000
G1 Z0.400 F9000.000
G1 X35.849 Y125.215
G1 Z0.200
G1 E3.20000 F2400.00000
M204 S800
G1 F1200.000
