; generated by PrusaSlicer 2.2.0+win64 on 2020-10-11 at 13:54:24 UTC


;
;

;
;
; 

; external perimeters extrusion width = 0.45mm
; perimeters extrusion width = 0.45mm
; infill extrusion width = 0.45mm
; solid infill extrusion width = 0.45mm
; top infill extrusion width = 0.40mm
; first layer extrusion width = 0.42mm

M73 P0 R35
M201 X1250 Y1250 Z400 E5000 ; sets maximum accelerations, mm/sec^2
M203 X180 Y180 Z12 E80 ; sets maximum feedrates, mm/sec
M204 P1250 R1250 T1250 ; sets acceleration (P, T) and retract acceleration (R), mm/sec^2
M205 X8.00 Y8.00 Z2.00 E10.00 ; sets the jerk limits, mm/sec
M205 S0 T0 ; sets the minimum extruding and travel feed rate, mm/sec
M107
G90 ; use absolute coordinates
M83 ; extruder relative mode
M104 S170 ; set extruder temp for bed leveling
M140 S60 ; set bed temp
M109 R170 ; wait for bed leveling temp
M190 S60 ; wait for bed temp
G28 ; home all without mesh bed level
G29 ; mesh bed leveling 
M104 S215 ; set extruder temp
G92 E0.0
G1 Y-2.0 X179 F2400
G1 Z3 F720
M109 S215 ; wait for extruder temp

; intro line
G1 X170 F1000
G1 Z0.2 F720
G1 X110.0 E8.0 F900
M73 P0 R35
G1 X40.0 E10.0 F700
G92 E0.0

M221 S95 ; set flow
G21 ; set units to millimeters
G90 ; use absolute coordinates
M83 ; use relative distances for extrusion
M900 K0.2 ; Filament gcode LA 1.5
; ; Filament gcode LA 1.0
;BEFORE_LAYER_CHANGE
G92 E0.0
;0.2


G1 Z0.200 F9000.000
;AFTER_LAYER_CHANGE
;0.2
G1 E-3.20000 F4200.00000
G1 Z0.400 F9000.000
G1 X7.617 Y34.966
G1 Z0.200
G1 E3.20000 F2400.00000
M204 S800
G1 F1200.000
G1 X8.698 Y34.802 E0.03428
G1 X118.843 Y39.097 E3.45616
G1 X120.500 Y39.288 E0.05229
G1 X122.125 Y39.731 E0.05281
G1 X123.885 Y40.538 E0.06068
G1 X170.369 Y67.133 E1.67917
G1 X171.357 Y67.856 E0.03840
G1 X172.096 Y68.532 E0.03140
G1 X172.930 Y69.482 E0.03963
G1 X173.517 Y70.325 E0.03220
G1 X174.103 Y71.404 E0.03851
G1 X174.493 Y72.357 E0.03230
G1 X174.835 Y73.558 E0.03914
G1 X175.013 Y74.685 E0.03577
G1 X175.017 Y142.836 E2.13683
G1 X174.915 Y143.511 E0.02142
G1 X174.624 Y144.130 E0.02142
G1 X174.275 Y144.546 E0.01704
G1 X173.840 Y144.872 E0.01704
G1 X173.339 Y145.093 E0.01716
G1 X172.805 Y145.192 E0.01704
G1 X163.883 Y145.197 E0.27974
G1 X163.374 Y145.129 E0.01609
G1 X162.892 Y144.954 E0.01609
G1 X20.946 Y68.767 E5.05117
G1 X19.868 Y68.103 E0.03969
G1 X18.544 Y67.130 E0.05153
G1 X17.309 Y66.034 E0.05177
G1 X15.974 Y64.585 E0.06179
G1 X14.987 Y63.269 E0.05155
G1 X5.314 Y47.044 E0.59228
G1 X5.107 Y46.591 E0.01562
G1 X4.984 Y45.751 E0.02661
G1 X5.286 Y38.017 E0.24271
G1 X5.430 Y37.190 E0.02631
G1 X5.918 Y36.207 E0.03440
G1 X6.640 Y35.472 E0.03231
G1 X7.564 Y34.994 E0.03261
M204 S1250
G1 E-2.24000 F4200.00000
G1 F7200.000
G1 X8.698 Y34.802 E-0.63752
G1 X9.193 Y34.822 E-0.27448
G1 E-0.04800 F4200.00000
G1 Z0.400 F9000.000
G1 X117.555 Y49.363
G1 Z0.200
G1 E3.20000 F2400.00000
M204 S800
G1 F1200.000
G1 X118.458 Y49.299 E0.02836
G1 X118.461 Y49.274 E0.00078
G1 X119.166 Y49.762 E0.02689
G1 X118.688 Y49.586 E0.01597
G1 X118.049 Y49.428 E0.02063
G1 X117.615 Y49.371 E0.01375
M204 S1250
G1 X118.435 Y48.790 F9000.000
M204 S800
G1 F1200.000
G1 X118.762 Y48.037 E0.02573
G1 X118.980 Y47.608 E0.01509
G1 X121.511 Y43.174 E0.16009
G1 X167.363 Y69.394 E1.65613
G1 X164.127 Y75.053 E0.20443
G1 X120.366 Y50.030 E1.58059
G1 X119.495 Y49.526 E0.03153
G1 X119.066 Y49.248 E0.01604
G1 X118.484 Y48.825 E0.02255
M204 S1250
G1 X118.080 Y48.607 F9000.000
G1 X118.655 Y47.417
M204 S800
G1 F1200.000
G1 X118.872 Y42.270 E0.16151
G1 X119.186 Y42.292 E0.00986
G1 X119.895 Y42.395 E0.02248
G1 X120.589 Y42.560 E0.02234
G1 X121.291 Y42.799 E0.02325
G1 X118.685 Y47.364 E0.16483
M204 S1250
G1 E-2.24000 F4200.00000
G1 F7200.000
G1 X118.745 Y45.720 E-0.91200
G1 E-0.04800 F4200.00000
G1 Z0.400 F9000.000
G1 X162.513 Y74.565
G1 Z0.200
G1 E3.20000 F2400.00000
M204 S800
G1 F1200.000
G1 X164.267 Y75.568 E0.06334
G1 X167.837 Y69.325 E0.22550
G1 X168.642 Y69.785 E0.02908
G1 X169.007 Y70.035 E0.01385
G1 X169.355 Y70.307 E0.01387
G1 X169.856 Y70.767 E0.02131
G1 X170.158 Y71.091 E0.01387
G1 X170.438 Y71.433 E0.01387
G1 X170.824 Y71.987 E0.02117
G1 X171.155 Y72.575 E0.02117
G1 X171.341 Y72.977 E0.01387
G1 X171.502 Y73.389 E0.01387
G1 X171.698 Y74.040 E0.02131
G1 X171.791 Y74.472 E0.01388
G1 X171.853 Y74.878 E0.01289
G1 X171.853 Y75.534 E0.02054
G1 X164.653 Y75.534 E0.22575
G1 X164.653 Y78.254 E0.08529
G1 X164.509 Y77.591 E0.02125
G1 X164.285 Y76.939 E0.02164
G1 X164.091 Y76.515 E0.01459
G1 X163.864 Y76.106 E0.01468
G1 X163.472 Y75.538 E0.02164
G1 X163.017 Y75.019 E0.02165
G1 X162.558 Y74.605 E0.01937
M204 S1250
G1 E-2.24000 F4200.00000
G1 F7200.000
G1 X163.992 Y75.413 E-0.91200
G1 E-0.04800 F4200.00000
G1 Z0.400 F9000.000
G1 X165.030 Y75.911
G1 Z0.200
G1 E3.20000 F2400.00000
M204 S800
G1 F1200.000
G1 X171.550 Y75.911 E0.20443
G1 X171.550 Y141.731 E2.06374
G1 X165.030 Y141.731 E0.20443
G1 X165.030 Y75.971 E2.06186
M204 S1250
G1 X165.017 Y75.511 F9000.000
G1 E-2.24000 F4200.00000
G1 F7200.000
G1 X166.676 Y75.955 E-0.91200
G1 E-0.04800 F4200.00000
G1 Z0.400 F9000.000
G1 X44.486 Y46.567
G1 Z0.200
G1 E3.20000 F2400.00000
M204 S800
G1 F1200.000
G1 X44.026 Y46.628 E0.01455
G1 X43.582 Y46.730 E0.01430
G1 X43.152 Y46.864 E0.01412
G1 X42.733 Y47.031 E0.01412
G1 X42.329 Y47.228 E0.01412
G1 X41.940 Y47.456 E0.01412
G1 X41.570 Y47.712 E0.01412
G1 X41.220 Y47.996 E0.01412
G1 X40.889 Y48.310 E0.01429
G1 X40.460 Y48.800 E0.02042
G1 X35.931 Y54.622 E0.23129
G1 X36.043 Y54.073 E0.01756
G1 X36.094 Y53.586 E0.01537
G1 X36.101 Y52.873 E0.02234
G1 X36.026 Y52.165 E0.02234
G1 X35.929 Y51.685 E0.01536
G1 X35.723 Y51.009 E0.02216
G1 X35.539 Y50.561 E0.01519
G1 X35.321 Y50.128 E0.01519
G1 X34.945 Y49.530 E0.02216
G1 X34.646 Y49.142 E0.01536
G1 X34.159 Y48.622 E0.02233
G1 X33.616 Y48.160 E0.02234
G1 X33.214 Y47.880 E0.01536
G1 X32.594 Y47.530 E0.02234
G1 X31.933 Y47.250 E0.02251
G1 X31.249 Y47.049 E0.02234
G1 X30.765 Y46.956 E0.01545
G1 X30.065 Y46.890 E0.02207
G1 X29.580 Y46.890 E0.01518
G1 X29.097 Y46.926 E0.01519
G1 X28.401 Y47.047 E0.02216
G1 X27.928 Y47.176 E0.01536
G1 X27.262 Y47.428 E0.02234
G1 X26.624 Y47.757 E0.02251
G1 X26.027 Y48.157 E0.02251
G1 X25.485 Y48.618 E0.02233
G1 X25.143 Y48.969 E0.01536
G1 X24.701 Y49.521 E0.02216
G1 X24.435 Y49.926 E0.01519
G1 X24.201 Y50.350 E0.01519
G1 X23.920 Y50.998 E0.02216
G1 X23.768 Y51.464 E0.01536
G1 X23.615 Y52.154 E0.02216
G1 X23.554 Y52.640 E0.01536
G1 X23.534 Y53.352 E0.02234
G1 X23.596 Y54.067 E0.02251
G1 X23.738 Y54.771 E0.02251
G1 X23.958 Y55.449 E0.02234
G1 X24.151 Y55.893 E0.01519
G1 X24.377 Y56.321 E0.01519
G1 X24.768 Y56.917 E0.02234
G1 X25.225 Y57.465 E0.02239
G1 X25.772 Y57.976 E0.02346
G1 X26.140 Y58.232 E0.01407
G1 X25.718 Y58.806 E0.02231
G1 X25.439 Y59.234 E0.01602
G1 X21.793 Y65.576 E0.22939
G1 X21.062 Y65.077 E0.02775
G1 X20.532 Y64.668 E0.02097
G1 X20.021 Y64.236 E0.02097
G1 X19.531 Y63.782 E0.02097
G1 X19.061 Y63.305 E0.02097
G1 X18.614 Y62.808 E0.02097
G1 X18.192 Y62.294 E0.02084
G1 X17.788 Y61.755 E0.02111
G1 X17.412 Y61.202 E0.02097
G1 X17.062 Y60.632 E0.02097
G1 X16.739 Y60.050 E0.02087
G1 X16.300 Y59.141 E0.03167
G1 X16.045 Y58.526 E0.02087
G1 X15.816 Y57.897 E0.02097
G1 X15.617 Y57.259 E0.02097
G1 X15.447 Y56.612 E0.02097
G1 X15.306 Y55.958 E0.02097
G1 X15.194 Y55.298 E0.02097
G1 X15.113 Y54.634 E0.02097
G1 X15.062 Y53.971 E0.02087
G1 X15.042 Y52.961 E0.03167
G1 X15.067 Y52.296 E0.02087
G1 X15.122 Y51.629 E0.02097
G1 X15.207 Y50.965 E0.02097
G1 X15.321 Y50.306 E0.02097
G1 X15.466 Y49.653 E0.02097
G1 X15.640 Y49.007 E0.02097
G1 X15.843 Y48.370 E0.02097
G1 X16.074 Y47.742 E0.02097
G1 X16.334 Y47.127 E0.02094
G1 X17.115 Y45.500 E0.05657
G1 X44.426 Y46.565 E0.85698
M204 S1250
G1 E-2.24000 F4200.00000
G1 F7200.000
G1 X44.026 Y46.628 E-0.22441
G1 X43.582 Y46.730 E-0.25267
G1 X43.152 Y46.864 E-0.24958
G1 X42.841 Y46.988 E-0.18534
G1 E-0.04800 F4200.00000
G1 Z0.400 F9000.000
G1 X35.196 Y50.717
G1 Z0.200
G1 E3.20000 F2400.00000
M204 S800
G1 F1200.000
G1 X35.368 Y51.135 E0.01417
G1 X35.563 Y51.777 E0.02103
G1 X35.653 Y52.222 E0.01424
G1 X35.723 Y52.891 E0.02110
G1 X35.717 Y53.564 E0.02110
G1 X35.669 Y54.016 E0.01424
G1 X35.535 Y54.674 E0.02107
G1 X35.398 Y55.109 E0.01430
G1 X35.214 Y55.529 E0.01437
G1 X34.869 Y56.099 E0.02089
G1 X34.486 Y56.636 E0.02069
G1 X34.067 Y57.139 E0.02053
G1 X33.748 Y57.455 E0.01408
G1 X33.235 Y57.874 E0.02074
G1 X32.679 Y58.232 E0.02074
G1 X32.284 Y58.436 E0.01394
G1 X31.874 Y58.608 E0.01394
G1 X31.243 Y58.807 E0.02074
G1 X30.594 Y58.932 E0.02074
G1 X30.151 Y58.974 E0.01394
G1 X29.707 Y58.983 E0.01394
G1 X29.047 Y58.932 E0.02074
G1 X28.398 Y58.807 E0.02074
G1 X27.969 Y58.681 E0.01400
G1 X27.358 Y58.436 E0.02066
G1 X26.379 Y57.940 E0.03440
G1 X26.003 Y57.678 E0.01438
G1 X25.503 Y57.209 E0.02149
G1 X25.071 Y56.692 E0.02112
G1 X24.702 Y56.129 E0.02109
G1 X24.491 Y55.730 E0.01417
G1 X24.311 Y55.315 E0.01417
G1 X24.103 Y54.675 E0.02110
G1 X23.969 Y54.014 E0.02116
G1 X23.912 Y53.341 E0.02116
G1 X23.931 Y52.669 E0.02110
G1 X23.987 Y52.218 E0.01424
G1 X24.133 Y51.563 E0.02103
G1 X24.273 Y51.132 E0.01424
G1 X24.540 Y50.516 E0.02103
G1 X24.758 Y50.121 E0.01417
G1 X25.006 Y49.743 E0.01417
G1 X25.426 Y49.219 E0.02103
G1 X25.743 Y48.894 E0.01424
G1 X26.255 Y48.458 E0.02109
G1 X26.816 Y48.082 E0.02116
G1 X27.416 Y47.773 E0.02116
G1 X28.045 Y47.535 E0.02110
G1 X28.483 Y47.415 E0.01424
G1 X29.144 Y47.301 E0.02103
G1 X29.595 Y47.267 E0.01417
G1 X30.047 Y47.267 E0.01417
G1 X30.712 Y47.330 E0.02095
G1 X31.160 Y47.416 E0.01432
G1 X31.806 Y47.606 E0.02110
G1 X32.427 Y47.869 E0.02116
G1 X33.013 Y48.199 E0.02110
G1 X33.386 Y48.459 E0.01424
G1 X33.898 Y48.895 E0.02110
G1 X34.358 Y49.386 E0.02109
G1 X34.635 Y49.746 E0.01424
G1 X34.992 Y50.314 E0.02103
G1 X35.169 Y50.664 E0.01229
M204 S1250
G1 X35.594 Y50.753 F9000.000
G1 E-2.24000 F4200.00000
G1 F7200.000
G1 X35.368 Y51.135 E-0.28365
G1 X35.563 Y51.777 E-0.37172
G1 X35.653 Y52.222 E-0.25163
G1 X35.654 Y52.231 E-0.00500
G1 E-0.04800 F4200.00000
G1 Z0.400 F9000.000
G1 X8.746 Y38.272
G1 Z0.200
G1 E3.20000 F2400.00000
M204 S800
G1 F1200.000
G1 X118.483 Y42.553 E3.44335
M73 P3 R34
G1 X118.265 Y47.717 E0.16206
G1 X118.120 Y48.945 E0.03877
G1 X117.339 Y49.000 E0.02453
G1 X116.830 Y49.008 E0.01599
G1 X8.491 Y44.787 E3.39944
G1 X8.743 Y38.332 E0.20255
M204 S1250
G1 X8.566 Y37.914 F9000.000
G1 E-2.24000 F4200.00000
G1 F7200.000
G1 X10.388 Y38.395 E-0.91200
G1 E-0.04800 F4200.00000
G1 Z0.400 F9000.000
G1 X26.484 Y58.402
G1 Z0.200
G1 E3.20000 F2400.00000
M204 S800
G1 F1200.000
G1 X26.028 Y59.021 E0.02409
G1 X25.761 Y59.431 E0.01536
G1 X21.924 Y66.104 E0.24136
G1 X21.399 Y65.774 E0.01942
G1 X20.838 Y65.381 E0.02149
G1 X20.295 Y64.962 E0.02151
G1 X19.771 Y64.519 E0.02151
G1 X19.268 Y64.052 E0.02151
G1 X18.787 Y63.564 E0.02151
G1 X18.328 Y63.054 E0.02151
G1 X17.895 Y62.527 E0.02137
G1 X17.481 Y61.974 E0.02165
G1 X17.096 Y61.407 E0.02151
G1 X16.736 Y60.823 E0.02151
G1 X16.404 Y60.224 E0.02147
G1 X15.955 Y59.295 E0.03234
G1 X15.693 Y58.663 E0.02147
G1 X15.459 Y58.018 E0.02151
G1 X15.254 Y57.363 E0.02151
G1 X15.080 Y56.700 E0.02151
G1 X14.935 Y56.029 E0.02151
G1 X14.821 Y55.353 E0.02151
G1 X14.738 Y54.672 E0.02151
G1 X14.686 Y53.989 E0.02147
G1 X14.665 Y52.958 E0.03234
G1 X14.690 Y52.273 E0.02147
G1 X14.746 Y51.590 E0.02151
G1 X14.834 Y50.909 E0.02151
G1 X14.951 Y50.233 E0.02151
G1 X15.100 Y49.563 E0.02151
G1 X15.278 Y48.901 E0.02151
G1 X15.486 Y48.247 E0.02151
G1 X15.724 Y47.604 E0.02151
G1 X15.990 Y46.972 E0.02150
G1 X16.561 Y45.782 E0.04137
G1 X7.786 Y45.440 E0.27535
G1 X8.086 Y38.050 E0.23191
G1 X8.136 Y37.910 E0.00467
G1 X8.226 Y37.780 E0.00496
G1 X8.295 Y37.716 E0.00293
G1 X8.428 Y37.639 E0.00481
G1 X8.641 Y37.591 E0.00685
G1 X9.181 Y37.609 E0.01696
G1 X118.726 Y41.882 E3.43732
G1 X119.226 Y41.916 E0.01570
G1 X119.966 Y42.024 E0.02346
G1 X120.693 Y42.197 E0.02341
G1 X121.400 Y42.435 E0.02341
G1 X122.085 Y42.736 E0.02346
G1 X122.527 Y42.972 E0.01570
G1 X168.843 Y69.465 E1.67300
G1 X169.230 Y69.730 E0.01470
G1 X169.599 Y70.019 E0.01471
G1 X170.122 Y70.499 E0.02224
G1 X170.442 Y70.842 E0.01471
G1 X170.739 Y71.205 E0.01471
G1 X171.143 Y71.786 E0.02219
G1 X171.491 Y72.403 E0.02219
G1 X171.688 Y72.829 E0.01471
G1 X171.858 Y73.266 E0.01471
G1 X172.063 Y73.945 E0.02224
G1 X172.162 Y74.404 E0.01471
G1 X172.230 Y74.850 E0.01415
G1 X172.230 Y142.411 E2.11832
G1 X164.350 Y142.411 E0.24707
G1 X164.346 Y78.972 E1.98909
G1 X164.283 Y78.327 E0.02029
G1 X164.145 Y77.693 E0.02036
G1 X163.934 Y77.079 E0.02037
G1 X163.754 Y76.685 E0.01356
G1 X163.543 Y76.305 E0.01364
G1 X163.175 Y75.770 E0.02037
G1 X162.748 Y75.284 E0.02027
G1 X162.266 Y74.850 E0.02035
G1 X161.738 Y74.475 E0.02029
G1 X119.700 Y50.432 E1.51842
G1 X119.156 Y50.160 E0.01908
G1 X118.577 Y49.947 E0.01932
G1 X117.979 Y49.799 E0.01932
G1 X117.370 Y49.719 E0.01926
G1 X45.343 Y46.905 E2.26010
G1 X44.718 Y46.916 E0.01958
G1 X44.093 Y46.999 E0.01977
G1 X43.680 Y47.094 E0.01329
G1 X43.278 Y47.220 E0.01322
G1 X42.886 Y47.376 E0.01322
G1 X42.507 Y47.561 E0.01322
G1 X42.143 Y47.774 E0.01322
G1 X41.796 Y48.014 E0.01322
G1 X41.469 Y48.280 E0.01322
G1 X41.161 Y48.571 E0.01329
G1 X40.751 Y49.040 E0.01952
G1 X36.004 Y55.142 E0.24240
G1 X35.712 Y55.534 E0.01532
G1 X34.890 Y56.726 E0.04541
G1 X34.604 Y57.097 E0.01469
G1 X34.324 Y57.415 E0.01328
G1 X34.025 Y57.712 E0.01323
G1 X33.534 Y58.122 E0.02005
G1 X33.187 Y58.364 E0.01324
G1 X32.824 Y58.582 E0.01330
G1 X32.447 Y58.776 E0.01329
G1 X32.057 Y58.942 E0.01329
G1 X31.656 Y59.082 E0.01330
G1 X31.247 Y59.194 E0.01330
G1 X30.831 Y59.277 E0.01330
G1 X30.411 Y59.333 E0.01329
G1 X29.988 Y59.358 E0.01329
G1 X29.564 Y59.355 E0.01330
G1 X29.141 Y59.323 E0.01330
G1 X28.721 Y59.262 E0.01330
G1 X28.307 Y59.173 E0.01329
G1 X27.900 Y59.055 E0.01329
G1 X27.501 Y58.910 E0.01330
G1 X27.114 Y58.738 E0.01329
G1 X26.537 Y58.430 E0.02051
M204 S1250
G1 X26.149 Y58.183 F9000.000
G1 E-2.24000 F4200.00000
G1 F7200.000
G1 X26.028 Y59.021 E-0.43188
G1 X25.761 Y59.431 E-0.27141
G1 X25.573 Y59.757 E-0.20871
G1 E-0.04800 F4200.00000
G1 Z0.400 F9000.000
G1 X17.998 Y61.846
G1 Z0.200
G1 E3.20000 F2400.00000
M204 S800
G1 F1200.000
G1 X19.760 Y63.609 E0.07884
G1 X20.209 Y64.025 E0.01936
G1 X20.710 Y64.448 E0.02076
G1 X21.228 Y64.848 E0.02070
G1 X21.700 Y65.170 E0.01807
G1 X21.758 Y65.069 E0.00371
G1 X17.509 Y60.819 E0.19011
G1 X16.990 Y59.920 E0.03284
G1 X16.843 Y59.615 E0.01072
G1 X21.955 Y64.727 E0.22870
G1 X22.151 Y64.385 E0.01247
G1 X16.393 Y58.627 E0.25763
G1 X16.073 Y57.769 E0.02897
G1 X22.347 Y64.044 E0.28073
G1 X22.544 Y63.702 E0.01247
G1 X15.841 Y56.999 E0.29987
G1 X15.666 Y56.286 E0.02324
G1 X22.740 Y63.360 E0.31651
G1 X22.937 Y63.019 E0.01247
G1 X15.535 Y55.617 E0.33114
G1 X15.441 Y54.985 E0.02021
G1 X23.133 Y62.677 E0.34413
G1 X23.329 Y62.336 E0.01247
G1 X15.378 Y54.384 E0.35575
G1 X15.342 Y53.810 E0.01818
G1 X23.526 Y61.994 E0.36613
G1 X23.722 Y61.652 E0.01247
G1 X15.331 Y53.261 E0.37541
G1 X15.334 Y52.726 E0.01693
G1 X23.919 Y61.311 E0.38407
G1 X24.115 Y60.969 E0.01247
G1 X15.357 Y52.211 E0.39181
G1 X15.398 Y51.714 E0.01578
G1 X24.311 Y60.627 E0.39876
G1 X24.508 Y60.286 E0.01247
G1 X15.457 Y51.235 E0.40492
G1 X15.528 Y50.768 E0.01495
G1 X24.704 Y59.944 E0.41054
G1 X24.901 Y59.602 E0.01247
G1 X15.610 Y50.312 E0.41566
G1 X15.707 Y49.871 E0.01427
G1 X25.097 Y59.261 E0.42009
G1 X25.301 Y58.927 E0.01238
G1 X15.816 Y49.441 E0.42437
G1 X15.933 Y49.020 E0.01383
G1 X25.516 Y58.604 E0.42875
G1 X25.740 Y58.299 E0.01197
G1 X25.593 Y58.197 E0.00566
G1 X25.019 Y57.660 E0.02487
G1 X24.562 Y57.112 E0.02258
G1 X16.063 Y48.612 E0.38027
G1 X16.202 Y48.214 E0.01336
G1 X23.813 Y55.825 E0.34052
G1 X23.693 Y55.549 E0.00952
G1 X23.510 Y54.983 E0.01881
G1 X16.348 Y47.821 E0.32041
G1 X16.508 Y47.443 E0.01299
G1 X23.351 Y54.287 E0.30619
G1 X23.315 Y54.108 E0.00578
G1 X23.278 Y53.675 E0.01373
G1 X16.674 Y47.072 E0.29545
G1 X16.849 Y46.708 E0.01276
G1 X23.258 Y53.117 E0.28674
G1 X23.275 Y52.596 E0.01649
G1 X17.023 Y46.345 E0.27969
G1 X17.198 Y45.981 E0.01276
G1 X23.334 Y52.118 E0.27455
G1 X23.431 Y51.677 E0.01429
G1 X17.555 Y45.801 E0.26288
G1 X18.115 Y45.822 E0.01772
G1 X23.541 Y51.248 E0.24275
G1 X23.677 Y50.846 E0.01342
