; generated by PrusaSlicer 2.2.0+win64 on 2020-10-16 at 06:03:17 UTC


;
;

;
;
; 

; external perimeters extrusion width = 0.45mm
; perimeters extrusion width = 0.45mm
; infill extrusion width = 0.45mm
; solid infill extrusion width = 0.45mm
; top infill extrusion width = 0.40mm
; first layer extrusion width = 0.42mm

M73 P0 R60
M201 X1250 Y1250 Z400 E5000 ; sets maximum accelerations, mm/sec^2
M203 X180 Y180 Z12 E80 ; sets maximum feedrates, mm/sec
M204 P1250 R1250 T1250 ; sets acceleration (P, T) and retract acceleration (R), mm/sec^2
M205 X8.00 Y8.00 Z2.00 E10.00 ; sets the jerk limits, mm/sec
M205 S0 T0 ; sets the minimum extruding and travel feed rate, mm/sec
M107
G90 ; use absolute coordinates
M83 ; extruder relative mode
M104 S170 ; set extruder temp for bed leveling
M140 S60 ; set bed temp
M109 R170 ; wait for bed leveling temp
M190 S60 ; wait for bed temp
G28 ; home all without mesh bed level
G29 ; mesh bed leveling 
M104 S215 ; set extruder temp
G92 E0.0
G1 Y-2.0 X179 F2400
G1 Z3 F720
M109 S215 ; wait for extruder temp

; intro line
G1 X170 F1000
G1 Z0.2 F720
G1 X110.0 E8.0 F900
M73 P0 R60
G1 X40.0 E10.0 F700
G92 E0.0

M221 S95 ; set flow
G21 ; set units to millimeters
G90 ; use absolute coordinates
M83 ; use relative distances for extrusion
M900 K0.2 ; Filament gcode LA 1.5
; ; Filament gcode LA 1.0
;BEFORE_LAYER_CHANGE
G92 E0.0
;0.2


G1 Z0.200 F9000.000
;AFTER_LAYER_CHANGE
;0.2
G1 E-3.20000 F4200.00000
G1 Z0.400 F9000.000
G1 X11.250 Y38.951
G1 Z0.200
G1 E3.20000 F2400.00000
M204 S800
G1 F1200.000
G1 X12.369 Y38.774 E0.03554
G1 X122.515 Y43.069 E3.45616
G1 X124.169 Y43.260 E0.05223
G1 X125.799 Y43.704 E0.05297
G1 X127.557 Y44.510 E0.06062
G1 X174.008 Y71.085 E1.67794
G1 X175.533 Y72.276 E0.06069
G1 X176.826 Y73.758 E0.06167
G1 X177.359 Y74.582 E0.03079
G1 X177.903 Y75.662 E0.03790
G1 X178.503 Y77.519 E0.06119
G1 X178.688 Y78.760 E0.03933
G1 X178.682 Y91.589 E0.40226
G1 X171.344 Y137.699 E1.46395
G1 X171.114 Y138.521 E0.02677
G1 X170.734 Y139.274 E0.02642
G1 X170.226 Y139.930 E0.02603
G1 X169.574 Y140.500 E0.02715
G1 X168.857 Y140.914 E0.02596
G1 X167.971 Y141.208 E0.02927
G1 X160.009 Y141.226 E0.24963
G1 X18.082 Y118.570 E4.50635
G1 X17.451 Y118.374 E0.02071
G1 X16.590 Y117.867 E0.03135
G1 X14.959 Y116.698 E0.06290
G1 X13.722 Y115.604 E0.05177
G1 X12.591 Y114.402 E0.05177
G1 X11.377 Y112.815 E0.06264
G1 X1.697 Y96.575 E0.59278
G1 X1.476 Y96.062 E0.01752
G1 X1.380 Y95.512 E0.01752
G1 X1.708 Y87.271 E0.25858
G1 X9.019 Y41.488 E1.45369
G1 X9.190 Y40.909 E0.01894
G1 X9.452 Y40.385 E0.01837
G1 X9.804 Y39.910 E0.01854
G1 X10.218 Y39.516 E0.01791
G1 X10.720 Y39.182 E0.01891
G1 X11.195 Y38.975 E0.01623
M204 S1250
G1 E-2.24000 F4200.00000
G1 F7200.000
G1 X12.369 Y38.774 E-0.66032
G1 X12.823 Y38.792 E-0.25168
G1 E-0.04800 F4200.00000
G1 Z0.400 F9000.000
G1 X121.213 Y53.336
G1 Z0.200
G1 E3.20000 F2400.00000
M204 S800
G1 F1200.000
G1 X122.129 Y53.271 E0.02878
G1 X122.132 Y53.246 E0.00078
G1 X122.828 Y53.728 E0.02654
G1 X122.568 Y53.627 E0.00875
G1 X122.143 Y53.496 E0.01393
G1 X121.504 Y53.363 E0.02046
G1 X121.273 Y53.341 E0.00729
M204 S1250
G1 X122.107 Y52.762 F9000.000
M204 S800
G1 F1200.000
G1 X122.433 Y52.009 E0.02573
G1 X122.651 Y51.580 E0.01509
G1 X125.182 Y47.146 E0.16009
G1 X171.034 Y73.366 E1.65613
G1 X167.798 Y79.026 E0.20443
G1 X124.037 Y54.002 E1.58059
G1 X123.166 Y53.498 E0.03153
G1 X122.737 Y53.220 E0.01604
G1 X122.155 Y52.797 E0.02255
M204 S1250
G1 X121.751 Y52.579 F9000.000
G1 X122.326 Y51.389
M204 S800
G1 F1200.000
G1 X122.543 Y46.242 E0.16151
G1 X123.328 Y46.325 E0.02475
G1 X124.035 Y46.471 E0.02262
G1 X124.487 Y46.601 E0.01476
G1 X124.962 Y46.770 E0.01581
G1 X122.356 Y51.336 E0.16485
M204 S1250
G1 E-2.24000 F4200.00000
G1 F7200.000
G1 X122.416 Y49.692 E-0.91200
G1 E-0.04800 F4200.00000
G1 Z0.400 F9000.000
G1 X166.161 Y78.524
G1 Z0.200
G1 E3.20000 F2400.00000
M204 S800
G1 F1200.000
G1 X167.938 Y79.540 E0.06417
G1 X171.512 Y73.290 E0.22575
G1 X172.112 Y73.633 E0.02165
G1 X172.678 Y74.007 E0.02128
G1 X173.199 Y74.428 E0.02102
G1 X173.679 Y74.897 E0.02102
G1 X174.112 Y75.409 E0.02102
G1 X174.497 Y75.963 E0.02117
G1 X174.718 Y76.341 E0.01373
G1 X175.012 Y76.949 E0.02117
G1 X175.247 Y77.582 E0.02117
G1 X175.366 Y78.003 E0.01373
G1 X175.501 Y78.674 E0.02146
G1 X175.524 Y78.846 E0.00544
G1 X175.524 Y79.506 E0.02069
G1 X168.324 Y79.506 E0.22575
G1 X168.324 Y82.274 E0.08680
G1 X168.239 Y81.793 E0.01531
G1 X168.113 Y81.342 E0.01468
G1 X167.951 Y80.900 E0.01476
G1 X167.657 Y80.288 E0.02129
G1 X167.414 Y79.888 E0.01468
G1 X167.140 Y79.506 E0.01476
G1 X166.692 Y78.995 E0.02129
G1 X166.208 Y78.562 E0.02037
M204 S1250
G1 E-2.24000 F4200.00000
G1 F7200.000
G1 X167.641 Y79.372 E-0.91200
G1 E-0.04800 F4200.00000
G1 Z0.400 F9000.000
G1 X48.157 Y50.539
G1 Z0.200
G1 E3.20000 F2400.00000
M204 S800
G1 F1200.000
G1 X47.697 Y50.600 E0.01455
G1 X47.253 Y50.702 E0.01430
G1 X46.823 Y50.836 E0.01412
G1 X46.405 Y51.003 E0.01412
G1 X46.000 Y51.200 E0.01412
G1 X45.611 Y51.428 E0.01412
G1 X45.241 Y51.685 E0.01412
G1 X44.891 Y51.968 E0.01412
G1 X44.560 Y52.282 E0.01430
G1 X44.131 Y52.772 E0.02042
G1 X39.602 Y58.594 E0.23129
G1 X39.714 Y58.045 E0.01756
G1 X39.765 Y57.558 E0.01537
G1 X39.772 Y56.845 E0.02234
G1 X39.697 Y56.137 E0.02234
G1 X39.600 Y55.657 E0.01536
G1 X39.394 Y54.981 E0.02216
G1 X39.210 Y54.533 E0.01519
G1 X38.992 Y54.100 E0.01519
G1 X38.616 Y53.502 E0.02216
G1 X38.317 Y53.114 E0.01536
G1 X37.834 Y52.598 E0.02216
G1 X37.467 Y52.273 E0.01536
G1 X36.895 Y51.858 E0.02216
G1 X36.470 Y51.608 E0.01545
G1 X35.828 Y51.307 E0.02225
G1 X35.152 Y51.080 E0.02233
G1 X34.675 Y50.969 E0.01536
G1 X33.969 Y50.875 E0.02233
G1 X33.257 Y50.861 E0.02234
G1 X32.768 Y50.898 E0.01536
G1 X32.072 Y51.019 E0.02216
G1 X31.599 Y51.148 E0.01536
G1 X30.933 Y51.400 E0.02234
G1 X30.295 Y51.729 E0.02251
G1 X29.698 Y52.129 E0.02251
G1 X29.156 Y52.590 E0.02233
G1 X28.814 Y52.941 E0.01536
G1 X28.372 Y53.493 E0.02216
G1 X28.105 Y53.900 E0.01527
G1 X27.872 Y54.322 E0.01510
G1 X27.591 Y54.970 E0.02216
G1 X27.440 Y55.436 E0.01536
G1 X27.286 Y56.126 E0.02216
G1 X27.226 Y56.612 E0.01536
G1 X27.205 Y57.324 E0.02234
G1 X27.267 Y58.040 E0.02251
G1 X27.409 Y58.743 E0.02251
G1 X27.629 Y59.421 E0.02234
G1 X27.822 Y59.865 E0.01519
G1 X28.048 Y60.293 E0.01519
G1 X28.439 Y60.889 E0.02234
G1 X28.896 Y61.437 E0.02239
G1 X29.443 Y61.948 E0.02346
G1 X29.811 Y62.205 E0.01407
G1 X29.389 Y62.778 E0.02231
G1 X29.110 Y63.206 E0.01602
G1 X25.464 Y69.548 E0.22938
G1 X24.733 Y69.049 E0.02775
G1 X24.203 Y68.641 E0.02097
G1 X23.692 Y68.208 E0.02097
G1 X23.202 Y67.754 E0.02097
G1 X22.732 Y67.277 E0.02097
G1 X22.285 Y66.780 E0.02097
G1 X21.860 Y66.263 E0.02097
G1 X21.460 Y65.727 E0.02097
G1 X21.083 Y65.174 E0.02097
G1 X20.733 Y64.605 E0.02097
G1 X20.408 Y64.020 E0.02097
G1 X20.112 Y63.423 E0.02087
G1 X19.714 Y62.495 E0.03167
G1 X19.487 Y61.869 E0.02087
G1 X19.288 Y61.231 E0.02097
G1 X19.118 Y60.584 E0.02097
G1 X18.977 Y59.930 E0.02097
G1 X18.866 Y59.270 E0.02097
G1 X18.784 Y58.606 E0.02097
G1 X18.734 Y57.943 E0.02087
G1 X18.713 Y56.933 E0.03167
G1 X18.738 Y56.268 E0.02087
G1 X18.793 Y55.601 E0.02097
G1 X18.878 Y54.938 E0.02097
G1 X18.992 Y54.279 E0.02097
G1 X19.137 Y53.625 E0.02097
G1 X19.311 Y52.979 E0.02097
G1 X19.514 Y52.342 E0.02097
G1 X19.746 Y51.715 E0.02097
G1 X20.005 Y51.099 E0.02094
G1 X20.786 Y49.473 E0.05657
G1 X48.097 Y50.537 E0.85698
M204 S1250
G1 E-2.24000 F4200.00000
G1 F7200.000
G1 X47.697 Y50.600 E-0.22441
G1 X47.253 Y50.702 E-0.25267
G1 X46.823 Y50.836 E-0.24958
G1 X46.512 Y50.960 E-0.18534
G1 E-0.04800 F4200.00000
G1 Z0.400 F9000.000
G1 X38.867 Y54.689
G1 Z0.200
G1 E3.20000 F2400.00000
M204 S800
G1 F1200.000
G1 X39.039 Y55.107 E0.01417
G1 X39.234 Y55.749 E0.02103
G1 X39.324 Y56.194 E0.01424
G1 X39.394 Y56.863 E0.02110
G1 X39.388 Y57.536 E0.02110
G1 X39.341 Y57.988 E0.01424
G1 X39.206 Y58.646 E0.02107
G1 X39.069 Y59.081 E0.01430
G1 X38.885 Y59.501 E0.01437
G1 X38.540 Y60.071 E0.02089
G1 X38.157 Y60.608 E0.02069
G1 X37.738 Y61.111 E0.02053
G1 X37.419 Y61.427 E0.01408
G1 X36.907 Y61.846 E0.02074
G1 X36.350 Y62.204 E0.02074
G1 X35.955 Y62.408 E0.01394
G1 X35.546 Y62.581 E0.01394
G1 X34.915 Y62.779 E0.02074
G1 X34.265 Y62.904 E0.02074
G1 X33.822 Y62.946 E0.01394
G1 X33.378 Y62.955 E0.01394
G1 X32.719 Y62.904 E0.02074
G1 X32.069 Y62.779 E0.02074
G1 X31.640 Y62.654 E0.01400
G1 X31.029 Y62.409 E0.02066
G1 X30.051 Y61.912 E0.03440
G1 X29.674 Y61.650 E0.01438
G1 X29.174 Y61.181 E0.02149
G1 X28.742 Y60.664 E0.02112
G1 X28.373 Y60.101 E0.02110
G1 X28.162 Y59.702 E0.01417
G1 X27.982 Y59.287 E0.01417
G1 X27.775 Y58.647 E0.02110
G1 X27.641 Y57.986 E0.02116
G1 X27.583 Y57.313 E0.02116
G1 X27.602 Y56.641 E0.02110
G1 X27.658 Y56.190 E0.01424
G1 X27.804 Y55.536 E0.02103
G1 X27.944 Y55.104 E0.01424
G1 X28.211 Y54.488 E0.02103
G1 X28.428 Y54.095 E0.01409
G1 X28.678 Y53.715 E0.01426
G1 X29.097 Y53.191 E0.02103
G1 X29.414 Y52.866 E0.01424
G1 X29.926 Y52.430 E0.02109
G1 X30.487 Y52.054 E0.02116
G1 X31.087 Y51.745 E0.02116
G1 X31.716 Y51.507 E0.02110
G1 X32.154 Y51.387 E0.01424
G1 X32.815 Y51.273 E0.02103
G1 X33.268 Y51.239 E0.01424
G1 X33.940 Y51.251 E0.02110
G1 X34.607 Y51.341 E0.02109
G1 X35.050 Y51.444 E0.01424
G1 X35.687 Y51.658 E0.02110
G1 X36.294 Y51.942 E0.02101
G1 X36.688 Y52.174 E0.01432
G1 X37.230 Y52.568 E0.02103
G1 X37.571 Y52.869 E0.01424
G1 X38.029 Y53.358 E0.02103
G1 X38.306 Y53.718 E0.01424
G1 X38.664 Y54.286 E0.02103
G1 X38.840 Y54.636 E0.01229
M204 S1250
G1 X39.265 Y54.725 F9000.000
G1 E-2.24000 F4200.00000
G1 F7200.000
G1 X39.039 Y55.107 E-0.28365
G1 X39.234 Y55.749 E-0.37172
G1 X39.324 Y56.194 E-0.25163
G1 X39.325 Y56.203 E-0.00500
G1 E-0.04800 F4200.00000
G1 Z0.400 F9000.000
G1 X12.417 Y42.244
G1 Z0.200
G1 E3.20000 F2400.00000
M204 S800
G1 F1200.000
G1 X122.154 Y46.525 E3.44335
G1 X121.936 Y51.689 E0.16206
G1 X121.791 Y52.917 E0.03877
G1 X121.011 Y52.972 E0.02453
G1 X120.501 Y52.980 E0.01599
G1 X12.163 Y48.759 E3.39944
M73 P1 R59
G1 X12.414 Y42.304 E0.20255
M204 S1250
G1 X12.238 Y41.887 F9000.000
G1 E-2.24000 F4200.00000
G1 F7200.000
G1 X14.059 Y42.367 E-0.91200
G1 E-0.04800 F4200.00000
G1 Z0.400 F9000.000
G1 X175.221 Y79.883
G1 Z0.200
G1 E3.20000 F2400.00000
M204 S800
G1 F1200.000
G1 X168.701 Y79.883 E0.20443
G1 X168.701 Y92.883 E0.40761
G1 X168.021 Y92.883 E0.02132
G1 X168.021 Y83.154 E0.30504
G1 X167.984 Y82.514 E0.02010
G1 X167.871 Y81.877 E0.02029
G1 X167.754 Y81.458 E0.01364
G1 X167.604 Y81.047 E0.01372
G1 X167.325 Y80.468 E0.02014
G1 X167.100 Y80.096 E0.01364
G1 X166.844 Y79.741 E0.01372
G1 X166.420 Y79.258 E0.02014
G1 X166.103 Y78.961 E0.01364
G1 X165.764 Y78.689 E0.01364
G1 X165.228 Y78.340 E0.02004
G1 X123.371 Y54.404 E1.51183
G1 X122.829 Y54.133 E0.01902
G1 X122.444 Y53.983 E0.01294
G1 X122.049 Y53.862 E0.01294
G1 X121.448 Y53.737 E0.01926
G1 X120.842 Y53.679 E0.01908
G1 X49.014 Y50.877 E2.25383
G1 X48.389 Y50.889 E0.01958
G1 X47.765 Y50.971 E0.01977
G1 X47.352 Y51.067 E0.01329
G1 X46.949 Y51.192 E0.01322
G1 X46.557 Y51.348 E0.01322
G1 X46.178 Y51.533 E0.01322
G1 X45.814 Y51.746 E0.01322
G1 X45.468 Y51.986 E0.01322
G1 X45.140 Y52.252 E0.01322
G1 X44.832 Y52.543 E0.01329
G1 X44.422 Y53.012 E0.01952
G1 X39.675 Y59.114 E0.24240
G1 X39.384 Y59.506 E0.01532
G1 X38.561 Y60.698 E0.04541
G1 X38.275 Y61.069 E0.01469
G1 X37.996 Y61.387 E0.01328
G1 X37.695 Y61.686 E0.01329
G1 X37.375 Y61.962 E0.01324
G1 X36.857 Y62.337 E0.02005
G1 X36.495 Y62.555 E0.01324
G1 X36.118 Y62.748 E0.01329
G1 X35.728 Y62.914 E0.01329
G1 X35.327 Y63.054 E0.01330
G1 X34.918 Y63.166 E0.01330
G1 X34.503 Y63.250 E0.01330
G1 X34.082 Y63.305 E0.01329
G1 X33.659 Y63.330 E0.01329
G1 X33.235 Y63.327 E0.01330
G1 X32.812 Y63.295 E0.01330
G1 X32.392 Y63.235 E0.01330
G1 X31.978 Y63.145 E0.01329
G1 X31.571 Y63.027 E0.01329
G1 X31.172 Y62.882 E0.01330
G1 X30.785 Y62.710 E0.01329
G1 X30.155 Y62.374 E0.02240
G1 X29.699 Y62.993 E0.02409
G1 X29.432 Y63.403 E0.01536
G1 X25.595 Y70.076 E0.24134
G1 X25.071 Y69.746 E0.01943
G1 X24.509 Y69.353 E0.02149
G1 X23.966 Y68.934 E0.02151
G1 X23.442 Y68.491 E0.02151
G1 X22.939 Y68.024 E0.02151
G1 X22.458 Y67.536 E0.02151
G1 X21.999 Y67.026 E0.02151
G1 X21.563 Y66.496 E0.02151
G1 X21.152 Y65.946 E0.02151
G1 X20.767 Y65.379 E0.02151
G1 X20.407 Y64.795 E0.02151
G1 X20.074 Y64.195 E0.02151
G1 X19.770 Y63.582 E0.02147
G1 X19.364 Y62.634 E0.03234
G1 X19.130 Y61.990 E0.02147
G1 X18.926 Y61.335 E0.02151
G1 X18.751 Y60.672 E0.02151
G1 X18.606 Y60.001 E0.02151
G1 X18.492 Y59.325 E0.02151
G1 X18.409 Y58.644 E0.02151
G1 X18.357 Y57.961 E0.02147
G1 X18.336 Y56.930 E0.03234
G1 X18.361 Y56.245 E0.02147
G1 X18.418 Y55.562 E0.02151
G1 X18.505 Y54.881 E0.02151
G1 X18.622 Y54.205 E0.02151
G1 X18.771 Y53.536 E0.02151
G1 X18.949 Y52.873 E0.02151
G1 X19.157 Y52.219 E0.02151
G1 X19.395 Y51.576 E0.02151
G1 X19.661 Y50.944 E0.02150
G1 X20.232 Y49.755 E0.04137
G1 X11.457 Y49.412 E0.27535
G1 X11.757 Y42.022 E0.23191
G1 X11.807 Y41.882 E0.00467
G1 X11.895 Y41.755 E0.00481
G1 X12.094 Y41.612 E0.00770
G1 X12.312 Y41.563 E0.00699
G1 X12.852 Y41.581 E0.01696
G1 X122.398 Y45.854 E3.43732
G1 X122.899 Y45.889 E0.01575
G1 X123.391 Y45.953 E0.01556
G1 X124.125 Y46.105 E0.02351
G1 X124.602 Y46.241 E0.01556
G1 X125.071 Y46.407 E0.01561
G1 X125.526 Y46.599 E0.01546
G1 X126.200 Y46.945 E0.02375
G1 X172.309 Y73.311 E1.66542
G1 X172.901 Y73.703 E0.02223
G1 X173.450 Y74.146 E0.02214
G1 X173.955 Y74.640 E0.02214
G1 X174.411 Y75.179 E0.02214
G1 X174.815 Y75.760 E0.02219
G1 X175.051 Y76.163 E0.01466
G1 X175.359 Y76.801 E0.02219
G1 X175.606 Y77.464 E0.02219
G1 X175.733 Y77.914 E0.01466
G1 X175.901 Y78.820 E0.02890
G1 X175.901 Y91.343 E0.39265
G1 X175.872 Y91.658 E0.00990
G1 X175.821 Y91.855 E0.00637
G1 X175.758 Y92.037 E0.00606
G1 X175.620 Y92.302 E0.00936
G1 X175.563 Y92.339 E0.00213
G1 X175.407 Y92.521 E0.00752
G1 X175.166 Y92.694 E0.00930
G1 X175.106 Y92.330 E0.01156
G1 X175.181 Y91.872 E0.01453
G1 X175.215 Y91.375 E0.01563
G1 X175.221 Y90.887 E0.01532
G1 X175.221 Y79.943 E0.34314
M204 S1250
G1 X175.221 Y79.483 F9000.000
G1 X175.561 Y79.694
M204 S800
G1 F1200.000
G1 X175.561 Y90.890 E0.28242
G1 X175.555 Y91.385 E0.01249
G1 X175.512 Y91.761 E0.00956
M204 S1250
M204 S800
G1 X175.483 Y91.902 E0.00321
M204 S1250
M204 S800
G1 X175.442 Y92.021 E0.00242
M204 S1250
M204 S800
G1 X175.402 Y92.130 E0.00178
M204 S1250
M204 S800
G1 X175.400 Y92.137 E0.00008
M204 S1250
G1 E-2.24000 F4200.00000
G1 F7200.000
G1 X175.402 Y92.130 E-0.00390
G1 E-0.95610 F4200.00000
G1 Z0.400 F9000.000
G1 X168.361 Y92.694
G1 Z0.200
G1 E3.20000 F2400.00000
M204 S800
G1 F1200.000
G1 X168.361 Y83.149 E0.24044
G1 X168.341 Y82.462 E0.01731
M204 S1250
G1 E-2.24000 F4200.00000
G1 F7200.000
G1 X168.361 Y83.149 E-0.38078
G1 X168.361 Y84.107 E-0.53122
G1 E-0.04800 F4200.00000
G1 Z0.400 F9000.000
G1 X168.211 Y80.250
G1 Z0.200
G1 E3.20000 F2400.00000
M204 S800
G1 F1200.000
G1 X167.847 Y79.886 E0.01621
M204 S1250
G1 X167.757 Y79.817 F9000.000
M204 S800
G1 F1200.000
G1 X167.665 Y79.727 E0.00241
M204 S1250
M204 S800
G1 X167.359 Y79.440 E0.00764
M204 S1250
G1 X168.435 Y78.898 F9000.000
M204 S800
G1 F1200.000
G1 X168.760 Y79.223 E0.01490
G1 X169.312 Y79.223 E0.01793
G1 X168.761 Y78.671 E0.02532
G1 X168.962 Y78.320 E0.01314
G1 X169.864 Y79.223 E0.04145
G1 X170.417 Y79.223 E0.01793
G1 X169.162 Y77.969 E0.05758
G1 X169.363 Y77.617 E0.01314
G1 X170.969 Y79.223 E0.07371
G1 X171.521 Y79.223 E0.01793
G1 X169.564 Y77.266 E0.08984
G1 X169.765 Y76.915 E0.01314
G1 X172.073 Y79.223 E0.10597
G1 X172.625 Y79.223 E0.01793
G1 X169.966 Y76.563 E0.12210
G1 X170.167 Y76.212 E0.01314
G1 X173.178 Y79.223 E0.13823
G1 X173.730 Y79.223 E0.01793
G1 X170.368 Y75.861 E0.15436
G1 X170.569 Y75.510 E0.01314
G1 X174.282 Y79.223 E0.17049
G1 X174.834 Y79.223 E0.01793
G1 X170.770 Y75.158 E0.18662
G1 X170.970 Y74.807 E0.01314
G1 X175.241 Y79.078 E0.19611
G1 X175.241 Y78.872 E0.00669
G1 X175.162 Y78.446 E0.01407
G1 X171.171 Y74.456 E0.18322
G1 X171.372 Y74.104 E0.01314
G1 X174.994 Y77.726 E0.16629
G1 X174.751 Y77.060 E0.02302
G1 X174.631 Y76.811 E0.00895
G1 X171.573 Y73.753 E0.14043
G1 X171.617 Y73.676 E0.00289
G1 X171.963 Y73.873 E0.01293
G1 X172.510 Y74.236 E0.02131
