; generated by PrusaSlicer 2.3.0+win64 on 2021-08-16 at 19:09:27 UTC


;
;

;
;
; 

; external perimeters extrusion width = 0.45mm
; perimeters extrusion width = 0.45mm
; infill extrusion width = 0.45mm
; solid infill extrusion width = 0.45mm
; top infill extrusion width = 0.40mm
; first layer extrusion width = 0.42mm

M73 P0 R9
M201 X1250 Y1250 Z400 E5000 ; sets maximum accelerations, mm/sec^2
M203 X180 Y180 Z12 E80 ; sets maximum feedrates, mm/sec
M204 P1250 R1250 T1250 ; sets acceleration (P, T) and retract acceleration (R), mm/sec^2
M205 X8.00 Y8.00 Z2.00 E10.00 ; sets the jerk limits, mm/sec
M205 S0 T0 ; sets the minimum extruding and travel feed rate, mm/sec
M107
;TYPE:Custom
G90 ; use absolute coordinates
M83 ; extruder relative mode
M104 S170 ; set extruder temp for bed leveling
M140 S60 ; set bed temp
M109 R170 ; wait for bed leveling temp
M190 S60 ; wait for bed temp
G28 ; home all without mesh bed level
G29 ; mesh bed leveling 
M104 S215 ; set extruder temp
G92 E0.0
G1 Y-2.0 X179 F2400
G1 Z3 F720
M109 S215 ; wait for extruder temp

; intro line
G1 X170 F1000
G1 Z0.2 F720
M73 P1 R9
G1 X110.0 E8.0 F900
G1 X40.0 E10.0 F700
G92 E0.0

M221 S95 ; set flow
G21 ; set units to millimeters
G90 ; use absolute coordinates
M83 ; use relative distances for extrusion
M900 K0.2 ; Filament gcode LA 1.5
; ; Filament gcode LA 1.0
;LAYER_CHANGE
;Z:0.2
;HEIGHT:0.2
;BEFORE_LAYER_CHANGE
G92 E0.0
;0.2


M73 P2 R9
G1 E-3.20000 F4200.000
G1 Z0.200 F9000.000
;AFTER_LAYER_CHANGE
;0.2
G1 Z0.400
G1 X67.596 Y98.250
M73 P3 R9
G1 Z0.200
G1 E3.20000 F2400.000
M204 S800
;TYPE:Skirt
;WIDTH:0.42
G1 F1200.000
G1 X67.375 Y97.261 E0.03178
G1 X67.430 Y96.233 E0.03227
G1 X67.756 Y95.270 E0.03187
G1 X68.632 Y93.936 E0.05003
G1 X90.703 Y70.072 E1.01923
G1 X91.429 Y69.481 E0.02934
G1 X92.232 Y69.053 E0.02853
G1 X93.093 Y68.789 E0.02824
G1 X94.025 Y68.690 E0.02941
G1 X95.199 Y68.830 E0.03705
G1 X96.356 Y69.285 E0.03898
G1 X111.285 Y78.512 E0.55028
G1 X111.870 Y79.088 E0.02571
G1 X112.351 Y79.763 E0.02601
G1 X112.672 Y80.421 E0.02295
G1 X112.907 Y81.206 E0.02571
G1 X113.005 Y82.030 E0.02601
G1 X112.970 Y82.762 E0.02299
G1 X112.799 Y83.564 E0.02571
G1 X112.482 Y84.345 E0.02642
G1 X103.073 Y99.675 E0.56398
G1 X102.356 Y100.550 E0.03544
G1 X101.438 Y101.238 E0.03598
G1 X100.824 Y101.536 E0.02139
G1 X100.094 Y101.761 E0.02398
G1 X79.351 Y106.295 E0.66572
M73 P4 R9
G1 X78.440 Y106.361 E0.02865
G1 X77.474 Y106.288 E0.03036
G1 X76.403 Y106.040 E0.03448
G1 X75.497 Y105.676 E0.03061
G1 X74.750 Y105.251 E0.02693
G1 X74.030 Y104.705 E0.02833
G1 X68.576 Y99.710 E0.23189
G1 X68.124 Y99.213 E0.02106
G1 X67.625 Y98.302 E0.03256
M204 S1250
G1 X68.434 Y98.997 F9000.000
M204 S800
G1 F1200.000
G1 X67.980 Y98.198 E0.02882
G1 X67.750 Y97.223 E0.03142
G1 X67.802 Y96.293 E0.02918
G1 X68.102 Y95.421 E0.02894
G1 X68.913 Y94.188 E0.04625
G1 X90.967 Y70.341 E1.01845
G1 X91.638 Y69.794 E0.02714
G1 X92.378 Y69.400 E0.02629
G1 X93.167 Y69.158 E0.02588
G1 X94.026 Y69.067 E0.02708
G1 X95.107 Y69.196 E0.03413
G1 X96.173 Y69.615 E0.03590
G1 X111.027 Y78.788 E0.54738
G1 X111.579 Y79.328 E0.02422
G1 X112.024 Y79.952 E0.02405
G1 X112.320 Y80.555 E0.02104
G1 X112.538 Y81.281 E0.02376
G1 X112.628 Y82.047 E0.02418
G1 X112.595 Y82.718 E0.02107
G1 X112.437 Y83.459 E0.02376
G1 X112.135 Y84.194 E0.02492
G1 X102.761 Y99.464 E0.56179
G1 X102.097 Y100.276 E0.03291
G1 X101.245 Y100.915 E0.03336
G1 X100.686 Y101.185 E0.01947
G1 X100.007 Y101.394 E0.02229
M73 P5 R9
G1 X79.280 Y105.925 E0.66522
G1 X78.383 Y105.983 E0.02818
G1 X77.315 Y105.880 E0.03365
G1 X76.441 Y105.655 E0.02829
G1 X75.485 Y105.247 E0.03259
G1 X74.269 Y104.413 E0.04623
G1 X68.478 Y99.038 E0.24774
M204 S1250
; printing object Hook04.stl id:0 copy 0
G1 E-2.24000 F4200.000
;WIPE_START
G1 F7200.000
G1 X67.980 Y98.198 E-0.54125
G1 X67.826 Y97.547 E-0.37075
;WIPE_END
G1 E-0.04800 F4200.000
G1 Z0.400 F9000.000
G1 X70.945 Y97.057
G1 Z0.200
G1 E3.20000 F2400.000
M204 S800
;TYPE:Perimeter
G1 F1200.000
G1 X70.917 Y96.992 E0.00222
G1 X70.911 Y96.892 E0.00314
G1 X71.245 Y96.335 E0.02039
G1 X71.290 Y96.289 E0.00200
G1 X71.388 Y96.246 E0.00337
G1 X71.507 Y96.261 E0.00376
G1 X75.282 Y98.577 E0.13886
G1 X75.969 Y97.582 E0.03791
G1 X76.254 Y97.273 E0.01318
G1 X76.460 Y97.094 E0.00853
G1 X76.923 Y96.787 E0.01745
G1 X77.174 Y96.664 E0.00873
G1 X77.701 Y96.486 E0.01745
G1 X77.974 Y96.432 E0.00872
G1 X78.371 Y96.389 E0.01253
G1 X82.836 Y94.838 E0.14821
G1 X83.897 Y97.487 E0.08947
G1 X81.017 Y98.487 E0.09561
G1 X80.830 Y98.135 E0.01251
G1 X80.532 Y97.739 E0.01555
G1 X80.274 Y97.489 E0.01125
G1 X79.994 Y97.278 E0.01098
G1 X79.682 Y97.100 E0.01127
G1 X79.209 Y96.920 E0.01588
G1 X78.857 Y96.847 E0.01127
G1 X78.499 Y96.818 E0.01127
G1 X77.994 Y96.857 E0.01588
G1 X77.645 Y96.941 E0.01127
G1 X77.317 Y97.064 E0.01098
G1 X76.999 Y97.232 E0.01127
G1 X76.594 Y97.535 E0.01588
G1 X76.343 Y97.793 E0.01127
G1 X76.133 Y98.073 E0.01098
G1 X75.954 Y98.385 E0.01127
G1 X75.774 Y98.858 E0.01588
G1 X75.701 Y99.210 E0.01127
G1 X75.673 Y99.559 E0.01098
G1 X75.689 Y99.909 E0.01098
G1 X75.749 Y100.254 E0.01098
G1 X75.854 Y100.597 E0.01127
G1 X76.080 Y101.061 E0.01617
G1 X76.394 Y101.481 E0.01646
G1 X76.782 Y101.835 E0.01646
G1 X77.229 Y102.110 E0.01646
G1 X77.720 Y102.297 E0.01646
G1 X78.237 Y102.388 E0.01646
G1 X78.835 Y102.366 E0.01877
G1 X78.915 Y102.581 E0.00719
G1 X78.912 Y102.635 E0.00169
G1 X78.873 Y102.721 E0.00295
G1 X78.765 Y102.796 E0.00413
G1 X78.575 Y102.817 E0.00598
G1 X78.299 Y102.815 E0.00865
G1 X78.023 Y102.789 E0.00870
G1 X77.594 Y102.700 E0.01376
G1 X77.330 Y102.614 E0.00870
G1 X77.069 Y102.502 E0.00890
G1 X76.818 Y102.368 E0.00890
G1 X76.581 Y102.212 E0.00890
G1 X76.363 Y102.040 E0.00870
G1 X76.051 Y101.731 E0.01376
G1 X75.722 Y101.285 E0.01738
G1 X75.519 Y100.896 E0.01376
G1 X75.418 Y100.637 E0.00870
G1 X75.340 Y100.366 E0.00886
G1 X75.215 Y99.716 E0.02075
G1 X70.986 Y97.101 E0.15590
M204 S1250
G1 E-2.24000 F4200.000
;WIPE_START
G1 F7200.000
G1 X70.917 Y96.992 E-0.07136
G1 X70.911 Y96.892 E-0.05547
G1 X71.245 Y96.335 E-0.36035
G1 X71.290 Y96.289 E-0.03534
G1 X71.388 Y96.246 E-0.05957
G1 X71.507 Y96.261 E-0.06650
G1 X71.912 Y96.510 E-0.26342
;WIPE_END
G1 E-0.04800 F4200.000
G1 Z0.400 F9000.000
G1 X74.876 Y99.950
G1 Z0.200
G1 E3.20000 F2400.000
M204 S800
;TYPE:External perimeter
G1 F1200.000
G1 X70.772 Y97.423 E0.15111
G1 X70.626 Y97.268 E0.00668
G1 X70.545 Y97.081 E0.00639
G1 X70.532 Y96.873 E0.00653
G1 X70.568 Y96.732 E0.00456
G1 X70.944 Y96.104 E0.02298
G1 X71.053 Y95.991 E0.00492
G1 X71.185 Y95.912 E0.00481
G1 X71.333 Y95.870 E0.00481
G1 X71.486 Y95.867 E0.00481
G1 X71.639 Y95.906 E0.00495
G1 X71.739 Y95.956 E0.00350
G1 X75.175 Y98.068 E0.12647
G1 X75.674 Y97.345 E0.02754
G1 X75.991 Y97.002 E0.01466
G1 X76.224 Y96.799 E0.00969
G1 X76.476 Y96.616 E0.00976
G1 X76.743 Y96.455 E0.00976
G1 X77.022 Y96.318 E0.00976
G1 X77.313 Y96.206 E0.00976
M73 P6 R9
G1 X77.612 Y96.119 E0.00976
G1 X77.917 Y96.059 E0.00975
G1 X78.288 Y96.019 E0.01171
G1 X83.052 Y94.363 E0.15814
G1 X84.234 Y97.314 E0.09965
G1 X86.739 Y96.308 E0.08463
G1 X87.923 Y95.785 E0.04058
G1 X86.710 Y93.219 E0.08899
G1 X86.697 Y93.111 E0.00340
G1 X86.934 Y93.014 E0.00803
G1 X87.077 Y93.157 E0.00635
G1 X88.127 Y95.296 E0.07471
G1 X88.636 Y96.239 E0.03362
G1 X80.790 Y98.966 E0.26044
G1 X80.659 Y98.617 E0.01168
G1 X80.511 Y98.338 E0.00989
G1 X80.248 Y97.989 E0.01371
G1 X80.028 Y97.776 E0.00959
G1 X79.787 Y97.594 E0.00949
G1 X79.521 Y97.442 E0.00959
G1 X79.103 Y97.283 E0.01402
G1 X78.803 Y97.221 E0.00959
G1 X78.498 Y97.197 E0.00959
G1 X78.053 Y97.231 E0.01402
G1 X77.755 Y97.302 E0.00959
G1 X77.472 Y97.409 E0.00949
G1 X77.201 Y97.552 E0.00959
G1 X76.843 Y97.820 E0.01402
G1 X76.630 Y98.039 E0.00959
G1 X76.448 Y98.281 E0.00949
G1 X76.296 Y98.546 E0.00959
G1 X76.138 Y98.964 E0.01402
G1 X76.075 Y99.264 E0.00959
G1 X76.051 Y99.565 E0.00949
G1 X76.065 Y99.868 E0.00949
G1 X76.116 Y100.166 E0.00949
G1 X76.206 Y100.459 E0.00959
G1 X76.403 Y100.863 E0.01412
G1 X76.675 Y101.227 E0.01423
G1 X77.010 Y101.533 E0.01423
G1 X77.396 Y101.770 E0.01423
G1 X77.821 Y101.931 E0.01423
G1 X78.267 Y102.010 E0.01423
G1 X78.718 Y102.004 E0.01412
G1 X79.061 Y101.945 E0.01091
G1 X79.262 Y102.398 E0.01556
G1 X79.294 Y102.553 E0.00495
G1 X79.286 Y102.705 E0.00479
G1 X79.238 Y102.851 E0.00479
G1 X79.157 Y102.975 E0.00464
G1 X78.994 Y103.110 E0.00665
G1 X78.858 Y103.165 E0.00459
G1 X78.595 Y103.194 E0.00831
G1 X78.280 Y103.192 E0.00986
G1 X77.967 Y103.162 E0.00988
G1 X77.496 Y103.065 E0.01507
G1 X77.197 Y102.967 E0.00988
G1 X76.905 Y102.842 E0.00995
G1 X76.625 Y102.692 E0.00995
G1 X76.360 Y102.518 E0.00995
G1 X76.113 Y102.322 E0.00988
G1 X75.771 Y101.984 E0.01507
G1 X75.573 Y101.739 E0.00988
G1 X75.397 Y101.478 E0.00988
G1 X75.175 Y101.052 E0.01507
G1 X75.061 Y100.758 E0.00988
G1 X74.973 Y100.454 E0.00994
G1 X74.887 Y100.009 E0.01421
M204 S1250
G1 X74.992 Y99.567 F9000.000
G1 X75.498 Y100.057
M204 S800
;TYPE:Gap fill
;WIDTH:0.0950973
G1 F1200.000
G1 X75.443 Y99.662 E0.00173
M204 S1250
G1 X75.444 Y98.898 F9000.000
M204 S800
;WIDTH:0.242466
G1 F1200.000
G1 X75.583 Y98.610 E0.00530
M204 S1250
M204 S800
;WIDTH:0.11175
G1 X75.884 Y98.080 E0.00349
M204 S1250
G1 X76.513 Y97.330 F9000.000
M204 S800
;WIDTH:0.0957077
G1 F1200.000
G1 X76.844 Y97.082 E0.00182
M204 S1250
G1 X76.981 Y97.001 F9000.000
M204 S800
;WIDTH:0.0948507
G1 F1200.000
G1 X77.094 Y96.940 E0.00055
M204 S1250
G1 X77.692 Y96.711 F9000.000
M204 S800
;WIDTH:0.0950921
G1 F1200.000
G1 X77.821 Y96.680 E0.00058
M204 S1250
G1 X78.023 Y96.641 F9000.000
M204 S800
;WIDTH:0.105312
G1 F1200.000
G1 X78.423 Y96.604 E0.00209
M204 S1250
M204 S800
;WIDTH:0.12666
G1 X78.752 Y96.546 E0.00233
M204 S1250
G1 X78.503 Y96.543 F9000.000
M204 S800
;WIDTH:0.103664
G1 F1200.000
G1 X78.978 Y96.656 E0.00247
M204 S1250
G1 E-2.24000 F4200.000
;WIPE_START
G1 F7200.000
G1 X78.503 Y96.543 E-0.27046
;WIPE_END
G1 E-0.68954 F4200.000
G1 Z0.400 F9000.000
G1 X83.307 Y96.318
G1 Z0.200
G1 E3.20000 F2400.000
M204 S800
;TYPE:Solid infill
;WIDTH:0.437258
G1 F1200.000
G1 X82.309 Y95.320 E0.04628
G1 X81.896 Y95.464 E0.01437
G1 X83.375 Y96.944 E0.06861
G1 X83.525 Y97.317 E0.01318
G1 X83.277 Y97.403 E0.00861
G1 X81.482 Y95.608 E0.08324
M73 P6 R8
G1 X81.068 Y95.752 E0.01437
G1 X82.863 Y97.547 E0.08324
G1 X82.449 Y97.691 E0.01437
G1 X80.654 Y95.895 E0.08324
G1 X80.240 Y96.039 E0.01437
G1 X82.035 Y97.834 E0.08324
G1 X81.621 Y97.978 E0.01437
G1 X79.826 Y96.183 E0.08324
G1 X79.412 Y96.327 E0.01437
G1 X81.341 Y98.255 E0.08942
M204 S1250
G1 E-2.24000 F4200.000
;WIPE_START
G1 F7200.000
G1 X80.177 Y97.092 E-0.91200
;WIPE_END
G1 E-0.04800 F4200.000
G1 Z0.400 F9000.000
G1 X84.236 Y97.543
G1 Z0.200
G1 E3.20000 F2400.000
M204 S800
;TYPE:Gap fill
;WIDTH:0.13701
G1 F1200.000
G1 X85.106 Y97.217 E0.00727
M204 S1250
M204 S800
;WIDTH:0.180701
G1 X85.976 Y96.891 E0.01064
M204 S1250
M204 S800
;WIDTH:0.224591
G1 X86.849 Y96.565 E0.01408
M204 S1250
M204 S800
;WIDTH:0.262633
G1 X87.330 Y96.375 E0.00944
M204 S1250
M204 S800
;WIDTH:0.300675
G1 X87.810 Y96.186 E0.01107
M204 S1250
M204 S800
;WIDTH:0.338717
G1 X88.291 Y95.997 E0.01271
M204 S1250
G1 E-2.24000 F4200.000
;WIPE_START
G1 F7200.000
G1 X87.810 Y96.186 E-0.28631
;WIPE_END
G1 E-0.67369 F4200.000
G1 Z0.400 F9000.000
G1 X78.652 Y102.595
G1 Z0.200
G1 E3.20000 F2400.000
M204 S800
;WIDTH:0.0994027
M73 P7 R8
G1 F1200.000
G1 X78.276 Y102.600 E0.00177
M204 S1250
G1 X78.137 Y102.586 F9000.000
M204 S800
;WIDTH:0.0978723
G1 F1200.000
G1 X77.884 Y102.542 E0.00117
M204 S1250
G1 X77.573 Y102.469 F9000.000
M204 S800
;WIDTH:0.100494
G1 F1200.000
G1 X77.221 Y102.335 E0.00180
M204 S1250
G1 X77.052 Y102.251 F9000.000
M204 S800
;WIDTH:0.100184
G1 F1200.000
G1 X76.712 Y102.042 E0.00190
M204 S1250
G1 X76.586 Y101.944 F9000.000
M204 S800
;WIDTH:0.0988433
G1 F1200.000
G1 X76.389 Y101.765 E0.00124
M204 S1250
G1 X76.183 Y101.554 F9000.000
M204 S800
;WIDTH:0.100447
G1 F1200.000
G1 X75.956 Y101.250 E0.00181
M204 S1250
G1 X75.796 Y100.965 F9000.000
M204 S800
;WIDTH:0.0974993
G1 F1200.000
G1 X75.686 Y100.738 E0.00115
M204 S1250
G1 E-2.24000 F4200.000
;WIPE_START
G1 F7200.000
G1 X75.796 Y100.965 E-0.14030
;WIPE_END
G1 E-0.81970 F4200.000
G1 Z0.400 F9000.000
G1 X75.185 Y98.905
G1 Z0.200
G1 E3.20000 F2400.000
M204 S800
;TYPE:Solid infill
;WIDTH:0.495415
G1 F1200.000
G1 X75.041 Y98.761 E0.00767
G1 X73.386 Y97.746 E0.07305
G1 X74.718 Y99.078 E0.07089
G1 X73.053 Y98.053 E0.07358
G1 X71.731 Y96.731 E0.07034
G1 X71.443 Y96.554 E0.01270
G1 X71.245 Y96.885 E0.01450
G1 X71.907 Y97.546 E0.03518
M204 S1250
G1 E-2.24000 F4200.000
;WIPE_START
G1 F7200.000
G1 X71.245 Y96.885 E-0.51818
G1 X71.443 Y96.554 E-0.21356
G1 X71.721 Y96.724 E-0.18026
;WIPE_END
G1 E-0.04800 F4200.000
G1 Z0.400 F9000.000
G1 X86.658 Y88.935
G1 Z0.200
G1 E3.20000 F2400.000
M204 S800
;TYPE:Perimeter
;WIDTH:0.42
G1 F1200.000
G1 X86.413 Y88.470 E0.01646
G1 X86.259 Y87.968 E0.01646
G1 X86.203 Y87.446 E0.01645
G1 X86.242 Y86.943 E0.01582
G1 X86.330 Y86.574 E0.01189
G1 X86.525 Y86.106 E0.01591
G1 X92.675 Y76.093 E0.36845
G1 X92.865 Y75.824 E0.01030
G1 X93.101 Y75.566 E0.01098
G1 X93.367 Y75.339 E0.01098
G1 X93.660 Y75.147 E0.01098
G1 X93.975 Y74.993 E0.01098
G1 X94.306 Y74.880 E0.01098
G1 X94.649 Y74.810 E0.01097
G1 X94.987 Y74.783 E0.01063
G1 X95.347 Y74.800 E0.01131
G1 X95.693 Y74.861 E0.01101
G1 X96.036 Y74.967 E0.01127
G1 X96.472 Y75.180 E0.01520
G1 X105.604 Y80.795 E0.33613
G1 X105.873 Y80.984 E0.01030
G1 X106.138 Y81.226 E0.01127
G1 X106.460 Y81.629 E0.01617
G1 X106.705 Y82.094 E0.01646
G1 X106.856 Y82.587 E0.01617
G1 X106.907 Y82.952 E0.01156
G1 X106.899 Y83.468 E0.01617
G1 X106.791 Y83.982 E0.01646
G1 X106.593 Y84.458 E0.01617
G1 X100.443 Y94.471 E0.36845
G1 X100.253 Y94.740 E0.01030
G1 X100.011 Y95.005 E0.01127
G1 X99.608 Y95.327 E0.01617
G1 X99.144 Y95.572 E0.01646
G1 X98.642 Y95.726 E0.01646
G1 X98.120 Y95.782 E0.01646
G1 X97.597 Y95.741 E0.01645
G1 X97.110 Y95.607 E0.01582
G1 X96.772 Y95.456 E0.01160
G1 X87.514 Y89.769 E0.34068
G1 X87.246 Y89.580 E0.01030
G1 X86.980 Y89.338 E0.01127
G1 X86.696 Y88.981 E0.01429
M204 S1250
G1 X86.990 Y88.746 F9000.000
M204 S800
;TYPE:External perimeter
G1 F1200.000
G1 X86.763 Y88.326 E0.01498
G1 X86.630 Y87.892 E0.01423
G1 X86.581 Y87.441 E0.01422
G1 X86.616 Y87.002 E0.01379
G1 X86.690 Y86.691 E0.01002
G1 X86.862 Y86.278 E0.01403
G1 X92.990 Y76.301 E0.36714
M73 P8 R8
G1 X93.159 Y76.061 E0.00919
G1 X93.363 Y75.838 E0.00949
G1 X93.594 Y75.641 E0.00949
G1 X93.847 Y75.475 E0.00949
G1 X94.119 Y75.343 E0.00949
G1 X94.406 Y75.245 E0.00949
G1 X94.702 Y75.184 E0.00949
G1 X94.993 Y75.161 E0.00916
G1 X95.306 Y75.175 E0.00981
G1 X95.604 Y75.228 E0.00950
G1 X95.897 Y75.318 E0.00959
G1 X96.289 Y75.511 E0.01371
G1 X105.397 Y81.110 E0.33519
G1 X105.636 Y81.279 E0.00919
G1 X105.862 Y81.485 E0.00959
G1 X106.143 Y81.837 E0.01412
G1 X106.355 Y82.238 E0.01423
G1 X106.487 Y82.669 E0.01412
G1 X106.530 Y82.975 E0.00970
G1 X106.522 Y83.426 E0.01412
G1 X106.430 Y83.870 E0.01423
G1 X106.257 Y84.286 E0.01412
G1 X100.128 Y94.263 E0.36714
G1 X99.959 Y94.503 E0.00919
G1 X99.753 Y94.729 E0.00959
G1 X99.401 Y95.010 E0.01412
G1 X98.999 Y95.222 E0.01423
G1 X98.565 Y95.355 E0.01423
G1 X98.114 Y95.404 E0.01423
G1 X97.662 Y95.368 E0.01422
G1 X97.238 Y95.252 E0.01379
G1 X96.949 Y95.122 E0.00992
G1 X87.722 Y89.454 E0.33954
G1 X87.482 Y89.285 E0.00919
G1 X87.256 Y89.079 E0.00959
G1 X87.028 Y88.793 E0.01148
M204 S1250
G1 X86.591 Y88.767 F9000.000
G1 E-2.24000 F4200.000
;WIPE_START
G1 F7200.000
G1 X86.763 Y88.326 E-0.29753
G1 X86.630 Y87.892 E-0.25148
G1 X86.581 Y87.441 E-0.25138
G1 X86.597 Y87.240 E-0.11161
;WIPE_END
G1 E-0.04800 F4200.000
G1 Z0.400 F9000.000
G1 X83.812 Y88.990
G1 Z0.200
G1 E3.20000 F2400.000
M204 S800
;TYPE:Perimeter
G1 F1200.000
G1 X83.749 Y88.861 E0.00448
G1 X83.680 Y88.634 E0.00743
G1 X83.655 Y88.408 E0.00714
G1 X83.673 Y88.181 E0.00714
G1 X83.734 Y87.961 E0.00714
G1 X83.848 Y87.729 E0.00811
G1 X93.009 Y72.827 E0.54848
G1 X93.109 Y72.685 E0.00545
G1 X93.328 Y72.474 E0.00952
G1 X93.455 Y72.391 E0.00477
G1 X93.727 Y72.278 E0.00923
G1 X93.970 Y72.236 E0.00772
G1 X94.264 Y72.251 E0.00923
G1 X94.554 Y72.341 E0.00952
G1 X94.707 Y72.422 E0.00545
