; generated by PrusaSlicer 2.3.0+win64 on 2021-08-16 at 17:09:39 UTC


;
;

;
;
; 

; external perimeters extrusion width = 0.45mm
; perimeters extrusion width = 0.45mm
; infill extrusion width = 0.45mm
; solid infill extrusion width = 0.45mm
; top infill extrusion width = 0.40mm
; first layer extrusion width = 0.42mm

M73 P0 R8
M201 X1250 Y1250 Z400 E5000 ; sets maximum accelerations, mm/sec^2
M203 X180 Y180 Z12 E80 ; sets maximum feedrates, mm/sec
M204 P1250 R1250 T1250 ; sets acceleration (P, T) and retract acceleration (R), mm/sec^2
M205 X8.00 Y8.00 Z2.00 E10.00 ; sets the jerk limits, mm/sec
M205 S0 T0 ; sets the minimum extruding and travel feed rate, mm/sec
M107
;TYPE:Custom
G90 ; use absolute coordinates
M83 ; extruder relative mode
M104 S170 ; set extruder temp for bed leveling
M140 S60 ; set bed temp
M109 R170 ; wait for bed leveling temp
M190 S60 ; wait for bed temp
G28 ; home all without mesh bed level
G29 ; mesh bed leveling 
M104 S215 ; set extruder temp
G92 E0.0
G1 Y-2.0 X179 F2400
M73 P0 R7
G1 Z3 F720
M109 S215 ; wait for extruder temp

; intro line
M73 P1 R7
G1 X170 F1000
G1 Z0.2 F720
G1 X110.0 E8.0 F900
M73 P2 R7
G1 X40.0 E10.0 F700
G92 E0.0

M221 S95 ; set flow
G21 ; set units to millimeters
G90 ; use absolute coordinates
M83 ; use relative distances for extrusion
M900 K0.2 ; Filament gcode LA 1.5
; ; Filament gcode LA 1.0
;LAYER_CHANGE
;Z:0.2
;HEIGHT:0.2
;BEFORE_LAYER_CHANGE
G92 E0.0
;0.2


M73 P3 R7
G1 E-3.20000 F4200.000
G1 Z0.200 F9000.000
;AFTER_LAYER_CHANGE
;0.2
G1 Z0.400
G1 X75.745 Y87.342
G1 Z0.200
G1 E3.20000 F2400.000
M204 S800
;TYPE:Skirt
;WIDTH:0.42
G1 F1200.000
G1 X76.495 Y86.788 E0.02924
G1 X98.675 Y74.247 E0.79889
G1 X99.788 Y73.841 E0.03715
G1 X101.084 Y73.772 E0.04069
G1 X101.719 Y73.827 E0.02000
G1 X102.354 Y73.995 E0.02057
G1 X102.943 Y74.267 E0.02036
G1 X103.467 Y74.629 E0.01997
M73 P4 R7
G1 X103.936 Y75.089 E0.02060
G1 X104.312 Y75.615 E0.02027
G1 X104.591 Y76.195 E0.02019
G1 X104.765 Y76.805 E0.01988
G1 X106.253 Y88.964 E0.38409
G1 X106.183 Y90.104 E0.03580
G1 X105.921 Y91.214 E0.03576
G1 X105.545 Y92.132 E0.03111
G1 X104.943 Y93.118 E0.03622
G1 X94.919 Y103.054 E0.44254
G1 X93.172 Y104.344 E0.06808
G1 X91.263 Y105.305 E0.06701
G1 X89.845 Y105.782 E0.04692
G1 X88.125 Y106.125 E0.05500
G1 X86.644 Y106.228 E0.04653
G1 X84.897 Y106.128 E0.05488
G1 X83.438 Y105.856 E0.04653
G1 X81.769 Y105.319 E0.05496
G1 X80.186 Y104.557 E0.05509
G1 X78.938 Y103.746 E0.04666
G1 X77.304 Y102.313 E0.06816
G1 X76.584 Y101.497 E0.03412
G1 X75.799 Y100.415 E0.04188
G1 X74.761 Y98.463 E0.06935
G1 X74.090 Y96.423 E0.06731
G1 X73.768 Y94.239 E0.06923
G1 X73.759 Y92.881 E0.04259
G1 X73.856 Y91.797 E0.03412
G1 X74.056 Y90.674 E0.03577
G1 X74.432 Y89.344 E0.04333
G1 X74.697 Y88.715 E0.02138
G1 X75.120 Y88.031 E0.02522
G1 X75.705 Y87.387 E0.02729
M204 S1250
G1 X75.983 Y87.640 F9000.000
M204 S800
G1 F1200.000
G1 X76.699 Y87.105 E0.02805
G1 X98.858 Y74.576 E0.79813
M73 P5 R7
G1 X99.870 Y74.209 E0.03376
G1 X101.084 Y74.149 E0.03809
G1 X101.656 Y74.199 E0.01801
G1 X102.229 Y74.351 E0.01860
G1 X102.760 Y74.597 E0.01834
G1 X103.235 Y74.926 E0.01812
G1 X103.654 Y75.339 E0.01843
G1 X103.994 Y75.819 E0.01846
G1 X104.399 Y76.903 E0.03627
G1 X105.876 Y88.961 E0.38089
G1 X105.810 Y90.049 E0.03419
G1 X105.560 Y91.105 E0.03402
G1 X105.124 Y92.125 E0.03477
G1 X104.630 Y92.907 E0.02901
G1 X94.670 Y102.771 E0.43951
G1 X92.976 Y104.022 E0.06605
G1 X91.130 Y104.952 E0.06480
G1 X89.749 Y105.417 E0.04571
G1 X88.078 Y105.750 E0.05341
G1 X86.646 Y105.851 E0.04499
G1 X84.946 Y105.754 E0.05341
G1 X83.535 Y105.491 E0.04499
G1 X81.910 Y104.970 E0.05349
G1 X80.369 Y104.227 E0.05363
G1 X79.151 Y103.434 E0.04559
G1 X78.332 Y102.775 E0.03295
G1 X77.396 Y101.860 E0.04105
G1 X76.098 Y100.184 E0.06645
G1 X75.105 Y98.309 E0.06652
G1 X74.457 Y96.337 E0.06510
G1 X74.145 Y94.223 E0.06700
G1 X74.126 Y93.172 E0.03294
G1 X74.226 Y91.876 E0.04079
G1 X74.423 Y90.763 E0.03543
G1 X74.788 Y89.470 E0.04212
G1 X75.038 Y88.877 E0.02019
G1 X75.433 Y88.243 E0.02343
G1 X75.942 Y87.685 E0.02369
M204 S1250
; printing object Hook02.stl id:0 copy 0
G1 E-2.24000 F4200.000
;WIPE_START
G1 F7200.000
G1 X76.699 Y87.105 E-0.52852
G1 X77.302 Y86.764 E-0.38348
;WIPE_END
G1 E-0.04800 F4200.000
G1 Z0.400 F9000.000
G1 X100.288 Y85.869
G1 Z0.200
G1 E3.20000 F2400.000
M204 S800
;TYPE:Perimeter
G1 F1200.000
G1 X100.301 Y77.478 E0.26309
M73 P6 R7
G1 X100.342 Y77.393 E0.00298
G1 X100.391 Y77.348 E0.00207
G1 X100.509 Y77.317 E0.00383
G1 X101.073 Y77.317 E0.01769
G1 X101.167 Y77.342 E0.00304
G1 X101.225 Y77.382 E0.00222
G1 X101.265 Y77.440 E0.00222
G1 X101.291 Y77.534 E0.00304
G1 X101.294 Y86.409 E0.27827
G1 X101.783 Y86.856 E0.02076
G1 X102.140 Y87.286 E0.01754
G1 X102.365 Y87.663 E0.01376
G1 X102.573 Y88.177 E0.01738
G1 X102.672 Y88.604 E0.01376
G1 X102.713 Y89.164 E0.01759
G1 X102.697 Y89.447 E0.00890
G1 X102.655 Y89.728 E0.00890
G1 X102.589 Y90.004 E0.00890
G1 X102.498 Y90.273 E0.00890
G1 X102.250 Y90.779 E0.01765
G1 X102.086 Y91.017 E0.00907
G1 X101.996 Y91.089 E0.00363
G1 X101.885 Y91.097 E0.00349
G1 X101.797 Y91.061 E0.00295
G1 X101.748 Y91.015 E0.00214
G1 X101.656 Y90.881 E0.00508
G1 X101.983 Y90.391 E0.01848
G1 X102.125 Y90.061 E0.01127
G1 X102.225 Y89.716 E0.01127
G1 X102.290 Y89.204 E0.01617
G1 X102.257 Y88.689 E0.01617
G1 X102.179 Y88.339 E0.01127
G1 X102.057 Y88.000 E0.01127
G1 X101.813 Y87.557 E0.01588
G1 X101.593 Y87.273 E0.01127
G1 X101.338 Y87.019 E0.01127
G1 X100.921 Y86.716 E0.01617
G1 X100.454 Y86.496 E0.01620
G1 X100.091 Y86.391 E0.01184
G1 X99.589 Y86.329 E0.01587
G1 X99.065 Y86.362 E0.01645
G1 X98.557 Y86.492 E0.01646
G1 X98.082 Y86.716 E0.01646
G1 X97.664 Y87.019 E0.01617
G1 X97.410 Y87.273 E0.01127
G1 X97.190 Y87.557 E0.01127
G1 X96.946 Y88.000 E0.01588
G1 X96.824 Y88.339 E0.01127
G1 X96.745 Y88.689 E0.01127
G1 X96.713 Y89.204 E0.01617
G1 X96.777 Y89.716 E0.01617
G1 X96.878 Y90.061 E0.01127
G1 X97.020 Y90.391 E0.01127
G1 X97.348 Y90.883 E0.01855
G1 X95.719 Y93.278 E0.09083
G1 X95.694 Y94.046 E0.02409
G1 X95.647 Y94.563 E0.01627
G1 X95.571 Y95.077 E0.01629
G1 X95.466 Y95.585 E0.01629
G1 X95.334 Y96.083 E0.01616
G1 X95.079 Y96.828 E0.02468
G1 X94.878 Y97.303 E0.01616
G1 X94.651 Y97.765 E0.01616
G1 X94.257 Y98.442 E0.02455
G1 X93.810 Y99.080 E0.02442
G1 X93.310 Y99.677 E0.02442
G1 X92.762 Y100.231 E0.02442
G1 X92.168 Y100.736 E0.02442
G1 X91.535 Y101.189 E0.02442
G1 X90.865 Y101.586 E0.02442
G1 X90.160 Y101.928 E0.02456
G1 X89.686 Y102.118 E0.01603
G1 X88.940 Y102.358 E0.02455
G1 X88.177 Y102.533 E0.02455
G1 X87.672 Y102.612 E0.01603
G1 X86.887 Y102.679 E0.02468
G1 X86.376 Y102.686 E0.01603
G1 X85.590 Y102.642 E0.02468
G1 X85.083 Y102.578 E0.01603
G1 X84.311 Y102.424 E0.02468
G1 X83.814 Y102.287 E0.01616
G1 X83.326 Y102.123 E0.01616
G1 X82.599 Y101.821 E0.02468
G1 X82.142 Y101.592 E0.01603
G1 X81.465 Y101.190 E0.02468
G1 X81.045 Y100.899 E0.01603
G1 X80.431 Y100.406 E0.02468
G1 X80.056 Y100.059 E0.01603
G1 X79.520 Y99.488 E0.02455
G1 X79.037 Y98.877 E0.02442
G1 X78.605 Y98.223 E0.02455
G1 X78.353 Y97.778 E0.01603
G1 X78.017 Y97.071 E0.02455
G1 X77.744 Y96.341 E0.02442
G1 X77.533 Y95.592 E0.02442
G1 X77.386 Y94.827 E0.02442
G1 X77.305 Y94.052 E0.02442
G1 X77.289 Y93.273 E0.02442
G1 X77.339 Y92.496 E0.02442
G1 X77.454 Y91.725 E0.02442
G1 X77.634 Y90.966 E0.02446
G1 X77.820 Y90.396 E0.01880
G1 X77.881 Y90.272 E0.00432
G1 X78.017 Y90.079 E0.00744
G1 X78.181 Y89.920 E0.00715
G1 X78.372 Y89.796 E0.00715
G1 X78.583 Y89.709 E0.00715
G1 X78.807 Y89.664 E0.00715
G1 X79.145 Y89.659 E0.01061
G1 X78.830 Y90.333 E0.02332
G1 X78.559 Y91.098 E0.02545
G1 X78.365 Y91.886 E0.02545
G1 X78.248 Y92.689 E0.02545
G1 X78.211 Y93.500 E0.02545
G1 X78.253 Y94.306 E0.02529
G1 X78.326 Y94.847 E0.01712
G1 X78.434 Y95.382 E0.01712
G1 X78.657 Y96.157 E0.02530
G1 X78.957 Y96.911 E0.02545
G1 X79.329 Y97.632 E0.02545
G1 X79.770 Y98.313 E0.02545
G1 X80.276 Y98.948 E0.02545
G1 X80.838 Y99.527 E0.02530
G1 X81.249 Y99.887 E0.01712
G1 X81.689 Y100.223 E0.01738
G1 X82.357 Y100.653 E0.02488
G1 X82.838 Y100.910 E0.01711
G1 X83.331 Y101.133 E0.01697
G1 X83.838 Y101.323 E0.01697
G1 X84.360 Y101.481 E0.01712
G1 X85.144 Y101.651 E0.02514
G1 X85.690 Y101.722 E0.01727
G1 X86.491 Y101.762 E0.02514
G1 X87.037 Y101.744 E0.01712
G1 X87.575 Y101.692 E0.01697
G1 X88.109 Y101.604 E0.01697
M73 P7 R7
G1 X88.649 Y101.478 E0.01738
G1 X89.405 Y101.236 E0.02488
G1 X89.909 Y101.028 E0.01711
G1 X90.399 Y100.787 E0.01712
G1 X91.092 Y100.373 E0.02530
G1 X91.745 Y99.891 E0.02545
G1 X92.347 Y99.347 E0.02545
G1 X92.893 Y98.747 E0.02545
G1 X93.378 Y98.096 E0.02545
G1 X93.797 Y97.401 E0.02545
G1 X94.146 Y96.669 E0.02545
G1 X94.422 Y95.905 E0.02545
G1 X94.622 Y95.119 E0.02545
G1 X94.744 Y94.316 E0.02545
G1 X94.786 Y93.511 E0.02530
G1 X94.770 Y92.960 E0.01727
G1 X94.681 Y92.159 E0.02529
G1 X94.514 Y91.365 E0.02545
G1 X94.269 Y90.591 E0.02545
G1 X93.948 Y89.841 E0.02556
G1 X93.937 Y89.717 E0.00391
G1 X93.974 Y89.629 E0.00298
G1 X94.050 Y89.557 E0.00329
G1 X96.464 Y88.005 E0.09001
G1 X96.781 Y87.410 E0.02114
G1 X97.028 Y87.068 E0.01322
G1 X97.324 Y86.756 E0.01347
G1 X97.765 Y86.415 E0.01748
G1 X98.258 Y86.156 E0.01748
G1 X98.664 Y86.017 E0.01347
G1 X99.076 Y85.934 E0.01315
G1 X100.228 Y85.873 E0.03617
M204 S1250
G1 X99.911 Y85.512 F9000.000
M204 S800
;TYPE:External perimeter
G1 F1200.000
G1 X99.924 Y77.420 E0.25371
G1 X99.968 Y77.278 E0.00467
G1 X100.051 Y77.149 E0.00481
G1 X100.244 Y76.997 E0.00770
G1 X100.459 Y76.940 E0.00698
G1 X101.123 Y76.940 E0.02080
G1 X101.329 Y76.995 E0.00668
G1 X101.496 Y77.112 E0.00639
G1 X101.612 Y77.279 E0.00639
G1 X101.668 Y77.484 E0.00668
G1 X101.671 Y86.243 E0.27461
G1 X102.050 Y86.589 E0.01610
G1 X102.263 Y86.824 E0.00994
G1 X102.453 Y87.075 E0.00988
G1 X102.700 Y87.487 E0.01507
G1 X102.830 Y87.774 E0.00988
G1 X102.935 Y88.071 E0.00988
G1 X103.044 Y88.539 E0.01507
G1 X103.081 Y88.852 E0.00988
G1 X103.091 Y89.169 E0.00995
G1 X103.072 Y89.486 E0.00995
G1 X103.026 Y89.800 E0.00995
G1 X102.952 Y90.108 E0.00995
G1 X102.851 Y90.409 E0.00995
G1 X102.723 Y90.700 E0.00995
G1 X102.572 Y90.977 E0.00990
G1 X102.365 Y91.276 E0.01140
G1 X102.198 Y91.410 E0.00670
G1 X102.065 Y91.462 E0.00450
G1 X101.853 Y91.477 E0.00665
G1 X101.709 Y91.442 E0.00464
G1 X101.575 Y91.370 E0.00479
G1 X101.460 Y91.261 E0.00495
G1 X101.179 Y90.852 E0.01556
G1 X101.409 Y90.591 E0.01091
G1 X101.648 Y90.214 E0.01402
G1 X101.770 Y89.933 E0.00959
G1 X101.855 Y89.639 E0.00959
G1 X101.911 Y89.192 E0.01412
G1 X101.883 Y88.743 E0.01412
G1 X101.816 Y88.444 E0.00959
G1 X101.712 Y88.156 E0.00959
G1 X101.497 Y87.764 E0.01402
G1 X101.309 Y87.523 E0.00959
G1 X101.093 Y87.306 E0.00959
G1 X100.728 Y87.042 E0.01412
G1 X100.321 Y86.850 E0.01413
G1 X100.015 Y86.762 E0.00998
G1 X99.577 Y86.707 E0.01384
G1 X99.124 Y86.736 E0.01422
G1 X98.685 Y86.849 E0.01423
G1 X98.274 Y87.042 E0.01423
G1 X97.910 Y87.306 E0.01412
G1 X97.694 Y87.523 E0.00959
G1 X97.506 Y87.764 E0.00959
G1 X97.290 Y88.156 E0.01402
G1 X97.187 Y88.444 E0.00959
G1 X97.120 Y88.743 E0.00959
G1 X97.092 Y89.192 E0.01412
G1 X97.148 Y89.639 E0.01412
G1 X97.233 Y89.933 E0.00959
G1 X97.354 Y90.214 E0.00959
G1 X97.594 Y90.591 E0.01402
G1 X97.824 Y90.853 E0.01094
G1 X96.092 Y93.400 E0.09657
G1 X96.070 Y94.069 E0.02100
G1 X96.022 Y94.607 E0.01695
G1 X95.943 Y95.142 E0.01695
G1 X95.834 Y95.672 E0.01695
G1 X95.695 Y96.193 E0.01691
G1 X95.432 Y96.963 E0.02552
G1 X95.222 Y97.460 E0.01691
G1 X94.984 Y97.944 E0.01691
G1 X94.575 Y98.646 E0.02547
G1 X94.109 Y99.309 E0.02543
G1 X93.589 Y99.932 E0.02543
G1 X93.018 Y100.507 E0.02543
G1 X92.401 Y101.033 E0.02543
G1 X91.741 Y101.505 E0.02543
G1 X91.044 Y101.919 E0.02543
G1 X90.313 Y102.273 E0.02547
G1 X89.814 Y102.473 E0.01686
G1 X89.040 Y102.721 E0.02547
G1 X88.248 Y102.903 E0.02547
G1 X87.717 Y102.987 E0.01686
G1 X86.906 Y103.056 E0.02552
G1 X86.368 Y103.063 E0.01686
G1 X85.556 Y103.018 E0.02552
G1 X85.022 Y102.950 E0.01686
G1 X84.224 Y102.791 E0.02552
G1 X83.704 Y102.648 E0.01691
G1 X83.193 Y102.477 E0.01691
G1 X82.442 Y102.164 E0.02552
G1 X81.961 Y101.923 E0.01686
G1 X81.261 Y101.508 E0.02552
G1 X80.819 Y101.201 E0.01686
G1 X80.184 Y100.692 E0.02552
G1 X79.790 Y100.327 E0.01686
G1 X79.234 Y99.734 E0.02547
G1 X78.731 Y99.098 E0.02543
G1 X78.283 Y98.420 E0.02547
G1 X78.018 Y97.952 E0.01686
G1 X77.670 Y97.218 E0.02547
M73 P8 R7
G1 X77.385 Y96.459 E0.02543
G1 X77.166 Y95.678 E0.02543
G1 X77.013 Y94.882 E0.02543
G1 X76.928 Y94.075 E0.02543
G1 X76.911 Y93.265 E0.02543
G1 X76.963 Y92.455 E0.02543
G1 X77.084 Y91.654 E0.02543
G1 X77.271 Y90.864 E0.02544
G1 X77.469 Y90.254 E0.02013
G1 X77.555 Y90.079 E0.00610
G1 X77.730 Y89.832 E0.00949
G1 X77.945 Y89.624 E0.00938
G1 X78.196 Y89.461 E0.00938
G1 X78.473 Y89.347 E0.00938
G1 X78.766 Y89.287 E0.00938
G1 X79.065 Y89.283 E0.00938
G1 X79.360 Y89.336 E0.00938
G1 X79.688 Y89.461 E0.01102
G1 X79.507 Y89.776 E0.01139
G1 X79.179 Y90.476 E0.02425
G1 X78.921 Y91.206 E0.02429
G1 X78.735 Y91.958 E0.02429
G1 X78.624 Y92.725 E0.02429
G1 X78.589 Y93.499 E0.02429
G1 X78.629 Y94.271 E0.02423
G1 X78.698 Y94.784 E0.01625
G1 X78.800 Y95.292 E0.01625
G1 X79.014 Y96.035 E0.02423
G1 X79.301 Y96.754 E0.02429
G1 X79.656 Y97.443 E0.02429
G1 X80.077 Y98.093 E0.02429
G1 X80.559 Y98.699 E0.02429
G1 X81.098 Y99.254 E0.02423
G1 X81.488 Y99.595 E0.01625
G1 X81.906 Y99.915 E0.01650
G1 X82.548 Y100.327 E0.02392
G1 X83.005 Y100.571 E0.01625
G1 X83.475 Y100.784 E0.01619
G1 X83.959 Y100.966 E0.01619
G1 X84.455 Y101.116 E0.01625
G1 X85.208 Y101.279 E0.02418
G1 X85.724 Y101.347 E0.01630
G1 X86.494 Y101.385 E0.02418
G1 X87.012 Y101.368 E0.01625
G1 X87.526 Y101.318 E0.01619
G1 X88.036 Y101.234 E0.01620
G1 X88.549 Y101.114 E0.01650
G1 X89.275 Y100.881 E0.02392
G1 X89.754 Y100.684 E0.01625
G1 X90.219 Y100.455 E0.01625
G1 X90.883 Y100.059 E0.02423
G1 X91.506 Y99.599 E0.02429
G1 X92.081 Y99.080 E0.02429
G1 X92.602 Y98.507 E0.02429
G1 X93.065 Y97.886 E0.02429
G1 X93.465 Y97.222 E0.02429
G1 X93.798 Y96.523 E0.02429
G1 X94.061 Y95.795 E0.02429
G1 X94.252 Y95.044 E0.02429
G1 X94.368 Y94.278 E0.02429
G1 X94.409 Y93.506 E0.02423
G1 X94.394 Y92.987 E0.01630
G1 X94.309 Y92.218 E0.02423
G1 X94.148 Y91.461 E0.02429
G1 X93.915 Y90.722 E0.02429
G1 X93.563 Y89.867 E0.02900
G1 X93.567 Y89.622 E0.00768
G1 X93.649 Y89.430 E0.00655
G1 X93.746 Y89.315 E0.00471
G1 X93.832 Y89.248 E0.00343
G1 X96.178 Y87.741 E0.08742
G1 X96.461 Y87.210 E0.01886
G1 X96.737 Y86.827 E0.01481
G1 X97.064 Y86.482 E0.01490
G1 X97.303 Y86.279 E0.00982
G1 X97.560 Y86.097 E0.00989
G1 X97.833 Y85.939 E0.00989
G1 X98.116 Y85.805 E0.00982
G1 X98.566 Y85.652 E0.01490
G1 X99.028 Y85.559 E0.01478
G1 X99.851 Y85.515 E0.02584
M204 S1250
G1 X100.311 Y85.498 F9000.000
G1 X99.871 Y86.127
M204 S800
;TYPE:Gap fill
;WIDTH:0.186185
G1 F1200.000
G1 X100.148 Y86.137 E0.00330
M204 S1250
M204 S800
;WIDTH:0.222733
G1 X100.312 Y86.156 E0.00246
M204 S1250
M204 S800
;WIDTH:0.259279
G1 X100.476 Y86.175 E0.00296
M204 S1250
G1 X99.871 Y86.127 F9000.000
M204 S800
;WIDTH:0.138336
G1 F1200.000
G1 X99.605 Y86.118 E0.00211
M204 S1250
G1 X98.855 Y86.196 F9000.000
M204 S800
;WIDTH:0.0993188
G1 F1200.000
G1 X98.623 Y86.255 E0.00112
M204 S1250
G1 X98.398 Y86.332 F9000.000
M204 S800
;WIDTH:0.097589
G1 F1200.000
G1 X98.043 Y86.499 E0.00179
M204 S1250
G1 X97.921 Y86.569 F9000.000
M204 S800
;WIDTH:0.0956643
G1 F1200.000
G1 X97.586 Y86.812 E0.00181
M204 S1250
G1 X96.982 Y87.495 F9000.000
M204 S800
;WIDTH:0.0944087
G1 F1200.000
G1 X96.913 Y87.617 E0.00060
M204 S1250
G1 X96.749 Y87.921 F9000.000
M204 S800
;WIDTH:0.103658
G1 F1200.000
G1 X96.635 Y88.173 E0.00140
G1 X96.600 Y88.369 E0.00101
M204 S1250
G1 X96.610 Y89.038 F9000.000
M204 S800
;TYPE:Solid infill
;WIDTH:0.445235
G1 F1200.000
G1 X96.129 Y88.557 E0.02276
G1 X95.783 Y88.779 E0.01377
G1 X96.460 Y89.456 E0.03203
G1 X96.500 Y89.773 E0.01068
G1 X96.626 Y90.192 E0.01463
G1 X95.436 Y89.002 E0.05629
G1 X95.090 Y89.224 E0.01377
G1 X96.902 Y91.036 E0.08572
G1 X96.671 Y91.375 E0.01370
G1 X94.744 Y89.447 E0.09120
G1 X94.397 Y89.670 E0.01377
G1 X96.441 Y91.713 E0.09669
G1 X96.211 Y92.052 E0.01370
G1 X94.447 Y90.288 E0.08345
G1 X94.534 Y90.492 E0.00742
G1 X94.743 Y91.154 E0.02322
