; generated by PrusaSlicer 2.3.0+win64 on 2021-08-16 at 17:26:12 UTC


;
;

;
;
; 

; external perimeters extrusion width = 0.45mm
; perimeters extrusion width = 0.45mm
; infill extrusion width = 0.45mm
; solid infill extrusion width = 0.45mm
; top infill extrusion width = 0.40mm
; first layer extrusion width = 0.42mm

M73 P0 R11
M201 X1250 Y1250 Z400 E5000 ; sets maximum accelerations, mm/sec^2
M203 X180 Y180 Z12 E80 ; sets maximum feedrates, mm/sec
M204 P1250 R1250 T1250 ; sets acceleration (P, T) and retract acceleration (R), mm/sec^2
M205 X8.00 Y8.00 Z2.00 E10.00 ; sets the jerk limits, mm/sec
M205 S0 T0 ; sets the minimum extruding and travel feed rate, mm/sec
M107
;TYPE:Custom
G90 ; use absolute coordinates
M83 ; extruder relative mode
M104 S170 ; set extruder temp for bed leveling
M140 S60 ; set bed temp
M109 R170 ; wait for bed leveling temp
M190 S60 ; wait for bed temp
G28 ; home all without mesh bed level
G29 ; mesh bed leveling 
M104 S215 ; set extruder temp
G92 E0.0
G1 Y-2.0 X179 F2400
G1 Z3 F720
M109 S215 ; wait for extruder temp

; intro line
G1 X170 F1000
G1 Z0.2 F720
G1 X110.0 E8.0 F900
M73 P1 R11
G1 X40.0 E10.0 F700
G92 E0.0

M221 S95 ; set flow
G21 ; set units to millimeters
G90 ; use absolute coordinates
M83 ; use relative distances for extrusion
M900 K0.2 ; Filament gcode LA 1.5
; ; Filament gcode LA 1.0
;LAYER_CHANGE
;Z:0.2
;HEIGHT:0.2
;BEFORE_LAYER_CHANGE
G92 E0.0
;0.2


M73 P2 R11
G1 E-3.20000 F4200.000
G1 Z0.200 F9000.000
;AFTER_LAYER_CHANGE
;0.2
G1 Z0.400
G1 X78.553 Y81.552
G1 Z0.200
G1 E3.20000 F2400.000
M204 S800
;TYPE:Skirt
;WIDTH:0.42
G1 F1200.000
G1 X79.175 Y81.189 E0.02260
G1 X79.915 Y80.903 E0.02485
G1 X99.590 Y75.854 E0.63689
G1 X100.205 Y75.753 E0.01953
G1 X101.084 Y75.741 E0.02757
G1 X101.723 Y75.797 E0.02012
G1 X102.336 Y75.958 E0.01988
G1 X102.922 Y76.224 E0.02018
G1 X103.425 Y76.564 E0.01902
G1 X103.903 Y77.021 E0.02076
G1 X104.270 Y77.517 E0.01933
G1 X104.730 Y78.618 E0.03740
G1 X106.159 Y86.013 E0.23616
G1 X106.255 Y87.201 E0.03739
G1 X106.137 Y88.405 E0.03794
G1 X105.819 Y89.534 E0.03677
G1 X105.301 Y90.609 E0.03741
G1 X104.695 Y91.450 E0.03249
G1 X94.906 Y101.095 E0.43089
G1 X93.827 Y101.943 E0.04301
G1 X92.897 Y102.538 E0.03462
G1 X91.914 Y103.052 E0.03477
G1 X90.645 Y103.566 E0.04295
G1 X88.922 Y104.026 E0.05590
G1 X87.424 Y104.225 E0.04740
M73 P3 R11
G1 X85.669 Y104.232 E0.05501
G1 X83.895 Y103.990 E0.05615
G1 X82.175 Y103.504 E0.05603
G1 X80.568 Y102.796 E0.05505
G1 X79.285 Y102.022 E0.04700
G1 X77.890 Y100.916 E0.05582
G1 X76.923 Y99.930 E0.04330
G1 X76.223 Y99.060 E0.03500
G1 X75.463 Y97.898 E0.04354
G1 X74.946 Y96.910 E0.03496
G1 X74.431 Y95.633 E0.04319
G1 X74.113 Y94.550 E0.03537
G1 X73.894 Y93.452 E0.03510
G1 X73.757 Y92.062 E0.04380
G1 X73.771 Y90.689 E0.04307
G1 X73.892 Y89.568 E0.03534
G1 X74.111 Y88.470 E0.03510
G1 X74.512 Y87.147 E0.04335
G1 X75.062 Y85.860 E0.04389
G1 X75.594 Y84.890 E0.03470
G1 X76.216 Y83.959 E0.03510
G1 X77.101 Y82.882 E0.04371
G1 X78.508 Y81.593 E0.05982
M204 S1250
G1 E-2.24000 F4200.000
;WIPE_START
G1 F7200.000
G1 X79.175 Y81.189 E-0.43203
G1 X79.915 Y80.903 E-0.43929
G1 X79.986 Y80.885 E-0.04068
;WIPE_END
G1 E-0.04800 F4200.000
G1 Z0.400 F9000.000
G1 X102.221 Y76.317
G1 Z0.200
G1 E3.20000 F2400.000
M204 S800
G1 F1200.000
G1 X103.221 Y76.884 E0.03602
G1 X103.643 Y77.297 E0.01853
G1 X103.981 Y77.766 E0.01811
G1 X104.387 Y78.811 E0.03516
G1 X105.787 Y86.076 E0.23200
G1 X105.878 Y87.191 E0.03507
G1 X105.766 Y88.339 E0.03616
G1 X105.463 Y89.409 E0.03486
G1 X104.971 Y90.426 E0.03542
G1 X104.391 Y91.223 E0.03090
G1 X94.659 Y100.810 E0.42834
G1 X93.611 Y101.634 E0.04182
G1 X92.706 Y102.213 E0.03367
G1 X91.753 Y102.711 E0.03371
G1 X90.508 Y103.214 E0.04212
G1 X88.817 Y103.663 E0.05486
G1 X87.116 Y103.866 E0.05369
G1 X85.383 Y103.831 E0.05435
G1 X83.939 Y103.614 E0.04578
G1 X82.293 Y103.146 E0.05366
G1 X80.710 Y102.445 E0.05430
G1 X79.243 Y101.532 E0.05414
G1 X77.911 Y100.418 E0.05446
G1 X77.160 Y99.627 E0.03421
G1 X76.328 Y98.558 E0.04247
G1 X75.754 Y97.649 E0.03371
G1 X75.150 Y96.445 E0.04224
G1 X74.760 Y95.430 E0.03409
G1 X74.401 Y94.119 E0.04262
G1 X74.220 Y93.059 E0.03371
G1 X74.123 Y91.714 E0.04227
G1 X74.153 Y90.626 E0.03414
G1 X74.322 Y89.284 E0.04242
G1 X74.562 Y88.232 E0.03383
G1 X74.989 Y86.952 E0.04230
G1 X75.433 Y85.961 E0.03403
G1 X76.108 Y84.780 E0.04266
G1 X76.729 Y83.907 E0.03361
G1 X77.606 Y82.896 E0.04197
G1 X78.812 Y81.832 E0.05041
G1 X79.356 Y81.521 E0.01967
G1 X80.044 Y81.258 E0.02308
G1 X99.677 Y76.221 E0.63554
M73 P4 R10
G1 X100.240 Y76.129 E0.01786
G1 X101.084 Y76.118 E0.02646
G1 X102.162 Y76.307 E0.03432
M204 S1250
; printing object Hook03.stl id:0 copy 0
G1 E-2.24000 F4200.000
;WIPE_START
G1 F7200.000
G1 X103.221 Y76.884 E-0.66804
G1 X103.535 Y77.191 E-0.24396
;WIPE_END
G1 E-0.04800 F4200.000
G1 Z0.400 F9000.000
G1 X101.294 Y84.433
G1 Z0.200
G1 E3.20000 F2400.000
M204 S800
;TYPE:Perimeter
G1 F1200.000
G1 X101.885 Y84.994 E0.02555
G1 X102.218 Y85.435 E0.01732
G1 X102.426 Y85.821 E0.01376
G1 X102.530 Y86.078 E0.00870
G1 X102.613 Y86.350 E0.00890
G1 X102.671 Y86.628 E0.00891
G1 X102.704 Y86.904 E0.00870
G1 X102.707 Y87.342 E0.01376
G1 X102.626 Y87.891 E0.01738
G1 X102.495 Y88.310 E0.01376
G1 X102.384 Y88.564 E0.00870
G1 X102.250 Y88.809 E0.00876
G1 X102.078 Y89.058 E0.00947
G1 X101.986 Y89.120 E0.00349
G1 X101.892 Y89.128 E0.00295
G1 X101.814 Y89.098 E0.00262
G1 X101.740 Y89.034 E0.00307
G1 X101.656 Y88.911 E0.00468
G1 X101.987 Y88.413 E0.01877
G1 X102.180 Y87.925 E0.01646
G1 X102.279 Y87.409 E0.01646
G1 X102.278 Y86.893 E0.01617
G1 X102.222 Y86.538 E0.01127
G1 X102.122 Y86.193 E0.01127
G1 X101.902 Y85.727 E0.01617
G1 X101.593 Y85.302 E0.01646
G1 X101.217 Y84.949 E0.01617
G1 X100.920 Y84.747 E0.01127
G1 X100.600 Y84.584 E0.01127
G1 X100.110 Y84.425 E0.01617
G1 X99.589 Y84.359 E0.01646
G1 X99.074 Y84.391 E0.01617
G1 X98.723 Y84.470 E0.01127
G1 X98.385 Y84.592 E0.01127
G1 X97.933 Y84.840 E0.01617
G1 X97.529 Y85.174 E0.01646
G1 X97.194 Y85.579 E0.01646
G1 X96.941 Y86.039 E0.01646
G1 X96.782 Y86.529 E0.01617
G1 X96.725 Y86.884 E0.01127
G1 X96.714 Y87.243 E0.01127
G1 X96.777 Y87.746 E0.01588
G1 X96.877 Y88.091 E0.01127
G1 X97.020 Y88.421 E0.01127
G1 X97.348 Y88.913 E0.01855
G1 X95.718 Y91.308 E0.09083
G1 X95.694 Y92.075 E0.02404
G1 X95.647 Y92.590 E0.01622
G1 X95.572 Y93.102 E0.01624
G1 X95.468 Y93.610 E0.01624
G1 X95.336 Y94.106 E0.01611
G1 X95.083 Y94.849 E0.02461
G1 X94.883 Y95.322 E0.01611
G1 X94.657 Y95.784 E0.01611
G1 X94.265 Y96.459 E0.02448
G1 X93.818 Y97.099 E0.02448
G1 X93.495 Y97.499 E0.01611
G1 X93.150 Y97.879 E0.01611
G1 X92.583 Y98.422 E0.02461
G1 X92.188 Y98.751 E0.01611
G1 X91.775 Y99.056 E0.01611
G1 X91.113 Y99.478 E0.02461
G1 X90.662 Y99.723 E0.01611
G1 X90.197 Y99.942 E0.01611
G1 X89.465 Y100.227 E0.02461
G1 X88.975 Y100.378 E0.01611
G1 X88.476 Y100.503 E0.01611
G1 X87.703 Y100.638 E0.02461
G1 X87.192 Y100.691 E0.01611
G1 X86.680 Y100.716 E0.01608
G1 X85.894 Y100.698 E0.02464
G1 X85.383 Y100.650 E0.01611
G1 X84.875 Y100.573 E0.01611
G1 X84.109 Y100.402 E0.02461
G1 X83.616 Y100.255 E0.01611
G1 X83.133 Y100.081 E0.01611
G1 X82.419 Y99.765 E0.02448
G1 X81.734 Y99.390 E0.02448
G1 X81.302 Y99.112 E0.01611
G1 X80.886 Y98.811 E0.01611
G1 X80.285 Y98.306 E0.02461
G1 X79.915 Y97.949 E0.01611
G1 X79.566 Y97.572 E0.01611
G1 X79.075 Y96.960 E0.02461
G1 X78.782 Y96.538 E0.01611
G1 X78.514 Y96.100 E0.01611
G1 X78.152 Y95.404 E0.02461
G1 X77.947 Y94.932 E0.01611
G1 X77.770 Y94.450 E0.01611
G1 X77.551 Y93.697 E0.02461
G1 X77.442 Y93.194 E0.01611
G1 X77.362 Y92.687 E0.01611
G1 X77.295 Y91.905 E0.02461
G1 X77.287 Y91.391 E0.01611
G1 X77.307 Y90.878 E0.01611
G1 X77.394 Y90.098 E0.02461
G1 X77.487 Y89.593 E0.01611
G1 X77.607 Y89.093 E0.01611
G1 X77.845 Y88.345 E0.02461
G1 X78.034 Y87.868 E0.01611
G1 X78.252 Y87.398 E0.01624
G1 X78.496 Y86.941 E0.01624
G1 X78.763 Y86.502 E0.01611
G1 X79.214 Y85.865 E0.02448
G1 X79.718 Y85.268 E0.02448
G1 X80.076 Y84.900 E0.01611
G1 X80.442 Y84.564 E0.01558
G1 X80.652 Y84.413 E0.00811
G1 X80.780 Y84.349 E0.00448
G1 X81.072 Y84.267 E0.00953
G1 X81.376 Y84.260 E0.00953
G1 X81.517 Y84.283 E0.00448
G1 X81.751 Y84.361 E0.00773
G1 X82.031 Y84.533 E0.01030
G1 X81.873 Y84.628 E0.00577
G1 X81.226 Y85.111 E0.02531
G1 X80.630 Y85.653 E0.02528
G1 X80.089 Y86.251 E0.02528
G1 X79.609 Y86.899 E0.02528
G1 X79.194 Y87.590 E0.02528
G1 X78.848 Y88.318 E0.02528
G1 X78.575 Y89.076 E0.02528
G1 X78.377 Y89.853 E0.02513
G1 X78.287 Y90.388 E0.01700
G1 X78.231 Y90.927 E0.01700
G1 X78.214 Y91.728 E0.02513
G1 X78.275 Y92.532 E0.02528
G1 X78.413 Y93.326 E0.02528
G1 X78.629 Y94.103 E0.02528
G1 X78.918 Y94.855 E0.02528
G1 X79.278 Y95.572 E0.02513
G1 X79.565 Y96.045 E0.01736
G1 X80.029 Y96.684 E0.02477
G1 X80.385 Y97.100 E0.01715
G1 X80.950 Y97.661 E0.02498
G1 X81.374 Y98.018 E0.01736
G1 X82.017 Y98.476 E0.02477
G1 X82.487 Y98.757 E0.01715
G1 X83.206 Y99.110 E0.02513
G1 X83.956 Y99.393 E0.02513
G1 X84.477 Y99.542 E0.01701
G1 X85.014 Y99.658 E0.01721
G1 X85.797 Y99.763 E0.02477
G1 X86.343 Y99.791 E0.01715
G1 X87.139 Y99.768 E0.02498
G1 X87.683 Y99.707 E0.01715
G1 X88.470 Y99.555 E0.02513
G1 X89.243 Y99.325 E0.02528
G1 X89.989 Y99.022 E0.02528
G1 X90.703 Y98.647 E0.02528
G1 X91.377 Y98.205 E0.02528
G1 X92.005 Y97.699 E0.02528
G1 X92.581 Y97.135 E0.02528
G1 X93.099 Y96.517 E0.02528
G1 X93.552 Y95.856 E0.02513
G1 X93.821 Y95.385 E0.01700
G1 X94.057 Y94.903 E0.01685
G1 X94.262 Y94.405 E0.01685
G1 X94.434 Y93.896 E0.01685
G1 X94.572 Y93.377 E0.01685
G1 X94.676 Y92.849 E0.01685
G1 X94.746 Y92.316 E0.01685
G1 X94.781 Y91.780 E0.01685
G1 X94.782 Y91.242 E0.01685
G1 X94.747 Y90.706 E0.01685
G1 X94.678 Y90.173 E0.01685
G1 X94.574 Y89.641 E0.01700
G1 X94.357 Y88.874 E0.02498
G1 X94.169 Y88.366 E0.01699
G1 X93.941 Y87.855 E0.01755
G1 X93.938 Y87.753 E0.00321
G1 X93.964 Y87.674 E0.00258
G1 X94.060 Y87.581 E0.00421
G1 X96.464 Y86.035 E0.08962
G1 X96.781 Y85.440 E0.02114
G1 X97.032 Y85.093 E0.01342
G1 X97.419 Y84.701 E0.01728
G1 X97.770 Y84.442 E0.01367
G1 X98.258 Y84.186 E0.01728
G1 X98.664 Y84.047 E0.01347
G1 X99.075 Y83.964 E0.01315
G1 X100.288 Y83.900 E0.03808
G1 X100.288 Y79.538 E0.13676
G1 X100.303 Y79.423 E0.00363
G1 X100.342 Y79.362 E0.00227
G1 X100.391 Y79.318 E0.00207
G1 X100.509 Y79.286 E0.00383
G1 X101.139 Y79.298 E0.01977
G1 X101.211 Y79.340 E0.00262
G1 X101.281 Y79.461 E0.00439
G1 X101.294 Y84.373 E0.15402
M204 S1250
M73 P5 R10
G1 X101.671 Y84.271 F9000.000
M204 S800
;TYPE:External perimeter
G1 F1200.000
G1 X102.161 Y84.736 E0.02119
G1 X102.361 Y84.978 E0.00986
G1 X102.540 Y85.237 E0.00988
G1 X102.768 Y85.661 E0.01507
G1 X102.886 Y85.953 E0.00988
G1 X102.978 Y86.256 E0.00995
G1 X103.044 Y86.567 E0.00995
G1 X103.081 Y86.880 E0.00988
G1 X103.084 Y87.360 E0.01507
G1 X103.052 Y87.674 E0.00988
G1 X102.992 Y87.983 E0.00988
G1 X102.849 Y88.442 E0.01507
G1 X102.723 Y88.730 E0.00988
G1 X102.571 Y89.007 E0.00990
G1 X102.362 Y89.310 E0.01155
G1 X102.246 Y89.412 E0.00484
G1 X102.109 Y89.480 E0.00479
G1 X101.959 Y89.510 E0.00479
G1 X101.811 Y89.501 E0.00464
G1 X101.618 Y89.427 E0.00650
G1 X101.457 Y89.288 E0.00667
G1 X101.179 Y88.883 E0.01541
G1 X101.409 Y88.622 E0.01091
G1 X101.650 Y88.241 E0.01412
G1 X101.817 Y87.819 E0.01423
G1 X101.902 Y87.374 E0.01423
G1 X101.901 Y86.923 E0.01412
G1 X101.853 Y86.621 E0.00959
G1 X101.768 Y86.327 E0.00959
G1 X101.576 Y85.920 E0.01412
G1 X101.309 Y85.553 E0.01423
G1 X100.981 Y85.244 E0.01412
G1 X100.728 Y85.073 E0.00959
G1 X100.455 Y84.934 E0.00959
G1 X100.027 Y84.794 E0.01412
G1 X99.577 Y84.738 E0.01423
G1 X99.127 Y84.766 E0.01412
G1 X98.829 Y84.833 E0.00959
G1 X98.541 Y84.936 E0.00959
G1 X98.146 Y85.153 E0.01412
G1 X97.797 Y85.442 E0.01423
G1 X97.507 Y85.792 E0.01423
G1 X97.289 Y86.189 E0.01423
G1 X97.149 Y86.618 E0.01412
G1 X97.101 Y86.920 E0.00959
G1 X97.092 Y87.226 E0.00959
G1 X97.148 Y87.669 E0.01402
G1 X97.233 Y87.963 E0.00959
G1 X97.354 Y88.244 E0.00959
G1 X97.594 Y88.622 E0.01402
G1 X97.824 Y88.883 E0.01094
G1 X96.092 Y91.430 E0.09657
G1 X96.070 Y92.098 E0.02095
G1 X96.022 Y92.634 E0.01690
G1 X95.943 Y93.168 E0.01690
G1 X95.835 Y93.696 E0.01690
G1 X95.697 Y94.216 E0.01686
G1 X95.435 Y94.983 E0.02544
G1 X95.226 Y95.479 E0.01686
G1 X94.990 Y95.962 E0.01686
G1 X94.583 Y96.662 E0.02540
G1 X94.120 Y97.326 E0.02540
G1 X93.781 Y97.744 E0.01686
G1 X93.420 Y98.142 E0.01686
G1 X92.834 Y98.704 E0.02544
G1 X92.421 Y99.047 E0.01686
G1 X91.989 Y99.367 E0.01686
G1 X91.305 Y99.803 E0.02544
G1 X90.832 Y100.060 E0.01686
G1 X90.346 Y100.289 E0.01686
G1 X89.590 Y100.583 E0.02544
G1 X89.076 Y100.742 E0.01686
G1 X88.554 Y100.872 E0.01686
G1 X87.755 Y101.012 E0.02544
G1 X87.221 Y101.068 E0.01686
G1 X86.684 Y101.093 E0.01683
G1 X85.872 Y101.074 E0.02547
G1 X85.337 Y101.024 E0.01686
G1 X84.805 Y100.944 E0.01686
G1 X84.014 Y100.767 E0.02544
G1 X83.498 Y100.613 E0.01686
G1 X82.993 Y100.431 E0.01686
G1 X82.252 Y100.103 E0.02540
G1 X81.542 Y99.714 E0.02540
G1 X81.089 Y99.424 E0.01686
G1 X80.654 Y99.108 E0.01686
G1 X80.032 Y98.587 E0.02544
G1 X79.646 Y98.213 E0.01686
G1 X79.281 Y97.819 E0.01686
G1 X78.773 Y97.186 E0.02544
G1 X78.466 Y96.744 E0.01686
G1 X78.185 Y96.286 E0.01686
G1 X77.811 Y95.566 E0.02544
G1 X77.597 Y95.073 E0.01686
G1 X77.411 Y94.568 E0.01686
G1 X77.185 Y93.789 E0.02544
G1 X77.071 Y93.264 E0.01686
G1 X76.988 Y92.733 E0.01686
G1 X76.918 Y91.924 E0.02544
G1 X76.909 Y91.387 E0.01686
G1 X76.931 Y90.849 E0.01686
G1 X77.021 Y90.043 E0.02544
G1 X77.118 Y89.514 E0.01686
G1 X77.244 Y88.992 E0.01686
G1 X77.489 Y88.218 E0.02544
G1 X77.688 Y87.719 E0.01686
G1 X77.914 Y87.230 E0.01690
G1 X78.168 Y86.754 E0.01690
G1 X78.448 Y86.295 E0.01686
G1 X78.916 Y85.634 E0.02540
G1 X79.438 Y85.015 E0.02540
G1 X79.813 Y84.629 E0.01686
G1 X80.204 Y84.271 E0.01663
G1 X80.457 Y84.089 E0.00976
G1 X80.632 Y84.002 E0.00616
G1 X80.821 Y83.935 E0.00626
G1 X81.016 Y83.893 E0.00626
G1 X81.215 Y83.876 E0.00626
G1 X81.609 Y83.916 E0.01240
G1 X81.899 Y84.013 E0.00959
G1 X82.237 Y84.217 E0.01240
G1 X82.514 Y84.498 E0.01236
G1 X82.596 Y84.634 E0.00499
G1 X82.083 Y84.941 E0.01875
G1 X81.466 Y85.402 E0.02414
G1 X80.897 Y85.920 E0.02413
G1 X80.381 Y86.490 E0.02412
G1 X79.923 Y87.108 E0.02413
G1 X79.527 Y87.768 E0.02412
G1 X79.196 Y88.463 E0.02412
G1 X78.936 Y89.187 E0.02412
G1 X78.747 Y89.931 E0.02407
G1 X78.661 Y90.439 E0.01614
G1 X78.608 Y90.951 E0.01614
G1 X78.591 Y91.718 E0.02407
G1 X78.649 Y92.485 E0.02412
G1 X78.782 Y93.243 E0.02412
G1 X78.987 Y93.985 E0.02413
G1 X79.264 Y94.703 E0.02412
G1 X79.608 Y95.389 E0.02407
G1 X79.880 Y95.836 E0.01640
G1 X80.325 Y96.451 E0.02381
G1 X80.661 Y96.843 E0.01619
G1 X81.205 Y97.383 E0.02402
G1 X81.605 Y97.720 E0.01640
G1 X82.224 Y98.160 E0.02381
G1 X82.667 Y98.425 E0.01619
G1 X83.356 Y98.764 E0.02407
G1 X84.074 Y99.034 E0.02407
G1 X84.569 Y99.176 E0.01614
G1 X85.079 Y99.286 E0.01634
G1 X85.832 Y99.387 E0.02381
G1 X86.347 Y99.414 E0.01619
G1 X87.113 Y99.391 E0.02402
G1 X87.626 Y99.334 E0.01619
G1 X88.380 Y99.188 E0.02407
G1 X89.118 Y98.969 E0.02412
G1 X89.830 Y98.679 E0.02412
G1 X90.512 Y98.322 E0.02412
G1 X91.155 Y97.899 E0.02412
G1 X91.754 Y97.417 E0.02412
G1 X92.304 Y96.878 E0.02412
G1 X92.798 Y96.289 E0.02412
G1 X93.232 Y95.656 E0.02407
G1 X93.488 Y95.209 E0.01614
G1 X93.713 Y94.748 E0.01609
G1 X93.908 Y94.273 E0.01609
G1 X94.072 Y93.787 E0.01609
G1 X94.204 Y93.291 E0.01609
G1 X94.304 Y92.788 E0.01609
G1 X94.371 Y92.279 E0.01609
G1 X94.404 Y91.767 E0.01609
G1 X94.405 Y91.254 E0.01609
G1 X94.372 Y90.742 E0.01609
G1 X94.306 Y90.234 E0.01609
G1 X94.207 Y89.728 E0.01614
G1 X93.999 Y88.991 E0.02402
G1 X93.819 Y88.509 E0.01614
G1 X93.565 Y87.906 E0.02052
G1 X93.559 Y87.697 E0.00655
G1 X93.623 Y87.503 E0.00640
G1 X93.707 Y87.384 E0.00457
G1 X93.836 Y87.276 E0.00527
G1 X96.178 Y85.771 E0.08728
G1 X96.460 Y85.240 E0.01886
G1 X96.739 Y84.855 E0.01488
G1 X96.949 Y84.623 E0.00982
G1 X97.178 Y84.411 E0.00982
G1 X97.562 Y84.127 E0.01497
G1 X97.833 Y83.969 E0.00982
G1 X98.116 Y83.836 E0.00982
G1 X98.566 Y83.682 E0.01490
G1 X99.028 Y83.589 E0.01478
G1 X99.911 Y83.542 E0.02773
G1 X99.911 Y79.514 E0.12632
G1 X99.934 Y79.339 E0.00553
G1 X99.966 Y79.251 E0.00292
G1 X100.051 Y79.118 E0.00496
