; generated by PrusaSlicer 2.3.0+win64 on 2021-08-03 at 12:00:19 UTC


;
;

;
;
; 

; external perimeters extrusion width = 0.45mm
; perimeters extrusion width = 0.45mm
; infill extrusion width = 0.45mm
; solid infill extrusion width = 0.45mm
; top infill extrusion width = 0.40mm
; first layer extrusion width = 0.42mm

M73 P0 R20
M201 X1250 Y1250 Z400 E5000 ; sets maximum accelerations, mm/sec^2
M203 X180 Y180 Z12 E80 ; sets maximum feedrates, mm/sec
M204 P1250 R1250 T1250 ; sets acceleration (P, T) and retract acceleration (R), mm/sec^2
M205 X8.00 Y8.00 Z2.00 E10.00 ; sets the jerk limits, mm/sec
M205 S0 T0 ; sets the minimum extruding and travel feed rate, mm/sec
M107
;TYPE:Custom
G90 ; use absolute coordinates
M83 ; extruder relative mode
M104 S170 ; set extruder temp for bed leveling
M140 S60 ; set bed temp
M109 R170 ; wait for bed leveling temp
M190 S60 ; wait for bed temp
G28 ; home all without mesh bed level
G29 ; mesh bed leveling 
M104 S215 ; set extruder temp
G92 E0.0
G1 Y-2.0 X179 F2400
G1 Z3 F720
M109 S215 ; wait for extruder temp

; intro line
G1 X170 F1000
G1 Z0.2 F720
G1 X110.0 E8.0 F900
G1 X40.0 E10.0 F700
G92 E0.0

M221 S95 ; set flow
G21 ; set units to millimeters
G90 ; use absolute coordinates
M83 ; use relative distances for extrusion
M900 K0.2 ; Filament gcode LA 1.5
; ; Filament gcode LA 1.0
;LAYER_CHANGE
;Z:0.2
;HEIGHT:0.2
;BEFORE_LAYER_CHANGE
G92 E0.0
;0.2


M73 P1 R20
G1 E-3.20000 F4200.000
G1 Z0.200 F9000.000
;AFTER_LAYER_CHANGE
;0.2
G1 Z0.400
G1 X68.327 Y77.811
G1 Z0.200
G1 E3.20000 F2400.000
M204 S800
;TYPE:Skirt
;WIDTH:0.42
G1 F1200.000
G1 X68.800 Y77.448 E0.01870
G1 X69.370 Y77.208 E0.01941
G1 X69.980 Y77.123 E0.01929
G1 X110.004 Y77.123 E1.25492
G1 X110.888 Y77.295 E0.02825
G1 X111.642 Y77.781 E0.02813
G1 X112.162 Y78.513 E0.02813
G1 X112.374 Y79.388 E0.02825
G1 X112.374 Y100.622 E0.66576
G1 X112.272 Y101.198 E0.01835
G1 X112.031 Y101.735 E0.01846
G1 X111.668 Y102.194 E0.01835
G1 X111.200 Y102.552 E0.01846
G1 X110.630 Y102.792 E0.01941
G1 X110.020 Y102.877 E0.01929
G1 X69.954 Y102.877 E1.25624
G1 X69.357 Y102.788 E0.01894
G1 X68.798 Y102.550 E0.01906
G1 X68.317 Y102.179 E0.01906
G1 X67.948 Y101.700 E0.01894
G1 X67.711 Y101.141 E0.01906
G1 X67.623 Y100.535 E0.01917
G1 X67.624 Y79.416 E0.66218
G1 X67.720 Y78.827 E0.01870
G1 X67.959 Y78.281 E0.01870
G1 X68.290 Y77.859 E0.01682
M204 S1250
; printing object Housing_01.stl id:0 copy 0
G1 E-2.24000 F4200.000
;WIPE_START
G1 F7200.000
G1 X68.800 Y77.448 E-0.36282
G1 X69.370 Y77.208 E-0.34309
G1 X69.739 Y77.157 E-0.20609
;WIPE_END
G1 E-0.04800 F4200.000
G1 Z0.400 F9000.000
G1 X93.369 Y85.287
G1 Z0.200
G1 E3.20000 F2400.000
M204 S800
;TYPE:Perimeter
G1 F1200.000
G1 X93.495 Y84.879 E0.01337
G1 X93.657 Y84.485 E0.01337
G1 X93.857 Y84.100 E0.01358
G1 X94.206 Y83.580 E0.01964
M73 P2 R20
G1 X94.485 Y83.249 E0.01358
G1 X94.788 Y82.949 E0.01337
G1 X95.122 Y82.673 E0.01358
G1 X95.647 Y82.330 E0.01964
G1 X96.033 Y82.135 E0.01358
G1 X96.430 Y81.977 E0.01337
G1 X96.838 Y81.855 E0.01337
G1 X97.263 Y81.769 E0.01358
G1 X97.886 Y81.713 E0.01961
G1 X98.320 Y81.723 E0.01362
G1 X98.744 Y81.770 E0.01338
G1 X99.162 Y81.855 E0.01337
G1 X99.570 Y81.977 E0.01337
G1 X99.967 Y82.135 E0.01337
G1 X100.353 Y82.330 E0.01356
G1 X100.858 Y82.659 E0.01891
G1 X101.211 Y82.948 E0.01429
G1 X101.519 Y83.254 E0.01361
G1 X101.913 Y83.741 E0.01964
G1 X102.146 Y84.106 E0.01358
G1 X102.343 Y84.485 E0.01337
G1 X102.505 Y84.879 E0.01337
G1 X102.631 Y85.287 E0.01337
G1 X102.722 Y85.710 E0.01358
G1 X102.785 Y86.333 E0.01963
G1 X102.780 Y86.767 E0.01360
G1 X102.738 Y87.191 E0.01338
G1 X102.657 Y87.610 E0.01337
G1 X102.540 Y88.020 E0.01337
G1 X102.385 Y88.424 E0.01356
G1 X102.108 Y88.959 E0.01891
G1 X101.855 Y89.339 E0.01429
G1 X101.586 Y89.672 E0.01341
G1 X101.285 Y89.983 E0.01358
G1 X100.802 Y90.382 E0.01964
G1 X100.440 Y90.619 E0.01358
G1 X100.064 Y90.820 E0.01337
G1 X99.671 Y90.987 E0.01337
G1 X99.259 Y91.120 E0.01358
G1 X98.645 Y91.244 E0.01964
G1 X98.213 Y91.283 E0.01358
G1 X97.787 Y91.283 E0.01337
G1 X97.362 Y91.245 E0.01337
G1 X96.936 Y91.168 E0.01356
G1 X96.358 Y90.997 E0.01891
G1 X95.937 Y90.821 E0.01429
G1 X95.560 Y90.619 E0.01341
G1 X95.203 Y90.386 E0.01337
G1 X94.868 Y90.121 E0.01337
G1 X94.558 Y89.828 E0.01337
G1 X94.272 Y89.504 E0.01358
G1 X93.911 Y88.991 E0.01964
G1 X93.703 Y88.612 E0.01358
G1 X93.532 Y88.221 E0.01337
G1 X93.397 Y87.816 E0.01337
G1 X93.296 Y87.395 E0.01358
G1 X93.220 Y86.773 E0.01964
G1 X93.215 Y86.333 E0.01379
G1 X93.278 Y85.710 E0.01964
G1 X93.356 Y85.345 E0.01170
M204 S1250
G1 X93.725 Y85.425 F9000.000
M204 S800
;TYPE:External perimeter
G1 F1200.000
G1 X93.850 Y85.007 E0.01367
G1 X93.999 Y84.644 E0.01232
G1 X94.182 Y84.293 E0.01239
G1 X94.507 Y83.807 E0.01833
G1 X94.762 Y83.505 E0.01239
G1 X95.042 Y83.229 E0.01232
G1 X95.346 Y82.977 E0.01239
G1 X95.835 Y82.657 E0.01833
G1 X96.188 Y82.479 E0.01239
G1 X96.553 Y82.334 E0.01232
G1 X96.930 Y82.222 E0.01232
G1 X97.317 Y82.143 E0.01239
G1 X97.898 Y82.091 E0.01829
G1 X98.295 Y82.100 E0.01243
G1 X98.685 Y82.143 E0.01232
G1 X99.070 Y82.222 E0.01232
G1 X99.447 Y82.334 E0.01232
G1 X99.812 Y82.479 E0.01232
G1 X100.164 Y82.657 E0.01239
G1 X100.635 Y82.964 E0.01762
G1 X100.958 Y83.229 E0.01310
G1 X101.239 Y83.507 E0.01241
G1 X101.607 Y83.962 E0.01833
G1 X101.819 Y84.295 E0.01239
G1 X102.001 Y84.644 E0.01232
G1 X102.150 Y85.007 E0.01232
G1 X102.266 Y85.382 E0.01232
G1 X102.349 Y85.769 E0.01239
G1 X102.408 Y86.350 E0.01831
G1 X102.403 Y86.746 E0.01241
G1 X102.364 Y87.136 E0.01232
G1 X102.290 Y87.522 E0.01232
G1 X102.182 Y87.900 E0.01232
G1 X102.040 Y88.269 E0.01239
G1 X101.782 Y88.768 E0.01762
G1 X101.551 Y89.116 E0.01310
G1 X101.304 Y89.422 E0.01233
G1 X101.029 Y89.706 E0.01239
G1 X100.578 Y90.078 E0.01833
G1 X100.248 Y90.295 E0.01239
G1 X99.901 Y90.480 E0.01232
G1 X99.539 Y90.633 E0.01232
G1 X99.163 Y90.754 E0.01239
G1 X98.590 Y90.871 E0.01833
G1 X98.196 Y90.906 E0.01239
G1 X97.804 Y90.906 E0.01232
G1 X97.412 Y90.871 E0.01232
G1 X97.023 Y90.801 E0.01239
G1 X96.485 Y90.641 E0.01762
G1 X96.099 Y90.480 E0.01310
G1 X95.752 Y90.295 E0.01233
G1 X95.424 Y90.079 E0.01232
G1 X95.115 Y89.836 E0.01232
G1 X94.830 Y89.566 E0.01232
G1 X94.568 Y89.270 E0.01239
G1 X94.232 Y88.792 E0.01833
G1 X94.042 Y88.445 E0.01239
G1 X93.884 Y88.085 E0.01232
G1 X93.760 Y87.712 E0.01232
G1 X93.668 Y87.328 E0.01239
G1 X93.597 Y86.748 E0.01833
G1 X93.592 Y86.350 E0.01247
G1 X93.651 Y85.769 E0.01833
G1 X93.712 Y85.483 E0.00916
M204 S1250
G1 X93.436 Y85.147 F9000.000
G1 E-2.24000 F4200.000
;WIPE_START
G1 F7200.000
G1 X93.850 Y85.007 E-0.27475
G1 X93.999 Y84.644 E-0.21775
G1 X94.182 Y84.293 E-0.21905
G1 X94.383 Y83.992 E-0.20046
;WIPE_END
G1 E-0.04800 F4200.000
G1 Z0.400 F9000.000
G1 X109.213 Y80.287
G1 Z0.200
G1 E3.20000 F2400.000
M204 S800
;TYPE:Perimeter
G1 F1200.000
G1 X109.213 Y99.713 E0.60908
G1 X70.787 Y99.713 E1.20482
M73 P2 R19
G1 X70.787 Y80.287 E0.60908
G1 X109.153 Y80.287 E1.20293
M204 S1250
G1 X109.590 Y79.910 F9000.000
M204 S800
;TYPE:External perimeter
G1 F1200.000
G1 X109.590 Y100.090 E0.63273
G1 X70.410 Y100.090 E1.22846
M73 P3 R19
G1 X70.410 Y79.910 E0.63273
G1 X109.530 Y79.910 E1.22658
M204 S1250
G1 X109.447 Y80.284 F9000.000
G1 X108.332 Y80.400
M204 S800
;TYPE:Solid infill
;WIDTH:0.422739
G1 F1200.000
G1 X108.930 Y80.999 E0.02673
G1 X108.930 Y81.536 E0.01696
G1 X107.964 Y80.570 E0.04314
G1 X107.427 Y80.570 E0.01696
G1 X108.930 Y82.073 E0.06713
G1 X108.930 Y82.610 E0.01696
G1 X106.890 Y80.570 E0.09112
G1 X106.353 Y80.570 E0.01696
G1 X108.930 Y83.147 E0.11511
G1 X108.930 Y83.684 E0.01696
G1 X105.816 Y80.570 E0.13910
G1 X105.279 Y80.570 E0.01696
G1 X108.930 Y84.221 E0.16309
G1 X108.930 Y84.759 E0.01696
G1 X104.741 Y80.570 E0.18708
G1 X104.204 Y80.570 E0.01696
G1 X108.930 Y85.296 E0.21108
G1 X108.930 Y85.833 E0.01696
G1 X103.667 Y80.570 E0.23507
G1 X103.130 Y80.570 E0.01696
G1 X108.930 Y86.370 E0.25906
G1 X108.930 Y86.907 E0.01696
G1 X102.593 Y80.570 E0.28305
G1 X102.056 Y80.570 E0.01696
G1 X108.930 Y87.444 E0.30704
G1 X108.930 Y87.981 E0.01696
G1 X101.519 Y80.570 E0.33103
G1 X100.981 Y80.570 E0.01696
G1 X108.930 Y88.519 E0.35502
G1 X108.930 Y89.056 E0.01696
G1 X100.444 Y80.570 E0.37901
G1 X99.907 Y80.570 E0.01696
G1 X108.930 Y89.593 E0.40300
G1 X108.930 Y90.130 E0.01696
G1 X99.370 Y80.570 E0.42699
G1 X98.833 Y80.570 E0.01696
G1 X100.198 Y81.935 E0.06096
G1 X100.494 Y82.085 E0.01050
G1 X101.026 Y82.431 E0.02003
G1 X101.400 Y82.738 E0.01530
G1 X101.730 Y83.064 E0.01463
G1 X102.143 Y83.576 E0.02078
G1 X102.391 Y83.965 E0.01457
G1 X102.569 Y84.306 E0.01214
G1 X108.930 Y90.667 E0.28413
G1 X108.930 Y91.204 E0.01696
G1 X102.889 Y85.164 E0.26981
G1 X103.002 Y85.666 E0.01627
G1 X103.019 Y85.830 E0.00521
G1 X108.930 Y91.741 E0.26403
M73 P4 R19
G1 X108.930 Y92.279 E0.01696
G1 X103.067 Y86.415 E0.26187
G1 X103.048 Y86.933 E0.01637
G1 X108.930 Y92.816 E0.26273
G1 X108.930 Y93.353 E0.01696
G1 X102.984 Y87.407 E0.26557
G1 X102.884 Y87.844 E0.01417
G1 X108.930 Y93.890 E0.27003
G1 X108.930 Y94.427 E0.01696
G1 X102.754 Y88.251 E0.27585
G1 X102.596 Y88.630 E0.01297
G1 X108.930 Y94.964 E0.28290
G1 X108.930 Y95.502 E0.01696
G1 X102.413 Y88.984 E0.29108
G1 X102.209 Y89.318 E0.01234
G1 X108.930 Y96.039 E0.30019
G1 X108.930 Y96.576 E0.01696
G1 X101.984 Y89.630 E0.31024
G1 X101.738 Y89.921 E0.01204
G1 X108.930 Y97.113 E0.32121
G1 X108.930 Y97.650 E0.01696
G1 X101.474 Y90.194 E0.33302
G1 X101.180 Y90.437 E0.01205
G1 X108.930 Y98.187 E0.34615
G1 X108.930 Y98.724 E0.01696
G1 X100.877 Y90.671 E0.35968
G1 X100.550 Y90.881 E0.01228
G1 X108.930 Y99.262 E0.37430
G1 X108.930 Y99.430 E0.00532
G1 X108.562 Y99.430 E0.01164
G1 X100.200 Y91.068 E0.37348
G1 X99.823 Y91.229 E0.01292
G1 X108.024 Y99.430 E0.36629
G1 X107.487 Y99.430 E0.01696
G1 X99.421 Y91.364 E0.36025
G1 X98.984 Y91.464 E0.01417
G1 X106.950 Y99.430 E0.35580
G1 X106.413 Y99.430 E0.01696
G1 X98.522 Y91.539 E0.35243
G1 X98.011 Y91.566 E0.01615
G1 X105.876 Y99.430 E0.35125
G1 X105.339 Y99.430 E0.01696
G1 X97.445 Y91.536 E0.35257
G1 X96.792 Y91.421 E0.02094
G1 X104.971 Y99.600 E0.36532
M204 S1250
M73 P5 R19
G1 E-2.24000 F4200.000
;WIPE_START
G1 F7200.000
G1 X103.808 Y98.436 E-0.91200
;WIPE_END
G1 E-0.04800 F4200.000
G1 Z0.400 F9000.000
G1 X98.126 Y80.400
G1 Z0.200
G1 E3.20000 F2400.000
M204 S800
G1 F1200.000
G1 X99.339 Y81.613 E0.05417
G1 X98.666 Y81.477 E0.02169
G1 X97.759 Y80.570 E0.04052
G1 X97.221 Y80.570 E0.01696
G1 X98.086 Y81.435 E0.03864
G1 X97.876 Y81.430 E0.00665
G1 X97.572 Y81.458 E0.00965
G1 X96.684 Y80.570 E0.03965
G1 X96.147 Y80.570 E0.01696
G1 X97.092 Y81.515 E0.04222
G1 X96.655 Y81.615 E0.01417
G1 X95.610 Y80.570 E0.04668
G1 X95.073 Y80.570 E0.01696
G1 X96.248 Y81.745 E0.05249
G1 X95.868 Y81.902 E0.01299
G1 X94.536 Y80.570 E0.05949
G1 X93.998 Y80.570 E0.01696
G1 X95.511 Y82.082 E0.06754
G1 X95.185 Y82.294 E0.01226
G1 X93.461 Y80.570 E0.07701
G1 X92.924 Y80.570 E0.01696
G1 X94.870 Y82.515 E0.08689
G1 X94.577 Y82.760 E0.01204
G1 X92.387 Y80.570 E0.09783
G1 X91.850 Y80.570 E0.01696
G1 X94.307 Y83.027 E0.10976
G1 X94.059 Y83.316 E0.01203
G1 X91.313 Y80.570 E0.12264
G1 X90.776 Y80.570 E0.01696
G1 X93.833 Y83.627 E0.13656
G1 X93.618 Y83.949 E0.01223
G1 X90.238 Y80.570 E0.15093
G1 X89.701 Y80.570 E0.01696
G1 X93.433 Y84.302 E0.16669
G1 X93.272 Y84.678 E0.01292
G1 X89.164 Y80.570 E0.18347
G1 X88.627 Y80.570 E0.01696
G1 X93.137 Y85.080 E0.20142
G1 X93.031 Y85.511 E0.01403
G1 X88.090 Y80.570 E0.22069
G1 X87.553 Y80.570 E0.01696
G1 X92.966 Y85.983 E0.24177
G1 X92.934 Y86.488 E0.01598
G1 X87.016 Y80.570 E0.26433
G1 X86.478 Y80.570 E0.01696
G1 X92.970 Y87.062 E0.28996
G1 X93.018 Y87.445 E0.01220
G1 X93.081 Y87.709 E0.00857
G1 X85.941 Y80.570 E0.31886
G1 X85.404 Y80.570 E0.01696
G1 X93.354 Y88.520 E0.35509
G1 X93.449 Y88.736 E0.00745
G1 X93.671 Y89.141 E0.01457
G1 X94.049 Y89.679 E0.02078
G1 X94.355 Y90.025 E0.01457
G1 X94.683 Y90.336 E0.01427
G1 X95.038 Y90.616 E0.01427
G1 X95.416 Y90.863 E0.01427
G1 X95.979 Y91.145 E0.01990
G1 X104.264 Y99.430 E0.37005
G1 X103.727 Y99.430 E0.01696
G1 X84.867 Y80.570 E0.84237
G1 X84.330 Y80.570 E0.01696
G1 X103.190 Y99.430 E0.84237
G1 X102.653 Y99.430 E0.01696
G1 X83.793 Y80.570 E0.84237
M73 P6 R19
G1 X83.256 Y80.570 E0.01696
G1 X102.116 Y99.430 E0.84237
G1 X101.579 Y99.430 E0.01696
G1 X82.718 Y80.570 E0.84237
G1 X82.181 Y80.570 E0.01696
G1 X101.042 Y99.430 E0.84237
G1 X100.504 Y99.430 E0.01696
G1 X81.644 Y80.570 E0.84237
G1 X81.107 Y80.570 E0.01696
G1 X99.967 Y99.430 E0.84237
G1 X99.430 Y99.430 E0.01696
G1 X80.570 Y80.570 E0.84237
G1 X80.033 Y80.570 E0.01696
G1 X98.893 Y99.430 E0.84237
G1 X98.356 Y99.430 E0.01696
G1 X79.496 Y80.570 E0.84237
G1 X78.958 Y80.570 E0.01696
G1 X97.819 Y99.430 E0.84237
M73 P7 R19
G1 X97.282 Y99.430 E0.01696
G1 X78.421 Y80.570 E0.84237
G1 X77.884 Y80.570 E0.01696
G1 X96.744 Y99.430 E0.84237
G1 X96.207 Y99.430 E0.01696
G1 X77.347 Y80.570 E0.84237
G1 X76.810 Y80.570 E0.01696
G1 X95.670 Y99.430 E0.84237
M73 P7 R18
G1 X95.133 Y99.430 E0.01696
G1 X76.273 Y80.570 E0.84237
G1 X75.736 Y80.570 E0.01696
G1 X94.596 Y99.430 E0.84237
G1 X94.059 Y99.430 E0.01696
G1 X75.198 Y80.570 E0.84237
G1 X74.661 Y80.570 E0.01696
G1 X93.522 Y99.430 E0.84237
G1 X92.984 Y99.430 E0.01696
G1 X74.124 Y80.570 E0.84237
M73 P8 R18
G1 X73.587 Y80.570 E0.01696
G1 X92.447 Y99.430 E0.84237
G1 X91.910 Y99.430 E0.01696
G1 X73.050 Y80.570 E0.84237
G1 X72.513 Y80.570 E0.01696
G1 X91.373 Y99.430 E0.84237
G1 X90.836 Y99.430 E0.01696
G1 X71.976 Y80.570 E0.84237
G1 X71.438 Y80.570 E0.01696
G1 X90.299 Y99.430 E0.84237
G1 X89.761 Y99.430 E0.01696
G1 X71.070 Y80.739 E0.83484
G1 X71.070 Y81.276 E0.01696
G1 X89.224 Y99.430 E0.81085
G1 X88.687 Y99.430 E0.01696
G1 X71.070 Y81.813 E0.78686
G1 X71.070 Y82.350 E0.01696
G1 X88.150 Y99.430 E0.76287
M73 P9 R18
G1 X87.613 Y99.430 E0.01696
G1 X71.070 Y82.887 E0.73887
G1 X71.070 Y83.424 E0.01696
G1 X87.076 Y99.430 E0.71488
G1 X86.539 Y99.430 E0.01696
G1 X71.070 Y83.961 E0.69089
G1 X71.070 Y84.499 E0.01696
G1 X86.001 Y99.430 E0.66690
G1 X85.464 Y99.430 E0.01696
G1 X71.070 Y85.036 E0.64291
G1 X71.070 Y85.573 E0.01696
G1 X84.927 Y99.430 E0.61892
G1 X84.390 Y99.430 E0.01696
G1 X71.070 Y86.110 E0.59493
G1 X71.070 Y86.647 E0.01696
G1 X83.853 Y99.430 E0.57094
G1 X83.316 Y99.430 E0.01696
G1 X71.070 Y87.184 E0.54695
G1 X71.070 Y87.721 E0.01696
G1 X82.779 Y99.430 E0.52296
G1 X82.241 Y99.430 E0.01696
G1 X71.070 Y88.259 E0.49897
M73 P10 R18
G1 X71.070 Y88.796 E0.01696
G1 X81.704 Y99.430 E0.47497
G1 X81.167 Y99.430 E0.01696
G1 X71.070 Y89.333 E0.45098
G1 X71.070 Y89.870 E0.01696
G1 X80.630 Y99.430 E0.42699
G1 X80.093 Y99.430 E0.01696
G1 X71.070 Y90.407 E0.40300
G1 X71.070 Y90.944 E0.01696
G1 X79.556 Y99.430 E0.37901
G1 X79.019 Y99.430 E0.01696
G1 X71.070 Y91.481 E0.35502
G1 X71.070 Y92.019 E0.01696
G1 X78.481 Y99.430 E0.33103
G1 X77.944 Y99.430 E0.01696
G1 X71.070 Y92.556 E0.30704
G1 X71.070 Y93.093 E0.01696
G1 X77.407 Y99.430 E0.28305
G1 X76.870 Y99.430 E0.01696
G1 X71.070 Y93.630 E0.25906
G1 X71.070 Y94.167 E0.01696
G1 X76.333 Y99.430 E0.23507
G1 X75.796 Y99.430 E0.01696
G1 X71.070 Y94.704 E0.21107
G1 X71.070 Y95.241 E0.01696
G1 X75.259 Y99.430 E0.18708
G1 X74.721 Y99.430 E0.01696
G1 X71.070 Y95.779 E0.16309
G1 X71.070 Y96.316 E0.01696
G1 X74.184 Y99.430 E0.13910
G1 X73.647 Y99.430 E0.01696
G1 X71.070 Y96.853 E0.11511
G1 X71.070 Y97.390 E0.01696
G1 X73.110 Y99.430 E0.09112
G1 X72.573 Y99.430 E0.01696
G1 X71.070 Y97.927 E0.06713
G1 X71.070 Y98.464 E0.01696
G1 X72.036 Y99.430 E0.04314
G1 X71.499 Y99.430 E0.01696
G1 X70.900 Y98.832 E0.02673
M204 S1250
; stop printing object Housing_01.stl id:0 copy 0
M106 S84.15
;LAYER_CHANGE
;Z:0.4
;HEIGHT:0.2
;BEFORE_LAYER_CHANGE
G92 E0.0
;0.4


G1 E-2.24000 F4200.000
;WIPE_START
G1 F7200.000
G1 X71.499 Y99.430 E-0.46895
G1 X72.036 Y99.430 E-0.29767
G1 X71.850 Y99.245 E-0.14538
;WIPE_END
G1 E-0.04800 F4200.000
G1 Z0.400 F9000.000
;AFTER_LAYER_CHANGE
;0.4
M104 S210 ; set temperature
G1 Z0.600
G1 X112.162 Y78.513
G1 Z0.400
G1 E3.20000 F2400.000
;TYPE:Skirt
;WIDTH:0.42
G1 X112.374 Y79.388 E0.02825
G1 X112.374 Y100.622 E0.66576
G1 X112.272 Y101.198 E0.01835
G1 X112.031 Y101.735 E0.01846
G1 X111.668 Y102.194 E0.01835
