; generated by PrusaSlicer 2.2.0+win64 on 2020-11-16 at 17:47:19 UTC


;
;

;
;
; 

; external perimeters extrusion width = 0.45mm
; perimeters extrusion width = 0.45mm
; infill extrusion width = 0.45mm
; solid infill extrusion width = 0.45mm
; top infill extrusion width = 0.40mm
; first layer extrusion width = 0.42mm

M73 P0 R22
M201 X1250 Y1250 Z400 E5000 ; sets maximum accelerations, mm/sec^2
M203 X180 Y180 Z12 E80 ; sets maximum feedrates, mm/sec
M204 P1250 R1250 T1250 ; sets acceleration (P, T) and retract acceleration (R), mm/sec^2
M205 X8.00 Y8.00 Z2.00 E10.00 ; sets the jerk limits, mm/sec
M205 S0 T0 ; sets the minimum extruding and travel feed rate, mm/sec
M107
G90 ; use absolute coordinates
M83 ; extruder relative mode
M104 S170 ; set extruder temp for bed leveling
M140 S60 ; set bed temp
M109 R170 ; wait for bed leveling temp
M190 S60 ; wait for bed temp
G28 ; home all without mesh bed level
G29 ; mesh bed leveling 
M104 S215 ; set extruder temp
G92 E0.0
G1 Y-2.0 X179 F2400
G1 Z3 F720
M109 S215 ; wait for extruder temp

; intro line
G1 X170 F1000
G1 Z0.2 F720
G1 X110.0 E8.0 F900
M73 P0 R22
G1 X40.0 E10.0 F700
G92 E0.0

M221 S95 ; set flow
G21 ; set units to millimeters
G90 ; use absolute coordinates
M83 ; use relative distances for extrusion
M900 K0.2 ; Filament gcode LA 1.5
; ; Filament gcode LA 1.0
;BEFORE_LAYER_CHANGE
G92 E0.0
;0.2


G1 Z0.200 F9000.000
;AFTER_LAYER_CHANGE
;0.2
G1 E-3.20000 F4200.00000
G1 Z0.400 F9000.000
G1 X80.622 Y80.441
G1 Z0.200
G1 E3.20000 F2400.00000
M204 S800
G1 F1200.000
G1 X81.611 Y79.562 E0.04147
G1 X82.658 Y78.801 E0.04057
G1 X83.776 Y78.143 E0.04070
G1 X84.946 Y77.599 E0.04044
G1 X86.170 Y77.168 E0.04070
G1 X87.427 Y76.858 E0.04057
G1 X88.707 Y76.671 E0.04057
G1 X90.004 Y76.609 E0.04070
G1 X91.292 Y76.671 E0.04044
G1 X92.576 Y76.859 E0.04070
G1 X93.833 Y77.169 E0.04057
G1 X95.076 Y77.608 E0.04134
G1 X96.230 Y78.146 E0.03993
G1 X97.366 Y78.817 E0.04137
G1 X98.610 Y79.744 E0.04862
G1 X99.559 Y80.622 E0.04057
G1 X100.438 Y81.611 E0.04147
G1 X101.199 Y82.658 E0.04057
G1 X101.857 Y83.776 E0.04070
G1 X102.401 Y84.946 E0.04044
G1 X102.832 Y86.170 E0.04070
G1 X103.142 Y87.427 E0.04057
G1 X103.329 Y88.707 E0.04057
G1 X103.391 Y90.000 E0.04057
G1 X103.329 Y91.292 E0.04057
G1 X103.142 Y92.572 E0.04057
G1 X102.832 Y93.829 E0.04057
G1 X102.401 Y95.053 E0.04070
G1 X101.858 Y96.223 E0.04044
G1 X101.199 Y97.342 E0.04070
G1 X100.438 Y98.388 E0.04058
G1 X99.559 Y99.378 E0.04149
G1 X98.422 Y100.411 E0.04816
G1 X97.366 Y101.183 E0.04103
G1 X96.227 Y101.855 E0.04147
G1 X95.077 Y102.391 E0.03980
G1 X93.834 Y102.831 E0.04134
G1 X92.577 Y103.141 E0.04057
G1 X91.293 Y103.329 E0.04070
G1 X90.000 Y103.391 E0.04057
G1 X88.708 Y103.329 E0.04057
G1 X87.428 Y103.142 E0.04057
G1 X86.171 Y102.832 E0.04057
G1 X84.947 Y102.401 E0.04070
G1 X83.777 Y101.858 E0.04044
G1 X82.658 Y101.199 E0.04070
G1 X81.612 Y100.438 E0.04058
G1 X80.622 Y99.559 E0.04149
G1 X79.589 Y98.422 E0.04816
G1 X78.817 Y97.366 E0.04103
G1 X78.145 Y96.227 E0.04147
G1 X77.609 Y95.077 E0.03980
G1 X77.169 Y93.834 E0.04134
G1 X76.859 Y92.577 E0.04057
G1 X76.671 Y91.293 E0.04070
G1 X76.609 Y90.000 E0.04057
G1 X76.671 Y88.708 E0.04057
G1 X76.859 Y87.424 E0.04070
G1 X77.169 Y86.167 E0.04057
G1 X77.608 Y84.924 E0.04134
G1 X78.146 Y83.770 E0.03993
G1 X78.817 Y82.634 E0.04137
G1 X79.744 Y81.390 E0.04862
G1 X80.582 Y80.485 E0.03869
M204 S1250
G1 X80.858 Y80.741 F9000.000
M204 S800
G1 F1200.000
G1 X81.849 Y79.854 E0.04169
G1 X82.866 Y79.115 E0.03943
G1 X83.954 Y78.476 E0.03954
G1 X85.091 Y77.947 E0.03931
G1 X86.280 Y77.529 E0.03955
G1 X87.501 Y77.228 E0.03943
G1 X88.746 Y77.046 E0.03943
G1 X90.006 Y76.986 E0.03955
G1 X91.258 Y77.047 E0.03931
G1 X92.502 Y77.229 E0.03943
G1 X93.723 Y77.530 E0.03943
G1 X94.934 Y77.958 E0.04027
G1 X96.073 Y78.490 E0.03943
G1 X97.357 Y79.265 E0.04702
G1 X98.388 Y80.049 E0.04060
G1 X99.293 Y80.889 E0.03871
G1 X100.146 Y81.849 E0.04027
G1 X100.885 Y82.866 E0.03943
G1 X101.524 Y83.954 E0.03954
G1 X102.053 Y85.091 E0.03931
G1 X102.471 Y86.280 E0.03955
G1 X102.772 Y87.501 E0.03943
G1 X102.954 Y88.746 E0.03943
G1 X103.014 Y90.002 E0.03943
G1 X102.953 Y91.258 E0.03943
G1 X102.771 Y92.502 E0.03943
G1 X102.470 Y93.723 E0.03943
G1 X102.044 Y94.930 E0.04014
G1 X101.521 Y96.053 E0.03883
G1 X100.870 Y97.156 E0.04015
G1 X99.965 Y98.370 E0.04748
G1 X99.111 Y99.293 E0.03943
G1 X98.151 Y100.146 E0.04027
G1 X97.134 Y100.885 E0.03943
G1 X96.046 Y101.524 E0.03954
G1 X94.909 Y102.053 E0.03931
G1 X93.720 Y102.471 E0.03955
G1 X92.499 Y102.772 E0.03943
G1 X91.254 Y102.954 E0.03943
G1 X89.998 Y103.014 E0.03943
G1 X88.742 Y102.953 E0.03943
G1 X87.498 Y102.771 E0.03943
G1 X86.277 Y102.470 E0.03943
G1 X85.070 Y102.044 E0.04014
G1 X83.947 Y101.521 E0.03883
G1 X82.844 Y100.870 E0.04015
G1 X81.630 Y99.965 E0.04748
G1 X80.707 Y99.111 E0.03943
G1 X79.854 Y98.151 E0.04027
G1 X79.115 Y97.134 E0.03943
G1 X78.476 Y96.046 E0.03954
G1 X77.947 Y94.909 E0.03931
G1 X77.529 Y93.720 E0.03955
G1 X77.228 Y92.499 E0.03943
G1 X77.046 Y91.254 E0.03943
G1 X76.986 Y89.998 E0.03943
G1 X77.047 Y88.742 E0.03943
G1 X77.229 Y87.498 E0.03943
G1 X77.530 Y86.277 E0.03943
G1 X77.956 Y85.070 E0.04014
G1 X78.479 Y83.947 E0.03883
G1 X79.130 Y82.844 E0.04015
G1 X80.035 Y81.630 E0.04748
G1 X80.817 Y80.785 E0.03612
M204 S1250
G1 E-2.24000 F4200.00000
G1 F7200.000
G1 X81.849 Y79.854 E-0.76991
G1 X82.057 Y79.704 E-0.14209
G1 E-0.04800 F4200.00000
G1 Z0.400 F9000.000
G1 X85.977 Y85.843
G1 Z0.200
G1 E3.20000 F2400.00000
M204 S800
G1 F1200.000
G1 X86.554 Y85.350 E0.02379
G1 X86.946 Y85.083 E0.01488
G1 X87.543 Y84.760 E0.02127
G1 X87.978 Y84.577 E0.01480
G1 X88.626 Y84.378 E0.02127
G1 X89.089 Y84.284 E0.01480
G1 X89.764 Y84.217 E0.02127
G1 X90.236 Y84.217 E0.01479
G1 X90.917 Y84.285 E0.02145
G1 X91.582 Y84.433 E0.02137
G1 X92.027 Y84.579 E0.01469
G1 X92.457 Y84.760 E0.01462
G1 X93.058 Y85.086 E0.02145
G1 X93.615 Y85.480 E0.02137
G1 X93.969 Y85.787 E0.01469
G1 X94.295 Y86.120 E0.01462
G1 X94.723 Y86.654 E0.02145
G1 X95.083 Y87.233 E0.02137
G1 X95.290 Y87.653 E0.01469
G1 X95.462 Y88.086 E0.01462
G1 X95.649 Y88.738 E0.02127
G1 X95.733 Y89.203 E0.01480
G1 X95.787 Y89.879 E0.02127
G1 X95.777 Y90.345 E0.01461
G1 X95.732 Y90.803 E0.01443
G1 X95.649 Y91.262 E0.01461
G1 X95.462 Y91.914 E0.02127
G1 X95.288 Y92.352 E0.01480
G1 X94.977 Y92.955 E0.02127
G1 X94.719 Y93.351 E0.01480
G1 X94.295 Y93.880 E0.02127
G1 X93.964 Y94.217 E0.01480
G1 X93.444 Y94.652 E0.02127
G1 X93.053 Y94.917 E0.01479
G1 X92.460 Y95.239 E0.02119
G1 X92.022 Y95.423 E0.01488
G1 X91.368 Y95.624 E0.02146
G1 X90.695 Y95.746 E0.02145
G1 X90.230 Y95.783 E0.01461
G1 X89.770 Y95.783 E0.01443
G1 X89.311 Y95.746 E0.01443
G1 X88.851 Y95.673 E0.01461
G1 X88.195 Y95.499 E0.02127
G1 X87.753 Y95.334 E0.01479
G1 X87.147 Y95.036 E0.02119
G1 X86.744 Y94.785 E0.01488
G1 X86.206 Y94.371 E0.02127
G1 X85.863 Y94.048 E0.01480
G1 X85.418 Y93.536 E0.02127
G1 X85.145 Y93.151 E0.01480
G1 X84.810 Y92.561 E0.02127
G1 X84.618 Y92.130 E0.01479
G1 X84.407 Y91.488 E0.02119
G1 X84.304 Y91.025 E0.01488
G1 X84.222 Y90.345 E0.02146
G1 X84.222 Y89.661 E0.02145
G1 X84.268 Y89.197 E0.01461
G1 X84.351 Y88.739 E0.01461
G1 X84.537 Y88.089 E0.02119
G1 X84.712 Y87.648 E0.01488
G1 X85.023 Y87.045 E0.02127
G1 X85.281 Y86.649 E0.01480
G1 X85.705 Y86.120 E0.02127
G1 X85.935 Y85.886 E0.01030
M204 S1250
G1 X86.204 Y86.150 F9000.000
M204 S800
G1 F1200.000
G1 X86.781 Y85.651 E0.02391
G1 X87.143 Y85.406 E0.01370
G1 X87.706 Y85.100 E0.02009
G1 X88.107 Y84.932 E0.01362
G1 X88.719 Y84.743 E0.02009
G1 X89.145 Y84.658 E0.01362
G1 X89.783 Y84.594 E0.02009
G1 X90.217 Y84.594 E0.01362
G1 X90.857 Y84.658 E0.02016
G1 X91.482 Y84.797 E0.02008
G1 X91.895 Y84.933 E0.01363
G1 X92.294 Y85.100 E0.01355
G1 X92.859 Y85.407 E0.02016
G1 X93.382 Y85.777 E0.02008
G1 X93.710 Y86.062 E0.01363
G1 X94.012 Y86.371 E0.01355
G1 X94.415 Y86.872 E0.02016
G1 X94.753 Y87.416 E0.02008
G1 X94.945 Y87.806 E0.01363
G1 X95.105 Y88.208 E0.01355
G1 X95.281 Y88.824 E0.02009
G1 X95.358 Y89.251 E0.01362
G1 X95.409 Y89.890 E0.02009
G1 X95.401 Y90.323 E0.01356
G1 X95.358 Y90.751 E0.01349
G1 X95.281 Y91.176 E0.01355
G1 X95.105 Y91.792 E0.02009
G1 X94.945 Y92.196 E0.01362
G1 X94.650 Y92.765 E0.02009
G1 X94.413 Y93.129 E0.01362
G1 X94.012 Y93.629 E0.02009
G1 X93.708 Y93.939 E0.01362
G1 X93.216 Y94.350 E0.02009
G1 X92.857 Y94.594 E0.01362
G1 X92.296 Y94.899 E0.02001
G1 X91.893 Y95.068 E0.01370
G1 X91.279 Y95.257 E0.02016
G1 X90.646 Y95.372 E0.02016
G1 X90.215 Y95.406 E0.01355
G1 X89.785 Y95.406 E0.01349
G1 X89.356 Y95.372 E0.01349
G1 X88.929 Y95.303 E0.01355
G1 X88.310 Y95.139 E0.02010
G1 X87.903 Y94.987 E0.01362
G1 X87.330 Y94.706 E0.02002
G1 X86.959 Y94.475 E0.01370
G1 X86.451 Y94.084 E0.02010
G1 X86.135 Y93.786 E0.01362
G1 X85.714 Y93.302 E0.02009
G1 X85.463 Y92.948 E0.01362
G1 X85.147 Y92.391 E0.02009
G1 X84.970 Y91.994 E0.01362
G1 X84.771 Y91.387 E0.02001
G1 X84.676 Y90.961 E0.01370
G1 X84.599 Y90.323 E0.02016
G1 X84.599 Y89.680 E0.02016
G1 X84.642 Y89.249 E0.01355
G1 X84.719 Y88.824 E0.01355
G1 X84.894 Y88.210 E0.02001
G1 X85.055 Y87.804 E0.01370
G1 X85.350 Y87.235 E0.02010
G1 X85.587 Y86.871 E0.01362
G1 X85.988 Y86.371 E0.02009
G1 X86.162 Y86.192 E0.00783
M204 S1250
G1 X86.110 Y85.761 F9000.000
G1 E-2.24000 F4200.00000
G1 F7200.000
G1 X86.781 Y85.651 E-0.45571
G1 X87.143 Y85.406 E-0.24212
G1 X87.483 Y85.221 E-0.21417
G1 E-0.04800 F4200.00000
G1 Z0.400 F9000.000
G1 X83.199 Y83.033
G1 Z0.200
G1 E3.20000 F2400.00000
M204 S800
G1 F1200.000
G1 X83.903 Y82.409 E0.02950
G1 X84.665 Y81.856 E0.02950
G1 X85.475 Y81.379 E0.02950
G1 X86.329 Y80.983 E0.02950
G1 X87.216 Y80.670 E0.02950
G1 X88.129 Y80.445 E0.02950
G1 X89.067 Y80.308 E0.02972
G1 X89.526 Y80.275 E0.01442
G1 X90.229 Y80.266 E0.02205
G1 X91.174 Y80.335 E0.02969
G1 X92.101 Y80.493 E0.02950
G1 X93.009 Y80.740 E0.02950
G1 X93.888 Y81.074 E0.02950
G1 X94.732 Y81.491 E0.02950
G1 X95.531 Y81.987 E0.02950
G1 X96.278 Y82.559 E0.02950
G1 X96.967 Y83.199 E0.02950
G1 X97.591 Y83.903 E0.02950
G1 X98.144 Y84.665 E0.02950
G1 X98.621 Y85.475 E0.02950
G1 X99.017 Y86.329 E0.02950
G1 X99.330 Y87.216 E0.02950
G1 X99.556 Y88.133 E0.02961
G1 X99.666 Y88.830 E0.02213
G1 X99.710 Y89.288 E0.01442
G1 X99.733 Y90.235 E0.02972
G1 X99.665 Y91.174 E0.02950
G1 X99.507 Y92.101 E0.02950
G1 X99.258 Y93.015 E0.02972
G1 X99.105 Y93.449 E0.01442
G1 X98.832 Y94.097 E0.02205
G1 X98.392 Y94.936 E0.02969
G1 X97.877 Y95.723 E0.02950
G1 X97.288 Y96.456 E0.02950
G1 X96.630 Y97.129 E0.02950
G1 X95.911 Y97.736 E0.02950
G1 X95.137 Y98.270 E0.02950
G1 X94.315 Y98.728 E0.02950
G1 X93.452 Y99.103 E0.02950
G1 X92.558 Y99.394 E0.02950
G1 X91.639 Y99.597 E0.02950
G1 X90.705 Y99.710 E0.02950
G1 X89.765 Y99.733 E0.02950
G1 X88.826 Y99.665 E0.02950
G1 X87.899 Y99.507 E0.02950
G1 X86.985 Y99.258 E0.02972
G1 X86.551 Y99.105 E0.01442
G1 X85.903 Y98.832 E0.02205
G1 X85.064 Y98.392 E0.02969
G1 X84.277 Y97.877 E0.02950
G1 X83.544 Y97.288 E0.02950
G1 X82.871 Y96.630 E0.02950
G1 X82.264 Y95.911 E0.02950
G1 X81.730 Y95.137 E0.02950
G1 X81.272 Y94.315 E0.02950
G1 X80.897 Y93.452 E0.02950
G1 X80.606 Y92.558 E0.02950
G1 X80.403 Y91.639 E0.02950
G1 X80.290 Y90.705 E0.02950
G1 X80.267 Y89.765 E0.02950
G1 X80.335 Y88.826 E0.02950
G1 X80.493 Y87.899 E0.02950
G1 X80.740 Y86.991 E0.02950
G1 X81.074 Y86.112 E0.02950
G1 X81.491 Y85.268 E0.02950
G1 X81.987 Y84.469 E0.02950
G1 X82.559 Y83.722 E0.02950
G1 X83.158 Y83.077 E0.02762
M204 S1250
G1 X82.882 Y82.820 F9000.000
M204 S800
G1 F1200.000
G1 X83.667 Y82.115 E0.03308
G1 X84.458 Y81.540 E0.03064
G1 X85.300 Y81.045 E0.03064
G1 X86.186 Y80.633 E0.03064
G1 X87.108 Y80.309 E0.03064
G1 X88.057 Y80.075 E0.03064
G1 X89.026 Y79.933 E0.03072
G1 X89.510 Y79.898 E0.01521
G1 X90.241 Y79.889 E0.02291
G1 X91.219 Y79.960 E0.03076
G1 X92.182 Y80.125 E0.03064
G1 X93.125 Y80.381 E0.03064
G1 X94.039 Y80.728 E0.03064
G1 X94.915 Y81.161 E0.03064
G1 X95.745 Y81.677 E0.03064
G1 X96.522 Y82.270 E0.03064
G1 X97.237 Y82.936 E0.03064
G1 X97.885 Y83.667 E0.03064
G1 X98.460 Y84.458 E0.03064
G1 X98.955 Y85.300 E0.03064
G1 X99.367 Y86.186 E0.03064
G1 X99.691 Y87.108 E0.03064
G1 X99.925 Y88.058 E0.03068
G1 X100.040 Y88.782 E0.02298
G1 X100.087 Y89.265 E0.01521
G1 X100.111 Y90.244 E0.03072
G1 X100.040 Y91.219 E0.03064
G1 X99.875 Y92.182 E0.03064
G1 X99.618 Y93.128 E0.03072
G1 X99.457 Y93.585 E0.01521
G1 X99.173 Y94.258 E0.02291
G1 X98.718 Y95.127 E0.03076
G1 X98.182 Y95.945 E0.03064
G1 X97.570 Y96.707 E0.03064
G1 X96.888 Y97.406 E0.03064
G1 X96.141 Y98.036 E0.03064
G1 X95.336 Y98.591 E0.03064
G1 X94.482 Y99.066 E0.03064
G1 X93.586 Y99.456 E0.03064
G1 X92.657 Y99.758 E0.03064
G1 X91.703 Y99.969 E0.03064
G1 X90.733 Y100.087 E0.03064
G1 X89.756 Y100.111 E0.03064
G1 X88.781 Y100.040 E0.03064
G1 X87.818 Y99.875 E0.03064
G1 X86.872 Y99.618 E0.03072
G1 X86.415 Y99.457 E0.01521
G1 X85.742 Y99.173 E0.02291
G1 X84.873 Y98.718 E0.03076
G1 X84.055 Y98.182 E0.03064
G1 X83.293 Y97.570 E0.03064
G1 X82.594 Y96.888 E0.03064
G1 X81.964 Y96.141 E0.03064
G1 X81.409 Y95.336 E0.03064
G1 X80.934 Y94.482 E0.03064
G1 X80.544 Y93.586 E0.03064
G1 X80.242 Y92.657 E0.03064
G1 X80.031 Y91.703 E0.03064
G1 X79.913 Y90.733 E0.03064
G1 X79.889 Y89.756 E0.03064
G1 X79.960 Y88.781 E0.03064
G1 X80.125 Y87.818 E0.03064
G1 X80.381 Y86.875 E0.03064
G1 X80.728 Y85.961 E0.03064
G1 X81.161 Y85.085 E0.03064
G1 X81.677 Y84.255 E0.03064
G1 X82.270 Y83.478 E0.03064
G1 X82.841 Y82.864 E0.02631
M204 S1250
G1 X83.268 Y82.926 F9000.000
G1 E-2.24000 F4200.00000
G1 F7200.000
G1 X83.667 Y82.115 E-0.61785
G1 X84.096 Y81.803 E-0.29415
G1 E-0.04800 F4200.00000
G1 Z0.400 F9000.000
G1 X92.885 Y84.863
G1 Z0.200
G1 E3.20000 F2400.00000
M204 S800
G1 F1200.000
G1 X88.673 Y80.652 E0.18717
G1 X88.207 Y80.720 E0.01481
G1 X91.644 Y84.157 E0.15276
G1 X90.958 Y84.005 E0.02210
G1 X87.776 Y80.824 E0.14139
G1 X87.348 Y80.929 E0.01388
G1 X90.364 Y83.946 E0.13406
G1 X89.818 Y83.934 E0.01716
G1 X86.948 Y81.064 E0.12755
G1 X86.553 Y81.204 E0.01317
G1 X89.326 Y83.977 E0.12324
G1 X88.857 Y84.043 E0.01487
G1 X86.179 Y81.364 E0.11904
G1 X85.814 Y81.534 E0.01265
G1 X88.424 Y84.144 E0.11601
G1 X88.015 Y84.270 E0.01344
G1 X85.461 Y81.716 E0.11351
G1 X85.125 Y81.914 E0.01227
G1 X87.628 Y84.417 E0.11127
G1 X87.265 Y84.589 E0.01262
G1 X84.791 Y82.114 E0.10998
G1 X84.481 Y82.339 E0.01203
G1 X86.919 Y84.777 E0.10834
G1 X86.591 Y84.983 E0.01218
G1 X84.171 Y82.564 E0.10752
G1 X83.880 Y82.807 E0.01193
G1 X86.282 Y85.209 E0.10674
G1 X85.991 Y85.452 E0.01193
G1 X83.597 Y83.058 E0.10639
G1 X83.321 Y83.317 E0.01188
G1 X85.713 Y85.709 E0.10629
G1 X85.453 Y85.983 E0.01188
G1 X83.064 Y83.594 E0.10618
G1 X82.806 Y83.871 E0.01189
G1 X85.215 Y86.280 E0.10706
G1 X84.985 Y86.585 E0.01200
G1 X82.571 Y84.171 E0.10729
G1 X82.340 Y84.474 E0.01198
G1 X84.775 Y86.909 E0.10824
G1 X84.593 Y87.262 E0.01247
G1 X82.121 Y84.790 E0.10986
G1 X81.916 Y85.120 E0.01220
G1 X84.418 Y87.621 E0.11119
G1 X84.267 Y88.005 E0.01295
G1 X81.715 Y85.453 E0.11341
G1 X81.538 Y85.811 E0.01254
G1 X84.148 Y88.420 E0.11599
G1 X84.044 Y88.850 E0.01391
G1 X81.362 Y86.168 E0.11921
G1 X81.210 Y86.551 E0.01294
G1 X83.973 Y89.314 E0.12279
G1 X83.939 Y89.815 E0.01579
G1 X81.063 Y86.939 E0.12785
G1 X81.010 Y87.079 E0.00471
G1 X80.937 Y87.347 E0.00874
G1 X83.939 Y90.350 E0.13345
G1 X84.010 Y90.955 E0.01917
G1 X80.822 Y87.767 E0.14170
G1 X80.770 Y87.960 E0.00629
G1 X80.728 Y88.207 E0.00787
G1 X84.158 Y91.638 E0.15249
G1 X84.354 Y92.231 E0.01964
G1 X84.463 Y92.477 E0.00844
G1 X80.650 Y88.664 E0.16948
G1 X80.616 Y88.861 E0.00628
G1 X80.595 Y89.144 E0.00893
G1 X90.859 Y99.407 E0.45615
G1 X90.353 Y99.436 E0.01591
G1 X80.559 Y89.642 E0.43530
G1 X80.560 Y90.177 E0.01681
G1 X89.831 Y99.449 E0.41208
G1 X89.261 Y99.413 E0.01795
G1 X80.577 Y90.729 E0.38596
G1 X80.651 Y91.338 E0.01926
G1 X88.664 Y99.350 E0.35613
G1 X88.019 Y99.240 E0.02055
G1 X80.770 Y91.992 E0.32218
G1 X80.879 Y92.483 E0.01583
G1 X80.952 Y92.708 E0.00741
G1 X87.293 Y99.049 E0.28183
G1 X87.069 Y98.988 E0.00730
G1 X86.477 Y98.767 E0.01985
G1 X81.238 Y93.528 E0.23284
G1 X81.526 Y94.189 E0.02266
G1 X81.728 Y94.553 E0.01307
G1 X85.451 Y98.276 E0.16546
G1 X85.208 Y98.148 E0.00864
