; generated by PrusaSlicer 2.3.0+win64 on 2021-06-06 at 19:40:31 UTC


;
;

;
;
; 

; external perimeters extrusion width = 0.45mm
; perimeters extrusion width = 0.45mm
; infill extrusion width = 0.45mm
; solid infill extrusion width = 0.45mm
; top infill extrusion width = 0.40mm
; first layer extrusion width = 0.42mm

M73 P0 R15
M201 X1250 Y1250 Z400 E5000 ; sets maximum accelerations, mm/sec^2
M203 X180 Y180 Z12 E80 ; sets maximum feedrates, mm/sec
M204 P1250 R1250 T1250 ; sets acceleration (P, T) and retract acceleration (R), mm/sec^2
M205 X8.00 Y8.00 Z2.00 E10.00 ; sets the jerk limits, mm/sec
M205 S0 T0 ; sets the minimum extruding and travel feed rate, mm/sec
M107
;TYPE:Custom
G90 ; use absolute coordinates
M83 ; extruder relative mode
M104 S170 ; set extruder temp for bed leveling
M140 S60 ; set bed temp
M109 R170 ; wait for bed leveling temp
M190 S60 ; wait for bed temp
G28 ; home all without mesh bed level
G29 ; mesh bed leveling 
M104 S215 ; set extruder temp
G92 E0.0
G1 Y-2.0 X179 F2400
G1 Z3 F720
M109 S215 ; wait for extruder temp

; intro line
G1 X170 F1000
G1 Z0.2 F720
G1 X110.0 E8.0 F900
M73 P1 R15
G1 X40.0 E10.0 F700
G92 E0.0

M221 S95 ; set flow
G21 ; set units to millimeters
G90 ; use absolute coordinates
M83 ; use relative distances for extrusion
M900 K0.2 ; Filament gcode LA 1.5
; ; Filament gcode LA 1.0
;LAYER_CHANGE
;Z:0.2
;HEIGHT:0.2
;BEFORE_LAYER_CHANGE
G92 E0.0
;0.2


M73 P1 R14
G1 E-3.20000 F4200.000
G1 Z0.200 F9000.000
;AFTER_LAYER_CHANGE
;0.2
G1 Z0.400
G1 X74.215 Y73.507
G1 Z0.200
G1 E3.20000 F2400.000
M204 S800
;TYPE:Skirt
;WIDTH:0.42
G1 F1200.000
G1 X74.961 Y73.373 E0.02378
G1 X105.003 Y73.373 E0.94193
M73 P2 R14
G1 X105.766 Y73.500 E0.02426
G1 X106.451 Y73.868 E0.02437
G1 X111.055 Y78.037 E0.19475
G1 X111.573 Y78.694 E0.02624
G1 X111.979 Y79.447 E0.02683
G1 X112.271 Y80.369 E0.03032
G1 X112.373 Y81.200 E0.02624
G1 X112.375 Y98.714 E0.54914
G1 X112.234 Y99.793 E0.03412
G1 X111.817 Y100.891 E0.03684
G1 X111.080 Y101.936 E0.04008
G1 X106.455 Y106.129 E0.19574
G1 X105.785 Y106.493 E0.02390
G1 X105.035 Y106.627 E0.02390
G1 X74.716 Y106.610 E0.95062
G1 X74.063 Y106.434 E0.02119
G1 X73.487 Y106.082 E0.02119
G1 X69.159 Y102.177 E0.18279
G1 X68.617 Y101.574 E0.02540
G1 X68.191 Y100.907 E0.02481
G1 X67.924 Y100.307 E0.02060
G1 X67.716 Y99.567 E0.02409
G1 X67.627 Y98.796 E0.02433
G1 X67.625 Y81.294 E0.54878
G1 X67.708 Y80.473 E0.02588
G1 X68.134 Y79.203 E0.04198
G1 X68.802 Y78.197 E0.03788
G1 X73.545 Y73.871 E0.20127
G1 X74.162 Y73.535 E0.02202
M204 S1250
; printing object InsideMagnetHolder01.stl id:0 copy 2
G1 E-2.24000 F4200.000
;WIPE_START
G1 F7200.000
G1 X74.961 Y73.373 E-0.45203
G1 X75.791 Y73.373 E-0.45997
;WIPE_END
G1 E-0.04800 F4200.000
G1 Z0.400 F9000.000
G1 X75.788 Y76.537
G1 Z0.200
G1 E3.20000 F2400.000
M204 S800
;TYPE:Perimeter
G1 F1200.000
G1 X81.214 Y76.537 E0.17012
G1 X81.214 Y78.723 E0.06853
G1 X83.448 Y79.312 E0.07245
G1 X82.907 Y79.732 E0.02147
G1 X82.679 Y79.989 E0.01076
G1 X82.493 Y80.275 E0.01071
G1 X82.305 Y80.722 E0.01520
G1 X82.218 Y81.199 E0.01520
G1 X82.218 Y81.540 E0.01069
G1 X82.267 Y81.878 E0.01069
G1 X82.422 Y82.337 E0.01520
G1 X82.672 Y82.753 E0.01522
G1 X82.907 Y83.018 E0.01109
G1 X83.448 Y83.438 E0.02147
G1 X81.214 Y84.027 E0.07245
G1 X81.214 Y86.213 E0.06853
G1 X75.788 Y86.213 E0.17012
G1 X75.788 Y84.027 E0.06853
G1 X73.509 Y83.426 E0.07390
G1 X73.854 Y83.219 E0.01262
G1 X74.218 Y82.891 E0.01537
G1 X74.499 Y82.493 E0.01526
G1 X74.647 Y82.174 E0.01103
G1 X74.768 Y81.705 E0.01520
G1 X74.786 Y81.210 E0.01553
G1 X74.699 Y80.733 E0.01520
G1 X74.574 Y80.404 E0.01103
G1 X74.330 Y79.997 E0.01488
G1 X74.095 Y79.732 E0.01109
G1 X73.554 Y79.312 E0.02147
G1 X75.788 Y78.723 E0.07245
G1 X75.788 Y76.597 E0.06664
M204 S1250
G1 E-2.24000 F4200.000
;WIPE_START
G1 F7200.000
G1 X77.434 Y76.579 E-0.91200
;WIPE_END
G1 E-0.04800 F4200.000
G1 Z0.400 F9000.000
G1 X82.669 Y80.830
G1 Z0.200
G1 E3.20000 F2400.000
M204 S800
;TYPE:External perimeter
G1 F1200.000
G1 X82.827 Y80.453 E0.01284
G1 X82.980 Y80.219 E0.00877
G1 X83.166 Y80.009 E0.00879
G1 X83.492 Y79.755 E0.01295
G1 X83.872 Y79.590 E0.01298
G1 X84.154 Y79.533 E0.00902
G1 X84.555 Y79.542 E0.01256
G1 X85.031 Y79.643 E0.01528
G1 X85.294 Y79.746 E0.00886
G1 X85.624 Y79.952 E0.01219
G1 X85.903 Y80.227 E0.01229
G1 X86.117 Y80.555 E0.01229
M73 P3 R14
G1 X86.256 Y80.921 E0.01228
G1 X86.311 Y81.290 E0.01170
G1 X86.302 Y81.574 E0.00890
G1 X86.218 Y81.954 E0.01219
G1 X86.054 Y82.309 E0.01229
G1 X85.817 Y82.621 E0.01229
G1 X85.518 Y82.875 E0.01229
G1 X85.173 Y83.058 E0.01225
G1 X84.806 Y83.165 E0.01199
G1 X84.421 Y83.222 E0.01219
G1 X84.015 Y83.198 E0.01275
G1 X83.744 Y83.115 E0.00891
G1 X83.489 Y82.992 E0.00886
G1 X83.166 Y82.741 E0.01282
G1 X82.978 Y82.529 E0.00891
G1 X82.766 Y82.178 E0.01285
G1 X82.636 Y81.790 E0.01284
G1 X82.595 Y81.513 E0.00877
G1 X82.595 Y81.233 E0.00877
G1 X82.658 Y80.890 E0.01096
M204 S1250
G1 X82.397 Y80.537 F9000.000
G1 E-2.24000 F4200.000
;WIPE_START
G1 F7200.000
G1 X82.827 Y80.453 E-0.25952
G1 X82.980 Y80.219 E-0.15504
G1 X83.166 Y80.009 E-0.15532
G1 X83.492 Y79.755 E-0.22894
G1 X83.680 Y79.674 E-0.11317
;WIPE_END
G1 E-0.04800 F4200.000
G1 Z0.400 F9000.000
G1 X74.407 Y81.237
G1 Z0.200
G1 E3.20000 F2400.000
M204 S800
G1 F1200.000
G1 X74.392 Y81.650 E0.01296
G1 X74.290 Y82.047 E0.01284
G1 X74.171 Y82.304 E0.00889
G1 X73.935 Y82.639 E0.01286
G1 X73.629 Y82.914 E0.01289
G1 X73.383 Y83.062 E0.00899
G1 X72.995 Y83.196 E0.01288
G1 X72.710 Y83.226 E0.00898
G1 X72.321 Y83.189 E0.01224
G1 X71.950 Y83.101 E0.01196
G1 X71.595 Y82.945 E0.01218
G1 X71.282 Y82.715 E0.01217
G1 X71.097 Y82.520 E0.00844
G1 X70.885 Y82.195 E0.01217
G1 X70.746 Y81.828 E0.01229
G1 X70.690 Y81.440 E0.01229
G1 X70.718 Y81.050 E0.01228
G1 X70.823 Y80.692 E0.01169
G1 X70.950 Y80.438 E0.00890
G1 X71.185 Y80.129 E0.01219
G1 X71.484 Y79.875 E0.01229
G1 X71.829 Y79.692 E0.01225
G1 X72.196 Y79.585 E0.01199
G1 X72.580 Y79.528 E0.01217
G1 X72.987 Y79.552 E0.01277
G1 X73.258 Y79.635 E0.00891
G1 X73.513 Y79.758 E0.00886
G1 X73.836 Y80.009 E0.01282
G1 X74.024 Y80.221 E0.00891
G1 X74.234 Y80.569 E0.01273
G1 X74.334 Y80.834 E0.00889
G1 X74.397 Y81.178 E0.01096
M204 S1250
G1 X74.765 Y81.416 F9000.000
G1 E-2.24000 F4200.000
;WIPE_START
G1 F7200.000
G1 X74.392 Y81.650 E-0.26161
G1 X74.290 Y82.047 E-0.22693
G1 X74.171 Y82.304 E-0.15707
G1 X73.935 Y82.639 E-0.22730
G1 X73.882 Y82.686 E-0.03910
;WIPE_END
G1 E-0.04800 F4200.000
G1 Z0.400 F9000.000
G1 X81.591 Y78.432
G1 Z0.200
G1 E3.20000 F2400.000
M204 S800
G1 F1200.000
G1 X83.702 Y78.990 E0.06846
G1 X85.068 Y79.262 E0.04367
G1 X85.296 Y79.337 E0.00753
G1 X85.629 Y79.500 E0.01163
G1 X85.826 Y79.634 E0.00745
G1 X86.101 Y79.883 E0.01164
G1 X86.255 Y80.067 E0.00754
G1 X86.390 Y80.271 E0.00765
G1 X86.499 Y80.485 E0.00754
G1 X86.621 Y80.835 E0.01163
G1 X86.668 Y81.071 E0.00755
G1 X86.688 Y81.314 E0.00764
G1 X86.681 Y81.555 E0.00755
G1 X86.622 Y81.910 E0.01130
G1 X86.547 Y82.150 E0.00789
G1 X86.450 Y82.370 E0.00754
G1 X86.253 Y82.685 E0.01164
G1 X86.101 Y82.867 E0.00745
G1 X85.826 Y83.116 E0.01164
G1 X85.629 Y83.250 E0.00745
G1 X85.296 Y83.413 E0.01163
G1 X85.068 Y83.488 E0.00753
G1 X83.702 Y83.760 E0.04367
G1 X81.591 Y84.318 E0.06846
G1 X81.591 Y86.590 E0.07124
G1 X75.411 Y86.590 E0.19377
G1 X75.411 Y84.318 E0.07124
G1 X73.300 Y83.760 E0.06846
G1 X71.937 Y83.489 E0.04357
G1 X71.591 Y83.364 E0.01152
G1 X71.270 Y83.184 E0.01154
G1 X71.079 Y83.038 E0.00754
G1 X70.903 Y82.870 E0.00765
G1 X70.747 Y82.683 E0.00763
G1 X70.612 Y82.479 E0.00765
G1 X70.501 Y82.263 E0.00763
G1 X70.415 Y82.035 E0.00765
G1 X70.355 Y81.802 E0.00754
G1 X70.314 Y81.436 E0.01154
G1 X70.335 Y81.072 E0.01144
G1 X70.415 Y80.715 E0.01146
G1 X70.554 Y80.377 E0.01145
G1 X70.749 Y80.065 E0.01154
G1 X70.901 Y79.883 E0.00745
G1 X71.176 Y79.634 E0.01164
G1 X71.375 Y79.499 E0.00754
G1 X71.588 Y79.387 E0.00755
G1 X71.937 Y79.261 E0.01161
G1 X73.300 Y78.990 E0.04357
G1 X75.411 Y78.432 E0.06846
G1 X75.411 Y76.160 E0.07124
G1 X81.591 Y76.160 E0.19377
G1 X81.591 Y78.372 E0.06936
M204 S1250
G1 X81.684 Y78.821 F9000.000
G1 E-2.24000 F4200.000
;WIPE_START
G1 F7200.000
G1 X83.171 Y78.834 E-0.91200
;WIPE_END
G1 E-0.04800 F4200.000
G1 Z0.400 F9000.000
G1 X80.320 Y76.650
G1 Z0.200
G1 E3.20000 F2400.000
M204 S800
;TYPE:Solid infill
;WIDTH:0.428545
G1 F1200.000
G1 X80.931 Y77.261 E0.02769
G1 X80.931 Y77.806 E0.01749
G1 X79.945 Y76.820 E0.04473
G1 X79.399 Y76.820 E0.01749
G1 X81.101 Y78.521 E0.07715
M204 S1250
G1 X82.234 Y79.109 F9000.000
M204 S800
G1 F1200.000
G1 X82.683 Y79.558 E0.02039
G1 X82.431 Y79.852 E0.01240
G1 X81.493 Y78.913 E0.04257
M204 S1250
G1 E-2.24000 F4200.000
;WIPE_START
G1 F7200.000
G1 X82.431 Y79.852 E-0.73573
G1 X82.639 Y79.611 E-0.17627
;WIPE_END
G1 E-0.04800 F4200.000
G1 Z0.400 F9000.000
G1 X82.352 Y80.318
G1 Z0.200
G1 E3.20000 F2400.000
M204 S800
G1 F1200.000
G1 X78.854 Y76.820 E0.15863
G1 X78.309 Y76.820 E0.01749
G1 X82.061 Y80.573 E0.17017
G1 X82.033 Y80.641 E0.00239
G1 X81.963 Y81.020 E0.01234
G1 X77.763 Y76.820 E0.19046
G1 X77.218 Y76.820 E0.01749
G1 X81.935 Y81.537 E0.21392
G1 X81.991 Y81.944 E0.01315
G1 X82.090 Y82.237 E0.00994
G1 X76.673 Y76.820 E0.24567
G1 X76.127 Y76.820 E0.01749
G1 X82.660 Y83.353 E0.29625
G1 X82.229 Y83.467 E0.01431
G1 X76.071 Y77.309 E0.27925
G1 X76.071 Y77.854 E0.01749
G1 X81.797 Y83.581 E0.25968
G1 X81.366 Y83.695 E0.01431
G1 X76.071 Y78.400 E0.24012
M73 P4 R14
G1 X76.067 Y78.941 E0.01737
G1 X80.935 Y83.809 E0.22072
G1 X80.931 Y84.351 E0.01738
G1 X75.636 Y79.055 E0.24012
G1 X75.204 Y79.169 E0.01431
G1 X80.931 Y84.896 E0.25969
G1 X80.931 Y85.441 E0.01749
G1 X74.773 Y79.283 E0.27925
G1 X74.342 Y79.397 E0.01431
G1 X80.875 Y85.930 E0.29625
G1 X80.329 Y85.930 E0.01749
G1 X74.921 Y80.522 E0.24523
G1 X74.972 Y80.657 E0.00462
G1 X75.068 Y81.215 E0.01815
G1 X79.784 Y85.930 E0.21383
G1 X79.239 Y85.930 E0.01749
G1 X75.049 Y81.741 E0.18996
G1 X74.938 Y82.175 E0.01437
G1 X78.693 Y85.930 E0.17027
G1 X78.148 Y85.930 E0.01749
G1 X74.779 Y82.561 E0.15277
G1 X74.564 Y82.892 E0.01264
G1 X75.271 Y83.598 E0.03205
G1 X74.530 Y83.403 E0.02457
G1 X74.387 Y83.260 E0.00647
M204 S1250
G1 E-2.24000 F4200.000
;WIPE_START
G1 F7200.000
G1 X74.530 Y83.403 E-0.11176
G1 X75.271 Y83.598 E-0.42471
G1 X74.791 Y83.119 E-0.37553
;WIPE_END
G1 E-0.04800 F4200.000
G1 Z0.400 F9000.000
G1 X75.901 Y84.229
G1 Z0.200
G1 E3.20000 F2400.000
M204 S800
G1 F1200.000
G1 X77.602 Y85.930 E0.07715
G1 X77.057 Y85.930 E0.01749
G1 X76.071 Y84.944 E0.04472
G1 X76.071 Y85.489 E0.01749
G1 X76.681 Y86.100 E0.02769
M204 S1250
G1 E-2.24000 F4200.000
;WIPE_START
G1 F7200.000
G1 X76.071 Y85.489 E-0.47854
G1 X76.071 Y84.944 E-0.30222
G1 X76.238 Y85.111 E-0.13125
;WIPE_END
G1 E-0.04800 F4200.000
G1 Z0.400 F9000.000
G1 X73.100 Y83.451
G1 Z0.200
G1 E3.20000 F2400.000
M204 S800
;TYPE:Gap fill
;WIDTH:0.162185
G1 F1200.000
G1 X72.918 Y83.443 E0.00180
M204 S1250
M204 S800
;WIDTH:0.127752
G1 X72.736 Y83.434 E0.00128
M204 S1250
G1 X72.896 Y83.488 F9000.000
M204 S800
;WIDTH:0.136311
G1 F1200.000
G1 X73.264 Y83.327 E0.00312
M204 S1250
G1 X74.045 Y83.372 F9000.000
M204 S800
;WIDTH:0.136898
G1 F1200.000
G1 X74.227 Y83.167 E0.00214
M204 S1250
G1 E-2.24000 F4200.000
;WIPE_START
G1 F7200.000
G1 X74.045 Y83.372 E-0.15170
;WIPE_END
G1 E-0.80830 F4200.000
G1 Z0.400 F9000.000
G1 X73.431 Y79.484
G1 Z0.200
G1 E3.20000 F2400.000
M204 S800
;WIDTH:0.109997
G1 F1200.000
G1 X73.162 Y79.335 E0.00171
M204 S1250
M204 S800
;WIDTH:0.206717
G1 X72.987 Y79.244 E0.00269
M204 S1250
G1 X73.230 Y79.300 F9000.000
M204 S800
;WIDTH:0.175912
G1 F1200.000
G1 X72.862 Y79.313 E0.00408
M204 S1250
M204 S800
;WIDTH:0.131666
G1 X72.700 Y79.324 E0.00120
M204 S1250
G1 E-2.24000 F4200.000
;WIPE_START
G1 F7200.000
G1 X72.862 Y79.313 E-0.09021
;WIPE_END
G1 E-0.86979 F4200.000
G1 Z0.400 F9000.000
G1 X84.301 Y79.325
G1 Z0.200
G1 E3.20000 F2400.000
M204 S800
;WIDTH:0.117516
G1 F1200.000
G1 X83.787 Y79.288 E0.00320
M204 S1250
G1 X84.009 Y79.243 F9000.000
M204 S800
;WIDTH:0.162173
G1 F1200.000
G1 X83.670 Y79.429 E0.00384
M204 S1250
M204 S800
;WIDTH:0.125531
G1 X83.548 Y79.501 E0.00098
M204 S1250
G1 E-2.24000 F4200.000
;WIPE_START
G1 F7200.000
G1 X83.670 Y79.429 E-0.07869
;WIPE_END
G1 E-0.88131 F4200.000
G1 Z0.400 F9000.000
G1 X83.571 Y83.266
G1 Z0.200
G1 E3.20000 F2400.000
M204 S800
;WIDTH:0.111472
G1 F1200.000
G1 X83.665 Y83.324 E0.00062
M204 S1250
M204 S800
;WIDTH:0.159133
G1 X83.840 Y83.415 E0.00191
M204 S1250
M204 S800
;WIDTH:0.206793
G1 X84.015 Y83.506 E0.00269
M204 S1250
G1 X83.772 Y83.450 F9000.000
M204 S800
;WIDTH:0.131717
G1 F1200.000
G1 X84.303 Y83.426 E0.00392
M204 S1250
; stop printing object InsideMagnetHolder01.stl id:0 copy 2
; printing object InsideMagnetHolder01.stl id:0 copy 3
G1 E-2.24000 F4200.000
;WIPE_START
G1 F7200.000
G1 X83.772 Y83.450 E-0.29455
;WIPE_END
G1 E-0.66545 F4200.000
G1 Z0.400 F9000.000
G1 X81.214 Y93.787
G1 Z0.200
G1 E3.20000 F2400.000
M204 S800
;TYPE:Perimeter
;WIDTH:0.42
G1 F1200.000
G1 X81.214 Y95.973 E0.06853
G1 X83.448 Y96.562 E0.07245
G1 X82.907 Y96.982 E0.02147
G1 X82.679 Y97.239 E0.01076
G1 X82.493 Y97.525 E0.01071
G1 X82.305 Y97.972 E0.01520
G1 X82.218 Y98.449 E0.01520
G1 X82.218 Y98.790 E0.01069
G1 X82.267 Y99.128 E0.01069
G1 X82.422 Y99.587 E0.01520
G1 X82.672 Y100.003 E0.01522
G1 X82.907 Y100.268 E0.01109
G1 X83.448 Y100.688 E0.02147
G1 X81.214 Y101.277 E0.07245
G1 X81.214 Y103.463 E0.06853
G1 X75.788 Y103.463 E0.17012
G1 X75.788 Y101.277 E0.06853
G1 X73.509 Y100.676 E0.07390
G1 X73.854 Y100.469 E0.01262
M73 P5 R14
G1 X74.218 Y100.141 E0.01537
G1 X74.499 Y99.743 E0.01526
G1 X74.647 Y99.424 E0.01103
G1 X74.768 Y98.955 E0.01520
G1 X74.786 Y98.460 E0.01553
G1 X74.699 Y97.983 E0.01520
G1 X74.574 Y97.654 E0.01103
G1 X74.330 Y97.247 E0.01488
G1 X74.095 Y96.982 E0.01109
G1 X73.554 Y96.562 E0.02147
G1 X75.788 Y95.973 E0.07245
G1 X75.788 Y93.787 E0.06853
G1 X81.154 Y93.787 E0.16824
M204 S1250
G1 E-2.24000 F4200.000
;WIPE_START
G1 F7200.000
G1 X81.199 Y95.432 E-0.91200
;WIPE_END
G1 E-0.04800 F4200.000
G1 Z0.400 F9000.000
G1 X83.492 Y97.005
G1 Z0.200
G1 E3.20000 F2400.000
M204 S800
;TYPE:External perimeter
G1 F1200.000
G1 X83.872 Y96.840 E0.01298
G1 X84.154 Y96.783 E0.00902
G1 X84.555 Y96.792 E0.01256
G1 X85.031 Y96.893 E0.01528
G1 X85.294 Y96.996 E0.00886
G1 X85.624 Y97.202 E0.01219
G1 X85.903 Y97.477 E0.01229
G1 X86.117 Y97.805 E0.01229
G1 X86.256 Y98.171 E0.01228
G1 X86.311 Y98.540 E0.01170
G1 X86.302 Y98.824 E0.00890
G1 X86.218 Y99.204 E0.01219
G1 X86.054 Y99.559 E0.01229
G1 X85.817 Y99.871 E0.01229
G1 X85.518 Y100.125 E0.01229
G1 X85.173 Y100.308 E0.01225
G1 X84.806 Y100.415 E0.01199
G1 X84.421 Y100.472 E0.01219
G1 X84.015 Y100.448 E0.01275
G1 X83.744 Y100.365 E0.00891
G1 X83.489 Y100.242 E0.00886
G1 X83.166 Y99.991 E0.01282
G1 X82.978 Y99.779 E0.00891
G1 X82.766 Y99.428 E0.01285
G1 X82.636 Y99.040 E0.01284
G1 X82.595 Y98.763 E0.00877
G1 X82.595 Y98.483 E0.00877
G1 X82.669 Y98.080 E0.01284
G1 X82.827 Y97.703 E0.01284
G1 X82.980 Y97.469 E0.00877
G1 X83.166 Y97.259 E0.00879
G1 X83.445 Y97.042 E0.01107
M204 S1250
G1 X83.494 Y96.605 F9000.000
G1 E-2.24000 F4200.000
;WIPE_START
G1 F7200.000
G1 X83.872 Y96.840 E-0.26183
G1 X84.154 Y96.783 E-0.15942
G1 X84.555 Y96.792 E-0.22208
G1 X85.029 Y96.892 E-0.26867
;WIPE_END
G1 E-0.04800 F4200.000
G1 Z0.400 F9000.000
G1 X74.407 Y98.487
G1 Z0.200
G1 E3.20000 F2400.000
M204 S800
G1 F1200.000
G1 X74.392 Y98.900 E0.01296
G1 X74.290 Y99.297 E0.01284
G1 X74.171 Y99.554 E0.00889
G1 X73.935 Y99.889 E0.01286
G1 X73.629 Y100.164 E0.01289
G1 X73.383 Y100.312 E0.00899
G1 X72.995 Y100.446 E0.01288
G1 X72.710 Y100.476 E0.00898
G1 X72.321 Y100.439 E0.01224
G1 X71.950 Y100.351 E0.01196
G1 X71.595 Y100.195 E0.01218
G1 X71.282 Y99.965 E0.01217
G1 X71.097 Y99.770 E0.00844
G1 X70.885 Y99.445 E0.01217
G1 X70.746 Y99.078 E0.01229
G1 X70.690 Y98.690 E0.01229
G1 X70.718 Y98.300 E0.01228
G1 X70.823 Y97.942 E0.01169
G1 X70.950 Y97.688 E0.00890
G1 X71.185 Y97.379 E0.01219
G1 X71.484 Y97.125 E0.01229
G1 X71.829 Y96.942 E0.01225
G1 X72.196 Y96.835 E0.01199
G1 X72.580 Y96.778 E0.01217
G1 X72.987 Y96.802 E0.01277
G1 X73.258 Y96.885 E0.00891
G1 X73.513 Y97.008 E0.00886
