; generated by PrusaSlicer 2.3.0+win64 on 2021-06-07 at 11:21:44 UTC


;
;

;
;
; 

; external perimeters extrusion width = 0.45mm
; perimeters extrusion width = 0.45mm
; infill extrusion width = 0.45mm
; solid infill extrusion width = 0.45mm
; top infill extrusion width = 0.40mm
; first layer extrusion width = 0.42mm

M73 P0 R59
M201 X1250 Y1250 Z400 E5000 ; sets maximum accelerations, mm/sec^2
M203 X180 Y180 Z12 E80 ; sets maximum feedrates, mm/sec
M204 P1250 R1250 T1250 ; sets acceleration (P, T) and retract acceleration (R), mm/sec^2
M205 X8.00 Y8.00 Z2.00 E10.00 ; sets the jerk limits, mm/sec
M205 S0 T0 ; sets the minimum extruding and travel feed rate, mm/sec
M107
;TYPE:Custom
G90 ; use absolute coordinates
M83 ; extruder relative mode
M104 S170 ; set extruder temp for bed leveling
M140 S60 ; set bed temp
M109 R170 ; wait for bed leveling temp
M190 S60 ; wait for bed temp
G28 ; home all without mesh bed level
G29 ; mesh bed leveling 
M104 S215 ; set extruder temp
G92 E0.0
G1 Y-2.0 X179 F2400
G1 Z3 F720
M109 S215 ; wait for extruder temp

; intro line
G1 X170 F1000
G1 Z0.2 F720
G1 X110.0 E8.0 F900
G1 X40.0 E10.0 F700
G92 E0.0

M221 S95 ; set flow
G21 ; set units to millimeters
G90 ; use absolute coordinates
M83 ; use relative distances for extrusion
M900 K0.2 ; Filament gcode LA 1.5
; ; Filament gcode LA 1.0
;LAYER_CHANGE
;Z:0.2
;HEIGHT:0.2
;BEFORE_LAYER_CHANGE
G92 E0.0
;0.2


G1 E-3.20000 F4200.000
G1 Z0.200 F9000.000
;AFTER_LAYER_CHANGE
;0.2
G1 Z0.400
G1 X45.079 Y62.053
G1 Z0.200
G1 E3.20000 F2400.000
M204 S800
;TYPE:Skirt
;WIDTH:0.42
G1 F1200.000
G1 X46.339 Y61.184 E0.04800
G1 X47.893 Y60.553 E0.05260
G1 X49.365 Y60.299 E0.04681
G1 X95.681 Y57.629 E1.45465
G1 X135.977 Y57.623 E1.26342
G1 X137.404 Y57.763 E0.04496
G1 X138.747 Y58.165 E0.04396
G1 X140.024 Y58.836 E0.04524
G1 X141.001 Y59.603 E0.03896
G1 X141.935 Y60.657 E0.04415
G1 X142.672 Y61.911 E0.04559
G1 X143.144 Y63.269 E0.04510
G1 X143.342 Y64.666 E0.04422
G1 X143.330 Y115.538 E1.59505
G1 X143.209 Y116.435 E0.02837
G1 X142.982 Y117.298 E0.02799
G1 X142.657 Y118.120 E0.02773
G1 X142.133 Y119.058 E0.03367
G1 X141.595 Y119.775 E0.02812
G1 X140.981 Y120.417 E0.02784
G1 X140.305 Y120.971 E0.02742
G1 X139.539 Y121.457 E0.02843
G1 X137.961 Y122.104 E0.05347
G1 X137.120 Y122.287 E0.02699
G1 X136.222 Y122.372 E0.02830
G1 X95.665 Y122.371 E1.27162
G1 X43.850 Y117.013 E1.63330
M73 P0 R58
G1 X43.124 Y116.819 E0.02355
G1 X42.493 Y116.405 E0.02367
G1 X37.393 Y111.308 E0.22609
G1 X37.000 Y110.772 E0.02083
G1 X36.757 Y110.081 E0.02296
G1 X36.737 Y109.349 E0.02296
G1 X42.633 Y66.249 E1.36395
G1 X43.077 Y64.792 E0.04776
G1 X43.920 Y63.303 E0.05367
G1 X45.038 Y62.097 E0.05155
M204 S1250
; printing object IronRestTop01.stl id:0 copy 0
G1 E-2.24000 F4200.000
;WIPE_START
G1 F7200.000
G1 X46.339 Y61.184 E-0.88088
G1 X46.391 Y61.163 E-0.03112
;WIPE_END
G1 E-0.04800 F4200.000
G1 Z0.400 F9000.000
G1 X94.886 Y81.513
G1 Z0.200
G1 E3.20000 F2400.000
M204 S800
;TYPE:Perimeter
G1 F1200.000
G1 X101.860 Y81.513 E0.21867
G1 X101.860 Y88.487 E0.21867
G1 X94.886 Y88.487 E0.21867
G1 X94.886 Y81.573 E0.21679
M204 S1250
G1 X95.263 Y81.890 F9000.000
M204 S800
;TYPE:External perimeter
G1 F1200.000
G1 X101.483 Y81.890 E0.19502
G1 X101.483 Y88.110 E0.19502
G1 X95.263 Y88.110 E0.19502
G1 X95.263 Y81.950 E0.19314
M204 S1250
M73 P1 R58
G1 X95.159 Y81.504 F9000.000
G1 E-2.24000 F4200.000
;WIPE_START
G1 F7200.000
G1 X96.908 Y81.934 E-0.91200
;WIPE_END
G1 E-0.04800 F4200.000
G1 Z0.400 F9000.000
G1 X130.086 Y81.513
G1 Z0.200
G1 E3.20000 F2400.000
M204 S800
;TYPE:Perimeter
G1 F1200.000
G1 X137.060 Y81.513 E0.21867
G1 X137.060 Y88.487 E0.21867
G1 X130.086 Y88.487 E0.21867
G1 X130.086 Y81.573 E0.21679
M204 S1250
G1 X130.463 Y81.890 F9000.000
M204 S800
;TYPE:External perimeter
G1 F1200.000
G1 X136.683 Y81.890 E0.19502
G1 X136.683 Y88.110 E0.19502
G1 X130.463 Y88.110 E0.19502
G1 X130.463 Y81.950 E0.19314
M204 S1250
G1 X130.359 Y81.504 F9000.000
G1 E-2.24000 F4200.000
;WIPE_START
G1 F7200.000
G1 X132.108 Y81.934 E-0.91200
;WIPE_END
G1 E-0.04800 F4200.000
G1 Z0.400 F9000.000
G1 X126.760 Y78.287
G1 Z0.200
G1 E3.20000 F2400.000
M204 S800
;TYPE:Perimeter
G1 F1200.000
G1 X126.760 Y65.013 E0.41618
G1 X126.773 Y64.669 E0.01079
G1 X126.812 Y64.341 E0.01037
G1 X126.877 Y64.017 E0.01037
G1 X126.966 Y63.698 E0.01037
G1 X127.079 Y63.393 E0.01019
G1 X127.300 Y62.937 E0.01591
G1 X127.470 Y62.660 E0.01019
G1 X127.665 Y62.392 E0.01037
G1 X127.879 Y62.141 E0.01037
G1 X128.109 Y61.911 E0.01019
G1 X128.502 Y61.589 E0.01591
G1 X128.772 Y61.408 E0.01019
G1 X129.060 Y61.247 E0.01037
G1 X129.361 Y61.108 E0.01037
G1 X129.671 Y60.994 E0.01037
G1 X129.989 Y60.904 E0.01037
G1 X130.314 Y60.839 E0.01037
G1 X130.642 Y60.801 E0.01037
G1 X130.986 Y60.787 E0.01079
G1 X136.298 Y60.800 E0.16653
G1 X136.794 Y60.869 E0.01573
G1 X137.274 Y60.994 E0.01555
G1 X137.736 Y61.175 E0.01555
G1 X138.173 Y61.409 E0.01555
G1 X138.580 Y61.692 E0.01555
G1 X138.951 Y62.022 E0.01555
G1 X139.280 Y62.392 E0.01555
G1 X139.564 Y62.799 E0.01555
G1 X139.800 Y63.242 E0.01573
G1 X139.925 Y63.542 E0.01019
G1 X140.027 Y63.857 E0.01037
G1 X140.104 Y64.178 E0.01037
G1 X140.155 Y64.499 E0.01019
G1 X140.186 Y65.019 E0.01633
G1 X140.182 Y115.160 E1.57212
G1 X140.133 Y115.659 E0.01573
G1 X140.026 Y116.143 E0.01555
G1 X139.864 Y116.612 E0.01555
G1 X139.645 Y117.063 E0.01573
G1 X139.475 Y117.340 E0.01019
G1 X139.284 Y117.603 E0.01019
G1 X138.951 Y117.978 E0.01573
G1 X138.580 Y118.308 E0.01555
G1 X138.173 Y118.591 E0.01555
G1 X137.736 Y118.825 E0.01555
G1 X137.274 Y119.006 E0.01555
G1 X136.794 Y119.131 E0.01555
G1 X136.298 Y119.200 E0.01573
G1 X135.959 Y119.213 E0.01061
G1 X130.986 Y119.213 E0.15593
G1 X130.642 Y119.199 E0.01079
G1 X130.320 Y119.161 E0.01019
G1 X129.829 Y119.054 E0.01573
G1 X129.361 Y118.891 E0.01555
G1 X128.915 Y118.675 E0.01555
G1 X128.497 Y118.407 E0.01555
G1 X128.114 Y118.093 E0.01555
G1 X127.770 Y117.735 E0.01555
G1 X127.467 Y117.335 E0.01573
G1 X127.297 Y117.058 E0.01019
G1 X127.150 Y116.769 E0.01019
G1 X126.967 Y116.302 E0.01573
G1 X126.842 Y115.822 E0.01555
G1 X126.773 Y115.325 E0.01573
G1 X126.760 Y114.987 E0.01061
G1 X126.760 Y91.713 E0.72973
G1 X105.186 Y91.713 E0.67644
G1 X105.182 Y115.160 E0.73515
G1 X105.133 Y115.659 E0.01573
G1 X105.026 Y116.143 E0.01555
G1 X104.864 Y116.612 E0.01555
G1 X104.645 Y117.063 E0.01573
G1 X104.475 Y117.340 E0.01019
G1 X104.284 Y117.603 E0.01019
G1 X103.951 Y117.978 E0.01573
G1 X103.576 Y118.311 E0.01573
G1 X103.313 Y118.503 E0.01019
G1 X103.031 Y118.675 E0.01037
G1 X102.736 Y118.825 E0.01037
G1 X102.436 Y118.950 E0.01019
G1 X101.956 Y119.095 E0.01573
G1 X101.468 Y119.183 E0.01555
G1 X100.954 Y119.213 E0.01615
G1 X95.808 Y119.209 E0.16135
G1 X95.483 Y119.184 E0.01020
G1 X94.984 Y119.094 E0.01591
G1 X94.677 Y119.008 E0.01001
G1 X94.209 Y118.825 E0.01573
G1 X93.767 Y118.588 E0.01573
G1 X93.502 Y118.411 E0.01001
G1 X93.109 Y118.089 E0.01591
G1 X92.879 Y117.859 E0.01019
G1 X92.668 Y117.612 E0.01019
G1 X92.378 Y117.196 E0.01591
G1 X92.219 Y116.912 E0.01019
G1 X92.083 Y116.617 E0.01019
G1 X91.917 Y116.138 E0.01591
G1 X91.841 Y115.822 E0.01019
G1 X91.790 Y115.501 E0.01019
G1 X91.760 Y114.981 E0.01634
G1 X91.760 Y65.013 E1.56669
G1 X91.773 Y64.669 E0.01079
G1 X91.812 Y64.341 E0.01037
G1 X91.877 Y64.017 E0.01037
G1 X91.965 Y63.704 E0.01019
G1 X92.148 Y63.237 E0.01573
G1 X92.382 Y62.799 E0.01555
G1 X92.665 Y62.392 E0.01555
G1 X92.995 Y62.022 E0.01555
G1 X93.370 Y61.689 E0.01573
G1 X93.632 Y61.497 E0.01019
G1 X93.910 Y61.328 E0.01019
G1 X94.366 Y61.106 E0.01591
G1 X94.671 Y60.994 E0.01019
G1 X94.984 Y60.906 E0.01019
G1 X95.483 Y60.816 E0.01591
G1 X95.807 Y60.791 E0.01019
G1 X101.138 Y60.791 E0.16714
G1 X101.468 Y60.817 E0.01037
G1 X101.795 Y60.869 E0.01037
G1 X102.116 Y60.946 E0.01037
G1 X102.431 Y61.048 E0.01037
G1 X102.736 Y61.175 E0.01037
G1 X103.031 Y61.325 E0.01037
G1 X103.313 Y61.497 E0.01037
G1 X103.581 Y61.692 E0.01037
G1 X103.832 Y61.907 E0.01037
G1 X104.066 Y62.141 E0.01037
G1 X104.281 Y62.392 E0.01037
G1 X104.475 Y62.660 E0.01037
G1 X104.648 Y62.942 E0.01037
G1 X104.798 Y63.236 E0.01037
G1 X104.925 Y63.542 E0.01037
G1 X105.027 Y63.857 E0.01037
G1 X105.104 Y64.178 E0.01037
G1 X105.155 Y64.499 E0.01019
G1 X105.186 Y65.019 E0.01634
G1 X105.186 Y78.287 E0.41600
G1 X126.700 Y78.287 E0.67456
M204 S1250
G1 X126.383 Y77.910 F9000.000
M204 S800
;TYPE:External perimeter
G1 F1200.000
G1 X126.383 Y65.006 E0.40459
G1 X126.397 Y64.640 E0.01149
G1 X126.439 Y64.282 E0.01130
G1 X126.510 Y63.929 E0.01130
G1 X126.608 Y63.582 E0.01130
G1 X126.732 Y63.245 E0.01123
G1 X126.969 Y62.756 E0.01707
G1 X127.156 Y62.450 E0.01123
G1 X127.368 Y62.158 E0.01130
G1 X127.602 Y61.884 E0.01130
G1 X127.856 Y61.631 E0.01123
G1 X128.277 Y61.286 E0.01707
G1 X128.575 Y61.087 E0.01123
G1 X128.889 Y60.910 E0.01130
G1 X129.216 Y60.760 E0.01130
G1 X129.554 Y60.635 E0.01130
G1 X129.901 Y60.537 E0.01130
G1 X130.255 Y60.467 E0.01130
G1 X130.613 Y60.424 E0.01130
G1 X130.979 Y60.410 E0.01149
G1 X135.967 Y60.410 E0.15639
G1 X136.331 Y60.424 E0.01143
G1 X136.868 Y60.499 E0.01701
G1 X137.391 Y60.635 E0.01694
G1 X137.894 Y60.832 E0.01694
G1 X138.371 Y61.087 E0.01694
G1 X138.814 Y61.396 E0.01694
G1 X139.218 Y61.755 E0.01694
G1 X139.577 Y62.159 E0.01694
G1 X139.886 Y62.602 E0.01694
G1 X140.142 Y63.080 E0.01701
G1 X140.279 Y63.411 E0.01124
G1 X140.390 Y63.754 E0.01130
G1 X140.474 Y64.105 E0.01130
G1 X140.530 Y64.458 E0.01123
G1 X140.563 Y65.008 E0.01726
G1 X140.559 Y115.178 E1.57304
G1 X140.506 Y115.718 E0.01701
G1 X140.390 Y116.246 E0.01694
G1 X140.213 Y116.756 E0.01694
G1 X139.976 Y117.244 E0.01701
G1 X139.789 Y117.550 E0.01123
G1 X139.578 Y117.840 E0.01124
G1 X139.218 Y118.245 E0.01701
G1 X138.814 Y118.604 E0.01694
G1 X138.371 Y118.913 E0.01694
G1 X137.894 Y119.168 E0.01694
G1 X137.391 Y119.365 E0.01694
G1 X136.868 Y119.501 E0.01694
G1 X136.331 Y119.576 E0.01701
G1 X135.967 Y119.590 E0.01143
G1 X130.979 Y119.590 E0.15639
G1 X130.613 Y119.576 E0.01149
G1 X130.257 Y119.534 E0.01123
G1 X129.727 Y119.417 E0.01701
G1 X129.216 Y119.240 E0.01694
G1 X128.730 Y119.004 E0.01694
G1 X128.275 Y118.713 E0.01694
G1 X127.857 Y118.370 E0.01694
G1 X127.483 Y117.981 E0.01694
G1 X127.155 Y117.548 E0.01701
G1 X126.968 Y117.243 E0.01123
G1 X126.805 Y116.923 E0.01123
G1 X126.608 Y116.418 E0.01701
G1 X126.471 Y115.895 E0.01694
G1 X126.397 Y115.358 E0.01701
G1 X126.383 Y114.994 E0.01143
G1 X126.383 Y92.090 E0.71814
G1 X105.563 Y92.090 E0.65280
G1 X105.559 Y115.178 E0.72391
G1 X105.506 Y115.718 E0.01701
G1 X105.390 Y116.246 E0.01694
G1 X105.213 Y116.756 E0.01694
G1 X104.976 Y117.244 E0.01701
G1 X104.789 Y117.550 E0.01123
G1 X104.578 Y117.840 E0.01123
G1 X104.218 Y118.245 E0.01701
G1 X103.813 Y118.606 E0.01701
G1 X103.523 Y118.816 E0.01123
G1 X103.215 Y119.005 E0.01130
G1 X102.894 Y119.168 E0.01130
G1 X102.563 Y119.305 E0.01124
G1 X102.044 Y119.463 E0.01701
G1 X101.512 Y119.558 E0.01694
G1 X100.965 Y119.590 E0.01720
G1 X95.793 Y119.586 E0.16217
G1 X95.435 Y119.558 E0.01124
G1 X94.899 Y119.462 E0.01707
G1 X94.556 Y119.366 E0.01117
G1 X94.051 Y119.168 E0.01701
G1 X93.573 Y118.912 E0.01701
G1 X93.277 Y118.714 E0.01117
G1 X92.856 Y118.369 E0.01707
G1 X92.602 Y118.116 E0.01124
G1 X92.370 Y117.843 E0.01123
G1 X92.058 Y117.396 E0.01707
G1 X91.883 Y117.084 E0.01123
G1 X91.733 Y116.758 E0.01123
G1 X91.555 Y116.244 E0.01707
G1 X91.471 Y115.895 E0.01124
G1 X91.415 Y115.542 E0.01123
G1 X91.383 Y114.992 E0.01726
G1 X91.383 Y65.006 E1.56727
G1 X91.397 Y64.640 E0.01149
G1 X91.439 Y64.282 E0.01130
G1 X91.510 Y63.929 E0.01130
G1 X91.607 Y63.584 E0.01124
G1 X91.805 Y63.079 E0.01701
G1 X92.059 Y62.602 E0.01694
G1 X92.368 Y62.159 E0.01694
G1 X92.727 Y61.755 E0.01694
G1 X93.133 Y61.394 E0.01701
G1 X93.423 Y61.184 E0.01123
G1 X93.728 Y60.996 E0.01124
G1 X94.218 Y60.759 E0.01707
G1 X94.554 Y60.635 E0.01123
G1 X94.899 Y60.538 E0.01123
G1 X95.435 Y60.442 E0.01707
G1 X95.793 Y60.414 E0.01124
G1 X101.153 Y60.414 E0.16807
G1 X101.512 Y60.442 E0.01130
G1 X101.868 Y60.498 E0.01130
G1 X102.219 Y60.583 E0.01130
G1 X102.561 Y60.694 E0.01130
G1 X102.894 Y60.832 E0.01130
G1 X103.215 Y60.995 E0.01130
G1 X103.523 Y61.184 E0.01130
G1 X103.814 Y61.396 E0.01130
G1 X104.088 Y61.630 E0.01130
G1 X104.343 Y61.884 E0.01130
G1 X104.577 Y62.158 E0.01130
G1 X104.789 Y62.450 E0.01130
G1 X104.977 Y62.757 E0.01130
G1 X105.141 Y63.078 E0.01130
G1 X105.279 Y63.411 E0.01130
G1 X105.390 Y63.754 E0.01130
G1 X105.474 Y64.105 E0.01130
G1 X105.530 Y64.458 E0.01123
G1 X105.563 Y65.008 E0.01726
G1 X105.563 Y77.910 E0.40453
G1 X126.323 Y77.910 E0.65092
M204 S1250
G1 X126.776 Y77.984 F9000.000
G1 E-2.24000 F4200.000
;WIPE_START
G1 F7200.000
G1 X126.330 Y76.264 E-0.91200
;WIPE_END
G1 E-0.04800 F4200.000
G1 Z0.400 F9000.000
G1 X137.941 Y61.413
G1 Z0.200
G1 E3.20000 F2400.000
M204 S800
;TYPE:Solid infill
;WIDTH:0.421193
G1 F1200.000
G1 X138.754 Y62.226 E0.03618
G1 X139.058 Y62.568 E0.01438
G1 X139.322 Y62.947 E0.01455
G1 X139.545 Y63.363 E0.01482
G1 X139.672 Y63.679 E0.01071
G1 X137.302 Y61.309 E0.10542
G1 X136.739 Y61.147 E0.01842
G1 X136.584 Y61.125 E0.00494
G1 X139.852 Y64.394 E0.14539
G1 X139.900 Y64.977 E0.01839
G1 X136.006 Y61.082 E0.17322
G1 X135.469 Y61.081 E0.01687
G1 X139.903 Y65.515 E0.19721
G1 X139.903 Y66.049 E0.01683
G1 X134.933 Y61.080 E0.22106
M73 P2 R58
G1 X134.397 Y61.078 E0.01687
G1 X139.903 Y66.584 E0.24492
G1 X139.903 Y67.119 E0.01683
G1 X133.860 Y61.077 E0.26877
G1 X133.324 Y61.076 E0.01687
G1 X139.903 Y67.654 E0.29262
G1 X139.903 Y68.189 E0.01683
G1 X132.788 Y61.074 E0.31648
G1 X132.252 Y61.073 E0.01687
G1 X139.903 Y68.724 E0.34033
G1 X139.903 Y69.259 E0.01683
G1 X131.715 Y61.072 E0.36419
G1 X131.179 Y61.070 E0.01687
G1 X139.903 Y69.794 E0.38804
G1 X139.902 Y70.329 E0.01683
G1 X130.657 Y61.084 E0.41125
G1 X130.191 Y61.152 E0.01483
G1 X139.902 Y70.864 E0.43199
G1 X139.902 Y71.399 E0.01683
G1 X129.765 Y61.261 E0.45094
G1 X129.380 Y61.411 E0.01300
G1 X139.902 Y71.934 E0.46807
G1 X139.902 Y72.468 E0.01683
G1 X129.025 Y61.591 E0.48386
G1 X128.697 Y61.798 E0.01219
G1 X139.902 Y73.003 E0.49843
G1 X139.902 Y73.538 E0.01683
G1 X128.401 Y62.037 E0.51159
G1 X128.124 Y62.296 E0.01190
G1 X139.902 Y74.073 E0.52390
G1 X139.902 Y74.608 E0.01683
G1 X127.876 Y62.582 E0.53494
G1 X127.656 Y62.897 E0.01209
G1 X139.902 Y75.143 E0.54472
G1 X139.902 Y75.678 E0.01683
G1 X127.467 Y63.242 E0.55316
G1 X127.300 Y63.611 E0.01272
G1 X139.902 Y76.213 E0.56056
G1 X139.902 Y76.748 E0.01683
G1 X127.171 Y64.016 E0.56632
G1 X127.082 Y64.463 E0.01433
G1 X139.902 Y77.283 E0.57024
G1 X139.902 Y77.818 E0.01683
G1 X127.045 Y64.961 E0.57191
G1 X127.043 Y65.493 E0.01675
G1 X139.902 Y78.353 E0.57201
M73 P2 R57
G1 X139.902 Y78.888 E0.01683
G1 X127.043 Y66.028 E0.57200
G1 X127.043 Y66.563 E0.01683
G1 X139.902 Y79.422 E0.57200
G1 X139.902 Y79.957 E0.01683
G1 X127.043 Y67.098 E0.57200
G1 X127.043 Y67.633 E0.01683
G1 X139.902 Y80.492 E0.57200
G1 X139.902 Y81.027 E0.01683
G1 X127.043 Y68.168 E0.57200
G1 X127.043 Y68.703 E0.01683
G1 X139.902 Y81.562 E0.57200
G1 X139.902 Y82.097 E0.01683
G1 X127.043 Y69.238 E0.57199
G1 X127.043 Y69.773 E0.01683
G1 X139.902 Y82.632 E0.57199
G1 X139.902 Y83.167 E0.01683
G1 X127.043 Y70.308 E0.57199
G1 X127.043 Y70.843 E0.01683
G1 X139.901 Y83.702 E0.57199
G1 X139.901 Y84.237 E0.01683
G1 X137.343 Y81.678 E0.11382
G1 X137.343 Y81.230 E0.01408
G1 X136.895 Y81.230 E0.01408
G1 X127.043 Y71.378 E0.43825
G1 X127.043 Y71.913 E0.01683
G1 X136.360 Y81.230 E0.41445
G1 X135.825 Y81.230 E0.01683
G1 X127.043 Y72.448 E0.39066
G1 X127.043 Y72.983 E0.01683
G1 X135.290 Y81.230 E0.36686
G1 X134.755 Y81.230 E0.01683
G1 X127.043 Y73.518 E0.34306
G1 X127.043 Y74.053 E0.01683
G1 X134.220 Y81.230 E0.31927
G1 X133.685 Y81.230 E0.01683
G1 X127.043 Y74.588 E0.29547
G1 X127.043 Y75.123 E0.01683
G1 X133.150 Y81.230 E0.27168
G1 X132.615 Y81.230 E0.01683
G1 X127.043 Y75.658 E0.24788
G1 X127.043 Y76.192 E0.01683
G1 X132.080 Y81.230 E0.22408
G1 X131.545 Y81.230 E0.01683
G1 X127.043 Y76.727 E0.20029
G1 X127.043 Y77.262 E0.01683
G1 X131.010 Y81.230 E0.17649
G1 X130.475 Y81.230 E0.01683
G1 X127.043 Y77.797 E0.15270
G1 X127.043 Y78.332 E0.01683
G1 X129.940 Y81.230 E0.12890
