; generated by PrusaSlicer 2.3.0+win64 on 2021-04-29 at 15:35:00 UTC


;
;

;
;
; 

; external perimeters extrusion width = 0.45mm
; perimeters extrusion width = 0.45mm
; infill extrusion width = 0.45mm
; solid infill extrusion width = 0.45mm
; top infill extrusion width = 0.40mm
; first layer extrusion width = 0.42mm

M73 P0 R40
M201 X1250 Y1250 Z400 E5000 ; sets maximum accelerations, mm/sec^2
M203 X180 Y180 Z12 E80 ; sets maximum feedrates, mm/sec
M204 P1250 R1250 T1250 ; sets acceleration (P, T) and retract acceleration (R), mm/sec^2
M205 X8.00 Y8.00 Z2.00 E10.00 ; sets the jerk limits, mm/sec
M205 S0 T0 ; sets the minimum extruding and travel feed rate, mm/sec
M107
;TYPE:Custom
G90 ; use absolute coordinates
M83 ; extruder relative mode
M104 S170 ; set extruder temp for bed leveling
M140 S60 ; set bed temp
M109 R170 ; wait for bed leveling temp
M190 S60 ; wait for bed temp
G28 ; home all without mesh bed level
G29 ; mesh bed leveling 
M104 S215 ; set extruder temp
G92 E0.0
G1 Y-2.0 X179 F2400
G1 Z3 F720
M109 S215 ; wait for extruder temp

; intro line
G1 X170 F1000
G1 Z0.2 F720
G1 X110.0 E8.0 F900
M73 P0 R39
G1 X40.0 E10.0 F700
G92 E0.0

M221 S95 ; set flow
G21 ; set units to millimeters
G90 ; use absolute coordinates
M83 ; use relative distances for extrusion
M900 K0.2 ; Filament gcode LA 1.5
; ; Filament gcode LA 1.0
;LAYER_CHANGE
;Z:0.2
;HEIGHT:0.2
;BEFORE_LAYER_CHANGE
G92 E0.0
;0.2


G1 E-3.20000 F4200.000
G1 Z0.200 F9000.000
;AFTER_LAYER_CHANGE
;0.2
G1 Z0.400
G1 X34.515 Y77.354
G1 Z0.200
G1 E3.20000 F2400.000
M204 S800
;TYPE:Skirt
;WIDTH:0.42
G1 F1200.000
G1 X145.004 Y77.304 E3.46431
G1 X145.902 Y77.482 E0.02872
G1 X146.664 Y77.984 E0.02860
G1 X147.182 Y78.739 E0.02872
G1 X147.377 Y79.634 E0.02872
G1 X147.369 Y100.513 E0.65465
G1 X147.187 Y101.250 E0.02378
G1 X146.783 Y101.891 E0.02378
G1 X146.194 Y102.375 E0.02390
G1 X145.485 Y102.646 E0.02378
G1 X34.962 Y102.696 E3.46538
M73 P1 R39
G1 X34.179 Y102.550 E0.02496
G1 X33.486 Y102.152 E0.02508
G1 X32.966 Y101.549 E0.02496
G1 X32.673 Y100.804 E0.02508
G1 X32.630 Y79.494 E0.66816
G1 X32.811 Y78.754 E0.02390
G1 X33.217 Y78.109 E0.02390
G1 X33.806 Y77.625 E0.02390
G1 X34.459 Y77.375 E0.02190
M204 S1250
; printing object iterate_04.stl id:0 copy 0
G1 E-2.24000 F4200.000
;WIPE_START
G1 F7200.000
G1 X36.104 Y77.374 E-0.91200
;WIPE_END
G1 E-0.04800 F4200.000
G1 Z0.400 F9000.000
G1 X35.787 Y80.468
G1 Z0.200
G1 E3.20000 F2400.000
M204 S800
;TYPE:Perimeter
G1 F1200.000
G1 X144.213 Y80.468 E3.39962
G1 X144.213 Y99.532 E0.59774
G1 X35.787 Y99.532 E3.39962
G1 X35.787 Y80.528 E0.59586
M204 S1250
G1 X35.410 Y80.091 F9000.000
M204 S800
;TYPE:External perimeter
G1 F1200.000
G1 X144.590 Y80.091 E3.42326
M73 P2 R39
G1 X144.590 Y99.909 E0.62139
G1 X35.410 Y99.909 E3.42326
G1 X35.410 Y80.151 E0.61951
M204 S1250
G1 X35.809 Y80.115 F9000.000
G1 E-2.24000 F4200.000
;WIPE_START
G1 F7200.000
G1 X37.056 Y80.150 E-0.91200
;WIPE_END
G1 E-0.04800 F4200.000
G1 Z0.400 F9000.000
G1 X143.336 Y80.581
G1 Z0.200
G1 E3.20000 F2400.000
M204 S800
;TYPE:Solid infill
;WIDTH:0.420577
G1 F1200.000
G1 X143.930 Y81.175 E0.02637
G1 X143.930 Y81.709 E0.01677
G1 X142.972 Y80.751 E0.04255
G1 X142.438 Y80.751 E0.01677
G1 X143.930 Y82.243 E0.06627
G1 X143.930 Y82.777 E0.01677
G1 X141.904 Y80.751 E0.08999
G1 X141.370 Y80.751 E0.01677
G1 X143.930 Y83.311 E0.11371
G1 X143.930 Y83.845 E0.01677
G1 X140.836 Y80.751 E0.13743
G1 X140.301 Y80.751 E0.01677
G1 X143.930 Y84.379 E0.16115
G1 X143.930 Y84.913 E0.01677
G1 X139.767 Y80.751 E0.18487
G1 X139.233 Y80.751 E0.01677
G1 X143.930 Y85.448 E0.20858
G1 X143.930 Y85.982 E0.01677
G1 X138.699 Y80.751 E0.23230
G1 X138.165 Y80.751 E0.01677
G1 X143.930 Y86.516 E0.25602
G1 X143.930 Y87.050 E0.01677
G1 X137.631 Y80.751 E0.27974
G1 X137.097 Y80.751 E0.01677
G1 X143.930 Y87.584 E0.30346
G1 X143.930 Y88.118 E0.01677
G1 X136.563 Y80.751 E0.32718
G1 X136.029 Y80.751 E0.01677
G1 X143.930 Y88.652 E0.35090
G1 X143.930 Y89.186 E0.01677
G1 X135.495 Y80.751 E0.37461
G1 X134.961 Y80.751 E0.01677
G1 X143.930 Y89.720 E0.39833
G1 X143.930 Y90.254 E0.01677
G1 X134.427 Y80.751 E0.42205
G1 X133.892 Y80.751 E0.01677
G1 X143.930 Y90.788 E0.44577
G1 X143.930 Y91.322 E0.01677
G1 X133.358 Y80.751 E0.46949
G1 X132.824 Y80.751 E0.01677
G1 X143.930 Y91.857 E0.49321
M73 P2 R38
G1 X143.930 Y92.391 E0.01677
G1 X132.290 Y80.751 E0.51693
G1 X131.756 Y80.751 E0.01677
G1 X143.930 Y92.925 E0.54064
G1 X143.930 Y93.459 E0.01677
G1 X131.222 Y80.751 E0.56436
G1 X130.688 Y80.751 E0.01677
G1 X143.930 Y93.993 E0.58808
G1 X143.930 Y94.527 E0.01677
G1 X130.154 Y80.751 E0.61180
M73 P3 R38
G1 X129.620 Y80.751 E0.01677
G1 X143.930 Y95.061 E0.63552
G1 X143.930 Y95.595 E0.01677
G1 X129.086 Y80.751 E0.65924
G1 X128.552 Y80.751 E0.01677
G1 X143.930 Y96.129 E0.68296
G1 X143.930 Y96.663 E0.01677
G1 X128.017 Y80.751 E0.70667
G1 X127.483 Y80.751 E0.01677
G1 X143.930 Y97.197 E0.73039
G1 X143.930 Y97.732 E0.01677
G1 X126.949 Y80.751 E0.75411
G1 X126.415 Y80.751 E0.01677
G1 X143.930 Y98.266 E0.77783
G1 X143.930 Y98.800 E0.01677
G1 X125.881 Y80.751 E0.80155
G1 X125.347 Y80.751 E0.01677
G1 X143.846 Y99.249 E0.82151
G1 X143.312 Y99.249 E0.01677
G1 X124.813 Y80.751 E0.82151
G1 X124.279 Y80.751 E0.01677
G1 X142.777 Y99.249 E0.82151
G1 X142.243 Y99.249 E0.01677
G1 X123.745 Y80.751 E0.82151
G1 X123.211 Y80.751 E0.01677
G1 X141.709 Y99.249 E0.82151
G1 X141.175 Y99.249 E0.01677
G1 X122.677 Y80.751 E0.82151
G1 X122.142 Y80.751 E0.01677
G1 X140.641 Y99.249 E0.82151
G1 X140.107 Y99.249 E0.01677
G1 X121.608 Y80.751 E0.82151
G1 X121.074 Y80.751 E0.01677
G1 X139.573 Y99.249 E0.82151
G1 X139.039 Y99.249 E0.01677
G1 X120.540 Y80.751 E0.82151
G1 X120.006 Y80.751 E0.01677
G1 X138.505 Y99.249 E0.82151
M73 P4 R38
G1 X137.971 Y99.249 E0.01677
G1 X119.472 Y80.751 E0.82151
G1 X118.938 Y80.751 E0.01677
G1 X137.437 Y99.249 E0.82151
G1 X136.902 Y99.249 E0.01677
G1 X118.404 Y80.751 E0.82151
G1 X117.870 Y80.751 E0.01677
G1 X136.368 Y99.249 E0.82151
G1 X135.834 Y99.249 E0.01677
G1 X117.336 Y80.751 E0.82151
G1 X116.802 Y80.751 E0.01677
G1 X135.300 Y99.249 E0.82151
G1 X134.766 Y99.249 E0.01677
G1 X116.268 Y80.751 E0.82151
G1 X115.733 Y80.751 E0.01677
G1 X134.232 Y99.249 E0.82151
G1 X133.698 Y99.249 E0.01677
G1 X115.199 Y80.751 E0.82151
G1 X114.665 Y80.751 E0.01677
G1 X133.164 Y99.249 E0.82151
G1 X132.630 Y99.249 E0.01677
G1 X114.131 Y80.751 E0.82151
G1 X113.597 Y80.751 E0.01677
G1 X132.096 Y99.249 E0.82151
G1 X131.562 Y99.249 E0.01677
G1 X113.063 Y80.751 E0.82151
G1 X112.529 Y80.751 E0.01677
G1 X131.027 Y99.249 E0.82151
G1 X130.493 Y99.249 E0.01677
G1 X111.995 Y80.751 E0.82151
G1 X111.461 Y80.751 E0.01677
G1 X129.959 Y99.249 E0.82151
G1 X129.425 Y99.249 E0.01677
G1 X110.927 Y80.751 E0.82151
G1 X110.393 Y80.751 E0.01677
M73 P5 R38
G1 X128.891 Y99.249 E0.82151
G1 X128.357 Y99.249 E0.01677
G1 X109.858 Y80.751 E0.82151
G1 X109.324 Y80.751 E0.01677
G1 X127.823 Y99.249 E0.82151
G1 X127.289 Y99.249 E0.01677
G1 X108.790 Y80.751 E0.82151
G1 X108.256 Y80.751 E0.01677
G1 X126.755 Y99.249 E0.82151
G1 X126.221 Y99.249 E0.01677
G1 X107.722 Y80.751 E0.82151
M73 P5 R37
G1 X107.188 Y80.751 E0.01677
G1 X125.687 Y99.249 E0.82151
G1 X125.153 Y99.249 E0.01677
G1 X106.654 Y80.751 E0.82151
G1 X106.120 Y80.751 E0.01677
G1 X124.618 Y99.249 E0.82151
G1 X124.084 Y99.249 E0.01677
G1 X105.586 Y80.751 E0.82151
G1 X105.052 Y80.751 E0.01677
G1 X123.550 Y99.249 E0.82151
G1 X123.016 Y99.249 E0.01677
G1 X104.518 Y80.751 E0.82151
G1 X103.984 Y80.751 E0.01677
G1 X122.482 Y99.249 E0.82151
G1 X121.948 Y99.249 E0.01677
G1 X103.449 Y80.751 E0.82151
G1 X102.915 Y80.751 E0.01677
G1 X121.414 Y99.249 E0.82151
G1 X120.880 Y99.249 E0.01677
G1 X102.381 Y80.751 E0.82151
G1 X101.847 Y80.751 E0.01677
G1 X120.346 Y99.249 E0.82151
G1 X119.812 Y99.249 E0.01677
G1 X101.313 Y80.751 E0.82151
M73 P6 R37
G1 X100.779 Y80.751 E0.01677
G1 X119.278 Y99.249 E0.82151
G1 X118.743 Y99.249 E0.01677
G1 X100.245 Y80.751 E0.82151
G1 X99.711 Y80.751 E0.01677
G1 X118.209 Y99.249 E0.82151
G1 X117.675 Y99.249 E0.01677
G1 X99.177 Y80.751 E0.82151
G1 X98.643 Y80.751 E0.01677
G1 X117.141 Y99.249 E0.82151
G1 X116.607 Y99.249 E0.01677
G1 X98.109 Y80.751 E0.82151
G1 X97.574 Y80.751 E0.01677
G1 X116.073 Y99.249 E0.82151
G1 X115.539 Y99.249 E0.01677
G1 X97.040 Y80.751 E0.82151
G1 X96.506 Y80.751 E0.01677
G1 X115.005 Y99.249 E0.82151
G1 X114.471 Y99.249 E0.01677
G1 X95.972 Y80.751 E0.82151
G1 X95.438 Y80.751 E0.01677
G1 X113.937 Y99.249 E0.82151
G1 X113.403 Y99.249 E0.01677
G1 X94.904 Y80.751 E0.82151
G1 X94.370 Y80.751 E0.01677
G1 X112.869 Y99.249 E0.82151
G1 X112.334 Y99.249 E0.01677
G1 X93.836 Y80.751 E0.82151
G1 X93.302 Y80.751 E0.01677
G1 X111.800 Y99.249 E0.82151
G1 X111.266 Y99.249 E0.01677
G1 X92.768 Y80.751 E0.82151
G1 X92.234 Y80.751 E0.01677
G1 X110.732 Y99.249 E0.82151
G1 X110.198 Y99.249 E0.01677
G1 X91.699 Y80.751 E0.82151
M73 P7 R37
G1 X91.165 Y80.751 E0.01677
G1 X109.664 Y99.249 E0.82151
G1 X109.130 Y99.249 E0.01677
G1 X90.631 Y80.751 E0.82151
G1 X90.097 Y80.751 E0.01677
G1 X108.596 Y99.249 E0.82151
G1 X108.062 Y99.249 E0.01677
G1 X89.563 Y80.751 E0.82151
G1 X89.029 Y80.751 E0.01677
G1 X107.528 Y99.249 E0.82151
G1 X106.994 Y99.249 E0.01677
G1 X88.495 Y80.751 E0.82151
G1 X87.961 Y80.751 E0.01677
G1 X106.459 Y99.249 E0.82151
G1 X105.925 Y99.249 E0.01677
G1 X87.427 Y80.751 E0.82151
G1 X86.893 Y80.751 E0.01677
G1 X105.391 Y99.249 E0.82151
G1 X104.857 Y99.249 E0.01677
G1 X86.359 Y80.751 E0.82151
G1 X85.825 Y80.751 E0.01677
G1 X104.323 Y99.249 E0.82151
G1 X103.789 Y99.249 E0.01677
G1 X85.290 Y80.751 E0.82151
G1 X84.756 Y80.751 E0.01677
G1 X103.255 Y99.249 E0.82151
G1 X102.721 Y99.249 E0.01677
G1 X84.222 Y80.751 E0.82151
G1 X83.688 Y80.751 E0.01677
G1 X102.187 Y99.249 E0.82151
M73 P7 R36
G1 X101.653 Y99.249 E0.01677
G1 X83.154 Y80.751 E0.82151
G1 X82.620 Y80.751 E0.01677
G1 X101.119 Y99.249 E0.82151
M73 P8 R36
G1 X100.585 Y99.249 E0.01677
G1 X82.086 Y80.751 E0.82151
G1 X81.552 Y80.751 E0.01677
G1 X100.050 Y99.249 E0.82151
G1 X99.516 Y99.249 E0.01677
G1 X81.018 Y80.751 E0.82151
G1 X80.484 Y80.751 E0.01677
G1 X98.982 Y99.249 E0.82151
G1 X98.448 Y99.249 E0.01677
G1 X79.950 Y80.751 E0.82151
G1 X79.415 Y80.751 E0.01677
G1 X97.914 Y99.249 E0.82151
G1 X97.380 Y99.249 E0.01677
G1 X78.881 Y80.751 E0.82151
G1 X78.347 Y80.751 E0.01677
G1 X96.846 Y99.249 E0.82151
G1 X96.312 Y99.249 E0.01677
G1 X77.813 Y80.751 E0.82151
G1 X77.279 Y80.751 E0.01677
G1 X95.778 Y99.249 E0.82151
G1 X95.244 Y99.249 E0.01677
G1 X76.745 Y80.751 E0.82151
G1 X76.211 Y80.751 E0.01677
G1 X94.710 Y99.249 E0.82151
G1 X94.175 Y99.249 E0.01677
G1 X75.677 Y80.751 E0.82151
G1 X75.143 Y80.751 E0.01677
G1 X93.641 Y99.249 E0.82151
G1 X93.107 Y99.249 E0.01677
G1 X74.609 Y80.751 E0.82151
G1 X74.075 Y80.751 E0.01677
G1 X92.573 Y99.249 E0.82151
G1 X92.039 Y99.249 E0.01677
G1 X73.541 Y80.751 E0.82151
G1 X73.006 Y80.751 E0.01677
G1 X91.505 Y99.249 E0.82151
M73 P9 R36
G1 X90.971 Y99.249 E0.01677
G1 X72.472 Y80.751 E0.82151
G1 X71.938 Y80.751 E0.01677
G1 X90.437 Y99.249 E0.82151
G1 X89.903 Y99.249 E0.01677
G1 X71.404 Y80.751 E0.82151
G1 X70.870 Y80.751 E0.01677
G1 X89.369 Y99.249 E0.82151
G1 X88.835 Y99.249 E0.01677
G1 X70.336 Y80.751 E0.82151
G1 X69.802 Y80.751 E0.01677
G1 X88.300 Y99.249 E0.82151
G1 X87.766 Y99.249 E0.01677
G1 X69.268 Y80.751 E0.82151
G1 X68.734 Y80.751 E0.01677
G1 X87.232 Y99.249 E0.82151
G1 X86.698 Y99.249 E0.01677
G1 X68.200 Y80.751 E0.82151
G1 X67.666 Y80.751 E0.01677
G1 X86.164 Y99.249 E0.82151
G1 X85.630 Y99.249 E0.01677
G1 X67.131 Y80.751 E0.82151
G1 X66.597 Y80.751 E0.01677
G1 X85.096 Y99.249 E0.82151
G1 X84.562 Y99.249 E0.01677
G1 X66.063 Y80.751 E0.82151
G1 X65.529 Y80.751 E0.01677
G1 X84.028 Y99.249 E0.82151
G1 X83.494 Y99.249 E0.01677
G1 X64.995 Y80.751 E0.82151
G1 X64.461 Y80.751 E0.01677
G1 X82.960 Y99.249 E0.82151
G1 X82.426 Y99.249 E0.01677
G1 X63.927 Y80.751 E0.82151
G1 X63.393 Y80.751 E0.01677
G1 X81.891 Y99.249 E0.82151
M73 P10 R36
G1 X81.357 Y99.249 E0.01677
G1 X62.859 Y80.751 E0.82151
G1 X62.325 Y80.751 E0.01677
G1 X80.823 Y99.249 E0.82151
G1 X80.289 Y99.249 E0.01677
G1 X61.791 Y80.751 E0.82151
G1 X61.256 Y80.751 E0.01677
G1 X79.755 Y99.249 E0.82151
G1 X79.221 Y99.249 E0.01677
G1 X60.722 Y80.751 E0.82151
G1 X60.188 Y80.751 E0.01677
G1 X78.687 Y99.249 E0.82151
M73 P10 R35
G1 X78.153 Y99.249 E0.01677
G1 X59.654 Y80.751 E0.82151
G1 X59.120 Y80.751 E0.01677
G1 X77.619 Y99.249 E0.82151
G1 X77.085 Y99.249 E0.01677
G1 X58.586 Y80.751 E0.82151
G1 X58.052 Y80.751 E0.01677
G1 X76.551 Y99.249 E0.82151
G1 X76.016 Y99.249 E0.01677
G1 X57.518 Y80.751 E0.82151
G1 X56.984 Y80.751 E0.01677
G1 X75.482 Y99.249 E0.82151
G1 X74.948 Y99.249 E0.01677
G1 X56.450 Y80.751 E0.82151
G1 X55.916 Y80.751 E0.01677
G1 X74.414 Y99.249 E0.82151
G1 X73.880 Y99.249 E0.01677
G1 X55.382 Y80.751 E0.82151
G1 X54.847 Y80.751 E0.01677
G1 X73.346 Y99.249 E0.82151
G1 X72.812 Y99.249 E0.01677
G1 X54.313 Y80.751 E0.82151
M73 P11 R35
G1 X53.779 Y80.751 E0.01677
G1 X72.278 Y99.249 E0.82151
G1 X71.744 Y99.249 E0.01677
G1 X53.245 Y80.751 E0.82151
G1 X52.711 Y80.751 E0.01677
G1 X71.210 Y99.249 E0.82151
G1 X70.676 Y99.249 E0.01677
G1 X52.177 Y80.751 E0.82151
G1 X51.643 Y80.751 E0.01677
G1 X70.142 Y99.249 E0.82151
G1 X69.607 Y99.249 E0.01677
G1 X51.109 Y80.751 E0.82151
G1 X50.575 Y80.751 E0.01677
G1 X69.073 Y99.249 E0.82151
G1 X68.539 Y99.249 E0.01677
G1 X50.041 Y80.751 E0.82151
G1 X49.507 Y80.751 E0.01677
G1 X68.005 Y99.249 E0.82151
G1 X67.471 Y99.249 E0.01677
G1 X48.972 Y80.751 E0.82151
G1 X48.438 Y80.751 E0.01677
G1 X66.937 Y99.249 E0.82151
G1 X66.403 Y99.249 E0.01677
G1 X47.904 Y80.751 E0.82151
G1 X47.370 Y80.751 E0.01677
G1 X65.869 Y99.249 E0.82151
G1 X65.335 Y99.249 E0.01677
G1 X46.836 Y80.751 E0.82151
G1 X46.302 Y80.751 E0.01677
G1 X64.801 Y99.249 E0.82151
G1 X64.267 Y99.249 E0.01677
G1 X45.768 Y80.751 E0.82151
G1 X45.234 Y80.751 E0.01677
G1 X63.732 Y99.249 E0.82151
G1 X63.198 Y99.249 E0.01677
G1 X44.700 Y80.751 E0.82151
M73 P12 R35
G1 X44.166 Y80.751 E0.01677
G1 X62.664 Y99.249 E0.82151
G1 X62.130 Y99.249 E0.01677
G1 X43.632 Y80.751 E0.82151
G1 X43.098 Y80.751 E0.01677
G1 X61.596 Y99.249 E0.82151
G1 X61.062 Y99.249 E0.01677
G1 X42.563 Y80.751 E0.82151
G1 X42.029 Y80.751 E0.01677
G1 X60.528 Y99.249 E0.82151
G1 X59.994 Y99.249 E0.01677
G1 X41.495 Y80.751 E0.82151
G1 X40.961 Y80.751 E0.01677
G1 X59.460 Y99.249 E0.82151
G1 X58.926 Y99.249 E0.01677
G1 X40.427 Y80.751 E0.82151
G1 X39.893 Y80.751 E0.01677
G1 X58.392 Y99.249 E0.82151
G1 X57.857 Y99.249 E0.01677
G1 X39.359 Y80.751 E0.82151
G1 X38.825 Y80.751 E0.01677
G1 X57.323 Y99.249 E0.82151
G1 X56.789 Y99.249 E0.01677
G1 X38.291 Y80.751 E0.82151
G1 X37.757 Y80.751 E0.01677
G1 X56.255 Y99.249 E0.82151
G1 X55.721 Y99.249 E0.01677
G1 X37.223 Y80.751 E0.82151
G1 X36.688 Y80.751 E0.01677
G1 X55.187 Y99.249 E0.82151
G1 X54.653 Y99.249 E0.01677
G1 X36.154 Y80.751 E0.82151
M73 P12 R34
G1 X36.070 Y80.751 E0.00265
G1 X36.070 Y81.200 E0.01412
G1 X54.119 Y99.249 E0.80155
G1 X53.585 Y99.249 E0.01677
G1 X36.070 Y81.734 E0.77783
M73 P13 R34
G1 X36.070 Y82.268 E0.01677
G1 X53.051 Y99.249 E0.75411
G1 X52.517 Y99.249 E0.01677
G1 X36.070 Y82.803 E0.73039
G1 X36.070 Y83.337 E0.01677
G1 X51.983 Y99.249 E0.70667
G1 X51.448 Y99.249 E0.01677
G1 X36.070 Y83.871 E0.68296
G1 X36.070 Y84.405 E0.01677
G1 X50.914 Y99.249 E0.65924
G1 X50.380 Y99.249 E0.01677
G1 X36.070 Y84.939 E0.63552
G1 X36.070 Y85.473 E0.01677
G1 X49.846 Y99.249 E0.61180
G1 X49.312 Y99.249 E0.01677
G1 X36.070 Y86.007 E0.58808
G1 X36.070 Y86.541 E0.01677
G1 X48.778 Y99.249 E0.56436
G1 X48.244 Y99.249 E0.01677
G1 X36.070 Y87.075 E0.54064
G1 X36.070 Y87.609 E0.01677
G1 X47.710 Y99.249 E0.51693
G1 X47.176 Y99.249 E0.01677
G1 X36.070 Y88.143 E0.49321
G1 X36.070 Y88.678 E0.01677
G1 X46.642 Y99.249 E0.46949
G1 X46.108 Y99.249 E0.01677
G1 X36.070 Y89.212 E0.44577
G1 X36.070 Y89.746 E0.01677
G1 X45.573 Y99.249 E0.42205
G1 X45.039 Y99.249 E0.01677
G1 X36.070 Y90.280 E0.39833
G1 X36.070 Y90.814 E0.01677
G1 X44.505 Y99.249 E0.37461
G1 X43.971 Y99.249 E0.01677
G1 X36.070 Y91.348 E0.35089
G1 X36.070 Y91.882 E0.01677
G1 X43.437 Y99.249 E0.32718
G1 X42.903 Y99.249 E0.01677
G1 X36.070 Y92.416 E0.30346
