; generated by PrusaSlicer 2.3.0+win64 on 2021-04-30 at 10:57:46 UTC


;
;

;
;
; 

; external perimeters extrusion width = 0.45mm
; perimeters extrusion width = 0.45mm
; infill extrusion width = 0.45mm
; solid infill extrusion width = 0.45mm
; top infill extrusion width = 0.40mm
; first layer extrusion width = 0.42mm

M73 P0 R80
M201 X1250 Y1250 Z400 E5000 ; sets maximum accelerations, mm/sec^2
M203 X180 Y180 Z12 E80 ; sets maximum feedrates, mm/sec
M204 P1250 R1250 T1250 ; sets acceleration (P, T) and retract acceleration (R), mm/sec^2
M205 X8.00 Y8.00 Z2.00 E10.00 ; sets the jerk limits, mm/sec
M205 S0 T0 ; sets the minimum extruding and travel feed rate, mm/sec
M107
;TYPE:Custom
G90 ; use absolute coordinates
M83 ; extruder relative mode
M104 S170 ; set extruder temp for bed leveling
M140 S60 ; set bed temp
M109 R170 ; wait for bed leveling temp
M190 S60 ; wait for bed temp
G28 ; home all without mesh bed level
G29 ; mesh bed leveling 
M104 S215 ; set extruder temp
G92 E0.0
G1 Y-2.0 X179 F2400
G1 Z3 F720
M109 S215 ; wait for extruder temp

; intro line
G1 X170 F1000
G1 Z0.2 F720
G1 X110.0 E8.0 F900
G1 X40.0 E10.0 F700
G92 E0.0

M221 S95 ; set flow
G21 ; set units to millimeters
G90 ; use absolute coordinates
M83 ; use relative distances for extrusion
M900 K0.2 ; Filament gcode LA 1.5
; ; Filament gcode LA 1.0
;LAYER_CHANGE
;Z:0.2
;HEIGHT:0.2
;BEFORE_LAYER_CHANGE
G92 E0.0
;0.2


M73 P0 R79
G1 E-3.20000 F4200.000
G1 Z0.200 F9000.000
;AFTER_LAYER_CHANGE
;0.2
G1 Z0.400
G1 X39.419 Y64.509
G1 Z0.200
G1 E3.20000 F2400.000
M204 S800
;TYPE:Skirt
;WIDTH:0.42
G1 F1200.000
G1 X40.011 Y64.250 E0.02024
G1 X40.650 Y64.160 E0.02024
G1 X121.245 Y64.160 E2.52699
G1 X121.763 Y64.218 E0.01633
G1 X122.255 Y64.387 E0.01633
G1 X140.416 Y73.200 E0.63295
G1 X141.111 Y73.733 E0.02743
G1 X141.566 Y74.484 E0.02755
G1 X141.718 Y75.311 E0.02637
G1 X141.718 Y113.520 E1.19801
G1 X141.630 Y114.106 E0.01858
G1 X141.401 Y114.649 E0.01846
G1 X141.044 Y115.122 E0.01858
G1 X140.581 Y115.491 E0.01858
G1 X139.989 Y115.750 E0.02024
G1 X139.350 Y115.840 E0.02024
G1 X40.640 Y115.840 E3.09499
G1 X40.045 Y115.760 E0.01882
G1 X39.486 Y115.531 E0.01894
G1 X39.006 Y115.171 E0.01882
G1 X38.630 Y114.702 E0.01882
G1 X38.373 Y114.115 E0.02012
G1 X38.282 Y113.479 E0.02012
G1 X38.282 Y66.499 E1.47304
G1 X38.366 Y65.908 E0.01870
G1 X38.595 Y65.358 E0.01870
G1 X38.954 Y64.881 E0.01870
G1 X39.373 Y64.546 E0.01682
M204 S1250
; printing object iterate_01.stl id:0 copy 0
G1 E-2.24000 F4200.000
;WIPE_START
G1 F7200.000
G1 X40.011 Y64.250 E-0.38994
G1 X40.650 Y64.160 E-0.35773
G1 X40.947 Y64.160 E-0.16433
;WIPE_END
G1 E-0.04800 F4200.000
G1 Z0.400 F9000.000
G1 X41.446 Y67.324
G1 Z0.200
G1 E3.20000 F2400.000
M204 S800
;TYPE:Perimeter
G1 F1200.000
G1 X61.970 Y67.324 E0.64351
G1 X61.970 Y77.073 E0.30566
G1 X109.940 Y77.073 E1.50408
G1 X109.940 Y67.324 E0.30566
G1 X120.454 Y67.324 E0.32965
G1 X120.454 Y76.107 E0.27540
G1 X138.554 Y76.107 E0.56751
G1 X138.554 Y112.676 E1.14658
G1 X41.446 Y112.676 E3.04476
G1 X41.446 Y67.384 E1.42010
M204 S1250
G1 E-2.24000 F4200.000
;WIPE_START
G1 F7200.000
G1 X43.092 Y67.379 E-0.91200
;WIPE_END
G1 E-0.04800 F4200.000
G1 Z0.400 F9000.000
G1 X62.347 Y76.696
G1 Z0.200
G1 E3.20000 F2400.000
M204 S800
;TYPE:External perimeter
G1 F1200.000
G1 X109.563 Y76.696 E1.48044
M73 P1 R79
G1 X109.563 Y66.947 E0.30566
G1 X120.831 Y66.947 E0.35329
G1 X120.831 Y75.730 E0.27540
G1 X138.931 Y75.730 E0.56751
G1 X138.931 Y113.053 E1.17023
G1 X41.069 Y113.053 E3.06841
G1 X41.069 Y66.947 E1.44562
G1 X62.347 Y66.947 E0.66716
G1 X62.347 Y76.636 E0.30378
M204 S1250
G1 X62.495 Y77.067 F9000.000
G1 E-2.24000 F4200.000
;WIPE_START
G1 F7200.000
G1 X63.993 Y76.638 E-0.91200
;WIPE_END
G1 E-0.04800 F4200.000
G1 Z0.400 F9000.000
G1 X120.341 Y67.987
G1 Z0.200
G1 E3.20000 F2400.000
M204 S800
;TYPE:Solid infill
;WIDTH:0.421462
G1 F1200.000
G1 X119.961 Y67.607 E0.01690
G1 X119.426 Y67.607 E0.01685
G1 X120.171 Y68.352 E0.03318
G1 X120.171 Y68.888 E0.01685
G1 X118.891 Y67.607 E0.05701
G1 X118.355 Y67.607 E0.01685
G1 X120.171 Y69.423 E0.08084
G1 X120.171 Y69.958 E0.01685
G1 X117.820 Y67.607 E0.10467
G1 X117.284 Y67.607 E0.01685
G1 X120.171 Y70.494 E0.12850
G1 X120.171 Y71.029 E0.01685
G1 X116.749 Y67.607 E0.15233
G1 X116.214 Y67.607 E0.01685
G1 X120.171 Y71.564 E0.17616
G1 X120.171 Y72.100 E0.01685
G1 X115.678 Y67.607 E0.19999
G1 X115.143 Y67.607 E0.01685
G1 X120.171 Y72.635 E0.22382
G1 X120.171 Y73.170 E0.01685
G1 X114.608 Y67.607 E0.24765
G1 X114.072 Y67.607 E0.01685
G1 X120.171 Y73.706 E0.27148
G1 X120.171 Y74.241 E0.01685
G1 X113.537 Y67.607 E0.29531
G1 X113.002 Y67.607 E0.01685
G1 X120.171 Y74.776 E0.31914
G1 X120.171 Y75.312 E0.01685
G1 X112.466 Y67.607 E0.34297
G1 X111.931 Y67.607 E0.01685
G1 X120.341 Y76.017 E0.37435
M204 S1250
G1 E-2.24000 F4200.000
;WIPE_START
G1 F7200.000
G1 X119.177 Y74.853 E-0.91200
;WIPE_END
G1 E-0.04800 F4200.000
G1 Z0.400 F9000.000
G1 X137.676 Y76.220
G1 Z0.200
G1 E3.20000 F2400.000
M204 S800
G1 F1200.000
G1 X138.271 Y76.816 E0.02652
G1 X138.271 Y77.352 E0.01685
G1 X137.310 Y76.390 E0.04279
G1 X136.775 Y76.390 E0.01685
G1 X138.271 Y77.887 E0.06662
G1 X138.271 Y78.422 E0.01685
G1 X136.239 Y76.390 E0.09045
G1 X135.704 Y76.390 E0.01685
G1 X138.271 Y78.958 E0.11428
G1 X138.271 Y79.493 E0.01685
G1 X135.169 Y76.390 E0.13811
G1 X134.633 Y76.390 E0.01685
G1 X138.271 Y80.028 E0.16194
G1 X138.271 Y80.564 E0.01685
G1 X134.098 Y76.390 E0.18577
G1 X133.563 Y76.390 E0.01685
G1 X138.271 Y81.099 E0.20960
G1 X138.271 Y81.634 E0.01685
G1 X133.027 Y76.390 E0.23343
G1 X132.492 Y76.390 E0.01685
G1 X138.271 Y82.170 E0.25726
G1 X138.271 Y82.705 E0.01685
G1 X131.957 Y76.390 E0.28109
G1 X131.421 Y76.390 E0.01685
G1 X138.271 Y83.240 E0.30492
G1 X138.271 Y83.776 E0.01685
G1 X130.886 Y76.390 E0.32875
G1 X130.351 Y76.390 E0.01685
G1 X138.271 Y84.311 E0.35258
M73 P1 R78
G1 X138.271 Y84.846 E0.01685
G1 X129.815 Y76.390 E0.37641
G1 X129.280 Y76.390 E0.01685
G1 X138.271 Y85.382 E0.40024
G1 X138.271 Y85.917 E0.01685
G1 X128.745 Y76.390 E0.42407
G1 X128.209 Y76.390 E0.01685
G1 X138.271 Y86.452 E0.44790
G1 X138.271 Y86.988 E0.01685
G1 X127.674 Y76.390 E0.47173
G1 X127.139 Y76.390 E0.01685
G1 X138.271 Y87.523 E0.49556
G1 X138.271 Y88.058 E0.01685
G1 X126.603 Y76.390 E0.51939
G1 X126.068 Y76.390 E0.01685
G1 X138.271 Y88.594 E0.54322
G1 X138.271 Y89.129 E0.01685
G1 X125.532 Y76.390 E0.56705
G1 X124.997 Y76.390 E0.01685
G1 X138.271 Y89.664 E0.59088
G1 X138.271 Y90.200 E0.01685
G1 X124.462 Y76.390 E0.61471
G1 X123.926 Y76.390 E0.01685
G1 X138.271 Y90.735 E0.63854
G1 X138.271 Y91.270 E0.01685
G1 X123.391 Y76.390 E0.66237
G1 X122.856 Y76.390 E0.01685
G1 X138.271 Y91.806 E0.68620
G1 X138.271 Y92.341 E0.01685
G1 X122.320 Y76.390 E0.71003
G1 X121.785 Y76.390 E0.01685
G1 X138.271 Y92.876 E0.73386
G1 X138.271 Y93.412 E0.01685
G1 X121.250 Y76.390 E0.75769
G1 X120.714 Y76.390 E0.01685
G1 X138.271 Y93.947 E0.78152
G1 X138.271 Y94.482 E0.01685
G1 X111.396 Y67.607 E1.19633
G1 X110.860 Y67.607 E0.01685
G1 X138.271 Y95.018 E1.22016
M73 P2 R78
G1 X138.271 Y95.553 E0.01685
G1 X110.325 Y67.607 E1.24399
G1 X110.223 Y67.607 E0.00321
G1 X110.223 Y68.040 E0.01364
G1 X138.271 Y96.088 E1.24852
G1 X138.271 Y96.624 E0.01685
G1 X110.223 Y68.576 E1.24852
G1 X110.223 Y69.111 E0.01685
G1 X138.271 Y97.159 E1.24852
G1 X138.271 Y97.694 E0.01685
G1 X110.223 Y69.646 E1.24852
G1 X110.223 Y70.182 E0.01685
G1 X138.271 Y98.230 E1.24852
G1 X138.271 Y98.765 E0.01685
G1 X110.223 Y70.717 E1.24852
G1 X110.223 Y71.252 E0.01685
G1 X138.271 Y99.300 E1.24852
G1 X138.271 Y99.836 E0.01685
G1 X110.223 Y71.788 E1.24852
G1 X110.223 Y72.323 E0.01685
G1 X138.271 Y100.371 E1.24852
G1 X138.271 Y100.906 E0.01685
G1 X110.223 Y72.858 E1.24852
G1 X110.223 Y73.394 E0.01685
G1 X138.271 Y101.442 E1.24852
G1 X138.271 Y101.977 E0.01685
G1 X110.223 Y73.929 E1.24852
G1 X110.223 Y74.464 E0.01685
G1 X138.271 Y102.512 E1.24852
G1 X138.271 Y103.048 E0.01685
G1 X110.223 Y75.000 E1.24852
G1 X110.223 Y75.535 E0.01685
G1 X138.271 Y103.583 E1.24852
G1 X138.271 Y104.118 E0.01685
G1 X110.223 Y76.070 E1.24852
G1 X110.223 Y76.606 E0.01685
G1 X138.271 Y104.654 E1.24852
G1 X138.271 Y105.189 E0.01685
G1 X110.223 Y77.141 E1.24852
G1 X110.223 Y77.355 E0.00675
G1 X109.902 Y77.355 E0.01010
G1 X138.271 Y105.724 E1.26281
M73 P2 R77
G1 X138.271 Y106.260 E0.01685
G1 X109.367 Y77.355 E1.28664
G1 X108.832 Y77.355 E0.01685
G1 X138.271 Y106.795 E1.31047
G1 X138.271 Y107.331 E0.01685
G1 X108.296 Y77.355 E1.33430
G1 X107.761 Y77.355 E0.01685
G1 X138.271 Y107.866 E1.35813
M73 P3 R77
G1 X138.271 Y108.401 E0.01685
G1 X107.225 Y77.355 E1.38196
G1 X106.690 Y77.355 E0.01685
G1 X138.271 Y108.937 E1.40579
G1 X138.271 Y109.472 E0.01685
G1 X106.155 Y77.355 E1.42962
G1 X105.619 Y77.355 E0.01685
G1 X138.271 Y110.007 E1.45345
G1 X138.271 Y110.543 E0.01685
G1 X105.084 Y77.355 E1.47728
G1 X104.549 Y77.355 E0.01685
G1 X138.271 Y111.078 E1.50111
G1 X138.271 Y111.613 E0.01685
G1 X104.013 Y77.355 E1.52494
G1 X103.478 Y77.355 E0.01685
G1 X138.271 Y112.149 E1.54877
G1 X138.271 Y112.393 E0.00770
G1 X137.981 Y112.393 E0.00915
G1 X102.943 Y77.355 E1.55966
G1 X102.407 Y77.355 E0.01685
G1 X137.445 Y112.393 E1.55966
G1 X136.910 Y112.393 E0.01685
G1 X101.872 Y77.355 E1.55966
G1 X101.337 Y77.355 E0.01685
G1 X136.375 Y112.393 E1.55966
G1 X135.839 Y112.393 E0.01685
G1 X100.801 Y77.355 E1.55966
G1 X100.266 Y77.355 E0.01685
G1 X135.304 Y112.393 E1.55966
G1 X134.769 Y112.393 E0.01685
G1 X99.731 Y77.355 E1.55966
G1 X99.195 Y77.355 E0.01685
G1 X134.233 Y112.393 E1.55966
G1 X133.698 Y112.393 E0.01685
G1 X98.660 Y77.355 E1.55966
G1 X98.125 Y77.355 E0.01685
G1 X133.163 Y112.393 E1.55966
G1 X132.627 Y112.393 E0.01685
G1 X97.589 Y77.355 E1.55966
M73 P4 R77
G1 X97.054 Y77.355 E0.01685
G1 X132.092 Y112.393 E1.55966
G1 X131.556 Y112.393 E0.01685
G1 X96.519 Y77.355 E1.55966
M73 P4 R76
G1 X95.983 Y77.355 E0.01685
G1 X131.021 Y112.393 E1.55966
G1 X130.486 Y112.393 E0.01685
G1 X95.448 Y77.355 E1.55966
G1 X94.913 Y77.355 E0.01685
G1 X129.950 Y112.393 E1.55966
G1 X129.415 Y112.393 E0.01685
G1 X94.377 Y77.355 E1.55966
G1 X93.842 Y77.355 E0.01685
G1 X128.880 Y112.393 E1.55966
G1 X128.344 Y112.393 E0.01685
G1 X93.307 Y77.355 E1.55966
G1 X92.771 Y77.355 E0.01685
G1 X127.809 Y112.393 E1.55966
G1 X127.274 Y112.393 E0.01685
G1 X92.236 Y77.355 E1.55966
G1 X91.701 Y77.355 E0.01685
G1 X126.738 Y112.393 E1.55966
G1 X126.203 Y112.393 E0.01685
G1 X91.165 Y77.355 E1.55966
G1 X90.630 Y77.355 E0.01685
G1 X125.668 Y112.393 E1.55966
G1 X125.132 Y112.393 E0.01685
G1 X90.095 Y77.355 E1.55966
G1 X89.559 Y77.355 E0.01685
G1 X124.597 Y112.393 E1.55966
G1 X124.062 Y112.393 E0.01685
G1 X89.024 Y77.355 E1.55966
G1 X88.489 Y77.355 E0.01685
G1 X123.526 Y112.393 E1.55966
G1 X122.991 Y112.393 E0.01685
G1 X87.953 Y77.355 E1.55966
G1 X87.418 Y77.355 E0.01685
G1 X122.456 Y112.393 E1.55966
M73 P5 R76
G1 X121.920 Y112.393 E0.01685
G1 X86.883 Y77.355 E1.55966
G1 X86.347 Y77.355 E0.01685
G1 X121.385 Y112.393 E1.55966
G1 X120.850 Y112.393 E0.01685
G1 X85.812 Y77.355 E1.55966
G1 X85.277 Y77.355 E0.01685
G1 X120.314 Y112.393 E1.55966
G1 X119.779 Y112.393 E0.01685
G1 X84.741 Y77.355 E1.55966
G1 X84.206 Y77.355 E0.01685
G1 X119.244 Y112.393 E1.55966
M73 P5 R75
G1 X118.708 Y112.393 E0.01685
G1 X83.671 Y77.355 E1.55966
G1 X83.135 Y77.355 E0.01685
G1 X118.173 Y112.393 E1.55966
G1 X117.638 Y112.393 E0.01685
G1 X82.600 Y77.355 E1.55966
G1 X82.065 Y77.355 E0.01685
G1 X117.102 Y112.393 E1.55966
G1 X116.567 Y112.393 E0.01685
G1 X81.529 Y77.355 E1.55966
G1 X80.994 Y77.355 E0.01685
G1 X116.032 Y112.393 E1.55966
G1 X115.496 Y112.393 E0.01685
G1 X80.459 Y77.355 E1.55966
G1 X79.923 Y77.355 E0.01685
G1 X114.961 Y112.393 E1.55966
G1 X114.426 Y112.393 E0.01685
G1 X79.388 Y77.355 E1.55966
G1 X78.853 Y77.355 E0.01685
G1 X113.890 Y112.393 E1.55966
G1 X113.355 Y112.393 E0.01685
G1 X78.317 Y77.355 E1.55966
G1 X77.782 Y77.355 E0.01685
G1 X112.820 Y112.393 E1.55966
G1 X112.284 Y112.393 E0.01685
G1 X77.246 Y77.355 E1.55966
M73 P6 R75
G1 X76.711 Y77.355 E0.01685
G1 X111.749 Y112.393 E1.55966
G1 X111.214 Y112.393 E0.01685
G1 X76.176 Y77.355 E1.55966
G1 X75.640 Y77.355 E0.01685
G1 X110.678 Y112.393 E1.55966
G1 X110.143 Y112.393 E0.01685
G1 X75.105 Y77.355 E1.55966
G1 X74.570 Y77.355 E0.01685
G1 X109.608 Y112.393 E1.55966
G1 X109.072 Y112.393 E0.01685
G1 X74.034 Y77.355 E1.55966
G1 X73.499 Y77.355 E0.01685
G1 X108.537 Y112.393 E1.55966
G1 X108.002 Y112.393 E0.01685
G1 X72.964 Y77.355 E1.55966
G1 X72.428 Y77.355 E0.01685
G1 X107.466 Y112.393 E1.55966
G1 X106.931 Y112.393 E0.01685
G1 X71.893 Y77.355 E1.55966
G1 X71.358 Y77.355 E0.01685
G1 X106.396 Y112.393 E1.55966
M73 P6 R74
G1 X105.860 Y112.393 E0.01685
G1 X70.822 Y77.355 E1.55966
G1 X70.287 Y77.355 E0.01685
G1 X105.325 Y112.393 E1.55966
G1 X104.790 Y112.393 E0.01685
G1 X69.752 Y77.355 E1.55966
G1 X69.216 Y77.355 E0.01685
G1 X104.254 Y112.393 E1.55966
G1 X103.719 Y112.393 E0.01685
G1 X68.681 Y77.355 E1.55966
G1 X68.146 Y77.355 E0.01685
G1 X103.184 Y112.393 E1.55966
G1 X102.648 Y112.393 E0.01685
G1 X67.610 Y77.355 E1.55966
G1 X67.075 Y77.355 E0.01685
G1 X102.113 Y112.393 E1.55966
M73 P7 R74
G1 X101.577 Y112.393 E0.01685
G1 X66.540 Y77.355 E1.55966
G1 X66.004 Y77.355 E0.01685
G1 X101.042 Y112.393 E1.55966
G1 X100.507 Y112.393 E0.01685
G1 X65.469 Y77.355 E1.55966
G1 X64.934 Y77.355 E0.01685
G1 X99.971 Y112.393 E1.55966
G1 X99.436 Y112.393 E0.01685
G1 X64.398 Y77.355 E1.55966
G1 X63.863 Y77.355 E0.01685
G1 X98.901 Y112.393 E1.55966
G1 X98.365 Y112.393 E0.01685
G1 X63.328 Y77.355 E1.55966
G1 X62.792 Y77.355 E0.01685
G1 X97.830 Y112.393 E1.55966
G1 X97.295 Y112.393 E0.01685
G1 X62.087 Y77.186 E1.56721
M204 S1250
G1 E-2.24000 F4200.000
;WIPE_START
G1 F7200.000
G1 X63.251 Y78.349 E-0.91200
;WIPE_END
G1 E-0.04800 F4200.000
G1 Z0.400 F9000.000
G1 X61.857 Y67.854
G1 Z0.200
G1 E3.20000 F2400.000
M204 S800
G1 F1200.000
G1 X61.609 Y67.607 E0.01102
G1 X61.074 Y67.607 E0.01685
G1 X61.687 Y68.220 E0.02730
G1 X61.687 Y68.755 E0.01685
G1 X60.539 Y67.607 E0.05113
G1 X60.003 Y67.607 E0.01685
G1 X61.687 Y69.291 E0.07496
G1 X61.687 Y69.826 E0.01685
G1 X59.468 Y67.607 E0.09879
G1 X58.933 Y67.607 E0.01685
G1 X61.687 Y70.361 E0.12262
G1 X61.687 Y70.897 E0.01685
G1 X58.397 Y67.607 E0.14645
G1 X57.862 Y67.607 E0.01685
G1 X61.687 Y71.432 E0.17028
G1 X61.687 Y71.967 E0.01685
G1 X57.326 Y67.607 E0.19411
G1 X56.791 Y67.607 E0.01685
G1 X61.687 Y72.503 E0.21794
G1 X61.687 Y73.038 E0.01685
G1 X56.256 Y67.607 E0.24177
G1 X55.720 Y67.607 E0.01685
G1 X61.687 Y73.573 E0.26559
G1 X61.687 Y74.109 E0.01685
G1 X55.185 Y67.607 E0.28942
G1 X54.650 Y67.607 E0.01685
G1 X61.687 Y74.644 E0.31325
G1 X61.687 Y75.179 E0.01685
G1 X54.114 Y67.607 E0.33708
G1 X53.579 Y67.607 E0.01685
G1 X61.687 Y75.715 E0.36091
G1 X61.687 Y76.250 E0.01685
G1 X53.044 Y67.607 E0.38474
G1 X52.508 Y67.607 E0.01685
G1 X61.857 Y76.955 E0.41613
M204 S1250
G1 E-2.24000 F4200.000
;WIPE_START
G1 F7200.000
G1 X60.693 Y75.791 E-0.91200
;WIPE_END
G1 E-0.04800 F4200.000
G1 Z0.400 F9000.000
G1 X51.803 Y67.437
G1 Z0.200
G1 E3.20000 F2400.000
M204 S800
G1 F1200.000
G1 X96.759 Y112.393 E2.00116
G1 X96.224 Y112.393 E0.01685
G1 X51.438 Y67.607 E1.99360
G1 X50.902 Y67.607 E0.01685
G1 X95.689 Y112.393 E1.99360
M73 P7 R73
G1 X95.153 Y112.393 E0.01685
G1 X50.367 Y67.607 E1.99360
G1 X49.832 Y67.607 E0.01685
G1 X94.618 Y112.393 E1.99360
G1 X94.083 Y112.393 E0.01685
G1 X49.296 Y67.607 E1.99360
M73 P8 R73
G1 X48.761 Y67.607 E0.01685
G1 X93.547 Y112.393 E1.99360
G1 X93.012 Y112.393 E0.01685
G1 X48.226 Y67.607 E1.99360
G1 X47.690 Y67.607 E0.01685
G1 X92.477 Y112.393 E1.99360
G1 X91.941 Y112.393 E0.01685
G1 X47.155 Y67.607 E1.99360
G1 X46.620 Y67.607 E0.01685
G1 X91.406 Y112.393 E1.99360
G1 X90.871 Y112.393 E0.01685
G1 X46.084 Y67.607 E1.99360
G1 X45.549 Y67.607 E0.01685
G1 X90.335 Y112.393 E1.99360
G1 X89.800 Y112.393 E0.01685
G1 X45.014 Y67.607 E1.99360
G1 X44.478 Y67.607 E0.01685
G1 X89.265 Y112.393 E1.99360
G1 X88.729 Y112.393 E0.01685
G1 X43.943 Y67.607 E1.99360
G1 X43.408 Y67.607 E0.01685
G1 X88.194 Y112.393 E1.99360
G1 X87.659 Y112.393 E0.01685
G1 X42.872 Y67.607 E1.99360
G1 X42.337 Y67.607 E0.01685
