; generated by PrusaSlicer 2.3.0+win64 on 2021-04-29 at 18:31:47 UTC


;
;

;
;
; 

; external perimeters extrusion width = 0.45mm
; perimeters extrusion width = 0.45mm
; infill extrusion width = 0.45mm
; solid infill extrusion width = 0.45mm
; top infill extrusion width = 0.40mm
; first layer extrusion width = 0.42mm

M73 P0 R37
M201 X1250 Y1250 Z400 E5000 ; sets maximum accelerations, mm/sec^2
M203 X180 Y180 Z12 E80 ; sets maximum feedrates, mm/sec
M204 P1250 R1250 T1250 ; sets acceleration (P, T) and retract acceleration (R), mm/sec^2
M205 X8.00 Y8.00 Z2.00 E10.00 ; sets the jerk limits, mm/sec
M205 S0 T0 ; sets the minimum extruding and travel feed rate, mm/sec
M107
;TYPE:Custom
G90 ; use absolute coordinates
M83 ; extruder relative mode
M104 S170 ; set extruder temp for bed leveling
M140 S60 ; set bed temp
M109 R170 ; wait for bed leveling temp
M190 S60 ; wait for bed temp
G28 ; home all without mesh bed level
G29 ; mesh bed leveling 
M104 S215 ; set extruder temp
G92 E0.0
G1 Y-2.0 X179 F2400
G1 Z3 F720
M109 S215 ; wait for extruder temp

; intro line
G1 X170 F1000
G1 Z0.2 F720
G1 X110.0 E8.0 F900
G1 X40.0 E10.0 F700
G92 E0.0

M221 S95 ; set flow
G21 ; set units to millimeters
G90 ; use absolute coordinates
M83 ; use relative distances for extrusion
M900 K0.2 ; Filament gcode LA 1.5
; ; Filament gcode LA 1.0
;LAYER_CHANGE
;Z:0.2
;HEIGHT:0.2
;BEFORE_LAYER_CHANGE
G92 E0.0
;0.2


G1 E-3.20000 F4200.000
G1 Z0.200 F9000.000
;AFTER_LAYER_CHANGE
;0.2
G1 Z0.400
G1 X44.823 Y71.228
G1 Z0.200
G1 E3.20000 F2400.000
M204 S800
;TYPE:Skirt
;WIDTH:0.42
G1 F1200.000
G1 X45.703 Y71.057 E0.02813
G1 X134.295 Y71.057 E2.77774
G1 X135.191 Y71.233 E0.02860
G1 X135.953 Y71.734 E0.02860
G1 X136.471 Y72.485 E0.02860
G1 X136.668 Y73.379 E0.02872
G1 X136.667 Y106.665 E1.04367
M73 P1 R37
G1 X136.542 Y107.333 E0.02130
G1 X136.233 Y107.938 E0.02130
G1 X135.765 Y108.432 E0.02130
G1 X135.177 Y108.772 E0.02130
G1 X134.297 Y108.943 E0.02813
G1 X45.674 Y108.943 E2.77870
G1 X44.988 Y108.832 E0.02178
G1 X44.361 Y108.525 E0.02190
G1 X43.853 Y108.052 E0.02178
G1 X43.502 Y107.452 E0.02178
G1 X43.331 Y106.579 E0.02790
G1 X43.333 Y73.346 E1.04199
G1 X43.455 Y72.678 E0.02130
G1 X43.763 Y72.068 E0.02142
G1 X44.232 Y71.571 E0.02142
G1 X44.771 Y71.258 E0.01954
M204 S1250
; printing object iterate_03.stl id:0 copy 0
G1 E-2.24000 F4200.000
;WIPE_START
G1 F7200.000
G1 X45.703 Y71.057 E-0.52879
G1 X46.395 Y71.057 E-0.38321
;WIPE_END
G1 E-0.04800 F4200.000
G1 Z0.400 F9000.000
G1 X46.495 Y74.221
G1 Z0.200
G1 E3.20000 F2400.000
M204 S800
;TYPE:Perimeter
G1 F1200.000
G1 X133.505 Y74.221 E2.72811
G1 X133.505 Y105.779 E0.98950
G1 X46.495 Y105.779 E2.72811
G1 X46.495 Y74.281 E0.98762
M204 S1250
G1 X46.118 Y73.844 F9000.000
M204 S800
;TYPE:External perimeter
G1 F1200.000
G1 X133.882 Y73.844 E2.75176
M73 P2 R37
G1 X133.882 Y106.156 E1.01315
G1 X46.118 Y106.156 E2.75176
G1 X46.118 Y73.904 E1.01126
M204 S1250
G1 X46.516 Y73.891 F9000.000
G1 E-2.24000 F4200.000
;WIPE_START
G1 F7200.000
G1 X47.764 Y73.902 E-0.91200
;WIPE_END
G1 E-0.04800 F4200.000
G1 Z0.400 F9000.000
G1 X132.627 Y74.334
M73 P2 R36
G1 Z0.200
G1 E3.20000 F2400.000
M204 S800
;TYPE:Solid infill
;WIDTH:0.42108
G1 F1200.000
G1 X133.222 Y74.929 E0.02645
G1 X133.222 Y75.463 E0.01682
G1 X132.262 Y74.503 E0.04269
G1 X131.727 Y74.503 E0.01682
G1 X133.222 Y75.998 E0.06647
G1 X133.222 Y76.533 E0.01682
G1 X131.192 Y74.503 E0.09025
G1 X130.657 Y74.503 E0.01682
G1 X133.222 Y77.068 E0.11404
G1 X133.222 Y77.603 E0.01682
G1 X130.123 Y74.503 E0.13782
G1 X129.588 Y74.503 E0.01682
G1 X133.222 Y78.137 E0.16160
G1 X133.222 Y78.672 E0.01682
G1 X129.053 Y74.503 E0.18538
G1 X128.518 Y74.503 E0.01682
G1 X133.222 Y79.207 E0.20916
G1 X133.222 Y79.742 E0.01682
G1 X127.983 Y74.503 E0.23294
G1 X127.449 Y74.503 E0.01682
G1 X133.222 Y80.277 E0.25673
G1 X133.222 Y80.811 E0.01682
G1 X126.914 Y74.503 E0.28051
G1 X126.379 Y74.503 E0.01682
G1 X133.222 Y81.346 E0.30429
G1 X133.222 Y81.881 E0.01682
G1 X125.844 Y74.503 E0.32807
G1 X125.309 Y74.503 E0.01682
G1 X133.222 Y82.416 E0.35185
G1 X133.222 Y82.951 E0.01682
G1 X124.775 Y74.503 E0.37564
G1 X124.240 Y74.503 E0.01682
G1 X133.222 Y83.485 E0.39942
G1 X133.222 Y84.020 E0.01682
G1 X123.705 Y74.503 E0.42320
G1 X123.170 Y74.503 E0.01682
G1 X133.222 Y84.555 E0.44698
G1 X133.222 Y85.090 E0.01682
G1 X122.635 Y74.503 E0.47076
G1 X122.101 Y74.503 E0.01682
G1 X133.222 Y85.625 E0.49454
G1 X133.222 Y86.159 E0.01682
G1 X121.566 Y74.503 E0.51833
G1 X121.031 Y74.503 E0.01682
G1 X133.222 Y86.694 E0.54211
G1 X133.222 Y87.229 E0.01682
G1 X120.496 Y74.503 E0.56589
G1 X119.961 Y74.503 E0.01682
G1 X133.222 Y87.764 E0.58967
M73 P3 R36
G1 X133.222 Y88.299 E0.01682
G1 X119.427 Y74.503 E0.61345
G1 X118.892 Y74.503 E0.01682
G1 X133.222 Y88.833 E0.63724
G1 X133.222 Y89.368 E0.01682
G1 X118.357 Y74.503 E0.66102
G1 X117.822 Y74.503 E0.01682
G1 X133.222 Y89.903 E0.68480
G1 X133.222 Y90.438 E0.01682
G1 X117.287 Y74.503 E0.70858
G1 X116.753 Y74.503 E0.01682
G1 X133.222 Y90.973 E0.73236
G1 X133.222 Y91.507 E0.01682
G1 X116.218 Y74.503 E0.75614
G1 X115.683 Y74.503 E0.01682
G1 X133.222 Y92.042 E0.77993
G1 X133.222 Y92.577 E0.01682
G1 X115.148 Y74.503 E0.80371
G1 X114.613 Y74.503 E0.01682
G1 X133.222 Y93.112 E0.82749
G1 X133.222 Y93.647 E0.01682
G1 X114.079 Y74.503 E0.85127
G1 X113.544 Y74.503 E0.01682
G1 X133.222 Y94.181 E0.87505
G1 X133.222 Y94.716 E0.01682
G1 X113.009 Y74.503 E0.89884
G1 X112.474 Y74.503 E0.01682
G1 X133.222 Y95.251 E0.92262
G1 X133.222 Y95.786 E0.01682
G1 X111.939 Y74.503 E0.94640
G1 X111.405 Y74.503 E0.01682
G1 X133.222 Y96.321 E0.97018
G1 X133.222 Y96.855 E0.01682
G1 X110.870 Y74.503 E0.99396
M73 P4 R36
G1 X110.335 Y74.503 E0.01682
G1 X133.222 Y97.390 E1.01774
G1 X133.222 Y97.925 E0.01682
G1 X109.800 Y74.503 E1.04153
G1 X109.265 Y74.503 E0.01682
G1 X133.222 Y98.460 E1.06531
G1 X133.222 Y98.995 E0.01682
G1 X108.731 Y74.503 E1.08909
G1 X108.196 Y74.503 E0.01682
G1 X133.222 Y99.529 E1.11287
G1 X133.222 Y100.064 E0.01682
G1 X107.661 Y74.503 E1.13665
G1 X107.126 Y74.503 E0.01682
G1 X133.222 Y100.599 E1.16044
G1 X133.222 Y101.134 E0.01682
G1 X106.591 Y74.503 E1.18422
G1 X106.057 Y74.503 E0.01682
G1 X133.222 Y101.669 E1.20800
G1 X133.222 Y102.203 E0.01682
G1 X105.522 Y74.503 E1.23178
G1 X104.987 Y74.503 E0.01682
G1 X133.222 Y102.738 E1.25556
G1 X133.222 Y103.273 E0.01682
G1 X104.452 Y74.503 E1.27934
M73 P5 R36
G1 X103.917 Y74.503 E0.01682
G1 X133.222 Y103.808 E1.30313
M73 P5 R35
G1 X133.222 Y104.343 E0.01682
G1 X103.383 Y74.503 E1.32691
G1 X102.848 Y74.503 E0.01682
G1 X133.222 Y104.877 E1.35069
G1 X133.222 Y105.412 E0.01682
G1 X102.313 Y74.503 E1.37447
G1 X101.778 Y74.503 E0.01682
G1 X132.771 Y105.497 E1.37822
G1 X132.237 Y105.497 E0.01682
G1 X101.243 Y74.503 E1.37822
G1 X100.709 Y74.503 E0.01682
G1 X131.702 Y105.497 E1.37822
G1 X131.167 Y105.497 E0.01682
G1 X100.174 Y74.503 E1.37822
G1 X99.639 Y74.503 E0.01682
G1 X130.632 Y105.497 E1.37822
G1 X130.097 Y105.497 E0.01682
G1 X99.104 Y74.503 E1.37822
G1 X98.569 Y74.503 E0.01682
M73 P6 R35
G1 X129.563 Y105.497 E1.37822
G1 X129.028 Y105.497 E0.01682
G1 X98.035 Y74.503 E1.37822
G1 X97.500 Y74.503 E0.01682
G1 X128.493 Y105.497 E1.37822
G1 X127.958 Y105.497 E0.01682
G1 X96.965 Y74.503 E1.37822
G1 X96.430 Y74.503 E0.01682
G1 X127.423 Y105.497 E1.37822
G1 X126.889 Y105.497 E0.01682
G1 X95.895 Y74.503 E1.37822
G1 X95.361 Y74.503 E0.01682
G1 X126.354 Y105.497 E1.37822
G1 X125.819 Y105.497 E0.01682
G1 X94.826 Y74.503 E1.37822
G1 X94.291 Y74.503 E0.01682
G1 X125.284 Y105.497 E1.37822
G1 X124.749 Y105.497 E0.01682
G1 X93.756 Y74.503 E1.37822
G1 X93.221 Y74.503 E0.01682
G1 X124.215 Y105.497 E1.37822
M73 P7 R35
G1 X123.680 Y105.497 E0.01682
G1 X92.687 Y74.503 E1.37822
G1 X92.152 Y74.503 E0.01682
G1 X123.145 Y105.497 E1.37822
G1 X122.610 Y105.497 E0.01682
G1 X91.617 Y74.503 E1.37822
G1 X91.082 Y74.503 E0.01682
G1 X122.075 Y105.497 E1.37822
G1 X121.541 Y105.497 E0.01682
G1 X90.547 Y74.503 E1.37822
G1 X90.013 Y74.503 E0.01682
G1 X121.006 Y105.497 E1.37822
G1 X120.471 Y105.497 E0.01682
G1 X89.478 Y74.503 E1.37822
M73 P7 R34
G1 X88.943 Y74.503 E0.01682
G1 X119.936 Y105.497 E1.37822
G1 X119.401 Y105.497 E0.01682
G1 X88.408 Y74.503 E1.37822
G1 X87.873 Y74.503 E0.01682
G1 X118.867 Y105.497 E1.37822
M73 P8 R34
G1 X118.332 Y105.497 E0.01682
G1 X87.339 Y74.503 E1.37822
G1 X86.804 Y74.503 E0.01682
G1 X117.797 Y105.497 E1.37822
G1 X117.262 Y105.497 E0.01682
G1 X86.269 Y74.503 E1.37822
G1 X85.734 Y74.503 E0.01682
G1 X116.727 Y105.497 E1.37822
G1 X116.193 Y105.497 E0.01682
G1 X85.200 Y74.503 E1.37822
G1 X84.665 Y74.503 E0.01682
G1 X115.658 Y105.497 E1.37822
G1 X115.123 Y105.497 E0.01682
G1 X84.130 Y74.503 E1.37822
G1 X83.595 Y74.503 E0.01682
G1 X114.588 Y105.497 E1.37822
G1 X114.053 Y105.497 E0.01682
G1 X83.060 Y74.503 E1.37822
G1 X82.526 Y74.503 E0.01682
G1 X113.519 Y105.497 E1.37822
M73 P9 R34
G1 X112.984 Y105.497 E0.01682
G1 X81.991 Y74.503 E1.37822
G1 X81.456 Y74.503 E0.01682
G1 X112.449 Y105.497 E1.37822
G1 X111.914 Y105.497 E0.01682
G1 X80.921 Y74.503 E1.37822
G1 X80.386 Y74.503 E0.01682
G1 X111.379 Y105.497 E1.37822
G1 X110.845 Y105.497 E0.01682
G1 X79.852 Y74.503 E1.37822
G1 X79.317 Y74.503 E0.01682
G1 X110.310 Y105.497 E1.37822
G1 X109.775 Y105.497 E0.01682
G1 X78.782 Y74.503 E1.37822
G1 X78.247 Y74.503 E0.01682
G1 X109.240 Y105.497 E1.37822
G1 X108.705 Y105.497 E0.01682
G1 X77.712 Y74.503 E1.37822
G1 X77.178 Y74.503 E0.01682
G1 X108.171 Y105.497 E1.37822
M73 P10 R34
G1 X107.636 Y105.497 E0.01682
G1 X76.643 Y74.503 E1.37822
G1 X76.108 Y74.503 E0.01682
G1 X107.101 Y105.497 E1.37822
G1 X106.566 Y105.497 E0.01682
G1 X75.573 Y74.503 E1.37822
G1 X75.038 Y74.503 E0.01682
G1 X106.031 Y105.497 E1.37822
M73 P10 R33
G1 X105.497 Y105.497 E0.01682
G1 X74.504 Y74.503 E1.37822
G1 X73.969 Y74.503 E0.01682
G1 X104.962 Y105.497 E1.37822
G1 X104.427 Y105.497 E0.01682
G1 X73.434 Y74.503 E1.37822
G1 X72.899 Y74.503 E0.01682
G1 X103.892 Y105.497 E1.37822
G1 X103.357 Y105.497 E0.01682
G1 X72.364 Y74.503 E1.37822
G1 X71.830 Y74.503 E0.01682
G1 X102.823 Y105.497 E1.37822
M73 P11 R33
G1 X102.288 Y105.497 E0.01682
G1 X71.295 Y74.503 E1.37822
G1 X70.760 Y74.503 E0.01682
G1 X101.753 Y105.497 E1.37822
G1 X101.218 Y105.497 E0.01682
G1 X70.225 Y74.503 E1.37822
G1 X69.690 Y74.503 E0.01682
G1 X100.683 Y105.497 E1.37822
G1 X100.149 Y105.497 E0.01682
G1 X69.156 Y74.503 E1.37822
G1 X68.621 Y74.503 E0.01682
G1 X99.614 Y105.497 E1.37822
G1 X99.079 Y105.497 E0.01682
G1 X68.086 Y74.503 E1.37822
G1 X67.551 Y74.503 E0.01682
G1 X98.544 Y105.497 E1.37822
G1 X98.009 Y105.497 E0.01682
G1 X67.016 Y74.503 E1.37822
G1 X66.482 Y74.503 E0.01682
G1 X97.475 Y105.497 E1.37822
M73 P12 R33
G1 X96.940 Y105.497 E0.01682
G1 X65.947 Y74.503 E1.37822
G1 X65.412 Y74.503 E0.01682
G1 X96.405 Y105.497 E1.37822
G1 X95.870 Y105.497 E0.01682
G1 X64.877 Y74.503 E1.37822
G1 X64.342 Y74.503 E0.01682
G1 X95.335 Y105.497 E1.37822
G1 X94.801 Y105.497 E0.01682
G1 X63.808 Y74.503 E1.37822
G1 X63.273 Y74.503 E0.01682
G1 X94.266 Y105.497 E1.37822
G1 X93.731 Y105.497 E0.01682
G1 X62.738 Y74.503 E1.37822
G1 X62.203 Y74.503 E0.01682
G1 X93.196 Y105.497 E1.37822
G1 X92.661 Y105.497 E0.01682
G1 X61.668 Y74.503 E1.37822
G1 X61.134 Y74.503 E0.01682
G1 X92.127 Y105.497 E1.37822
M73 P13 R33
G1 X91.592 Y105.497 E0.01682
G1 X60.599 Y74.503 E1.37822
M73 P13 R32
G1 X60.064 Y74.503 E0.01682
G1 X91.057 Y105.497 E1.37822
G1 X90.522 Y105.497 E0.01682
G1 X59.529 Y74.503 E1.37822
G1 X58.994 Y74.503 E0.01682
G1 X89.987 Y105.497 E1.37822
G1 X89.453 Y105.497 E0.01682
G1 X58.460 Y74.503 E1.37822
G1 X57.925 Y74.503 E0.01682
G1 X88.918 Y105.497 E1.37822
G1 X88.383 Y105.497 E0.01682
G1 X57.390 Y74.503 E1.37822
G1 X56.855 Y74.503 E0.01682
G1 X87.848 Y105.497 E1.37822
G1 X87.313 Y105.497 E0.01682
G1 X56.320 Y74.503 E1.37822
G1 X55.786 Y74.503 E0.01682
G1 X86.779 Y105.497 E1.37822
M73 P14 R32
G1 X86.244 Y105.497 E0.01682
G1 X55.251 Y74.503 E1.37822
G1 X54.716 Y74.503 E0.01682
G1 X85.709 Y105.497 E1.37822
G1 X85.174 Y105.497 E0.01682
G1 X54.181 Y74.503 E1.37822
G1 X53.646 Y74.503 E0.01682
G1 X84.639 Y105.497 E1.37822
G1 X84.105 Y105.497 E0.01682
G1 X53.112 Y74.503 E1.37822
G1 X52.577 Y74.503 E0.01682
G1 X83.570 Y105.497 E1.37822
G1 X83.035 Y105.497 E0.01682
G1 X52.042 Y74.503 E1.37822
G1 X51.507 Y74.503 E0.01682
G1 X82.500 Y105.497 E1.37822
G1 X81.965 Y105.497 E0.01682
G1 X50.972 Y74.503 E1.37822
G1 X50.438 Y74.503 E0.01682
G1 X81.431 Y105.497 E1.37822
M73 P15 R32
G1 X80.896 Y105.497 E0.01682
G1 X49.903 Y74.503 E1.37822
G1 X49.368 Y74.503 E0.01682
G1 X80.361 Y105.497 E1.37822
G1 X79.826 Y105.497 E0.01682
G1 X48.833 Y74.503 E1.37822
G1 X48.298 Y74.503 E0.01682
G1 X79.291 Y105.497 E1.37822
G1 X78.757 Y105.497 E0.01682
G1 X47.764 Y74.503 E1.37822
G1 X47.229 Y74.503 E0.01682
G1 X78.222 Y105.497 E1.37822
G1 X77.687 Y105.497 E0.01682
G1 X46.778 Y74.588 E1.37448
G1 X46.778 Y75.122 E0.01682
G1 X77.152 Y105.497 E1.35069
M73 P15 R31
G1 X76.617 Y105.497 E0.01682
G1 X46.778 Y75.657 E1.32691
G1 X46.778 Y76.192 E0.01682
G1 X76.083 Y105.497 E1.30313
M73 P16 R31
G1 X75.548 Y105.497 E0.01682
G1 X46.778 Y76.727 E1.27935
G1 X46.778 Y77.262 E0.01682
G1 X75.013 Y105.497 E1.25557
G1 X74.478 Y105.497 E0.01682
G1 X46.778 Y77.796 E1.23178
G1 X46.778 Y78.331 E0.01682
G1 X73.943 Y105.497 E1.20800
G1 X73.409 Y105.497 E0.01682
G1 X46.778 Y78.866 E1.18422
G1 X46.778 Y79.401 E0.01682
G1 X72.874 Y105.497 E1.16044
G1 X72.339 Y105.497 E0.01682
G1 X46.778 Y79.936 E1.13666
G1 X46.778 Y80.470 E0.01682
G1 X71.804 Y105.497 E1.11288
G1 X71.269 Y105.497 E0.01682
G1 X46.778 Y81.005 E1.08909
G1 X46.778 Y81.540 E0.01682
G1 X70.735 Y105.497 E1.06531
G1 X70.200 Y105.497 E0.01682
G1 X46.778 Y82.075 E1.04153
G1 X46.778 Y82.610 E0.01682
G1 X69.665 Y105.497 E1.01775
M73 P17 R31
G1 X69.130 Y105.497 E0.01682
G1 X46.778 Y83.144 E0.99397
G1 X46.778 Y83.679 E0.01682
G1 X68.595 Y105.497 E0.97018
G1 X68.061 Y105.497 E0.01682
G1 X46.778 Y84.214 E0.94640
G1 X46.778 Y84.749 E0.01682
G1 X67.526 Y105.497 E0.92262
G1 X66.991 Y105.497 E0.01682
G1 X46.778 Y85.284 E0.89884
G1 X46.778 Y85.818 E0.01682
G1 X66.456 Y105.497 E0.87506
G1 X65.921 Y105.497 E0.01682
G1 X46.778 Y86.353 E0.85128
G1 X46.778 Y86.888 E0.01682
G1 X65.387 Y105.497 E0.82749
G1 X64.852 Y105.497 E0.01682
G1 X46.778 Y87.423 E0.80371
G1 X46.778 Y87.958 E0.01682
G1 X64.317 Y105.497 E0.77993
G1 X63.782 Y105.497 E0.01682
G1 X46.778 Y88.492 E0.75615
G1 X46.778 Y89.027 E0.01682
G1 X63.247 Y105.497 E0.73237
G1 X62.713 Y105.497 E0.01682
G1 X46.778 Y89.562 E0.70858
G1 X46.778 Y90.097 E0.01682
G1 X62.178 Y105.497 E0.68480
G1 X61.643 Y105.497 E0.01682
G1 X46.778 Y90.632 E0.66102
G1 X46.778 Y91.166 E0.01682
G1 X61.108 Y105.497 E0.63724
G1 X60.573 Y105.497 E0.01682
G1 X46.778 Y91.701 E0.61346
M73 P18 R31
G1 X46.778 Y92.236 E0.01682
G1 X60.039 Y105.497 E0.58968
G1 X59.504 Y105.497 E0.01682
G1 X46.778 Y92.771 E0.56589
G1 X46.778 Y93.306 E0.01682
G1 X58.969 Y105.497 E0.54211
G1 X58.434 Y105.497 E0.01682
G1 X46.778 Y93.840 E0.51833
G1 X46.778 Y94.375 E0.01682
G1 X57.899 Y105.497 E0.49455
G1 X57.365 Y105.497 E0.01682
G1 X46.778 Y94.910 E0.47077
G1 X46.778 Y95.445 E0.01682
G1 X56.830 Y105.497 E0.44698
G1 X56.295 Y105.497 E0.01682
G1 X46.778 Y95.980 E0.42320
G1 X46.778 Y96.514 E0.01682
G1 X55.760 Y105.497 E0.39942
G1 X55.225 Y105.497 E0.01682
G1 X46.778 Y97.049 E0.37564
G1 X46.778 Y97.584 E0.01682
G1 X54.691 Y105.497 E0.35186
G1 X54.156 Y105.497 E0.01682
G1 X46.778 Y98.119 E0.32808
G1 X46.778 Y98.654 E0.01682
G1 X53.621 Y105.497 E0.30429
M73 P18 R30
G1 X53.086 Y105.497 E0.01682
G1 X46.778 Y99.188 E0.28051
G1 X46.778 Y99.723 E0.01682
G1 X52.551 Y105.497 E0.25673
G1 X52.017 Y105.497 E0.01682
G1 X46.778 Y100.258 E0.23295
G1 X46.778 Y100.793 E0.01682
G1 X51.482 Y105.497 E0.20917
G1 X50.947 Y105.497 E0.01682
G1 X46.778 Y101.328 E0.18538
G1 X46.778 Y101.862 E0.01682
G1 X50.412 Y105.497 E0.16160
G1 X49.877 Y105.497 E0.01682
G1 X46.778 Y102.397 E0.13782
G1 X46.778 Y102.932 E0.01682
G1 X49.343 Y105.497 E0.11404
G1 X48.808 Y105.497 E0.01682
G1 X46.778 Y103.467 E0.09026
G1 X46.778 Y104.002 E0.01682
G1 X48.273 Y105.497 E0.06648
G1 X47.738 Y105.497 E0.01682
G1 X46.778 Y104.536 E0.04269
