; generated by PrusaSlicer 2.3.0+win64 on 2021-04-29 at 18:31:13 UTC


;
;

;
;
; 

; external perimeters extrusion width = 0.45mm
; perimeters extrusion width = 0.45mm
; infill extrusion width = 0.45mm
; solid infill extrusion width = 0.45mm
; top infill extrusion width = 0.40mm
; first layer extrusion width = 0.42mm

M73 P0 R31
M201 X1250 Y1250 Z400 E5000 ; sets maximum accelerations, mm/sec^2
M203 X180 Y180 Z12 E80 ; sets maximum feedrates, mm/sec
M204 P1250 R1250 T1250 ; sets acceleration (P, T) and retract acceleration (R), mm/sec^2
M205 X8.00 Y8.00 Z2.00 E10.00 ; sets the jerk limits, mm/sec
M205 S0 T0 ; sets the minimum extruding and travel feed rate, mm/sec
M107
;TYPE:Custom
G90 ; use absolute coordinates
M83 ; extruder relative mode
M104 S170 ; set extruder temp for bed leveling
M140 S60 ; set bed temp
M109 R170 ; wait for bed leveling temp
M190 S60 ; wait for bed temp
G28 ; home all without mesh bed level
G29 ; mesh bed leveling 
M104 S215 ; set extruder temp
G92 E0.0
G1 Y-2.0 X179 F2400
G1 Z3 F720
M109 S215 ; wait for extruder temp

; intro line
G1 X170 F1000
G1 Z0.2 F720
G1 X110.0 E8.0 F900
G1 X40.0 E10.0 F700
G92 E0.0

M221 S95 ; set flow
G21 ; set units to millimeters
G90 ; use absolute coordinates
M83 ; use relative distances for extrusion
M900 K0.2 ; Filament gcode LA 1.5
; ; Filament gcode LA 1.0
;LAYER_CHANGE
;Z:0.2
;HEIGHT:0.2
;BEFORE_LAYER_CHANGE
G92 E0.0
;0.2


G1 E-3.20000 F4200.000
G1 Z0.200 F9000.000
;AFTER_LAYER_CHANGE
;0.2
G1 Z0.400
G1 X33.751 Y75.978
G1 Z0.200
G1 E3.20000 F2400.000
M204 S800
;TYPE:Skirt
;WIDTH:0.42
G1 F1200.000
G1 X34.444 Y75.689 E0.02355
G1 X35.000 Y75.623 E0.01755
G1 X145.004 Y75.623 E3.44909
M73 P1 R31
G1 X145.902 Y75.801 E0.02872
G1 X146.664 Y76.303 E0.02860
G1 X147.182 Y77.058 E0.02872
G1 X147.377 Y77.953 E0.02872
G1 X147.371 Y102.164 E0.75910
G1 X147.203 Y102.892 E0.02343
G1 X146.815 Y103.535 E0.02355
G1 X146.249 Y104.022 E0.02343
G1 X145.556 Y104.311 E0.02355
G1 X145.000 Y104.377 E0.01755
G1 X34.962 Y104.377 E3.45017
M73 P1 R30
G1 X34.194 Y104.236 E0.02449
G1 X33.512 Y103.854 E0.02449
G1 X32.994 Y103.275 E0.02437
G1 X32.689 Y102.556 E0.02449
G1 X32.623 Y102.005 E0.01740
G1 X32.628 Y77.844 E0.75755
G1 X32.795 Y77.112 E0.02355
G1 X33.182 Y76.468 E0.02355
G1 X33.705 Y76.017 E0.02167
M204 S1250
; printing object iterate_02.stl id:0 copy 0
G1 E-2.24000 F4200.000
;WIPE_START
G1 F7200.000
G1 X34.444 Y75.689 E-0.44790
G1 X35.000 Y75.623 E-0.31017
G1 X35.278 Y75.623 E-0.15393
;WIPE_END
G1 E-0.04800 F4200.000
G1 Z0.400 F9000.000
G1 X35.787 Y78.787
G1 Z0.200
G1 E3.20000 F2400.000
M204 S800
;TYPE:Perimeter
G1 F1200.000
G1 X144.213 Y78.787 E3.39962
G1 X144.213 Y101.213 E0.70315
M73 P2 R30
G1 X35.787 Y101.213 E3.39962
G1 X35.787 Y78.847 E0.70127
M204 S1250
G1 X35.410 Y78.410 F9000.000
M204 S800
;TYPE:External perimeter
G1 F1200.000
G1 X144.590 Y78.410 E3.42326
G1 X144.590 Y101.590 E0.72679
G1 X35.410 Y101.590 E3.42326
M73 P3 R30
G1 X35.410 Y78.470 E0.72491
M204 S1250
G1 X35.809 Y78.438 F9000.000
G1 E-2.24000 F4200.000
;WIPE_START
G1 F7200.000
G1 X37.056 Y78.469 E-0.91200
;WIPE_END
G1 E-0.04800 F4200.000
G1 Z0.400 F9000.000
G1 X143.335 Y78.900
G1 Z0.200
G1 E3.20000 F2400.000
M204 S800
;TYPE:Solid infill
;WIDTH:0.421032
G1 F1200.000
G1 X143.930 Y79.495 E0.02645
G1 X143.930 Y80.030 E0.01681
G1 X142.970 Y79.070 E0.04268
G1 X142.436 Y79.070 E0.01681
G1 X143.930 Y80.564 E0.06645
G1 X143.930 Y81.099 E0.01681
G1 X141.901 Y79.070 E0.09023
G1 X141.366 Y79.070 E0.01681
G1 X143.930 Y81.634 E0.11400
G1 X143.930 Y82.169 E0.01681
G1 X140.831 Y79.070 E0.13778
G1 X140.297 Y79.070 E0.01681
G1 X143.930 Y82.703 E0.16156
G1 X143.930 Y83.238 E0.01681
G1 X139.762 Y79.070 E0.18533
G1 X139.227 Y79.070 E0.01681
G1 X143.930 Y83.773 E0.20911
G1 X143.930 Y84.308 E0.01681
G1 X138.692 Y79.070 E0.23288
G1 X138.158 Y79.070 E0.01681
G1 X143.930 Y84.842 E0.25666
G1 X143.930 Y85.377 E0.01681
G1 X137.623 Y79.070 E0.28043
G1 X137.088 Y79.070 E0.01681
G1 X143.930 Y85.912 E0.30421
G1 X143.930 Y86.446 E0.01681
G1 X136.554 Y79.070 E0.32799
G1 X136.019 Y79.070 E0.01681
G1 X143.930 Y86.981 E0.35176
G1 X143.930 Y87.516 E0.01681
G1 X135.484 Y79.070 E0.37554
G1 X134.949 Y79.070 E0.01681
G1 X143.930 Y88.051 E0.39931
G1 X143.930 Y88.585 E0.01681
G1 X134.415 Y79.070 E0.42309
G1 X133.880 Y79.070 E0.01681
G1 X143.930 Y89.120 E0.44687
G1 X143.930 Y89.655 E0.01681
G1 X133.345 Y79.070 E0.47064
G1 X132.810 Y79.070 E0.01681
G1 X143.930 Y90.190 E0.49442
G1 X143.930 Y90.724 E0.01681
G1 X132.276 Y79.070 E0.51819
G1 X131.741 Y79.070 E0.01681
G1 X143.930 Y91.259 E0.54197
G1 X143.930 Y91.794 E0.01681
G1 X131.206 Y79.070 E0.56574
G1 X130.671 Y79.070 E0.01681
G1 X143.930 Y92.329 E0.58952
G1 X143.930 Y92.863 E0.01681
G1 X130.137 Y79.070 E0.61330
G1 X129.602 Y79.070 E0.01681
G1 X143.930 Y93.398 E0.63707
G1 X143.930 Y93.933 E0.01681
G1 X129.067 Y79.070 E0.66085
M73 P4 R30
G1 X128.533 Y79.070 E0.01681
G1 X143.930 Y94.467 E0.68462
G1 X143.930 Y95.002 E0.01681
G1 X127.998 Y79.070 E0.70840
G1 X127.463 Y79.070 E0.01681
G1 X143.930 Y95.537 E0.73217
G1 X143.930 Y96.072 E0.01681
G1 X126.928 Y79.070 E0.75595
G1 X126.394 Y79.070 E0.01681
G1 X143.930 Y96.606 E0.77973
G1 X143.930 Y97.141 E0.01681
G1 X125.859 Y79.070 E0.80350
G1 X125.324 Y79.070 E0.01681
G1 X143.930 Y97.676 E0.82728
G1 X143.930 Y98.211 E0.01681
G1 X124.789 Y79.070 E0.85105
G1 X124.255 Y79.070 E0.01681
G1 X143.930 Y98.745 E0.87483
G1 X143.930 Y99.280 E0.01681
G1 X123.720 Y79.070 E0.89861
G1 X123.185 Y79.070 E0.01681
G1 X143.930 Y99.815 E0.92238
M73 P4 R29
G1 X143.930 Y100.349 E0.01681
G1 X122.651 Y79.070 E0.94616
G1 X122.116 Y79.070 E0.01681
G1 X143.930 Y100.884 E0.96993
G1 X143.930 Y100.930 E0.00144
G1 X143.441 Y100.930 E0.01537
G1 X121.581 Y79.070 E0.97197
M73 P5 R29
G1 X121.046 Y79.070 E0.01681
G1 X142.907 Y100.930 E0.97197
G1 X142.372 Y100.930 E0.01681
G1 X120.512 Y79.070 E0.97197
G1 X119.977 Y79.070 E0.01681
G1 X141.837 Y100.930 E0.97197
G1 X141.302 Y100.930 E0.01681
G1 X119.442 Y79.070 E0.97197
G1 X118.907 Y79.070 E0.01681
G1 X140.768 Y100.930 E0.97197
G1 X140.233 Y100.930 E0.01681
G1 X118.373 Y79.070 E0.97197
G1 X117.838 Y79.070 E0.01681
G1 X139.698 Y100.930 E0.97197
G1 X139.163 Y100.930 E0.01681
G1 X117.303 Y79.070 E0.97197
G1 X116.768 Y79.070 E0.01681
G1 X138.629 Y100.930 E0.97197
G1 X138.094 Y100.930 E0.01681
G1 X116.234 Y79.070 E0.97197
G1 X115.699 Y79.070 E0.01681
G1 X137.559 Y100.930 E0.97197
G1 X137.025 Y100.930 E0.01681
G1 X115.164 Y79.070 E0.97197
M73 P6 R29
G1 X114.630 Y79.070 E0.01681
G1 X136.490 Y100.930 E0.97197
G1 X135.955 Y100.930 E0.01681
G1 X114.095 Y79.070 E0.97197
G1 X113.560 Y79.070 E0.01681
G1 X135.420 Y100.930 E0.97197
G1 X134.886 Y100.930 E0.01681
G1 X113.025 Y79.070 E0.97197
G1 X112.491 Y79.070 E0.01681
G1 X134.351 Y100.930 E0.97197
G1 X133.816 Y100.930 E0.01681
G1 X111.956 Y79.070 E0.97197
G1 X111.421 Y79.070 E0.01681
G1 X133.281 Y100.930 E0.97197
G1 X132.747 Y100.930 E0.01681
G1 X110.886 Y79.070 E0.97197
G1 X110.352 Y79.070 E0.01681
G1 X132.212 Y100.930 E0.97197
G1 X131.677 Y100.930 E0.01681
G1 X109.817 Y79.070 E0.97197
G1 X109.282 Y79.070 E0.01681
G1 X131.142 Y100.930 E0.97197
M73 P7 R29
G1 X130.608 Y100.930 E0.01681
G1 X108.748 Y79.070 E0.97197
G1 X108.213 Y79.070 E0.01681
G1 X130.073 Y100.930 E0.97197
G1 X129.538 Y100.930 E0.01681
G1 X107.678 Y79.070 E0.97197
G1 X107.143 Y79.070 E0.01681
G1 X129.004 Y100.930 E0.97197
G1 X128.469 Y100.930 E0.01681
G1 X106.609 Y79.070 E0.97197
G1 X106.074 Y79.070 E0.01681
G1 X127.934 Y100.930 E0.97197
G1 X127.399 Y100.930 E0.01681
G1 X105.539 Y79.070 E0.97197
G1 X105.004 Y79.070 E0.01681
G1 X126.865 Y100.930 E0.97197
G1 X126.330 Y100.930 E0.01681
G1 X104.470 Y79.070 E0.97197
G1 X103.935 Y79.070 E0.01681
G1 X125.795 Y100.930 E0.97197
G1 X125.260 Y100.930 E0.01681
G1 X103.400 Y79.070 E0.97197
G1 X102.865 Y79.070 E0.01681
G1 X124.726 Y100.930 E0.97197
M73 P8 R28
G1 X124.191 Y100.930 E0.01681
G1 X102.331 Y79.070 E0.97197
G1 X101.796 Y79.070 E0.01681
G1 X123.656 Y100.930 E0.97197
G1 X123.122 Y100.930 E0.01681
G1 X101.261 Y79.070 E0.97197
G1 X100.727 Y79.070 E0.01681
G1 X122.587 Y100.930 E0.97197
G1 X122.052 Y100.930 E0.01681
G1 X100.192 Y79.070 E0.97197
G1 X99.657 Y79.070 E0.01681
G1 X121.517 Y100.930 E0.97197
G1 X120.983 Y100.930 E0.01681
G1 X99.122 Y79.070 E0.97197
G1 X98.588 Y79.070 E0.01681
G1 X120.448 Y100.930 E0.97197
G1 X119.913 Y100.930 E0.01681
G1 X98.053 Y79.070 E0.97197
G1 X97.518 Y79.070 E0.01681
G1 X119.378 Y100.930 E0.97197
G1 X118.844 Y100.930 E0.01681
G1 X96.983 Y79.070 E0.97197
G1 X96.449 Y79.070 E0.01681
G1 X118.309 Y100.930 E0.97197
M73 P9 R28
G1 X117.774 Y100.930 E0.01681
G1 X95.914 Y79.070 E0.97197
G1 X95.379 Y79.070 E0.01681
G1 X117.239 Y100.930 E0.97197
G1 X116.705 Y100.930 E0.01681
G1 X94.844 Y79.070 E0.97197
G1 X94.310 Y79.070 E0.01681
G1 X116.170 Y100.930 E0.97197
G1 X115.635 Y100.930 E0.01681
G1 X93.775 Y79.070 E0.97197
G1 X93.240 Y79.070 E0.01681
G1 X115.101 Y100.930 E0.97197
G1 X114.566 Y100.930 E0.01681
G1 X92.706 Y79.070 E0.97197
G1 X92.171 Y79.070 E0.01681
G1 X114.031 Y100.930 E0.97197
G1 X113.496 Y100.930 E0.01681
G1 X91.636 Y79.070 E0.97197
G1 X91.101 Y79.070 E0.01681
G1 X112.962 Y100.930 E0.97197
G1 X112.427 Y100.930 E0.01681
G1 X90.567 Y79.070 E0.97197
M73 P10 R28
G1 X90.032 Y79.070 E0.01681
G1 X111.892 Y100.930 E0.97197
G1 X111.357 Y100.930 E0.01681
G1 X89.497 Y79.070 E0.97197
G1 X88.962 Y79.070 E0.01681
G1 X110.823 Y100.930 E0.97197
G1 X110.288 Y100.930 E0.01681
G1 X88.428 Y79.070 E0.97197
G1 X87.893 Y79.070 E0.01681
G1 X109.753 Y100.930 E0.97197
G1 X109.219 Y100.930 E0.01681
G1 X87.358 Y79.070 E0.97197
G1 X86.824 Y79.070 E0.01681
G1 X108.684 Y100.930 E0.97197
G1 X108.149 Y100.930 E0.01681
G1 X86.289 Y79.070 E0.97197
G1 X85.754 Y79.070 E0.01681
G1 X107.614 Y100.930 E0.97197
G1 X107.080 Y100.930 E0.01681
G1 X85.219 Y79.070 E0.97197
G1 X84.685 Y79.070 E0.01681
G1 X106.545 Y100.930 E0.97197
G1 X106.010 Y100.930 E0.01681
G1 X84.150 Y79.070 E0.97197
M73 P11 R28
G1 X83.615 Y79.070 E0.01681
G1 X105.475 Y100.930 E0.97197
G1 X104.941 Y100.930 E0.01681
G1 X83.080 Y79.070 E0.97197
M73 P11 R27
G1 X82.546 Y79.070 E0.01681
G1 X104.406 Y100.930 E0.97197
G1 X103.871 Y100.930 E0.01681
G1 X82.011 Y79.070 E0.97197
G1 X81.476 Y79.070 E0.01681
G1 X103.336 Y100.930 E0.97197
G1 X102.802 Y100.930 E0.01681
G1 X80.941 Y79.070 E0.97197
G1 X80.407 Y79.070 E0.01681
G1 X102.267 Y100.930 E0.97197
G1 X101.732 Y100.930 E0.01681
G1 X79.872 Y79.070 E0.97197
G1 X79.337 Y79.070 E0.01681
G1 X101.198 Y100.930 E0.97197
G1 X100.663 Y100.930 E0.01681
G1 X78.803 Y79.070 E0.97197
G1 X78.268 Y79.070 E0.01681
G1 X100.128 Y100.930 E0.97197
G1 X99.593 Y100.930 E0.01681
G1 X77.733 Y79.070 E0.97197
M73 P12 R27
G1 X77.198 Y79.070 E0.01681
G1 X99.059 Y100.930 E0.97197
G1 X98.524 Y100.930 E0.01681
G1 X76.664 Y79.070 E0.97197
G1 X76.129 Y79.070 E0.01681
G1 X97.989 Y100.930 E0.97197
G1 X97.454 Y100.930 E0.01681
G1 X75.594 Y79.070 E0.97197
G1 X75.059 Y79.070 E0.01681
G1 X96.920 Y100.930 E0.97197
G1 X96.385 Y100.930 E0.01681
G1 X74.525 Y79.070 E0.97197
G1 X73.990 Y79.070 E0.01681
G1 X95.850 Y100.930 E0.97197
G1 X95.316 Y100.930 E0.01681
G1 X73.455 Y79.070 E0.97197
G1 X72.921 Y79.070 E0.01681
G1 X94.781 Y100.930 E0.97197
G1 X94.246 Y100.930 E0.01681
G1 X72.386 Y79.070 E0.97197
G1 X71.851 Y79.070 E0.01681
G1 X93.711 Y100.930 E0.97197
G1 X93.177 Y100.930 E0.01681
G1 X71.316 Y79.070 E0.97197
M73 P13 R27
G1 X70.782 Y79.070 E0.01681
G1 X92.642 Y100.930 E0.97197
G1 X92.107 Y100.930 E0.01681
G1 X70.247 Y79.070 E0.97197
G1 X69.712 Y79.070 E0.01681
G1 X91.572 Y100.930 E0.97197
G1 X91.038 Y100.930 E0.01681
G1 X69.177 Y79.070 E0.97197
G1 X68.643 Y79.070 E0.01681
G1 X90.503 Y100.930 E0.97197
G1 X89.968 Y100.930 E0.01681
G1 X68.108 Y79.070 E0.97197
G1 X67.573 Y79.070 E0.01681
G1 X89.433 Y100.930 E0.97197
G1 X88.899 Y100.930 E0.01681
G1 X67.038 Y79.070 E0.97197
G1 X66.504 Y79.070 E0.01681
G1 X88.364 Y100.930 E0.97197
G1 X87.829 Y100.930 E0.01681
G1 X65.969 Y79.070 E0.97197
G1 X65.434 Y79.070 E0.01681
G1 X87.295 Y100.930 E0.97197
M73 P14 R27
G1 X86.760 Y100.930 E0.01681
G1 X64.900 Y79.070 E0.97197
G1 X64.365 Y79.070 E0.01681
G1 X86.225 Y100.930 E0.97197
G1 X85.690 Y100.930 E0.01681
G1 X63.830 Y79.070 E0.97197
G1 X63.295 Y79.070 E0.01681
G1 X85.156 Y100.930 E0.97197
G1 X84.621 Y100.930 E0.01681
G1 X62.761 Y79.070 E0.97197
M73 P14 R26
G1 X62.226 Y79.070 E0.01681
G1 X84.086 Y100.930 E0.97197
G1 X83.551 Y100.930 E0.01681
G1 X61.691 Y79.070 E0.97197
G1 X61.156 Y79.070 E0.01681
G1 X83.017 Y100.930 E0.97197
G1 X82.482 Y100.930 E0.01681
G1 X60.622 Y79.070 E0.97197
G1 X60.087 Y79.070 E0.01681
G1 X81.947 Y100.930 E0.97197
G1 X81.412 Y100.930 E0.01681
G1 X59.552 Y79.070 E0.97197
G1 X59.018 Y79.070 E0.01681
G1 X80.878 Y100.930 E0.97197
M73 P15 R26
G1 X80.343 Y100.930 E0.01681
G1 X58.483 Y79.070 E0.97197
G1 X57.948 Y79.070 E0.01681
G1 X79.808 Y100.930 E0.97197
G1 X79.274 Y100.930 E0.01681
G1 X57.413 Y79.070 E0.97197
G1 X56.879 Y79.070 E0.01681
G1 X78.739 Y100.930 E0.97197
G1 X78.204 Y100.930 E0.01681
G1 X56.344 Y79.070 E0.97197
G1 X55.809 Y79.070 E0.01681
G1 X77.669 Y100.930 E0.97197
G1 X77.135 Y100.930 E0.01681
G1 X55.274 Y79.070 E0.97197
G1 X54.740 Y79.070 E0.01681
G1 X76.600 Y100.930 E0.97197
G1 X76.065 Y100.930 E0.01681
G1 X54.205 Y79.070 E0.97197
G1 X53.670 Y79.070 E0.01681
G1 X75.530 Y100.930 E0.97197
G1 X74.996 Y100.930 E0.01681
G1 X53.135 Y79.070 E0.97197
G1 X52.601 Y79.070 E0.01681
G1 X74.461 Y100.930 E0.97197
M73 P16 R26
G1 X73.926 Y100.930 E0.01681
G1 X52.066 Y79.070 E0.97197
G1 X51.531 Y79.070 E0.01681
G1 X73.392 Y100.930 E0.97197
G1 X72.857 Y100.930 E0.01681
G1 X50.997 Y79.070 E0.97197
G1 X50.462 Y79.070 E0.01681
G1 X72.322 Y100.930 E0.97197
G1 X71.787 Y100.930 E0.01681
G1 X49.927 Y79.070 E0.97197
G1 X49.392 Y79.070 E0.01681
G1 X71.253 Y100.930 E0.97197
G1 X70.718 Y100.930 E0.01681
G1 X48.858 Y79.070 E0.97197
G1 X48.323 Y79.070 E0.01681
G1 X70.183 Y100.930 E0.97197
G1 X69.648 Y100.930 E0.01681
G1 X47.788 Y79.070 E0.97197
G1 X47.253 Y79.070 E0.01681
G1 X69.114 Y100.930 E0.97197
G1 X68.579 Y100.930 E0.01681
G1 X46.719 Y79.070 E0.97197
M73 P17 R26
G1 X46.184 Y79.070 E0.01681
G1 X68.044 Y100.930 E0.97197
G1 X67.509 Y100.930 E0.01681
G1 X45.649 Y79.070 E0.97197
G1 X45.115 Y79.070 E0.01681
G1 X66.975 Y100.930 E0.97197
G1 X66.440 Y100.930 E0.01681
G1 X44.580 Y79.070 E0.97197
G1 X44.045 Y79.070 E0.01681
G1 X65.905 Y100.930 E0.97197
G1 X65.371 Y100.930 E0.01681
G1 X43.510 Y79.070 E0.97197
G1 X42.976 Y79.070 E0.01681
G1 X64.836 Y100.930 E0.97197
G1 X64.301 Y100.930 E0.01681
G1 X42.441 Y79.070 E0.97197
M73 P17 R25
G1 X41.906 Y79.070 E0.01681
G1 X63.766 Y100.930 E0.97197
G1 X63.232 Y100.930 E0.01681
G1 X41.371 Y79.070 E0.97197
G1 X40.837 Y79.070 E0.01681
G1 X62.697 Y100.930 E0.97197
G1 X62.162 Y100.930 E0.01681
G1 X40.302 Y79.070 E0.97197
M73 P18 R25
G1 X39.767 Y79.070 E0.01681
G1 X61.627 Y100.930 E0.97197
G1 X61.093 Y100.930 E0.01681
G1 X39.232 Y79.070 E0.97197
G1 X38.698 Y79.070 E0.01681
G1 X60.558 Y100.930 E0.97197
G1 X60.023 Y100.930 E0.01681
G1 X38.163 Y79.070 E0.97197
G1 X37.628 Y79.070 E0.01681
G1 X59.489 Y100.930 E0.97197
G1 X58.954 Y100.930 E0.01681
G1 X37.094 Y79.070 E0.97197
G1 X36.559 Y79.070 E0.01681
G1 X58.419 Y100.930 E0.97197
G1 X57.884 Y100.930 E0.01681
G1 X36.070 Y79.116 E0.96994
G1 X36.070 Y79.650 E0.01681
G1 X57.350 Y100.930 E0.94616
G1 X56.815 Y100.930 E0.01681
G1 X36.070 Y80.185 E0.92239
G1 X36.070 Y80.720 E0.01681
G1 X56.280 Y100.930 E0.89861
G1 X55.745 Y100.930 E0.01681
G1 X36.070 Y81.255 E0.87483
M73 P19 R25
G1 X36.070 Y81.789 E0.01681
G1 X55.211 Y100.930 E0.85106
G1 X54.676 Y100.930 E0.01681
G1 X36.070 Y82.324 E0.82728
G1 X36.070 Y82.859 E0.01681
G1 X54.141 Y100.930 E0.80351
G1 X53.606 Y100.930 E0.01681
G1 X36.070 Y83.394 E0.77973
G1 X36.070 Y83.928 E0.01681
G1 X53.072 Y100.930 E0.75596
G1 X52.537 Y100.930 E0.01681
G1 X36.070 Y84.463 E0.73218
G1 X36.070 Y84.998 E0.01681
G1 X52.002 Y100.930 E0.70840
G1 X51.468 Y100.930 E0.01681
G1 X36.070 Y85.532 E0.68463
G1 X36.070 Y86.067 E0.01681
G1 X50.933 Y100.930 E0.66085
G1 X50.398 Y100.930 E0.01681
G1 X36.070 Y86.602 E0.63708
G1 X36.070 Y87.137 E0.01681
G1 X49.863 Y100.930 E0.61330
