; generated by PrusaSlicer 2.3.0+win64 on 2021-04-30 at 13:03:05 UTC


;
;

;
;
; 

; external perimeters extrusion width = 0.45mm
; perimeters extrusion width = 0.45mm
; infill extrusion width = 0.45mm
; solid infill extrusion width = 0.45mm
; top infill extrusion width = 0.40mm
; first layer extrusion width = 0.42mm

M73 P0 R43
M201 X1250 Y1250 Z400 E5000 ; sets maximum accelerations, mm/sec^2
M203 X180 Y180 Z12 E80 ; sets maximum feedrates, mm/sec
M204 P1250 R1250 T1250 ; sets acceleration (P, T) and retract acceleration (R), mm/sec^2
M205 X8.00 Y8.00 Z2.00 E10.00 ; sets the jerk limits, mm/sec
M205 S0 T0 ; sets the minimum extruding and travel feed rate, mm/sec
M107
;TYPE:Custom
G90 ; use absolute coordinates
M83 ; extruder relative mode
M104 S170 ; set extruder temp for bed leveling
M140 S60 ; set bed temp
M109 R170 ; wait for bed leveling temp
M190 S60 ; wait for bed temp
G28 ; home all without mesh bed level
G29 ; mesh bed leveling 
M104 S215 ; set extruder temp
G92 E0.0
G1 Y-2.0 X179 F2400
G1 Z3 F720
M109 S215 ; wait for extruder temp

; intro line
G1 X170 F1000
G1 Z0.2 F720
G1 X110.0 E8.0 F900
G1 X40.0 E10.0 F700
G92 E0.0

M221 S95 ; set flow
G21 ; set units to millimeters
G90 ; use absolute coordinates
M83 ; use relative distances for extrusion
M900 K0.2 ; Filament gcode LA 1.5
; ; Filament gcode LA 1.0
;LAYER_CHANGE
;Z:0.2
;HEIGHT:0.2
;BEFORE_LAYER_CHANGE
G92 E0.0
;0.2


G1 E-3.20000 F4200.000
G1 Z0.200 F9000.000
;AFTER_LAYER_CHANGE
;0.2
G1 Z0.400
G1 X33.393 Y77.124
G1 Z0.200
G1 E3.20000 F2400.000
M204 S800
;TYPE:Skirt
;WIDTH:0.42
G1 F1200.000
G1 X146.125 Y77.074 E3.53463
G1 X147.024 Y77.252 E0.02872
G1 X147.788 Y77.756 E0.02872
M73 P0 R42
G1 X148.305 Y78.512 E0.02872
G1 X148.498 Y79.408 E0.02872
G1 X148.491 Y100.739 E0.66883
G1 X148.310 Y101.476 E0.02378
G1 X147.904 Y102.121 E0.02390
G1 X147.315 Y102.605 E0.02390
G1 X146.607 Y102.876 E0.02378
G1 X33.841 Y102.926 E3.53570
M73 P1 R42
G1 X33.058 Y102.780 E0.02496
G1 X32.364 Y102.381 E0.02508
G1 X31.844 Y101.779 E0.02496
G1 X31.552 Y101.034 E0.02508
G1 X31.509 Y79.268 E0.68246
G1 X31.688 Y78.527 E0.02390
G1 X32.093 Y77.882 E0.02390
G1 X32.682 Y77.397 E0.02390
G1 X33.337 Y77.145 E0.02202
M204 S1250
; printing object iterate_05.stl id:0 copy 0
G1 E-2.24000 F4200.000
;WIPE_START
G1 F7200.000
G1 X34.983 Y77.144 E-0.91200
;WIPE_END
G1 E-0.04800 F4200.000
G1 Z0.400 F9000.000
G1 X34.666 Y80.238
G1 Z0.200
G1 E3.20000 F2400.000
M204 S800
;TYPE:Perimeter
G1 F1200.000
G1 X145.334 Y80.238 E3.46994
G1 X145.334 Y99.762 E0.61216
G1 X34.666 Y99.762 E3.46994
G1 X34.666 Y80.298 E0.61028
M204 S1250
G1 X34.289 Y79.861 F9000.000
M204 S800
;TYPE:External perimeter
G1 F1200.000
G1 X145.711 Y79.861 E3.49358
G1 X145.711 Y100.139 E0.63581
G1 X34.289 Y100.139 E3.49358
M73 P2 R42
G1 X34.289 Y79.921 E0.63393
M204 S1250
G1 X34.688 Y79.885 F9000.000
G1 E-2.24000 F4200.000
;WIPE_START
G1 F7200.000
G1 X35.934 Y79.920 E-0.91200
;WIPE_END
G1 E-0.04800 F4200.000
G1 Z0.400 F9000.000
G1 X144.458 Y80.351
G1 Z0.200
G1 E3.20000 F2400.000
M204 S800
;TYPE:Solid infill
;WIDTH:0.420671
G1 F1200.000
G1 X145.052 Y80.945 E0.02639
G1 X145.052 Y81.479 E0.01678
G1 X144.093 Y80.521 E0.04258
G1 X143.559 Y80.521 E0.01678
G1 X145.052 Y82.014 E0.06631
G1 X145.052 Y82.548 E0.01678
G1 X143.025 Y80.521 E0.09004
G1 X142.490 Y80.521 E0.01678
G1 X145.052 Y83.082 E0.11377
G1 X145.052 Y83.616 E0.01678
G1 X141.956 Y80.521 E0.13750
G1 X141.422 Y80.521 E0.01678
G1 X145.052 Y84.150 E0.16123
G1 X145.052 Y84.685 E0.01678
G1 X140.888 Y80.521 E0.18496
G1 X140.353 Y80.521 E0.01678
G1 X145.052 Y85.219 E0.20869
G1 X145.052 Y85.753 E0.01678
G1 X139.819 Y80.521 E0.23242
G1 X139.285 Y80.521 E0.01678
G1 X145.052 Y86.287 E0.25615
G1 X145.052 Y86.822 E0.01678
G1 X138.751 Y80.521 E0.27988
G1 X138.217 Y80.521 E0.01678
G1 X145.052 Y87.356 E0.30361
G1 X145.052 Y87.890 E0.01678
G1 X137.682 Y80.521 E0.32734
G1 X137.148 Y80.521 E0.01678
G1 X145.052 Y88.424 E0.35107
G1 X145.052 Y88.958 E0.01678
G1 X136.614 Y80.521 E0.37480
G1 X136.080 Y80.521 E0.01678
G1 X145.052 Y89.493 E0.39854
G1 X145.052 Y90.027 E0.01678
G1 X135.545 Y80.521 E0.42227
G1 X135.011 Y80.521 E0.01678
G1 X145.052 Y90.561 E0.44600
G1 X145.052 Y91.095 E0.01678
G1 X134.477 Y80.521 E0.46973
G1 X133.943 Y80.521 E0.01678
G1 X145.052 Y91.629 E0.49346
G1 X145.052 Y92.164 E0.01678
G1 X133.409 Y80.521 E0.51719
G1 X132.874 Y80.521 E0.01678
G1 X145.052 Y92.698 E0.54092
G1 X145.052 Y93.232 E0.01678
G1 X132.340 Y80.521 E0.56465
G1 X131.806 Y80.521 E0.01678
G1 X145.052 Y93.766 E0.58838
G1 X145.052 Y94.301 E0.01678
G1 X131.272 Y80.521 E0.61211
G1 X130.737 Y80.521 E0.01678
G1 X145.052 Y94.835 E0.63584
G1 X145.052 Y95.369 E0.01678
G1 X130.203 Y80.521 E0.65957
G1 X129.669 Y80.521 E0.01678
G1 X145.052 Y95.903 E0.68330
G1 X145.052 Y96.437 E0.01678
G1 X129.135 Y80.521 E0.70703
G1 X128.601 Y80.521 E0.01678
G1 X145.052 Y96.972 E0.73076
M73 P3 R42
G1 X145.052 Y97.506 E0.01678
G1 X128.066 Y80.521 E0.75449
G1 X127.532 Y80.521 E0.01678
G1 X145.052 Y98.040 E0.77822
G1 X145.052 Y98.574 E0.01678
G1 X126.998 Y80.521 E0.80195
G1 X126.464 Y80.521 E0.01678
G1 X145.052 Y99.109 E0.82568
M73 P3 R41
G1 X145.052 Y99.479 E0.01164
G1 X144.888 Y99.479 E0.00514
G1 X125.929 Y80.521 E0.84215
G1 X125.395 Y80.521 E0.01678
G1 X144.354 Y99.479 E0.84215
G1 X143.820 Y99.479 E0.01678
G1 X124.861 Y80.521 E0.84215
G1 X124.327 Y80.521 E0.01678
G1 X143.285 Y99.479 E0.84215
G1 X142.751 Y99.479 E0.01678
G1 X123.793 Y80.521 E0.84215
G1 X123.258 Y80.521 E0.01678
G1 X142.217 Y99.479 E0.84215
G1 X141.683 Y99.479 E0.01678
G1 X122.724 Y80.521 E0.84215
G1 X122.190 Y80.521 E0.01678
G1 X141.148 Y99.479 E0.84215
G1 X140.614 Y99.479 E0.01678
G1 X121.656 Y80.521 E0.84215
G1 X121.121 Y80.521 E0.01678
G1 X140.080 Y99.479 E0.84215
G1 X139.546 Y99.479 E0.01678
G1 X120.587 Y80.521 E0.84215
G1 X120.053 Y80.521 E0.01678
G1 X139.012 Y99.479 E0.84215
G1 X138.477 Y99.479 E0.01678
G1 X119.519 Y80.521 E0.84215
G1 X118.985 Y80.521 E0.01678
G1 X137.943 Y99.479 E0.84215
G1 X137.409 Y99.479 E0.01678
G1 X118.450 Y80.521 E0.84215
M73 P4 R41
G1 X117.916 Y80.521 E0.01678
G1 X136.875 Y99.479 E0.84215
G1 X136.340 Y99.479 E0.01678
G1 X117.382 Y80.521 E0.84215
G1 X116.848 Y80.521 E0.01678
G1 X135.806 Y99.479 E0.84215
G1 X135.272 Y99.479 E0.01678
G1 X116.314 Y80.521 E0.84215
G1 X115.779 Y80.521 E0.01678
G1 X134.738 Y99.479 E0.84215
G1 X134.204 Y99.479 E0.01678
G1 X115.245 Y80.521 E0.84215
G1 X114.711 Y80.521 E0.01678
G1 X133.669 Y99.479 E0.84215
G1 X133.135 Y99.479 E0.01678
G1 X114.177 Y80.521 E0.84215
G1 X113.642 Y80.521 E0.01678
G1 X132.601 Y99.479 E0.84215
G1 X132.067 Y99.479 E0.01678
G1 X113.108 Y80.521 E0.84215
G1 X112.574 Y80.521 E0.01678
G1 X131.532 Y99.479 E0.84215
G1 X130.998 Y99.479 E0.01678
G1 X112.040 Y80.521 E0.84215
G1 X111.506 Y80.521 E0.01678
G1 X130.464 Y99.479 E0.84215
G1 X129.930 Y99.479 E0.01678
G1 X110.971 Y80.521 E0.84215
G1 X110.437 Y80.521 E0.01678
G1 X129.396 Y99.479 E0.84215
G1 X128.861 Y99.479 E0.01678
G1 X109.903 Y80.521 E0.84215
G1 X109.369 Y80.521 E0.01678
G1 X128.327 Y99.479 E0.84215
G1 X127.793 Y99.479 E0.01678
G1 X108.834 Y80.521 E0.84215
M73 P5 R41
G1 X108.300 Y80.521 E0.01678
G1 X127.259 Y99.479 E0.84215
G1 X126.724 Y99.479 E0.01678
G1 X107.766 Y80.521 E0.84215
G1 X107.232 Y80.521 E0.01678
G1 X126.190 Y99.479 E0.84215
G1 X125.656 Y99.479 E0.01678
G1 X106.698 Y80.521 E0.84215
G1 X106.163 Y80.521 E0.01678
G1 X125.122 Y99.479 E0.84215
G1 X124.588 Y99.479 E0.01678
G1 X105.629 Y80.521 E0.84215
G1 X105.095 Y80.521 E0.01678
G1 X124.053 Y99.479 E0.84215
G1 X123.519 Y99.479 E0.01678
G1 X104.561 Y80.521 E0.84215
G1 X104.026 Y80.521 E0.01678
G1 X122.985 Y99.479 E0.84215
G1 X122.451 Y99.479 E0.01678
G1 X103.492 Y80.521 E0.84215
M73 P5 R40
G1 X102.958 Y80.521 E0.01678
G1 X121.916 Y99.479 E0.84215
G1 X121.382 Y99.479 E0.01678
G1 X102.424 Y80.521 E0.84215
G1 X101.890 Y80.521 E0.01678
G1 X120.848 Y99.479 E0.84215
G1 X120.314 Y99.479 E0.01678
G1 X101.355 Y80.521 E0.84215
G1 X100.821 Y80.521 E0.01678
G1 X119.780 Y99.479 E0.84215
G1 X119.245 Y99.479 E0.01678
G1 X100.287 Y80.521 E0.84215
G1 X99.753 Y80.521 E0.01678
G1 X118.711 Y99.479 E0.84215
G1 X118.177 Y99.479 E0.01678
G1 X99.218 Y80.521 E0.84215
G1 X98.684 Y80.521 E0.01678
G1 X117.643 Y99.479 E0.84215
M73 P6 R40
G1 X117.108 Y99.479 E0.01678
G1 X98.150 Y80.521 E0.84215
G1 X97.616 Y80.521 E0.01678
G1 X116.574 Y99.479 E0.84215
G1 X116.040 Y99.479 E0.01678
G1 X97.082 Y80.521 E0.84215
G1 X96.547 Y80.521 E0.01678
G1 X115.506 Y99.479 E0.84215
G1 X114.972 Y99.479 E0.01678
G1 X96.013 Y80.521 E0.84215
G1 X95.479 Y80.521 E0.01678
G1 X114.437 Y99.479 E0.84215
G1 X113.903 Y99.479 E0.01678
G1 X94.945 Y80.521 E0.84215
G1 X94.410 Y80.521 E0.01678
G1 X113.369 Y99.479 E0.84215
G1 X112.835 Y99.479 E0.01678
G1 X93.876 Y80.521 E0.84215
G1 X93.342 Y80.521 E0.01678
G1 X112.300 Y99.479 E0.84215
G1 X111.766 Y99.479 E0.01678
G1 X92.808 Y80.521 E0.84215
G1 X92.274 Y80.521 E0.01678
G1 X111.232 Y99.479 E0.84215
G1 X110.698 Y99.479 E0.01678
G1 X91.739 Y80.521 E0.84215
G1 X91.205 Y80.521 E0.01678
G1 X110.164 Y99.479 E0.84215
G1 X109.629 Y99.479 E0.01678
G1 X90.671 Y80.521 E0.84215
G1 X90.137 Y80.521 E0.01678
G1 X109.095 Y99.479 E0.84215
G1 X108.561 Y99.479 E0.01678
G1 X89.602 Y80.521 E0.84215
G1 X89.068 Y80.521 E0.01678
G1 X108.027 Y99.479 E0.84215
G1 X107.493 Y99.479 E0.01678
G1 X88.534 Y80.521 E0.84215
M73 P7 R40
G1 X88.000 Y80.521 E0.01678
G1 X106.958 Y99.479 E0.84215
G1 X106.424 Y99.479 E0.01678
G1 X87.466 Y80.521 E0.84215
G1 X86.931 Y80.521 E0.01678
G1 X105.890 Y99.479 E0.84215
G1 X105.356 Y99.479 E0.01678
G1 X86.397 Y80.521 E0.84215
G1 X85.863 Y80.521 E0.01678
G1 X104.821 Y99.479 E0.84215
G1 X104.287 Y99.479 E0.01678
G1 X85.329 Y80.521 E0.84215
G1 X84.794 Y80.521 E0.01678
G1 X103.753 Y99.479 E0.84215
G1 X103.219 Y99.479 E0.01678
G1 X84.260 Y80.521 E0.84215
G1 X83.726 Y80.521 E0.01678
G1 X102.685 Y99.479 E0.84215
G1 X102.150 Y99.479 E0.01678
G1 X83.192 Y80.521 E0.84215
G1 X82.658 Y80.521 E0.01678
G1 X101.616 Y99.479 E0.84215
G1 X101.082 Y99.479 E0.01678
G1 X82.123 Y80.521 E0.84215
G1 X81.589 Y80.521 E0.01678
G1 X100.548 Y99.479 E0.84215
G1 X100.013 Y99.479 E0.01678
G1 X81.055 Y80.521 E0.84215
G1 X80.521 Y80.521 E0.01678
G1 X99.479 Y99.479 E0.84215
G1 X98.945 Y99.479 E0.01678
G1 X79.987 Y80.521 E0.84215
M73 P7 R39
G1 X79.452 Y80.521 E0.01678
G1 X98.411 Y99.479 E0.84215
G1 X97.877 Y99.479 E0.01678
G1 X78.918 Y80.521 E0.84215
M73 P8 R39
G1 X78.384 Y80.521 E0.01678
G1 X97.342 Y99.479 E0.84215
G1 X96.808 Y99.479 E0.01678
G1 X77.850 Y80.521 E0.84215
G1 X77.315 Y80.521 E0.01678
G1 X96.274 Y99.479 E0.84215
G1 X95.740 Y99.479 E0.01678
G1 X76.781 Y80.521 E0.84215
G1 X76.247 Y80.521 E0.01678
G1 X95.205 Y99.479 E0.84215
G1 X94.671 Y99.479 E0.01678
G1 X75.713 Y80.521 E0.84215
G1 X75.179 Y80.521 E0.01678
G1 X94.137 Y99.479 E0.84215
G1 X93.603 Y99.479 E0.01678
G1 X74.644 Y80.521 E0.84215
G1 X74.110 Y80.521 E0.01678
G1 X93.069 Y99.479 E0.84215
G1 X92.534 Y99.479 E0.01678
G1 X73.576 Y80.521 E0.84215
G1 X73.042 Y80.521 E0.01678
G1 X92.000 Y99.479 E0.84215
G1 X91.466 Y99.479 E0.01678
G1 X72.507 Y80.521 E0.84215
G1 X71.973 Y80.521 E0.01678
G1 X90.932 Y99.479 E0.84215
G1 X90.397 Y99.479 E0.01678
G1 X71.439 Y80.521 E0.84215
G1 X70.905 Y80.521 E0.01678
G1 X89.863 Y99.479 E0.84215
G1 X89.329 Y99.479 E0.01678
G1 X70.371 Y80.521 E0.84215
G1 X69.836 Y80.521 E0.01678
G1 X88.795 Y99.479 E0.84215
G1 X88.261 Y99.479 E0.01678
G1 X69.302 Y80.521 E0.84215
G1 X68.768 Y80.521 E0.01678
G1 X87.726 Y99.479 E0.84215
M73 P9 R39
G1 X87.192 Y99.479 E0.01678
G1 X68.234 Y80.521 E0.84215
G1 X67.699 Y80.521 E0.01678
G1 X86.658 Y99.479 E0.84215
G1 X86.124 Y99.479 E0.01678
G1 X67.165 Y80.521 E0.84215
G1 X66.631 Y80.521 E0.01678
G1 X85.589 Y99.479 E0.84215
G1 X85.055 Y99.479 E0.01678
G1 X66.097 Y80.521 E0.84215
G1 X65.563 Y80.521 E0.01678
G1 X84.521 Y99.479 E0.84215
G1 X83.987 Y99.479 E0.01678
G1 X65.028 Y80.521 E0.84215
G1 X64.494 Y80.521 E0.01678
G1 X83.453 Y99.479 E0.84215
G1 X82.918 Y99.479 E0.01678
G1 X63.960 Y80.521 E0.84215
G1 X63.426 Y80.521 E0.01678
G1 X82.384 Y99.479 E0.84215
G1 X81.850 Y99.479 E0.01678
G1 X62.891 Y80.521 E0.84215
G1 X62.357 Y80.521 E0.01678
G1 X81.316 Y99.479 E0.84215
G1 X80.781 Y99.479 E0.01678
G1 X61.823 Y80.521 E0.84215
G1 X61.289 Y80.521 E0.01678
G1 X80.247 Y99.479 E0.84215
G1 X79.713 Y99.479 E0.01678
G1 X60.755 Y80.521 E0.84215
G1 X60.220 Y80.521 E0.01678
G1 X79.179 Y99.479 E0.84215
G1 X78.645 Y99.479 E0.01678
G1 X59.686 Y80.521 E0.84215
G1 X59.152 Y80.521 E0.01678
G1 X78.110 Y99.479 E0.84215
M73 P10 R39
G1 X77.576 Y99.479 E0.01678
G1 X58.618 Y80.521 E0.84215
G1 X58.083 Y80.521 E0.01678
G1 X77.042 Y99.479 E0.84215
G1 X76.508 Y99.479 E0.01678
G1 X57.549 Y80.521 E0.84215
G1 X57.015 Y80.521 E0.01678
G1 X75.973 Y99.479 E0.84215
M73 P10 R38
G1 X75.439 Y99.479 E0.01678
G1 X56.481 Y80.521 E0.84215
G1 X55.947 Y80.521 E0.01678
G1 X74.905 Y99.479 E0.84215
G1 X74.371 Y99.479 E0.01678
G1 X55.412 Y80.521 E0.84215
G1 X54.878 Y80.521 E0.01678
G1 X73.837 Y99.479 E0.84215
G1 X73.302 Y99.479 E0.01678
G1 X54.344 Y80.521 E0.84215
G1 X53.810 Y80.521 E0.01678
G1 X72.768 Y99.479 E0.84215
G1 X72.234 Y99.479 E0.01678
G1 X53.275 Y80.521 E0.84215
G1 X52.741 Y80.521 E0.01678
G1 X71.700 Y99.479 E0.84215
G1 X71.166 Y99.479 E0.01678
G1 X52.207 Y80.521 E0.84215
G1 X51.673 Y80.521 E0.01678
G1 X70.631 Y99.479 E0.84215
G1 X70.097 Y99.479 E0.01678
G1 X51.139 Y80.521 E0.84215
G1 X50.604 Y80.521 E0.01678
G1 X69.563 Y99.479 E0.84215
G1 X69.029 Y99.479 E0.01678
G1 X50.070 Y80.521 E0.84215
G1 X49.536 Y80.521 E0.01678
G1 X68.494 Y99.479 E0.84215
G1 X67.960 Y99.479 E0.01678
G1 X49.002 Y80.521 E0.84215
M73 P11 R38
G1 X48.468 Y80.521 E0.01678
G1 X67.426 Y99.479 E0.84215
G1 X66.892 Y99.479 E0.01678
G1 X47.933 Y80.521 E0.84215
G1 X47.399 Y80.521 E0.01678
G1 X66.358 Y99.479 E0.84215
G1 X65.823 Y99.479 E0.01678
G1 X46.865 Y80.521 E0.84215
G1 X46.331 Y80.521 E0.01678
G1 X65.289 Y99.479 E0.84215
G1 X64.755 Y99.479 E0.01678
G1 X45.796 Y80.521 E0.84215
G1 X45.262 Y80.521 E0.01678
G1 X64.221 Y99.479 E0.84215
G1 X63.686 Y99.479 E0.01678
G1 X44.728 Y80.521 E0.84215
G1 X44.194 Y80.521 E0.01678
G1 X63.152 Y99.479 E0.84215
G1 X62.618 Y99.479 E0.01678
G1 X43.660 Y80.521 E0.84215
G1 X43.125 Y80.521 E0.01678
G1 X62.084 Y99.479 E0.84215
G1 X61.550 Y99.479 E0.01678
G1 X42.591 Y80.521 E0.84215
G1 X42.057 Y80.521 E0.01678
G1 X61.015 Y99.479 E0.84215
G1 X60.481 Y99.479 E0.01678
G1 X41.523 Y80.521 E0.84215
G1 X40.988 Y80.521 E0.01678
G1 X59.947 Y99.479 E0.84215
G1 X59.413 Y99.479 E0.01678
G1 X40.454 Y80.521 E0.84215
G1 X39.920 Y80.521 E0.01678
G1 X58.878 Y99.479 E0.84215
G1 X58.344 Y99.479 E0.01678
G1 X39.386 Y80.521 E0.84215
G1 X38.852 Y80.521 E0.01678
G1 X57.810 Y99.479 E0.84215
M73 P12 R38
G1 X57.276 Y99.479 E0.01678
G1 X38.317 Y80.521 E0.84215
G1 X37.783 Y80.521 E0.01678
G1 X56.742 Y99.479 E0.84215
G1 X56.207 Y99.479 E0.01678
G1 X37.249 Y80.521 E0.84215
G1 X36.715 Y80.521 E0.01678
G1 X55.673 Y99.479 E0.84215
G1 X55.139 Y99.479 E0.01678
G1 X36.180 Y80.521 E0.84215
G1 X35.646 Y80.521 E0.01678
G1 X54.605 Y99.479 E0.84215
G1 X54.070 Y99.479 E0.01678
G1 X35.112 Y80.521 E0.84215
G1 X34.948 Y80.521 E0.00514
G1 X34.948 Y80.891 E0.01164
G1 X53.536 Y99.479 E0.82568
G1 X53.002 Y99.479 E0.01678
G1 X34.948 Y81.426 E0.80195
G1 X34.948 Y81.960 E0.01678
G1 X52.468 Y99.479 E0.77822
M73 P12 R37
G1 X51.934 Y99.479 E0.01678
G1 X34.948 Y82.494 E0.75449
G1 X34.948 Y83.028 E0.01678
G1 X51.399 Y99.479 E0.73076
G1 X50.865 Y99.479 E0.01678
G1 X34.948 Y83.563 E0.70703
G1 X34.948 Y84.097 E0.01678
G1 X50.331 Y99.479 E0.68330
G1 X49.797 Y99.479 E0.01678
G1 X34.948 Y84.631 E0.65957
G1 X34.948 Y85.165 E0.01678
G1 X49.262 Y99.479 E0.63584
G1 X48.728 Y99.479 E0.01678
G1 X34.948 Y85.699 E0.61211
G1 X34.948 Y86.234 E0.01678
G1 X48.194 Y99.479 E0.58838
G1 X47.660 Y99.479 E0.01678
G1 X34.948 Y86.768 E0.56465
G1 X34.948 Y87.302 E0.01678
G1 X47.126 Y99.479 E0.54092
G1 X46.591 Y99.479 E0.01678
G1 X34.948 Y87.836 E0.51718
M73 P13 R37
G1 X34.948 Y88.371 E0.01678
G1 X46.057 Y99.479 E0.49345
G1 X45.523 Y99.479 E0.01678
G1 X34.948 Y88.905 E0.46972
G1 X34.948 Y89.439 E0.01678
G1 X44.989 Y99.479 E0.44599
G1 X44.454 Y99.479 E0.01678
