; generated by PrusaSlicer 2.3.0+win64 on 2021-05-22 at 11:45:22 UTC


;
;

;
;
; 

; external perimeters extrusion width = 0.45mm
; perimeters extrusion width = 0.45mm
; infill extrusion width = 0.45mm
; solid infill extrusion width = 0.45mm
; top infill extrusion width = 0.40mm
; first layer extrusion width = 0.42mm

M73 P0 R70
M201 X1250 Y1250 Z400 E5000 ; sets maximum accelerations, mm/sec^2
M203 X180 Y180 Z12 E80 ; sets maximum feedrates, mm/sec
M204 P1250 R1250 T1250 ; sets acceleration (P, T) and retract acceleration (R), mm/sec^2
M205 X8.00 Y8.00 Z2.00 E10.00 ; sets the jerk limits, mm/sec
M205 S0 T0 ; sets the minimum extruding and travel feed rate, mm/sec
M107
;TYPE:Custom
G90 ; use absolute coordinates
M83 ; extruder relative mode
M104 S170 ; set extruder temp for bed leveling
M140 S60 ; set bed temp
M109 R170 ; wait for bed leveling temp
M190 S60 ; wait for bed temp
G28 ; home all without mesh bed level
G29 ; mesh bed leveling 
M104 S215 ; set extruder temp
G92 E0.0
G1 Y-2.0 X179 F2400
G1 Z3 F720
M109 S215 ; wait for extruder temp

; intro line
G1 X170 F1000
G1 Z0.2 F720
G1 X110.0 E8.0 F900
G1 X40.0 E10.0 F700
G92 E0.0

M221 S95 ; set flow
G21 ; set units to millimeters
G90 ; use absolute coordinates
M83 ; use relative distances for extrusion
M900 K0.2 ; Filament gcode LA 1.5
; ; Filament gcode LA 1.0
;LAYER_CHANGE
;Z:0.2
;HEIGHT:0.2
;BEFORE_LAYER_CHANGE
G92 E0.0
;0.2


G1 E-3.20000 F4200.000
G1 Z0.200 F9000.000
;AFTER_LAYER_CHANGE
;0.2
G1 Z0.400
G1 X22.153 Y4.368
G1 Z0.200
G1 E3.20000 F2400.000
M204 S800
;TYPE:Skirt
;WIDTH:0.42
G1 F1200.000
G1 X22.513 Y3.692 E0.02402
G1 X22.887 Y3.302 E0.01692
G1 X23.342 Y3.005 E0.01704
G1 X23.853 Y2.819 E0.01704
G1 X24.388 Y2.754 E0.01692
G1 X155.599 Y2.754 E4.11402
G1 X156.501 Y2.934 E0.02884
G1 X157.270 Y3.445 E0.02896
G1 X157.785 Y4.207 E0.02884
G1 X157.972 Y5.107 E0.02884
G1 X157.972 Y174.876 E5.32298
M73 P0 R69
G1 X157.847 Y175.632 E0.02402
G1 X157.487 Y176.308 E0.02402
G1 X157.110 Y176.700 E0.01704
G1 X156.655 Y176.997 E0.01704
G1 X156.144 Y177.182 E0.01704
G1 X155.604 Y177.246 E0.01704
G1 X24.397 Y177.246 E4.11390
G1 X23.641 Y177.120 E0.02402
G1 X22.965 Y176.760 E0.02402
G1 X22.571 Y176.381 E0.01716
G1 X22.275 Y175.925 E0.01704
G1 X22.091 Y175.413 E0.01704
G1 X22.028 Y174.874 E0.01704
G1 X22.028 Y5.124 E5.32238
M73 P1 R69
G1 X22.144 Y4.427 E0.02214
M204 S1250
; printing object johnny_5_still_alive_by_the_ovin_d1fulea-fullview.stl id:0 copy 0
G1 E-2.24000 F4200.000
;WIPE_START
G1 F7200.000
G1 X22.513 Y3.692 E-0.45617
G1 X22.887 Y3.302 E-0.29909
G1 X23.124 Y3.148 E-0.15674
;WIPE_END
G1 E-0.04800 F4200.000
G1 Z0.400 F9000.000
G1 X78.471 Y110.882
G1 Z0.200
G1 E3.20000 F2400.000
M204 S800
;TYPE:External perimeter
;WIDTH:0.310626
G1 F1200.000
G1 X77.615 Y110.864 E0.01904
M204 S1250
M204 S800
;WIDTH:0.44683
G1 X76.596 Y110.844 E0.03425
M204 S1250
M204 S800
;WIDTH:0.584087
G1 X76.198 Y110.834 E0.01790
M204 S1250
G1 E-2.24000 F4200.000
;WIPE_START
G1 F7200.000
G1 X76.596 Y110.844 E-0.22041
;WIPE_END
G1 E-0.73959 F4200.000
G1 Z0.400 F9000.000
G1 X83.314 Y125.113
G1 Z0.200
G1 E3.20000 F2400.000
M204 S800
;WIDTH:0.205205
G1 F1200.000
G1 X83.149 Y124.972 E0.00293
G1 X83.161 Y124.874 E0.00133
G1 X83.209 Y124.769 E0.00157
M204 S1250
G1 E-2.24000 F4200.000
;WIPE_START
G1 F7200.000
G1 X83.161 Y124.874 E-0.06446
G1 X83.149 Y124.972 E-0.05457
G1 X83.314 Y125.113 E-0.12047
;WIPE_END
G1 E-0.72050 F4200.000
G1 Z0.400 F9000.000
G1 X85.995 Y123.816
G1 Z0.200
G1 E3.20000 F2400.000
M204 S800
;WIDTH:0.333983
G1 F1200.000
G1 X86.020 Y123.766 E0.00134
M204 S1250
M204 S800
;WIDTH:0.374088
G1 X86.040 Y123.727 E0.00119
M204 S1250
M204 S800
;WIDTH:0.394705
G1 X86.048 Y123.709 E0.00059
M204 S1250
G1 E-2.24000 F4200.000
;WIPE_START
G1 F7200.000
G1 X86.040 Y123.727 E-0.01109
;WIPE_END
G1 E-0.94891 F4200.000
G1 Z0.400 F9000.000
G1 X91.151 Y129.264
G1 Z0.200
G1 E3.20000 F2400.000
M204 S800
;WIDTH:0.664499
G1 F1200.000
G1 X92.340 Y129.258 E0.06143
M204 S1250
M204 S800
;WIDTH:0.545843
G1 X95.476 Y129.247 E0.13113
M204 S1250
M204 S800
;WIDTH:0.42444
G1 X96.239 Y129.256 E0.02422
M204 S1250
M204 S800
;WIDTH:0.325305
G1 X96.432 Y129.269 E0.00454
M204 S1250
G1 E-2.24000 F4200.000
;WIPE_START
G1 F7200.000
G1 X96.239 Y129.256 E-0.10715
;WIPE_END
G1 E-0.85285 F4200.000
G1 Z0.400 F9000.000
G1 X96.339 Y127.688
G1 Z0.200
G1 E3.20000 F2400.000
M204 S800
;WIDTH:0.505116
G1 F1200.000
G1 X95.474 Y127.663 E0.03324
M204 S1250
M204 S800
;WIDTH:0.623599
G1 X94.841 Y127.669 E0.03059
M204 S1250
G1 E-2.24000 F4200.000
;WIPE_START
G1 F7200.000
G1 X95.474 Y127.663 E-0.35108
;WIPE_END
G1 E-0.60892 F4200.000
G1 Z0.400 F9000.000
G1 X106.803 Y139.866
G1 Z0.200
G1 E3.20000 F2400.000
M204 S800
;WIDTH:0.633235
G1 F1200.000
G1 X106.335 Y140.331 E0.03236
M204 S1250
M204 S800
;WIDTH:0.602346
G1 X106.122 Y140.554 E0.01438
M204 S1250
M204 S800
;WIDTH:0.56059
G1 X105.908 Y140.777 E0.01330
M204 S1250
M204 S800
;WIDTH:0.518834
G1 X105.694 Y141.000 E0.01223
M204 S1250
M204 S800
;WIDTH:0.477079
G1 X105.615 Y141.091 E0.00436
M204 S1250
M204 S800
;WIDTH:0.449387
G1 X105.535 Y141.182 E0.00408
M204 S1250
M204 S800
;WIDTH:0.421695
G1 X105.246 Y141.490 E0.01329
M204 S1250
G1 E-2.24000 F4200.000
;WIPE_START
G1 F7200.000
G1 X105.535 Y141.182 E-0.23380
;WIPE_END
G1 E-0.72620 F4200.000
G1 Z0.400 F9000.000
G1 X95.792 Y142.989
G1 Z0.200
G1 E3.20000 F2400.000
M204 S800
;WIDTH:0.21229
G1 F1200.000
G1 X95.008 Y142.930 E0.01107
G1 X94.422 Y142.927 E0.00825
G1 X94.315 Y142.967 E0.00161
M204 S1250
G1 E-2.24000 F4200.000
;WIPE_START
G1 F7200.000
G1 X94.422 Y142.927 E-0.06332
G1 X95.008 Y142.930 E-0.32479
G1 X95.792 Y142.989 E-0.43570
;WIPE_END
G1 E-0.13619 F4200.000
G1 Z0.400 F9000.000
G1 X94.267 Y144.711
G1 Z0.200
G1 E3.20000 F2400.000
M204 S800
;WIDTH:0.484233
G1 F1200.000
G1 X94.790 Y144.731 E0.01918
M204 S1250
M204 S800
;WIDTH:0.383761
G1 X95.311 Y144.757 E0.01480
M204 S1250
G1 E-2.24000 F4200.000
;WIPE_START
G1 F7200.000
G1 X94.790 Y144.731 E-0.28948
;WIPE_END
G1 E-0.67052 F4200.000
G1 Z0.400 F9000.000
G1 X103.805 Y151.051
G1 Z0.200
G1 E3.20000 F2400.000
M204 S800
;WIDTH:0.42
G1 F1200.000
G1 X104.063 Y150.822 E0.01082
G1 X104.395 Y150.429 E0.01614
G1 X105.188 Y149.390 E0.04098
G1 X105.703 Y148.758 E0.02557
G1 X105.874 Y148.869 E0.00638
G1 X105.703 Y149.203 E0.01175
G1 X105.174 Y150.128 E0.03342
G1 X104.379 Y151.334 E0.04528
G1 X104.070 Y151.855 E0.01900
G1 X103.950 Y152.096 E0.00844
G1 X103.857 Y152.352 E0.00853
G1 X103.822 Y152.580 E0.00724
G1 X103.480 Y152.303 E0.01378
G1 X103.140 Y152.091 E0.01257
G1 X102.235 Y151.430 E0.03512
G1 X101.647 Y151.059 E0.02182
G1 X100.366 Y150.452 E0.04445
G1 X99.927 Y150.270 E0.01489
G1 X99.659 Y150.188 E0.00879
G1 X99.347 Y150.131 E0.00994
G1 X99.117 Y150.136 E0.00723
G1 X98.898 Y150.236 E0.00754
G1 X98.805 Y150.407 E0.00611
G1 X98.831 Y150.616 E0.00662
G1 X99.153 Y150.888 E0.01321
G1 X99.597 Y151.163 E0.01637
G1 X100.638 Y151.743 E0.03735
G1 X101.071 Y152.014 E0.01601
G1 X101.595 Y152.385 E0.02015
G1 X102.137 Y152.851 E0.02242
G1 X102.566 Y153.324 E0.02002
G1 X102.844 Y153.707 E0.01483
G1 X103.014 Y153.984 E0.01021
G1 X103.190 Y154.342 E0.01249
G1 X103.051 Y154.486 E0.00627
G1 X102.776 Y154.695 E0.01082
G1 X102.187 Y155.082 E0.02211
G1 X101.578 Y155.413 E0.02173
G1 X101.294 Y155.520 E0.00951
G1 X101.117 Y155.554 E0.00566
G1 X101.087 Y155.275 E0.00879
G1 X101.038 Y155.117 E0.00520
G1 X100.923 Y154.939 E0.00665
G1 X100.705 Y154.807 E0.00797
G1 X100.456 Y154.778 E0.00786
G1 X100.422 Y154.276 E0.01575
G1 X100.307 Y153.883 E0.01285
G1 X100.160 Y153.593 E0.01020
G1 X100.031 Y153.401 E0.00725
G1 X99.728 Y153.073 E0.01400
G1 X99.544 Y152.924 E0.00744
G1 X99.261 Y152.749 E0.01041
G1 X98.969 Y152.619 E0.01002
G1 X99.020 Y152.432 E0.00608
G1 X99.587 Y152.496 E0.01789
G1 X100.068 Y152.639 E0.01573
G1 X100.981 Y152.648 E0.02864
G1 X100.427 Y152.093 E0.02462
G1 X100.063 Y151.798 E0.01466
G1 X99.627 Y151.507 E0.01646
G1 X99.297 Y151.320 E0.01188
G1 X98.612 Y151.004 E0.02366
G1 X97.693 Y150.712 E0.03023
G1 X97.917 Y150.188 E0.01785
G1 X97.967 Y150.113 E0.00282
G1 X98.153 Y150.088 E0.00589
G1 X98.352 Y150.011 E0.00668
G1 X98.654 Y149.732 E0.01288
G1 X98.999 Y149.544 E0.01234
G1 X99.231 Y149.460 E0.00772
G1 X99.495 Y149.423 E0.00838
G1 X99.689 Y149.350 E0.00649
G1 X99.848 Y149.245 E0.00597
G1 X100.049 Y149.216 E0.00636
G1 X100.184 Y149.156 E0.00463
G1 X100.426 Y148.997 E0.00909
G1 X100.681 Y148.774 E0.01062
G1 X100.837 Y148.584 E0.00770
G1 X100.887 Y148.426 E0.00521
G1 X100.991 Y148.391 E0.00345
G1 X101.120 Y148.392 E0.00404
G1 X101.338 Y148.452 E0.00708
G1 X101.749 Y148.701 E0.01507
G1 X101.944 Y148.791 E0.00674
G1 X102.131 Y148.998 E0.00872
G1 X102.811 Y149.887 E0.03510
G1 X102.912 Y150.049 E0.00600
G1 X102.963 Y150.194 E0.00482
G1 X103.125 Y150.428 E0.00893
G1 X103.484 Y150.823 E0.01675
G1 X103.756 Y151.016 E0.01045
M204 S1250
G1 X104.043 Y151.301 F9000.000
G1 E-2.24000 F4200.000
;WIPE_START
G1 F7200.000
G1 X104.063 Y150.822 E-0.20132
G1 X104.395 Y150.429 E-0.28525
G1 X104.861 Y149.819 E-0.42543
;WIPE_END
G1 E-0.04800 F4200.000
G1 Z0.400 F9000.000
G1 X98.158 Y152.391
G1 Z0.200
G1 E3.20000 F2400.000
M204 S800
G1 F1200.000
G1 X98.177 Y152.589 E0.00621
G1 X98.056 Y152.616 E0.00389
G1 X97.870 Y152.698 E0.00636
G1 X97.686 Y152.829 E0.00708
G1 X97.563 Y152.958 E0.00560
G1 X97.376 Y153.258 E0.01108
G1 X97.269 Y153.614 E0.01165
G1 X97.267 Y153.941 E0.01026
G1 X97.345 Y154.192 E0.00823
G1 X97.493 Y154.484 E0.01028
G1 X97.881 Y155.001 E0.02024
G1 X97.803 Y155.142 E0.00506
G1 X97.067 Y155.014 E0.02343
G1 X96.778 Y154.979 E0.00910
G1 X96.529 Y154.985 E0.00782
G1 X96.400 Y155.162 E0.00687
G1 X96.364 Y155.345 E0.00586
G1 X96.410 Y155.535 E0.00613
G1 X96.483 Y155.677 E0.00502
G1 X96.664 Y155.928 E0.00968
G1 X96.862 Y156.148 E0.00930
G1 X96.748 Y156.297 E0.00588
G1 X96.564 Y156.205 E0.00645
G1 X96.395 Y156.147 E0.00560
G1 X96.196 Y156.120 E0.00632
G1 X96.048 Y156.142 E0.00469
G1 X95.877 Y156.228 E0.00601
G1 X95.717 Y156.397 E0.00730
G1 X95.660 Y156.641 E0.00786
G1 X95.432 Y156.357 E0.01141
G1 X95.117 Y155.852 E0.01865
G1 X94.894 Y155.396 E0.01592
G1 X94.672 Y154.790 E0.02024
G1 X94.611 Y154.544 E0.00796
G1 X94.540 Y153.910 E0.01998
G1 X94.545 Y153.571 E0.01063
G1 X94.575 Y153.366 E0.00651
G1 X94.831 Y153.569 E0.01025
G1 X95.021 Y153.587 E0.00597
G1 X95.224 Y153.530 E0.00663
G1 X95.396 Y153.447 E0.00600
G1 X96.274 Y152.917 E0.03212
G1 X96.846 Y152.618 E0.02027
G1 X97.138 Y152.496 E0.00991
G1 X97.208 Y152.481 E0.00224
G1 X97.356 Y152.514 E0.00474
G1 X97.521 Y152.408 E0.00614
G1 X98.098 Y152.389 E0.01812
M204 S1250
G1 X98.079 Y152.573 F9000.000
G1 E-2.24000 F4200.000
;WIPE_START
G1 F7200.000
G1 X98.177 Y152.589 E-0.11883
G1 X98.056 Y152.616 E-0.06872
G1 X97.870 Y152.698 E-0.11241
G1 X97.686 Y152.829 E-0.12507
G1 X97.563 Y152.958 E-0.09906
G1 X97.376 Y153.258 E-0.19584
G1 X97.277 Y153.590 E-0.19206
;WIPE_END
G1 E-0.04800 F4200.000
G1 Z0.400 F9000.000
G1 X81.855 Y153.286
G1 Z0.200
G1 E3.20000 F2400.000
M204 S800
;WIDTH:0.318558
G1 F1200.000
G1 X81.811 Y153.218 E0.00188
M204 S1250
M204 S800
;WIDTH:0.275866
G1 X81.169 Y152.722 E0.01570
M204 S1250
M204 S800
;WIDTH:0.267292
G1 X81.078 Y152.659 E0.00207
M204 S1250
M204 S800
;WIDTH:0.233743
G1 X80.914 Y152.591 E0.00282
M204 S1250
G1 X79.735 Y151.960 F9000.000
M204 S800
;WIDTH:0.195328
G1 F1200.000
G1 X79.415 Y151.911 E0.00410
M204 S1250
M204 S800
;WIDTH:0.30657
G1 X79.020 Y151.844 E0.00878
M204 S1250
M204 S800
;WIDTH:0.425648
G1 X78.087 Y151.736 E0.02991
M204 S1250
G1 E-2.24000 F4200.000
;WIPE_START
G1 F7200.000
G1 X79.020 Y151.844 E-0.52079
;WIPE_END
G1 E-0.43921 F4200.000
G1 Z0.400 F9000.000
G1 X109.996 Y115.827
G1 Z0.200
G1 E3.20000 F2400.000
M204 S800
;WIDTH:0.225342
G1 F1200.000
G1 X110.121 Y116.776 E0.01453
M204 S1250
G1 X110.124 Y116.770 F9000.000
M204 S800
;WIDTH:0.386524
G1 F1200.000
G1 X110.091 Y116.310 E0.01317
M204 S1250
M204 S800
;WIDTH:0.436065
G1 X110.084 Y116.067 E0.00795
M204 S1250
M204 S800
;WIDTH:0.485607
G1 X110.077 Y115.824 E0.00895
M204 S1250
G1 E-2.24000 F4200.000
;WIPE_START
G1 F7200.000
G1 X110.084 Y116.067 E-0.13477
;WIPE_END
G1 E-0.82523 F4200.000
G1 Z0.400 F9000.000
G1 X121.819 Y100.185
G1 Z0.200
G1 E3.20000 F2400.000
M204 S800
;WIDTH:0.205803
G1 F1200.000
G1 X121.632 Y100.043 E0.00319
G1 X121.520 Y99.888 E0.00259
M204 S1250
G1 X121.908 Y99.643 F9000.000
M204 S800
;WIDTH:0.348566
G1 F1200.000
G1 X122.109 Y99.624 E0.00513
G1 X122.158 Y99.560 E0.00204
M204 S1250
M204 S800
;WIDTH:0.224923
G1 X122.275 Y99.473 E0.00220
M204 S1250
M204 S800
;WIDTH:0.242699
G1 X122.926 Y99.370 E0.01095
M204 S1250
G1 X122.708 Y99.489 F9000.000
M204 S800
;WIDTH:0.46669
G1 F1200.000
G1 X122.634 Y99.455 E0.00288
M204 S1250
G1 X122.830 Y99.082 F9000.000
M204 S800
;WIDTH:0.42
G1 F1200.000
G1 X122.726 Y99.027 E0.00369
G1 X123.189 Y98.884 E0.01520
G1 X123.419 Y99.184 E0.01185
G1 X123.193 Y99.273 E0.00763
G1 X122.883 Y99.110 E0.01097
M204 S1250
G1 X122.813 Y98.965 F9000.000
G1 X123.796 Y99.050
M204 S800
G1 F1200.000
G1 X123.830 Y98.791 E0.00820
G1 X124.000 Y98.679 E0.00638
G1 X124.048 Y98.546 E0.00441
G1 X124.343 Y98.519 E0.00929
G1 X124.559 Y98.523 E0.00678
G1 X124.671 Y98.788 E0.00902
G1 X123.853 Y99.033 E0.02675
M204 S1250
G1 X123.900 Y98.810 F9000.000
G1 X124.765 Y98.737
M204 S800
G1 F1200.000
G1 X125.110 Y98.357 E0.01608
G1 X125.557 Y98.488 E0.01461
G1 X125.532 Y98.680 E0.00609
G1 X124.825 Y98.731 E0.02222
M204 S1250
G1 X125.082 Y98.492 F9000.000
G1 E-2.24000 F4200.000
;WIPE_START
G1 F7200.000
G1 X125.110 Y98.357 E-0.26072
G1 X125.557 Y98.488 E-0.25826
G1 X125.532 Y98.680 E-0.10767
G1 X125.018 Y98.717 E-0.28534
;WIPE_END
G1 E-0.04800 F4200.000
G1 Z0.400 F9000.000
G1 X118.411 Y53.884
G1 Z0.200
G1 E3.20000 F2400.000
M204 S800
;WIDTH:0.232008
G1 F1200.000
G1 X118.288 Y53.895 E0.00195
G1 X118.032 Y53.963 E0.00416
M204 S1250
M204 S800
;WIDTH:0.204002
G1 X117.927 Y53.998 E0.00148
M204 S1250
G1 E-2.24000 F4200.000
;WIPE_START
G1 F7200.000
G1 X118.032 Y53.963 E-0.06108
;WIPE_END
G1 E-0.89892 F4200.000
G1 Z0.400 F9000.000
G1 X117.333 Y51.089
G1 Z0.200
G1 E3.20000 F2400.000
M204 S800
;WIDTH:0.227033
G1 F1200.000
G1 X117.605 Y50.825 E0.00580
G1 X117.807 Y50.569 E0.00499
M204 S1250
M204 S800
;WIDTH:0.330397
G1 X117.900 Y50.457 E0.00349
G1 X117.895 Y50.408 E0.00117
M204 S1250
G1 E-2.24000 F4200.000
;WIPE_START
G1 F7200.000
G1 X117.900 Y50.457 E-0.02721
G1 X117.807 Y50.569 E-0.08086
;WIPE_END
G1 E-0.85193 F4200.000
G1 Z0.400 F9000.000
G1 X119.612 Y50.142
G1 Z0.200
G1 E3.20000 F2400.000
M204 S800
;WIDTH:0.187255
G1 F1200.000
G1 X119.903 Y50.031 E0.00374
M204 S1250
G1 E-2.24000 F4200.000
;WIPE_START
G1 F7200.000
G1 X119.612 Y50.142 E-0.17259
;WIPE_END
G1 E-0.78741 F4200.000
G1 Z0.400 F9000.000
G1 X84.200 Y36.016
G1 Z0.200
G1 E3.20000 F2400.000
M204 S800
;WIDTH:0.2188
G1 F1200.000
G1 X84.135 Y35.927 E0.00160
M204 S1250
M204 S800
;WIDTH:0.206516
G1 X84.116 Y35.906 E0.00039
M204 S1250
M204 S800
;WIDTH:0.195121
G1 X83.905 Y35.677 E0.00394
G1 X83.923 Y35.451 E0.00287
M204 S1250
G1 E-2.24000 F4200.000
;WIPE_START
G1 F7200.000
G1 X83.905 Y35.677 E-0.12546
G1 X84.116 Y35.906 E-0.17259
;WIPE_END
G1 E-0.66194 F4200.000
G1 Z0.400 F9000.000
G1 X72.239 Y18.886
G1 Z0.200
G1 E3.20000 F2400.000
M204 S800
;WIDTH:0.213638
G1 F1200.000
G1 X72.248 Y18.707 E0.00254
M204 S1250
M204 S800
;WIDTH:0.255684
G1 X72.275 Y18.593 E0.00206
M204 S1250
M204 S800
;WIDTH:0.26747
G1 X72.284 Y18.567 E0.00051
M204 S1250
M204 S800
;WIDTH:0.307847
G1 X72.328 Y18.479 E0.00218
M204 S1250
M204 S800
;WIDTH:0.329494
G1 X72.412 Y18.347 E0.00371
M204 S1250
G1 E-2.24000 F4200.000
;WIPE_START
G1 F7200.000
G1 X72.328 Y18.479 E-0.08634
;WIPE_END
G1 E-0.87366 F4200.000
G1 Z0.400 F9000.000
G1 X55.217 Y63.404
G1 Z0.200
G1 E3.20000 F2400.000
M204 S800
;WIDTH:0.284293
G1 F1200.000
G1 X55.233 Y63.907 E0.01011
M204 S1250
G1 E-2.24000 F4200.000
;WIPE_START
G1 F7200.000
G1 X55.217 Y63.404 E-0.27904
;WIPE_END
G1 E-0.68096 F4200.000
G1 Z0.400 F9000.000
G1 X89.262 Y108.177
G1 Z0.200
G1 E3.20000 F2400.000
M204 S800
;TYPE:Perimeter
;WIDTH:0.42
G1 F1200.000
G1 X89.591 Y108.141 E0.01038
G1 X90.636 Y108.097 E0.03281
G1 X94.110 Y108.040 E0.10894
