; generated by PrusaSlicer 2.3.0+win64 on 2021-08-03 at 09:00:25 UTC


;
;

;
;
; 

; external perimeters extrusion width = 0.45mm
; perimeters extrusion width = 0.45mm
; infill extrusion width = 0.45mm
; solid infill extrusion width = 0.45mm
; top infill extrusion width = 0.40mm
; first layer extrusion width = 0.42mm

M73 P0 R15
M201 X1250 Y1250 Z400 E5000 ; sets maximum accelerations, mm/sec^2
M203 X180 Y180 Z12 E80 ; sets maximum feedrates, mm/sec
M204 P1250 R1250 T1250 ; sets acceleration (P, T) and retract acceleration (R), mm/sec^2
M205 X8.00 Y8.00 Z2.00 E10.00 ; sets the jerk limits, mm/sec
M205 S0 T0 ; sets the minimum extruding and travel feed rate, mm/sec
M107
;TYPE:Custom
G90 ; use absolute coordinates
M83 ; extruder relative mode
M104 S170 ; set extruder temp for bed leveling
M140 S60 ; set bed temp
M109 R170 ; wait for bed leveling temp
M190 S60 ; wait for bed temp
G28 ; home all without mesh bed level
G29 ; mesh bed leveling 
M104 S215 ; set extruder temp
G92 E0.0
G1 Y-2.0 X179 F2400
G1 Z3 F720
M109 S215 ; wait for extruder temp

; intro line
G1 X170 F1000
G1 Z0.2 F720
G1 X110.0 E8.0 F900
M73 P1 R15
G1 X40.0 E10.0 F700
G92 E0.0

M221 S95 ; set flow
G21 ; set units to millimeters
G90 ; use absolute coordinates
M83 ; use relative distances for extrusion
M900 K0.2 ; Filament gcode LA 1.5
; ; Filament gcode LA 1.0
;LAYER_CHANGE
;Z:0.2
;HEIGHT:0.2
;BEFORE_LAYER_CHANGE
G92 E0.0
;0.2


G1 E-3.20000 F4200.000
G1 Z0.200 F9000.000
;AFTER_LAYER_CHANGE
;0.2
G1 Z0.400
G1 X69.584 Y60.336
G1 Z0.200
G1 E3.20000 F2400.000
M204 S800
;TYPE:Skirt
;WIDTH:0.42
G1 F1200.000
G1 X70.781 Y59.495 E0.04586
G1 X71.503 Y59.164 E0.02491
G1 X72.265 Y58.929 E0.02500
G1 X73.716 Y58.757 E0.04581
G1 X74.787 Y58.853 E0.03372
G1 X75.704 Y59.089 E0.02971
G1 X76.690 Y59.525 E0.03379
G1 X77.593 Y60.133 E0.03415
G1 X109.796 Y86.616 E1.30725
M73 P2 R15
G1 X110.749 Y87.564 E0.04217
G1 X111.422 Y88.511 E0.03642
G1 X111.836 Y89.308 E0.02816
G1 X112.192 Y90.297 E0.03295
G1 X112.381 Y91.164 E0.02782
G1 X112.464 Y92.024 E0.02709
G1 X112.469 Y118.873 E0.84185
G1 X112.390 Y119.476 E0.01906
G1 X112.160 Y120.038 E0.01906
G1 X111.798 Y120.522 E0.01894
G1 X111.322 Y120.900 E0.01906
G1 X110.762 Y121.146 E0.01917
G1 X110.158 Y121.242 E0.01917
G1 X99.189 Y121.239 E0.34391
G1 X98.621 Y121.136 E0.01811
G1 X98.098 Y120.900 E0.01799
G1 X97.646 Y120.547 E0.01799
G1 X97.292 Y120.095 E0.01799
G1 X68.271 Y67.867 E1.87341
M73 P2 R14
G1 X67.920 Y67.092 E0.02667
G1 X67.577 Y65.693 E0.04515
G1 X67.570 Y64.239 E0.04561
G1 X67.713 Y63.443 E0.02535
G1 X67.953 Y62.689 E0.02483
G1 X68.639 Y61.404 E0.04566
G1 X69.544 Y60.381 E0.04283
M204 S1250
; printing object LeftBoardCradle_02.stl id:0 copy 0
G1 E-2.24000 F4200.000
;WIPE_START
G1 F7200.000
G1 X70.781 Y59.495 E-0.84298
G1 X70.894 Y59.443 E-0.06902
;WIPE_END
G1 E-0.04800 F4200.000
G1 Z0.400 F9000.000
G1 X71.142 Y66.018
G1 Z0.200
G1 E3.20000 F2400.000
M204 S800
;TYPE:Perimeter
G1 F1200.000
G1 X71.342 Y66.409 E0.01378
G1 X71.153 Y66.516 E0.00680
G1 X71.047 Y66.346 E0.00627
G1 X70.943 Y66.113 E0.00801
G1 X71.088 Y66.043 E0.00503
M204 S1250
G1 X71.080 Y66.022 F9000.000
M204 S800
G1 F1200.000
G1 X70.928 Y66.078 E0.00509
G1 X70.879 Y65.968 E0.00377
G1 X70.764 Y65.571 E0.01296
G1 X70.747 Y65.455 E0.00368
G1 X70.953 Y65.411 E0.00662
G1 X71.123 Y65.995 E0.01908
M204 S1250
G1 X70.961 Y65.392 F9000.000
M204 S800
G1 F1200.000
G1 X70.742 Y65.419 E0.00692
G1 X70.704 Y65.163 E0.00811
G1 X70.703 Y64.965 E0.00619
G1 X70.919 Y64.954 E0.00679
G1 X70.955 Y65.333 E0.01191
M204 S1250
G1 X70.918 Y64.933 F9000.000
M204 S800
G1 F1200.000
G1 X70.703 Y64.924 E0.00674
G1 X70.702 Y64.749 E0.00548
G1 X70.739 Y64.466 E0.00897
G1 X70.959 Y64.491 E0.00697
G1 X70.923 Y64.874 E0.01206
M204 S1250
G1 X70.989 Y64.334 F9000.000
M204 S800
G1 F1200.000
G1 X70.773 Y64.273 E0.00704
G1 X70.864 Y63.941 E0.01081
G1 X70.920 Y63.810 E0.00446
G1 X71.121 Y63.882 E0.00667
G1 X71.006 Y64.277 E0.01289
M204 S1250
G1 X71.134 Y63.866 F9000.000
M204 S800
G1 F1200.000
G1 X70.936 Y63.773 E0.00686
G1 X71.027 Y63.561 E0.00725
G1 X71.143 Y63.370 E0.00700
G1 X71.333 Y63.476 E0.00685
G1 X71.162 Y63.813 E0.01186
M204 S1250
G1 X71.339 Y63.456 F9000.000
M204 S800
G1 F1200.000
G1 X71.163 Y63.335 E0.00669
G1 X71.241 Y63.207 E0.00469
G1 X71.446 Y62.953 E0.01024
G1 X71.621 Y63.092 E0.00702
G1 X71.376 Y63.408 E0.01254
M204 S1250
G1 X71.736 Y62.970 F9000.000
M204 S800
G1 F1200.000
G1 X71.586 Y62.805 E0.00698
G1 X71.802 Y62.603 E0.00928
G1 X71.938 Y62.506 E0.00525
G1 X72.071 Y62.674 E0.00673
G1 X71.781 Y62.930 E0.01215
M204 S1250
G1 X72.090 Y62.664 F9000.000
M204 S800
G1 F1200.000
G1 X71.972 Y62.482 E0.00681
G1 X72.139 Y62.364 E0.00642
G1 X72.361 Y62.248 E0.00786
G1 X72.468 Y62.441 E0.00690
G1 X72.141 Y62.634 E0.01189
M204 S1250
G1 X72.480 Y62.424 F9000.000
M204 S800
G1 F1200.000
G1 X72.395 Y62.231 E0.00664
G1 X72.506 Y62.173 E0.00390
G1 X72.984 Y62.003 E0.01592
G1 X73.060 Y62.216 E0.00708
G1 X72.536 Y62.404 E0.01745
M204 S1250
G1 X72.681 Y62.753 F9000.000
M204 S800
;TYPE:External perimeter
G1 F1200.000
G1 X73.105 Y62.600 E0.01412
G1 X73.405 Y62.543 E0.00959
G1 X73.698 Y62.524 E0.00919
G1 X74.159 Y62.566 E0.01452
G1 X74.595 Y62.693 E0.01424
G1 X74.999 Y62.899 E0.01423
G1 X75.358 Y63.177 E0.01423
G1 X75.658 Y63.517 E0.01423
G1 X75.887 Y63.905 E0.01412
G1 X76.000 Y64.189 E0.00959
G1 X76.073 Y64.473 E0.00919
G1 X76.118 Y64.934 E0.01452
G1 X76.076 Y65.386 E0.01424
G1 X75.949 Y65.822 E0.01423
G1 X75.743 Y66.226 E0.01423
G1 X75.465 Y66.585 E0.01423
G1 X75.127 Y66.883 E0.01412
M73 P3 R14
G1 X74.869 Y67.047 E0.00959
G1 X74.604 Y67.172 E0.00919
G1 X74.159 Y67.303 E0.01452
G1 X73.707 Y67.345 E0.01424
G1 X73.256 Y67.303 E0.01423
G1 X72.820 Y67.176 E0.01423
G1 X72.418 Y66.972 E0.01412
G1 X72.171 Y66.792 E0.00959
G1 X71.957 Y66.592 E0.00919
G1 X71.672 Y66.227 E0.01452
G1 X71.466 Y65.822 E0.01424
G1 X71.339 Y65.386 E0.01423
G1 X71.296 Y64.934 E0.01423
G1 X71.339 Y64.483 E0.01423
G1 X71.466 Y64.047 E0.01423
G1 X71.672 Y63.643 E0.01423
G1 X71.950 Y63.284 E0.01423
G1 X72.290 Y62.984 E0.01423
G1 X72.629 Y62.783 E0.01235
M204 S1250
G1 X72.714 Y62.354 F9000.000
G1 X73.387 Y62.166
M204 S800
;TYPE:Perimeter
G1 F1200.000
G1 X73.370 Y61.944 E0.00700
G1 X73.839 Y61.925 E0.01473
G1 X74.181 Y61.965 E0.01080
G1 X74.158 Y62.187 E0.00701
G1 X73.702 Y62.146 E0.01435
G1 X73.447 Y62.162 E0.00803
M204 S1250
G1 X74.204 Y62.186 F9000.000
M204 S800
G1 F1200.000
G1 X74.260 Y61.973 E0.00691
G1 X74.529 Y62.036 E0.00866
G1 X74.842 Y62.141 E0.01036
G1 X75.358 Y62.409 E0.01823
G1 X75.254 Y62.605 E0.00697
G1 X74.734 Y62.341 E0.01829
G1 X74.261 Y62.203 E0.01544
M204 S1250
G1 E-2.24000 F4200.000
;WIPE_START
G1 F7200.000
G1 X74.260 Y61.973 E-0.12742
G1 X74.529 Y62.036 E-0.15314
G1 X74.842 Y62.141 E-0.18317
G1 X75.358 Y62.409 E-0.32222
G1 X75.254 Y62.605 E-0.12327
G1 X75.250 Y62.603 E-0.00277
;WIPE_END
G1 E-0.04800 F4200.000
G1 Z0.400 F9000.000
G1 X90.701 Y83.741
G1 Z0.200
G1 E3.20000 F2400.000
M204 S800
G1 F1200.000
G1 X91.015 Y83.558 E0.01139
G1 X91.472 Y83.398 E0.01520
G1 X91.941 Y83.344 E0.01480
G1 X92.304 Y83.369 E0.01139
G1 X92.772 Y83.495 E0.01520
G1 X93.190 Y83.715 E0.01480
G1 X93.475 Y83.940 E0.01139
G1 X93.784 Y84.299 E0.01487
G1 X93.960 Y84.604 E0.01104
G1 X94.120 Y85.061 E0.01518
G1 X94.176 Y85.553 E0.01552
G1 X94.120 Y86.045 E0.01552
G1 X93.960 Y86.502 E0.01518
G1 X93.784 Y86.807 E0.01104
G1 X93.469 Y87.174 E0.01518
G1 X93.079 Y87.461 E0.01518
G1 X92.772 Y87.609 E0.01070
G1 X92.446 Y87.710 E0.01070
G1 X91.965 Y87.764 E0.01518
G1 X91.473 Y87.709 E0.01552
G1 X91.016 Y87.549 E0.01518
G1 X90.711 Y87.373 E0.01104
G1 X90.352 Y87.064 E0.01483
G1 X90.133 Y86.789 E0.01104
G1 X89.907 Y86.361 E0.01518
G1 X89.781 Y85.893 E0.01518
G1 X89.756 Y85.553 E0.01070
G1 X89.781 Y85.213 E0.01070
G1 X89.906 Y84.746 E0.01515
G1 X90.126 Y84.328 E0.01480
G1 X90.351 Y84.043 E0.01137
G1 X90.655 Y83.780 E0.01262
M204 S1250
G1 X90.902 Y84.066 F9000.000
M204 S800
;TYPE:External perimeter
G1 F1200.000
G1 X91.173 Y83.902 E0.00994
G1 X91.557 Y83.768 E0.01274
G1 X91.950 Y83.723 E0.01239
G1 X92.241 Y83.743 E0.00916
G1 X92.634 Y83.848 E0.01274
G1 X92.983 Y84.032 E0.01239
G1 X93.213 Y84.213 E0.00916
G1 X93.475 Y84.518 E0.01263
G1 X93.616 Y84.762 E0.00883
G1 X93.750 Y85.146 E0.01273
G1 X93.796 Y85.553 E0.01286
G1 X93.750 Y85.961 E0.01286
G1 X93.616 Y86.344 E0.01273
G1 X93.475 Y86.588 E0.00883
G1 X93.210 Y86.896 E0.01273
G1 X92.884 Y87.137 E0.01273
G1 X92.634 Y87.257 E0.00870
G1 X92.368 Y87.339 E0.00870
G1 X91.965 Y87.385 E0.01273
G1 X91.557 Y87.339 E0.01286
G1 X91.174 Y87.205 E0.01273
G1 X90.930 Y87.064 E0.00883
G1 X90.625 Y86.801 E0.01261
G1 X90.450 Y86.581 E0.00883
G1 X90.260 Y86.222 E0.01273
G1 X90.155 Y85.830 E0.01273
G1 X90.134 Y85.553 E0.00870
G1 X90.155 Y85.276 E0.00870
G1 X90.260 Y84.884 E0.01273
G1 X90.444 Y84.534 E0.01239
G1 X90.625 Y84.305 E0.00915
G1 X90.857 Y84.105 E0.00961
M204 S1250
G1 X90.869 Y83.750 F9000.000
G1 E-2.24000 F4200.000
;WIPE_START
G1 F7200.000
G1 X91.173 Y83.902 E-0.20847
G1 X91.557 Y83.768 E-0.22522
G1 X91.950 Y83.723 E-0.21900
G1 X92.241 Y83.743 E-0.16193
G1 X92.411 Y83.788 E-0.09738
;WIPE_END
G1 E-0.04800 F4200.000
G1 Z0.400 F9000.000
G1 X71.174 Y66.550
G1 Z0.200
G1 E3.20000 F2400.000
M204 S800
;TYPE:Perimeter
G1 F1200.000
G1 X71.350 Y66.428 E0.00673
G1 X71.678 Y66.847 E0.01669
G1 X71.930 Y67.083 E0.01084
G1 X72.221 Y67.294 E0.01126
G1 X72.680 Y67.528 E0.01617
G1 X73.185 Y67.675 E0.01646
G1 X73.707 Y67.724 E0.01646
G1 X74.231 Y67.675 E0.01650
G1 X74.738 Y67.525 E0.01658
G1 X75.051 Y67.378 E0.01084
G1 X75.354 Y67.185 E0.01126
G1 X75.741 Y66.844 E0.01617
G1 X76.063 Y66.429 E0.01646
G1 X76.301 Y65.961 E0.01646
G1 X76.448 Y65.457 E0.01646
G1 X76.497 Y64.933 E0.01650
G1 X76.446 Y64.407 E0.01658
G1 X76.359 Y64.072 E0.01084
G1 X76.227 Y63.739 E0.01126
G1 X75.964 Y63.295 E0.01617
G1 X75.617 Y62.901 E0.01646
G1 X75.263 Y62.626 E0.01405
G1 X75.395 Y62.448 E0.00695
G1 X75.638 Y62.622 E0.00936
G1 X107.758 Y89.037 E1.30391
G1 X108.009 Y89.260 E0.01055
G1 X108.440 Y89.742 E0.02025
G1 X108.623 Y90.001 E0.00996
G1 X108.868 Y90.432 E0.01555
G1 X109.106 Y91.021 E0.01990
G1 X109.228 Y91.501 E0.01555
G1 X109.302 Y92.137 E0.02008
G1 X109.305 Y118.078 E0.81337
G1 X100.051 Y118.078 E0.29016
G1 X98.179 Y95.525 E0.70957
M73 P4 R14
G1 X98.124 Y95.080 E0.01408
G1 X98.031 Y94.626 E0.01451
G1 X97.902 Y94.182 E0.01451
G1 X97.738 Y93.749 E0.01451
G1 X97.537 Y93.326 E0.01470
G1 X97.185 Y92.741 E0.02139
G1 X96.904 Y92.366 E0.01470
G1 X96.598 Y92.019 E0.01451
G1 X96.265 Y91.698 E0.01451
G1 X95.903 Y91.400 E0.01470
G1 X95.335 Y91.021 E0.02139
G1 X94.921 Y90.801 E0.01471
G1 X94.477 Y90.611 E0.01514
G1 X93.841 Y90.409 E0.02093
G1 X89.003 Y89.382 E0.15506
G1 X88.512 Y89.248 E0.01597
G1 X88.057 Y89.065 E0.01537
G1 X87.627 Y88.830 E0.01537
G1 X87.227 Y88.547 E0.01537
G1 X86.858 Y88.216 E0.01555
G1 X86.641 Y87.979 E0.01007
G1 X86.431 Y87.711 E0.01067
G1 X71.206 Y66.601 E0.81608
M204 S1250
G1 E-2.24000 F4200.000
;WIPE_START
G1 F7200.000
G1 X71.350 Y66.428 E-0.12512
G1 X71.678 Y66.847 E-0.29492
G1 X71.930 Y67.083 E-0.19162
G1 X72.221 Y67.294 E-0.19894
G1 X72.384 Y67.377 E-0.10140
;WIPE_END
G1 E-0.04800 F4200.000
G1 Z0.400 F9000.000
G1 X109.682 Y118.456
G1 Z0.200
G1 E3.20000 F2400.000
M204 S800
;TYPE:External perimeter
G1 F1200.000
G1 X99.704 Y118.456 E0.31286
G1 X97.804 Y95.564 E0.72021
G1 X97.752 Y95.141 E0.01337
G1 X97.665 Y94.717 E0.01356
G1 X97.544 Y94.302 E0.01356
G1 X97.391 Y93.897 E0.01356
G1 X97.204 Y93.504 E0.01363
G1 X96.872 Y92.952 E0.02021
G1 X96.611 Y92.604 E0.01363
G1 X96.325 Y92.280 E0.01356
G1 X96.014 Y91.979 E0.01356
G1 X95.678 Y91.703 E0.01363
G1 X95.142 Y91.346 E0.02021
G1 X94.758 Y91.142 E0.01364
G1 X94.345 Y90.964 E0.01407
G1 X93.744 Y90.774 E0.01976
G1 X88.914 Y89.749 E0.15482
G1 X88.391 Y89.606 E0.01700
G1 X87.896 Y89.407 E0.01674
G1 X87.427 Y89.151 E0.01675
G1 X86.991 Y88.843 E0.01675
G1 X86.592 Y88.484 E0.01681
G1 X86.353 Y88.223 E0.01110
G1 X86.130 Y87.938 E0.01136
G1 X70.964 Y66.926 E0.81249
G1 X70.713 Y66.523 E0.01488
G1 X70.524 Y66.098 E0.01458
G1 X70.395 Y65.651 E0.01458
G1 X70.328 Y65.191 E0.01458
G1 X70.324 Y64.726 E0.01458
G1 X70.385 Y64.265 E0.01458
G1 X70.508 Y63.816 E0.01458
G1 X70.691 Y63.389 E0.01458
G1 X70.931 Y62.990 E0.01458
G1 X71.223 Y62.628 E0.01458
G1 X71.562 Y62.310 E0.01458
G1 X71.942 Y62.041 E0.01458
G1 X72.355 Y61.827 E0.01458
G1 X72.793 Y61.671 E0.01458
G1 X73.251 Y61.576 E0.01466
G1 X73.557 Y61.548 E0.00965
G1 X73.861 Y61.548 E0.00953
G1 X74.332 Y61.603 E0.01486
G1 X74.632 Y61.673 E0.00965
G1 X74.926 Y61.771 E0.00973
G1 X75.210 Y61.896 E0.00973
G1 X75.480 Y62.045 E0.00965
G1 X75.868 Y62.322 E0.01496
G1 X108.003 Y88.750 E1.30454
M73 P5 R14
G1 X108.271 Y88.988 E0.01123
G1 X108.515 Y89.241 E0.01104
G1 X108.740 Y89.513 E0.01104
G1 X108.941 Y89.799 E0.01098
G1 X109.205 Y90.261 E0.01668
G1 X109.348 Y90.581 E0.01098
G1 X109.467 Y90.910 E0.01098
G1 X109.598 Y91.426 E0.01668
G1 X109.652 Y91.772 E0.01098
G1 X109.679 Y92.123 E0.01104
G1 X109.682 Y118.396 E0.82376
M204 S1250
G1 X109.336 Y118.256 F9000.000
G1 E-2.24000 F4200.000
;WIPE_START
G1 F7200.000
G1 X108.036 Y118.405 E-0.91200
;WIPE_END
G1 E-0.04800 F4200.000
G1 Z0.400 F9000.000
G1 X106.479 Y88.131
G1 Z0.200
G1 E3.20000 F2400.000
M204 S800
;TYPE:Solid infill
;WIDTH:0.42208
G1 F1200.000
G1 X108.019 Y89.677 E0.06879
G1 X108.386 Y90.158 E0.01907
G1 X108.613 Y90.556 E0.01443
G1 X108.780 Y90.968 E0.01402
G1 X104.697 Y86.886 E0.18202
G1 X101.678 Y84.403 E0.12324
G1 X108.965 Y91.690 E0.32491
G1 X109.019 Y92.280 E0.01867
G1 X98.659 Y81.920 E0.46191
G1 X95.640 Y79.437 E0.12324
G1 X109.019 Y92.816 E0.59652
G1 X109.019 Y93.352 E0.01691
G1 X92.621 Y76.954 E0.73114
G1 X89.602 Y74.471 E0.12324
G1 X109.019 Y93.888 E0.86575
G1 X109.019 Y94.425 E0.01691
G1 X86.582 Y71.988 E1.00037
M73 P6 R14
G1 X83.563 Y69.505 E0.12324
G1 X109.019 Y94.961 E1.13498
G1 X109.019 Y95.497 E0.01691
G1 X80.544 Y67.022 E1.26960
G1 X77.525 Y64.539 E0.12324
G1 X109.019 Y96.034 E1.40421
G1 X109.019 Y96.570 E0.01691
G1 X76.828 Y64.378 E1.43530
M73 P7 R14
G1 X76.734 Y64.453 E0.00377
G1 X76.774 Y64.861 E0.01294
G1 X109.019 Y97.106 E1.43769
G1 X109.019 Y97.642 E0.01691
G1 X76.741 Y65.364 E1.43920
G1 X76.727 Y65.510 E0.00465
G1 X76.642 Y65.801 E0.00955
G1 X109.020 Y98.179 E1.44359
G1 X109.020 Y98.715 E0.01691
G1 X76.500 Y66.195 E1.44995
M73 P8 R14
G1 X76.319 Y66.550 E0.01257
G1 X109.020 Y99.251 E1.45802
G1 X109.020 Y99.788 E0.01691
G1 X94.419 Y85.187 E0.65100
G1 X94.460 Y85.553 E0.01162
G1 X94.439 Y85.743 E0.00602
G1 X109.020 Y100.324 E0.65011
G1 X109.020 Y100.860 E0.01691
G1 X94.364 Y86.204 E0.65345
G1 X94.225 Y86.602 E0.01327
G1 X109.020 Y101.396 E0.65965
G1 X109.020 Y101.933 E0.01691
G1 X94.032 Y86.944 E0.66828
M73 P9 R14
G1 X93.788 Y87.237 E0.01200
G1 X109.020 Y102.469 E0.67916
G1 X109.020 Y103.005 E0.01691
G1 X93.510 Y87.495 E0.69155
M73 P9 R13
G1 X93.197 Y87.718 E0.01212
G1 X109.020 Y103.542 E0.70550
G1 X109.020 Y104.078 E0.01691
G1 X92.830 Y87.887 E0.72188
G1 X92.504 Y87.988 E0.01076
G1 X92.405 Y87.999 E0.00312
G1 X94.884 Y90.478 E0.11052
G1 X94.576 Y90.345 E0.01057
G1 X94.048 Y90.178 E0.01747
G1 X91.720 Y87.850 E0.10376
M204 S1250
G1 E-2.24000 F4200.000
;WIPE_START
G1 F7200.000
G1 X92.884 Y89.014 E-0.91200
;WIPE_END
G1 E-0.04800 F4200.000
G1 Z0.400 F9000.000
G1 X92.551 Y83.318
G1 Z0.200
G1 E3.20000 F2400.000
M204 S800
G1 F1200.000
G1 X76.089 Y66.857 E0.73396
G1 X75.948 Y67.039 E0.00725
G1 X75.835 Y67.139 E0.00477
G1 X91.774 Y83.078 E0.71070
G1 X91.408 Y83.120 E0.01161
G1 X91.314 Y83.154 E0.00317
G1 X75.550 Y67.390 E0.70285
M73 P10 R13
G1 X75.225 Y67.602 E0.01221
G1 X90.916 Y83.293 E0.69960
G1 X90.575 Y83.487 E0.01240
G1 X74.865 Y67.778 E0.70041
G1 X74.455 Y67.904 E0.01354
G1 X90.281 Y83.730 E0.70564
G1 X90.146 Y83.847 E0.00565
G1 X90.021 Y84.006 E0.00637
G1 X73.996 Y67.981 E0.71448
G1 X73.707 Y68.008 E0.00914
G1 X73.464 Y67.985 E0.00770
G1 X89.807 Y84.328 E0.72866
G1 X89.629 Y84.687 E0.01262
G1 X72.947 Y68.005 E0.74379
G1 X72.728 Y68.242 E0.01019
G1 X72.934 Y68.527 E0.01109
G1 X89.516 Y85.110 E0.73936
G1 X89.476 Y85.606 E0.01570
G1 X74.325 Y70.454 E0.67556
M73 P11 R13
G1 X75.716 Y72.382 E0.07494
