; generated by PrusaSlicer 2.2.0+win64 on 2020-09-25 at 13:06:31 UTC


;
;

;
;
; 

; external perimeters extrusion width = 0.45mm
; perimeters extrusion width = 0.45mm
; infill extrusion width = 0.45mm
; solid infill extrusion width = 0.45mm
; top infill extrusion width = 0.40mm
; first layer extrusion width = 0.42mm

M73 P0 R138
M201 X1250 Y1250 Z400 E5000 ; sets maximum accelerations, mm/sec^2
M203 X180 Y180 Z12 E80 ; sets maximum feedrates, mm/sec
M204 P1250 R1250 T1250 ; sets acceleration (P, T) and retract acceleration (R), mm/sec^2
M205 X8.00 Y8.00 Z2.00 E10.00 ; sets the jerk limits, mm/sec
M205 S0 T0 ; sets the minimum extruding and travel feed rate, mm/sec
M107
G90 ; use absolute coordinates
M83 ; extruder relative mode
M104 S170 ; set extruder temp for bed leveling
M140 S60 ; set bed temp
M109 R170 ; wait for bed leveling temp
M190 S60 ; wait for bed temp
G28 ; home all without mesh bed level
G29 ; mesh bed leveling 
M104 S215 ; set extruder temp
G92 E0.0
G1 Y-2.0 X179 F2400
G1 Z3 F720
M109 S215 ; wait for extruder temp

; intro line
G1 X170 F1000
G1 Z0.2 F720
G1 X110.0 E8.0 F900
M73 P0 R138
G1 X40.0 E10.0 F700
G92 E0.0

M221 S95 ; set flow
G21 ; set units to millimeters
G90 ; use absolute coordinates
M83 ; use relative distances for extrusion
M900 K0.2 ; Filament gcode LA 1.5
; ; Filament gcode LA 1.0
;BEFORE_LAYER_CHANGE
G92 E0.0
;0.35


G1 Z0.350 F7800.000
;AFTER_LAYER_CHANGE
;0.35
G1 E-3.20000 F4200.00000
G1 Z0.550 F7800.000
G1 X23.900 Y21.794
G1 Z0.350
G1 E3.20000 F2400.00000
G1 F1800.000
G1 X25.269 Y20.292 E0.10197
G1 X27.166 Y18.397 E0.13456
G1 X28.716 Y16.986 E0.10523
G1 X30.760 Y15.291 E0.13326
G1 X32.462 Y14.008 E0.10695
G1 X34.648 Y12.516 E0.13283
G1 X38.253 Y10.391 E0.20999
G1 X40.624 Y9.198 E0.13322
G1 X42.532 Y8.347 E0.10485
G1 X45.036 Y7.366 E0.13497
G1 X47.020 Y6.694 E0.10508
G1 X49.032 Y6.103 E0.10526
G1 X51.636 Y5.468 E0.13453
G1 X53.696 Y5.066 E0.10534
G1 X56.322 Y4.678 E0.13318
G1 X59.118 Y4.417 E0.14095
G1 X62.476 Y4.305 E0.16864
G1 X162.506 Y4.305 E5.02009
G1 X163.565 Y4.395 E0.05334
G1 X164.594 Y4.661 E0.05334
G1 X165.565 Y5.094 E0.05334
G1 X166.449 Y5.684 E0.05334
G1 X167.223 Y6.413 E0.05334
G1 X167.864 Y7.261 E0.05334
G1 X168.354 Y8.204 E0.05334
G1 X168.681 Y9.215 E0.05334
G1 X168.844 Y10.578 E0.06889
G1 X168.819 Y21.222 E0.53416
G1 X168.651 Y22.208 E0.05023
G1 X168.329 Y23.156 E0.05023
G1 X167.866 Y24.036 E0.04992
G1 X167.266 Y24.838 E0.05023
G1 X31.916 Y173.906 E10.10480
G1 X30.980 Y174.655 E0.06019
G1 X29.920 Y175.215 E0.06019
G1 X28.773 Y175.566 E0.06019
G1 X27.575 Y175.694 E0.06050
G1 X16.804 Y175.657 E0.54051
G1 X15.851 Y175.477 E0.04867
G1 X14.937 Y175.154 E0.04867
G1 X14.082 Y174.696 E0.04867
G1 X13.312 Y174.116 E0.04836
G1 X12.418 Y173.149 E0.06609
G1 X11.743 Y172.018 E0.06609
G1 X11.315 Y170.766 E0.06640
G1 X11.156 Y169.459 E0.06609
G1 X11.155 Y55.644 E5.71193
G1 X11.270 Y52.220 E0.17190
G1 X11.705 Y48.157 E0.20509
G1 X12.473 Y44.093 E0.20759
G1 X12.975 Y42.100 E0.10311
G1 X13.738 Y39.570 E0.13265
G1 X15.177 Y35.730 E0.20580
G1 X16.934 Y31.985 E0.20759
G1 X18.971 Y28.419 E0.20607
G1 X21.283 Y25.033 E0.20579
G1 X23.860 Y21.839 E0.20599
G1 E-2.24000 F4200.00000
G1 F6240.000
G1 X24.821 Y20.784 E-0.91200
G1 E-0.04800 F4200.00000
G1 Z0.550 F7800.000
G1 X26.400 Y140.061
G1 Z0.350
G1 E3.20000 F2400.00000
G1 F1800.000
G1 X26.400 Y164.127 E1.20779
G1 X26.243 Y164.166 E0.00811
G1 X26.016 Y163.739 E0.02430
G1 X25.774 Y163.379 E0.02177
G1 X25.371 Y162.921 E0.03061
G1 X25.045 Y162.634 E0.02177
G1 X24.701 Y162.390 E0.02119
G1 X24.334 Y162.182 E0.02119
G1 X23.947 Y162.013 E0.02119
G1 X23.544 Y161.884 E0.02119
G1 X23.118 Y161.795 E0.02188
G1 X22.485 Y161.749 E0.03181
G1 X22.077 Y161.771 E0.02051
G1 X21.661 Y161.836 E0.02115
G1 X21.253 Y161.943 E0.02119
G1 X20.858 Y162.092 E0.02119
G1 X20.480 Y162.281 E0.02119
G1 X20.124 Y162.508 E0.02119
G1 X19.793 Y162.770 E0.02119
G1 X19.490 Y163.064 E0.02119
G1 X19.220 Y163.389 E0.02119
G1 X18.978 Y163.748 E0.02177
G1 X18.759 Y164.186 E0.02452
G1 X18.600 Y164.148 E0.00822
G1 X18.600 Y140.073 E1.20822
G1 X18.757 Y140.034 E0.00811
G1 X18.984 Y140.461 E0.02430
G1 X19.226 Y140.821 E0.02177
G1 X19.629 Y141.279 E0.03061
G1 X19.955 Y141.566 E0.02177
G1 X20.299 Y141.810 E0.02119
G1 X20.666 Y142.018 E0.02119
G1 X21.053 Y142.187 E0.02119
G1 X21.456 Y142.316 E0.02119
G1 X21.880 Y142.405 E0.02177
G1 X22.500 Y142.453 E0.03120
G1 X23.120 Y142.405 E0.03120
G1 X23.544 Y142.316 E0.02177
G1 X23.947 Y142.187 E0.02119
G1 X24.334 Y142.018 E0.02119
G1 X24.701 Y141.810 E0.02119
G1 X25.045 Y141.566 E0.02119
G1 X25.362 Y141.287 E0.02119
G1 X25.649 Y140.977 E0.02119
G1 X25.903 Y140.639 E0.02119
G1 X26.120 Y140.277 E0.02119
G1 X26.238 Y140.025 E0.01401
G1 X26.342 Y140.048 E0.00532
G1 X25.941 Y139.846 F7800.000
G1 F1800.000
G1 X25.815 Y140.115 E0.01492
G1 X25.616 Y140.447 E0.01941
G1 X25.384 Y140.756 E0.01941
G1 X25.121 Y141.040 E0.01941
G1 X24.831 Y141.295 E0.01941
G1 X24.516 Y141.519 E0.01941
G1 X24.179 Y141.709 E0.01941
G1 X23.825 Y141.864 E0.01941
G1 X23.456 Y141.982 E0.01941
G1 X23.071 Y142.062 E0.01977
G1 X22.500 Y142.107 E0.02874
G1 X21.929 Y142.062 E0.02874
G1 X21.544 Y141.982 E0.01977
G1 X21.175 Y141.864 E0.01941
G1 X20.821 Y141.709 E0.01941
G1 X20.484 Y141.519 E0.01941
G1 X20.169 Y141.295 E0.01941
G1 X19.873 Y141.035 E0.01977
G1 X19.500 Y140.610 E0.02838
G1 X19.280 Y140.283 E0.01977
G1 X19.098 Y139.942 E0.01941
G1 X18.953 Y139.584 E0.01941
G1 X18.845 Y139.213 E0.01941
G1 X18.775 Y138.832 E0.01941
G1 X18.745 Y138.440 E0.01977
G1 X18.774 Y137.875 E0.02838
G1 X18.845 Y137.487 E0.01977
G1 X18.953 Y137.116 E0.01941
G1 X19.098 Y136.758 E0.01941
G1 X19.280 Y136.417 E0.01941
G1 X19.496 Y136.096 E0.01941
G1 X19.744 Y135.799 E0.01941
G1 X20.021 Y135.529 E0.01941
G1 X20.324 Y135.289 E0.01941
G1 X20.650 Y135.081 E0.01941
G1 X20.996 Y134.909 E0.01941
G1 X21.358 Y134.772 E0.01941
G1 X21.732 Y134.674 E0.01941
G1 X22.113 Y134.614 E0.01938
G1 X22.487 Y134.594 E0.01878
G1 X23.070 Y134.637 E0.02933
G1 X23.456 Y134.718 E0.01982
G1 X23.825 Y134.836 E0.01941
G1 X24.179 Y134.991 E0.01941
G1 X24.516 Y135.181 E0.01941
G1 X24.831 Y135.405 E0.01941
G1 X25.127 Y135.665 E0.01976
G1 X25.500 Y136.090 E0.02838
G1 X25.720 Y136.417 E0.01977
G1 X25.902 Y136.758 E0.01941
G1 X26.047 Y137.116 E0.01941
G1 X26.155 Y137.487 E0.01941
G1 X26.225 Y137.868 E0.01941
G1 X26.254 Y138.253 E0.01941
G1 X26.244 Y138.640 E0.01941
G1 X26.195 Y139.023 E0.01941
G1 X26.106 Y139.400 E0.01941
G1 X25.967 Y139.791 E0.02087
G1 X25.629 Y139.700 F7800.000
G1 F1800.000
G1 X25.510 Y139.953 E0.01403
G1 X25.329 Y140.254 E0.01762
G1 X25.119 Y140.535 E0.01762
G1 X24.880 Y140.792 E0.01762
G1 X24.616 Y141.024 E0.01762
G1 X24.330 Y141.228 E0.01762
G1 X24.025 Y141.401 E0.01762
G1 X23.703 Y141.541 E0.01762
G1 X23.369 Y141.648 E0.01762
G1 X23.022 Y141.720 E0.01776
G1 X22.500 Y141.761 E0.02628
G1 X21.978 Y141.720 E0.02628
G1 X21.631 Y141.648 E0.01776
G1 X21.297 Y141.541 E0.01762
G1 X20.975 Y141.401 E0.01762
G1 X20.670 Y141.228 E0.01762
G1 X20.384 Y141.024 E0.01762
G1 X20.118 Y140.791 E0.01776
G1 X19.774 Y140.399 E0.02615
G1 X19.576 Y140.106 E0.01776
G1 X19.411 Y139.796 E0.01762
G1 X19.279 Y139.470 E0.01762
G1 X19.181 Y139.133 E0.01762
G1 X19.118 Y138.788 E0.01762
G1 X19.091 Y138.435 E0.01776
G1 X19.117 Y137.915 E0.02615
G1 X19.181 Y137.567 E0.01776
G1 X19.279 Y137.230 E0.01762
G1 X19.411 Y136.904 E0.01762
G1 X19.576 Y136.594 E0.01762
G1 X19.772 Y136.303 E0.01762
G1 X19.997 Y136.033 E0.01762
G1 X20.249 Y135.788 E0.01762
G1 X20.524 Y135.570 E0.01762
G1 X20.820 Y135.382 E0.01762
G1 X21.134 Y135.225 E0.01762
G1 X21.463 Y135.101 E0.01762
G1 X21.802 Y135.012 E0.01762
G1 X22.149 Y134.958 E0.01761
G1 X22.483 Y134.940 E0.01680
G1 X23.022 Y134.980 E0.02709
G1 X23.369 Y135.052 E0.01778
G1 X23.703 Y135.159 E0.01762
G1 X24.025 Y135.299 E0.01762
G1 X24.330 Y135.472 E0.01762
G1 X24.616 Y135.676 E0.01762
G1 X24.882 Y135.909 E0.01776
G1 X25.226 Y136.301 E0.02615
G1 X25.424 Y136.594 E0.01776
G1 X25.589 Y136.904 E0.01762
G1 X25.721 Y137.230 E0.01762
G1 X25.819 Y137.567 E0.01762
G1 X25.882 Y137.912 E0.01762
G1 X25.909 Y138.262 E0.01762
G1 X25.900 Y138.613 E0.01762
G1 X25.855 Y138.961 E0.01762
G1 X25.774 Y139.303 E0.01762
G1 X25.654 Y139.645 E0.01820
G1 X25.799 Y139.921 F7800.000
G1 E-2.24000 F4200.00000
G1 F6240.000
G1 X25.510 Y139.953 E-0.21716
G1 X25.329 Y140.254 E-0.22451
G1 X25.119 Y140.535 E-0.22452
G1 X24.880 Y140.792 E-0.22451
G1 X24.855 Y140.814 E-0.02130
G1 E-0.04800 F4200.00000
G1 Z0.550 F7800.000
G1 X26.238 Y167.525
G1 Z0.350
G1 E3.20000 F2400.00000
G1 F1800.000
G1 X26.400 Y167.561 E0.00833
G1 X26.400 Y168.252 E0.03471
G1 X25.833 Y168.253 E0.02845
G1 X26.120 Y167.778 E0.02785
G1 X26.213 Y167.579 E0.01103
G1 E-2.24000 F4200.00000
G1 F6240.000
G1 X26.400 Y167.561 E-0.12041
G1 X26.400 Y168.252 E-0.44219
G1 X25.854 Y168.253 E-0.34940
G1 E-0.04800 F4200.00000
G1 Z0.550 F7800.000
G1 X19.182 Y168.253
G1 Z0.350
G1 E3.20000 F2400.00000
G1 F1800.000
G1 X18.600 Y168.252 E0.02924
G1 X18.600 Y167.573 E0.03408
G1 X18.757 Y167.534 E0.00811
G1 X18.985 Y167.963 E0.02440
G1 X19.149 Y168.204 E0.01460
G1 E-2.24000 F4200.00000
G1 F6240.000
G1 X18.600 Y168.252 E-0.35236
G1 X18.600 Y167.573 E-0.43420
G1 X18.757 Y167.534 E-0.10332
G1 X18.773 Y167.564 E-0.02212
G1 E-0.04800 F4200.00000
G1 Z0.550 F7800.000
G1 X18.757 Y136.666
G1 Z0.350
G1 E3.20000 F2400.00000
G1 F1800.000
G1 X18.600 Y136.627 E0.00811
G1 X18.600 Y55.660 E4.06342
G1 X18.635 Y53.894 E0.08861
G1 X18.697 Y52.730 E0.05850
G1 X18.790 Y51.568 E0.05850
G1 X18.988 Y49.823 E0.08813
G1 X19.256 Y48.091 E0.08798
G1 X19.593 Y46.367 E0.08813
G1 X19.854 Y45.231 E0.05850
G1 X20.146 Y44.103 E0.05850
G1 X20.642 Y42.418 E0.08813
G1 X21.203 Y40.757 E0.08798
G1 X21.832 Y39.118 E0.08813
G1 X22.285 Y38.044 E0.05851
G1 X22.765 Y36.987 E0.05824
G1 X23.545 Y35.408 E0.08839
G1 X24.384 Y33.869 E0.08798
G1 X25.284 Y32.364 E0.08798
G1 X26.244 Y30.897 E0.08798
G1 X27.261 Y29.469 E0.08798
G1 X28.336 Y28.081 E0.08813
G1 X29.080 Y27.184 E0.05850
G1 X29.848 Y26.306 E0.05850
G1 X31.050 Y25.022 E0.08828
G1 X31.874 Y24.197 E0.05851
G1 X32.716 Y23.399 E0.05824
G1 X34.034 Y22.230 E0.08839
G1 X35.393 Y21.118 E0.08813
G1 X36.319 Y20.411 E0.05850
G1 X37.267 Y19.726 E0.05866
G1 X38.232 Y19.067 E0.05865
G1 X39.214 Y18.434 E0.05865
G1 X40.213 Y17.828 E0.05866
G1 X41.221 Y17.252 E0.05824
G1 X42.781 Y16.428 E0.08854
G1 X43.829 Y15.918 E0.05850
G1 X44.891 Y15.436 E0.05850
G1 X46.516 Y14.763 E0.08828
G1 X47.607 Y14.353 E0.05850
G1 X48.712 Y13.971 E0.05865
G1 X49.826 Y13.619 E0.05865
G1 X50.947 Y13.297 E0.05850
G1 X52.653 Y12.869 E0.08828
G1 X53.792 Y12.622 E0.05850
G1 X54.941 Y12.406 E0.05865
G1 X56.095 Y12.220 E0.05866
G1 X57.245 Y12.066 E0.05824
G1 X59.000 Y11.890 E0.08854
G1 X60.164 Y11.812 E0.05850
G1 X61.331 Y11.765 E0.05865
G1 X62.507 Y11.750 E0.05899
G1 X161.400 Y11.750 E4.96306
G1 X161.400 Y19.550 E0.39147
G1 X62.489 Y19.550 E4.96395
G1 X60.865 Y19.587 E0.08154
G1 X59.233 Y19.698 E0.08208
G1 X57.608 Y19.883 E0.08208
G1 X55.993 Y20.141 E0.08208
G1 X54.391 Y20.472 E0.08208
G1 X52.806 Y20.876 E0.08208
G1 X51.241 Y21.351 E0.08208
G1 X49.699 Y21.896 E0.08208
G1 X48.183 Y22.510 E0.08208
G1 X46.697 Y23.193 E0.08208
G1 X45.243 Y23.942 E0.08208
G1 X43.824 Y24.756 E0.08208
G1 X42.444 Y25.634 E0.08208
G1 X41.108 Y26.571 E0.08191
G1 X40.234 Y27.235 E0.05507
G1 X38.972 Y28.270 E0.08191
G1 X37.756 Y29.364 E0.08208
G1 X36.591 Y30.512 E0.08208
G1 X35.479 Y31.711 E0.08208
G1 X34.422 Y32.960 E0.08208
G1 X33.423 Y34.255 E0.08208
G1 X32.484 Y35.594 E0.08208
G1 X31.606 Y36.974 E0.08208
G1 X30.792 Y38.393 E0.08208
G1 X30.044 Y39.844 E0.08191
G1 X29.579 Y40.837 E0.05507
G1 X28.943 Y42.340 E0.08191
G1 X28.375 Y43.874 E0.08208
G1 X27.876 Y45.432 E0.08208
G1 X27.450 Y47.007 E0.08192
G1 X27.202 Y48.081 E0.05530
G1 X26.897 Y49.680 E0.08168
G1 X26.663 Y51.299 E0.08208
G1 X26.503 Y52.923 E0.08192
G1 X26.437 Y54.023 E0.05530
G1 X26.400 Y55.639 E0.08113
G1 X26.400 Y136.627 E4.06445
G1 X26.243 Y136.666 E0.00811
G1 X26.016 Y136.239 E0.02430
G1 X25.774 Y135.879 E0.02177
G1 X25.371 Y135.421 E0.03061
G1 X25.045 Y135.134 E0.02177
G1 X24.701 Y134.890 E0.02119
G1 X24.334 Y134.682 E0.02119
G1 X23.947 Y134.513 E0.02119
G1 X23.544 Y134.384 E0.02119
G1 X23.118 Y134.295 E0.02186
G1 X22.491 Y134.249 E0.03158
G1 X22.078 Y134.271 E0.02075
G1 X21.661 Y134.336 E0.02116
G1 X21.253 Y134.443 E0.02119
G1 X20.858 Y134.592 E0.02119
G1 X20.480 Y134.781 E0.02119
G1 X20.124 Y135.008 E0.02119
G1 X19.793 Y135.270 E0.02119
G1 X19.490 Y135.564 E0.02119
G1 X19.220 Y135.889 E0.02119
G1 X18.984 Y136.239 E0.02119
G1 X18.785 Y136.613 E0.02129
G1 E-2.24000 F4200.00000
G1 F6240.000
G1 X18.600 Y136.627 E-0.11863
G1 X18.600 Y135.386 E-0.79337
G1 E-0.04800 F4200.00000
G1 Z0.550 F7800.000
G1 X18.255 Y168.596
G1 Z0.350
G1 E3.20000 F2400.00000
G1 F1800.000
G1 X18.255 Y55.656 E5.66800
G1 X18.290 Y53.882 E0.08907
G1 X18.353 Y52.707 E0.05902
G1 X18.447 Y51.535 E0.05902
G1 X18.646 Y49.778 E0.08876
G1 X18.916 Y48.031 E0.08867
G1 X19.255 Y46.296 E0.08876
G1 X19.519 Y45.149 E0.05902
G1 X19.813 Y44.011 E0.05902
G1 X20.313 Y42.314 E0.08876
G1 X20.879 Y40.640 E0.08867
G1 X21.512 Y38.989 E0.08876
G1 X21.969 Y37.905 E0.05902
G1 X22.453 Y36.839 E0.05876
G1 X23.239 Y35.249 E0.08902
G1 X24.085 Y33.698 E0.08867
G1 X24.992 Y32.182 E0.08867
G1 X25.959 Y30.703 E0.08867
G1 X26.984 Y29.264 E0.08867
G1 X28.067 Y27.865 E0.08876
G1 X28.818 Y26.960 E0.05902
G1 X29.592 Y26.075 E0.05902
G1 X30.802 Y24.782 E0.08886
G1 X31.633 Y23.950 E0.05902
G1 X32.483 Y23.145 E0.05876
G1 X33.810 Y21.968 E0.08902
G1 X35.179 Y20.848 E0.08876
G1 X36.114 Y20.134 E0.05902
G1 X37.069 Y19.444 E0.05912
G1 X38.041 Y18.780 E0.05911
G1 X39.031 Y18.142 E0.05912
G1 X40.038 Y17.530 E0.05912
G1 X41.055 Y16.950 E0.05876
G1 X42.625 Y16.120 E0.08912
G1 X43.683 Y15.606 E0.05902
G1 X44.754 Y15.120 E0.05902
G1 X46.389 Y14.442 E0.08886
G1 X47.490 Y14.029 E0.05902
G1 X48.604 Y13.644 E0.05912
G1 X49.727 Y13.289 E0.05912
G1 X50.857 Y12.964 E0.05902
G1 X52.574 Y12.533 E0.08886
G1 X53.724 Y12.284 E0.05902
G1 X54.881 Y12.066 E0.05912
G1 X56.044 Y11.878 E0.05912
G1 X57.205 Y11.723 E0.05876
G1 X58.972 Y11.546 E0.08912
G1 X60.145 Y11.468 E0.05902
G1 X61.322 Y11.421 E0.05912
G1 X62.504 Y11.405 E0.05933
G1 X161.745 Y11.405 E4.98049
G1 X161.745 Y19.895 E0.42609
G1 X62.493 Y19.895 E4.98106
M73 P0 R137
G1 X60.880 Y19.932 E0.08095
G1 X59.264 Y20.042 E0.08130
G1 X57.655 Y20.225 E0.08130
G1 X56.055 Y20.481 E0.08130
G1 X54.469 Y20.809 E0.08130
G1 X52.899 Y21.208 E0.08130
G1 X51.348 Y21.678 E0.08130
G1 X49.821 Y22.218 E0.08130
G1 X48.320 Y22.827 E0.08130
G1 X46.848 Y23.503 E0.08130
G1 X45.408 Y24.245 E0.08130
G1 X44.003 Y25.052 E0.08130
G1 X42.636 Y25.921 E0.08130
G1 X41.311 Y26.850 E0.08119
G1 X40.448 Y27.506 E0.05441
G1 X39.197 Y28.532 E0.08120
G1 X37.993 Y29.615 E0.08130
G1 X36.838 Y30.752 E0.08130
G1 X35.737 Y31.940 E0.08130
G1 X34.690 Y33.177 E0.08130
G1 X33.701 Y34.459 E0.08130
G1 X32.771 Y35.786 E0.08130
G1 X31.902 Y37.153 E0.08130
G1 X31.095 Y38.558 E0.08130
G1 X30.354 Y39.996 E0.08119
G1 X29.894 Y40.978 E0.05441
G1 X29.264 Y42.468 E0.08119
G1 X28.701 Y43.987 E0.08130
G1 X28.207 Y45.530 E0.08130
G1 X27.784 Y47.091 E0.08120
G1 X27.540 Y48.152 E0.05465
G1 X27.237 Y49.737 E0.08096
G1 X27.006 Y51.340 E0.08130
G1 X26.847 Y52.950 E0.08120
G1 X26.781 Y54.037 E0.05465
G1 X26.745 Y55.643 E0.08061
G1 X26.745 Y168.596 E5.66866
G1 X25.221 Y168.610 E0.07648
G1 X25.169 Y168.469 E0.00754
G1 X25.236 Y168.416 E0.00430
G1 X25.610 Y167.956 E0.02976
G1 X25.815 Y167.615 E0.01994
G1 X25.979 Y167.265 E0.01942
G1 X26.106 Y166.900 E0.01941
G1 X26.195 Y166.523 E0.01941
G1 X26.244 Y166.140 E0.01941
G1 X26.254 Y165.753 E0.01941
G1 X26.225 Y165.368 E0.01941
G1 X26.155 Y164.987 E0.01941
G1 X26.047 Y164.616 E0.01941
G1 X25.902 Y164.258 E0.01941
G1 X25.720 Y163.917 E0.01941
G1 X25.500 Y163.590 E0.01977
G1 X25.127 Y163.165 E0.02838
G1 X24.831 Y162.905 E0.01977
G1 X24.516 Y162.681 E0.01941
G1 X24.179 Y162.491 E0.01941
G1 X23.825 Y162.336 E0.01941
G1 X23.456 Y162.218 E0.01941
G1 X23.070 Y162.137 E0.01983
G1 X22.482 Y162.095 E0.02956
G1 X22.113 Y162.114 E0.01854
G1 X21.732 Y162.174 E0.01938
