; generated by PrusaSlicer 2.3.0+win64 on 2021-08-03 at 08:25:18 UTC


;
;

;
;
; 

; external perimeters extrusion width = 0.45mm
; perimeters extrusion width = 0.45mm
; infill extrusion width = 0.45mm
; solid infill extrusion width = 0.45mm
; top infill extrusion width = 0.40mm
; first layer extrusion width = 0.42mm

M73 P0 R16
M201 X1250 Y1250 Z400 E5000 ; sets maximum accelerations, mm/sec^2
M203 X180 Y180 Z12 E80 ; sets maximum feedrates, mm/sec
M204 P1250 R1250 T1250 ; sets acceleration (P, T) and retract acceleration (R), mm/sec^2
M205 X8.00 Y8.00 Z2.00 E10.00 ; sets the jerk limits, mm/sec
M205 S0 T0 ; sets the minimum extruding and travel feed rate, mm/sec
M107
;TYPE:Custom
G90 ; use absolute coordinates
M83 ; extruder relative mode
M104 S170 ; set extruder temp for bed leveling
M140 S60 ; set bed temp
M109 R170 ; wait for bed leveling temp
M190 S60 ; wait for bed temp
G28 ; home all without mesh bed level
G29 ; mesh bed leveling 
M104 S215 ; set extruder temp
G92 E0.0
G1 Y-2.0 X179 F2400
G1 Z3 F720
M109 S215 ; wait for extruder temp

; intro line
G1 X170 F1000
G1 Z0.2 F720
G1 X110.0 E8.0 F900
G1 X40.0 E10.0 F700
G92 E0.0

M221 S95 ; set flow
G21 ; set units to millimeters
G90 ; use absolute coordinates
M83 ; use relative distances for extrusion
M900 K0.2 ; Filament gcode LA 1.5
; ; Filament gcode LA 1.0
;LAYER_CHANGE
;Z:0.2
;HEIGHT:0.2
;BEFORE_LAYER_CHANGE
G92 E0.0
;0.2


M73 P1 R16
G1 E-3.20000 F4200.000
G1 Z0.200 F9000.000
;AFTER_LAYER_CHANGE
;0.2
G1 Z0.400
G1 X116.779 Y113.296
G1 Z0.200
G1 E3.20000 F2400.000
M204 S800
;TYPE:Skirt
;WIDTH:0.42
G1 F1200.000
G1 X116.241 Y114.078 E0.02977
G1 X115.495 Y114.564 E0.02790
G1 X114.624 Y114.742 E0.02790
G1 X103.901 Y114.741 E0.33620
G1 X103.200 Y114.607 E0.02237
G1 X102.571 Y114.271 E0.02237
G1 X64.721 Y75.680 E1.69483
M73 P2 R16
G1 X64.166 Y75.004 E0.02741
G1 X63.711 Y74.254 E0.02753
G1 X63.374 Y73.467 E0.02685
G1 X63.120 Y72.483 E0.03184
G1 X63.033 Y71.618 E0.02725
G1 X63.067 Y70.759 E0.02696
G1 X63.216 Y69.930 E0.02642
G1 X63.496 Y69.083 E0.02795
G1 X63.956 Y68.182 E0.03172
G1 X64.453 Y67.491 E0.02669
G1 X65.053 Y66.863 E0.02726
G1 X65.735 Y66.326 E0.02720
G1 X66.491 Y65.887 E0.02741
G1 X67.445 Y65.514 E0.03212
G1 X68.306 Y65.323 E0.02764
G1 X69.174 Y65.257 E0.02729
G1 X69.976 Y65.305 E0.02522
G1 X114.908 Y70.882 E1.41959
G1 X115.664 Y71.116 E0.02484
G1 X116.302 Y71.587 E0.02484
G1 X116.789 Y72.331 E0.02790
G1 X116.969 Y73.199 E0.02778
G1 X116.969 Y112.369 E1.22816
G1 X116.792 Y113.237 E0.02778
M204 S1250
; printing object LeftBoardCradle_01.stl id:0 copy 0
G1 E-2.24000 F4200.000
;WIPE_START
G1 F7200.000
G1 X116.241 Y114.078 E-0.55701
G1 X115.704 Y114.428 E-0.35499
;WIPE_END
G1 E-0.04800 F4200.000
G1 Z0.400 F9000.000
G1 X67.544 Y73.937
G1 Z0.200
G1 E3.20000 F2400.000
M204 S800
;TYPE:Perimeter
G1 F1200.000
G1 X67.203 Y73.683 E0.01331
G1 X67.051 Y73.535 E0.00667
G1 X67.206 Y73.373 E0.00702
G1 X67.430 Y73.583 E0.00964
G1 X67.667 Y73.755 E0.00919
G1 X67.577 Y73.887 E0.00500
M204 S1250
G1 X67.136 Y73.335 F9000.000
M204 S800
G1 F1200.000
G1 X66.981 Y73.459 E0.00623
G1 X66.745 Y73.169 E0.01171
G1 X66.475 Y72.703 E0.01690
G1 X66.371 Y72.450 E0.00857
G1 X66.259 Y72.012 E0.01420
G1 X66.468 Y71.962 E0.00676
G1 X66.613 Y72.461 E0.01632
G1 X66.852 Y72.930 E0.01650
G1 X67.135 Y73.292 E0.01439
M204 S1250
G1 E-2.24000 F4200.000
;WIPE_START
G1 F7200.000
G1 X66.981 Y73.459 E-0.12576
G1 X66.745 Y73.169 E-0.20693
G1 X66.475 Y72.703 E-0.29876
G1 X66.371 Y72.450 E-0.15139
G1 X66.313 Y72.224 E-0.12916
;WIPE_END
G1 E-0.04800 F4200.000
G1 Z0.400 F9000.000
G1 X66.466 Y71.944
G1 Z0.200
G1 E3.20000 F2400.000
M204 S800
G1 F1200.000
G1 X66.252 Y71.974 E0.00678
G1 X66.215 Y71.780 E0.00620
G1 X66.196 Y71.514 E0.00836
G1 X66.231 Y70.969 E0.01711
G1 X66.284 Y70.708 E0.00836
G1 X66.379 Y70.417 E0.00961
G1 X66.592 Y70.482 E0.00698
G1 X66.467 Y70.912 E0.01402
G1 X66.417 Y71.434 E0.01646
G1 X66.460 Y71.884 E0.01417
M204 S1250
G1 X66.597 Y70.440 F9000.000
M204 S800
G1 F1200.000
G1 X66.397 Y70.344 E0.00694
G1 X66.525 Y70.063 E0.00967
G1 X66.656 Y69.832 E0.00834
G1 X66.816 Y69.602 E0.00879
G1 X67.029 Y69.350 E0.01033
G1 X67.472 Y68.965 E0.01841
G1 X67.616 Y69.134 E0.00698
G1 X67.174 Y69.525 E0.01851
G1 X66.852 Y69.939 E0.01646
G1 X66.624 Y70.387 E0.01574
M204 S1250
G1 X66.966 Y70.547 F9000.000
M204 S800
;TYPE:External perimeter
G1 F1200.000
G1 X67.172 Y70.142 E0.01423
G1 X67.450 Y69.784 E0.01423
G1 X67.790 Y69.484 E0.01423
G1 X68.181 Y69.253 E0.01423
G1 X68.604 Y69.100 E0.01412
G1 X68.905 Y69.043 E0.00959
G1 X69.197 Y69.024 E0.00919
G1 X69.659 Y69.066 E0.01452
G1 X70.095 Y69.193 E0.01424
G1 X70.499 Y69.399 E0.01423
G1 X70.858 Y69.677 E0.01423
G1 X71.158 Y70.017 E0.01423
G1 X71.387 Y70.405 E0.01412
G1 X71.500 Y70.689 E0.00959
G1 X71.573 Y70.973 E0.00919
G1 X71.618 Y71.434 E0.01452
G1 X71.576 Y71.886 E0.01424
G1 X71.449 Y72.322 E0.01423
G1 X71.243 Y72.726 E0.01423
G1 X70.965 Y73.085 E0.01423
G1 X70.624 Y73.385 E0.01423
G1 X70.234 Y73.616 E0.01423
G1 X69.810 Y73.769 E0.01412
G1 X69.509 Y73.826 E0.00960
G1 X69.204 Y73.845 E0.00960
G1 X68.755 Y73.803 E0.01412
G1 X68.320 Y73.676 E0.01423
G1 X67.918 Y73.472 E0.01412
G1 X67.671 Y73.292 E0.00959
G1 X67.457 Y73.091 E0.00919
G1 X67.172 Y72.727 E0.01452
G1 X66.966 Y72.322 E0.01424
G1 X66.839 Y71.886 E0.01423
G1 X66.796 Y71.434 E0.01423
G1 X66.839 Y70.983 E0.01423
G1 X66.949 Y70.604 E0.01235
M204 S1250
G1 X66.717 Y70.233 F9000.000
G1 E-2.24000 F4200.000
;WIPE_START
G1 F7200.000
G1 X67.172 Y70.142 E-0.28421
G1 X67.450 Y69.784 E-0.25148
G1 X67.790 Y69.484 E-0.25148
G1 X67.984 Y69.369 E-0.12483
;WIPE_END
G1 E-0.04800 F4200.000
G1 Z0.400 F9000.000
G1 X94.406 Y76.246
G1 Z0.200
G1 E3.20000 F2400.000
M204 S800
;TYPE:Perimeter
M73 P3 R16
G1 F1200.000
G1 X94.626 Y75.828 E0.01480
G1 X94.851 Y75.543 E0.01139
G1 X95.211 Y75.233 E0.01487
G1 X95.516 Y75.057 E0.01104
G1 X95.972 Y74.898 E0.01515
G1 X96.441 Y74.844 E0.01480
G1 X96.804 Y74.869 E0.01139
G1 X97.262 Y74.992 E0.01487
G1 X97.579 Y75.145 E0.01104
G1 X97.959 Y75.426 E0.01483
G1 X98.199 Y75.684 E0.01104
G1 X98.457 Y76.094 E0.01518
G1 X98.620 Y76.561 E0.01552
G1 X98.676 Y77.053 E0.01552
G1 X98.620 Y77.545 E0.01552
G1 X98.457 Y78.012 E0.01552
G1 X98.199 Y78.422 E0.01518
G1 X97.959 Y78.680 E0.01104
G1 X97.579 Y78.961 E0.01483
G1 X97.272 Y79.109 E0.01070
G1 X96.946 Y79.210 E0.01070
G1 X96.465 Y79.264 E0.01518
G1 X95.973 Y79.209 E0.01552
G1 X95.516 Y79.049 E0.01518
G1 X95.211 Y78.873 E0.01104
G1 X94.852 Y78.564 E0.01483
G1 X94.633 Y78.289 E0.01104
G1 X94.407 Y77.861 E0.01518
G1 X94.281 Y77.393 E0.01518
G1 X94.256 Y77.053 E0.01070
G1 X94.281 Y76.713 E0.01070
G1 X94.391 Y76.304 E0.01327
M204 S1250
G1 X94.755 Y76.401 F9000.000
M204 S800
;TYPE:External perimeter
G1 F1200.000
G1 X94.944 Y76.034 E0.01294
G1 X95.125 Y75.805 E0.00916
G1 X95.430 Y75.542 E0.01263
G1 X95.674 Y75.402 E0.00883
G1 X96.057 Y75.268 E0.01273
G1 X96.449 Y75.222 E0.01239
G1 X96.741 Y75.243 E0.00916
G1 X97.130 Y75.347 E0.01263
G1 X97.384 Y75.469 E0.00883
G1 X97.707 Y75.708 E0.01261
G1 X97.899 Y75.914 E0.00883
G1 X98.115 Y76.258 E0.01273
G1 X98.250 Y76.645 E0.01286
G1 X98.296 Y77.053 E0.01286
G1 X98.250 Y77.461 E0.01286
G1 X98.115 Y77.848 E0.01286
G1 X97.899 Y78.192 E0.01273
G1 X97.707 Y78.398 E0.00883
G1 X97.384 Y78.637 E0.01261
G1 X97.133 Y78.757 E0.00870
G1 X96.868 Y78.839 E0.00870
G1 X96.465 Y78.884 E0.01273
G1 X96.057 Y78.839 E0.01286
G1 X95.674 Y78.704 E0.01273
G1 X95.430 Y78.564 E0.00883
G1 X95.125 Y78.301 E0.01261
G1 X94.950 Y78.081 E0.00883
G1 X94.760 Y77.722 E0.01273
G1 X94.655 Y77.330 E0.01273
G1 X94.634 Y77.053 E0.00870
G1 X94.655 Y76.776 E0.00870
G1 X94.740 Y76.459 E0.01028
M204 S1250
G1 X94.507 Y76.088 F9000.000
M73 P3 R15
G1 E-2.24000 F4200.000
;WIPE_START
G1 F7200.000
G1 X94.944 Y76.034 E-0.26130
G1 X95.125 Y75.805 E-0.16193
G1 X95.430 Y75.542 E-0.22315
G1 X95.674 Y75.402 E-0.15601
G1 X95.860 Y75.336 E-0.10960
;WIPE_END
G1 E-0.04800 F4200.000
G1 Z0.400 F9000.000
G1 X102.557 Y85.549
G1 Z0.200
G1 E3.20000 F2400.000
M204 S800
;TYPE:Perimeter
G1 F1200.000
G1 X80.008 Y80.785 E0.72261
G1 X67.779 Y74.088 E0.43716
G1 X67.610 Y73.979 E0.00631
G1 X67.717 Y73.792 E0.00676
G1 X68.180 Y74.028 E0.01630
G1 X68.684 Y74.175 E0.01646
G1 X69.198 Y74.223 E0.01617
G1 X69.557 Y74.201 E0.01127
G1 X69.910 Y74.133 E0.01127
G1 X70.395 Y73.959 E0.01617
G1 X70.847 Y73.691 E0.01646
G1 X71.241 Y73.344 E0.01646
G1 X71.563 Y72.929 E0.01646
G1 X71.801 Y72.461 E0.01646
G1 X71.948 Y71.957 E0.01646
G1 X71.997 Y71.433 E0.01650
G1 X71.945 Y70.907 E0.01658
G1 X71.859 Y70.572 E0.01084
G1 X71.727 Y70.239 E0.01126
G1 X71.464 Y69.795 E0.01617
G1 X71.117 Y69.401 E0.01646
G1 X70.702 Y69.079 E0.01646
G1 X70.234 Y68.840 E0.01646
G1 X69.729 Y68.694 E0.01650
G1 X69.202 Y68.646 E0.01658
G1 X68.868 Y68.666 E0.01049
G1 X68.537 Y68.724 E0.01054
G1 X68.019 Y68.910 E0.01726
G1 X67.627 Y69.142 E0.01429
G1 X67.510 Y68.954 E0.00694
G1 X67.746 Y68.800 E0.00882
G1 X67.985 Y68.681 E0.00836
G1 X68.470 Y68.515 E0.01608
G1 X68.537 Y68.722 E0.00681
G1 X68.496 Y68.507 E0.00685
G1 X68.770 Y68.454 E0.00875
G1 X69.042 Y68.427 E0.00857
G1 X69.311 Y68.424 E0.00844
G1 X69.604 Y68.448 E0.00922
G1 X113.805 Y73.933 E1.39653
G1 X113.805 Y111.578 E1.18034
G1 X104.717 Y111.578 E0.28496
G1 X102.562 Y85.609 E0.81706
M204 S1250
M73 P4 R15
G1 X102.204 Y85.860 F9000.000
M204 S800
;TYPE:External perimeter
G1 F1200.000
G1 X79.876 Y81.142 E0.71555
G1 X67.587 Y74.412 E0.43930
G1 X67.189 Y74.157 E0.01482
G1 X66.952 Y73.965 E0.00956
G1 X66.734 Y73.752 E0.00956
G1 X66.440 Y73.391 E0.01460
G1 X66.275 Y73.135 E0.00956
G1 X66.133 Y72.862 E0.00964
G1 X66.016 Y72.577 E0.00964
G1 X65.926 Y72.286 E0.00956
G1 X65.841 Y71.828 E0.01460
G1 X65.819 Y71.524 E0.00956
G1 X65.824 Y71.217 E0.00964
G1 X65.858 Y70.911 E0.00964
G1 X65.919 Y70.612 E0.00956
G1 X66.063 Y70.169 E0.01460
G1 X66.189 Y69.892 E0.00956
G1 X66.341 Y69.625 E0.00964
G1 X66.517 Y69.372 E0.00964
G1 X66.715 Y69.137 E0.00964
G1 X66.933 Y68.921 E0.00964
G1 X67.168 Y68.727 E0.00956
G1 X67.559 Y68.473 E0.01460
G1 X67.831 Y68.336 E0.00956
G1 X68.118 Y68.224 E0.00964
G1 X68.413 Y68.139 E0.00964
G1 X68.715 Y68.081 E0.00964
G1 X69.021 Y68.050 E0.00964
G1 X69.324 Y68.047 E0.00951
G1 X69.642 Y68.072 E0.01000
G1 X114.182 Y73.600 E1.40723
G1 X114.182 Y111.955 E1.20261
G1 X104.370 Y111.955 E0.30766
G1 X102.209 Y85.920 E0.81914
M204 S1250
G1 X102.202 Y85.460 F9000.000
G1 E-2.24000 F4200.000
;WIPE_START
G1 F7200.000
G1 X100.600 Y85.575 E-0.91200
;WIPE_END
G1 E-0.04800 F4200.000
G1 Z0.400 F9000.000
G1 X112.809 Y73.924
G1 Z0.200
M73 P5 R15
G1 E3.20000 F2400.000
M204 S800
;TYPE:Solid infill
;WIDTH:0.424222
G1 F1200.000
G1 X113.522 Y74.637 E0.03198
G1 X113.522 Y75.176 E0.01710
G1 X112.388 Y74.042 E0.05084
G1 X111.773 Y73.966 E0.01967
G1 X113.522 Y75.715 E0.07844
G1 X113.522 Y76.255 E0.01710
G1 X111.157 Y73.890 E0.10604
G1 X110.542 Y73.813 E0.01967
G1 X113.522 Y76.794 E0.13365
G1 X113.522 Y77.333 E0.01710
G1 X109.926 Y73.737 E0.16125
G1 X109.310 Y73.660 E0.01967
G1 X113.522 Y77.872 E0.18886
G1 X113.522 Y78.412 E0.01710
G1 X108.695 Y73.584 E0.21646
G1 X108.079 Y73.507 E0.01967
G1 X113.522 Y78.951 E0.24407
G1 X113.522 Y79.490 E0.01710
G1 X107.463 Y73.431 E0.27167
G1 X106.848 Y73.355 E0.01967
G1 X113.522 Y80.029 E0.29928
G1 X113.522 Y80.569 E0.01710
G1 X106.232 Y73.278 E0.32688
G1 X105.616 Y73.202 E0.01967
G1 X113.522 Y81.108 E0.35449
G1 X113.522 Y81.647 E0.01710
G1 X105.001 Y73.125 E0.38209
G1 X104.385 Y73.049 E0.01967
G1 X113.522 Y82.186 E0.40969
G1 X113.522 Y82.725 E0.01710
G1 X103.769 Y72.973 E0.43730
G1 X103.154 Y72.896 E0.01967
G1 X113.522 Y83.265 E0.46490
G1 X113.522 Y83.804 E0.01710
G1 X102.538 Y72.820 E0.49251
G1 X101.922 Y72.743 E0.01967
G1 X113.522 Y84.343 E0.52011
G1 X113.522 Y84.882 E0.01710
G1 X101.307 Y72.667 E0.54772
M73 P6 R15
G1 X100.691 Y72.591 E0.01967
G1 X113.522 Y85.422 E0.57532
G1 X113.522 Y85.961 E0.01710
G1 X100.076 Y72.514 E0.60293
G1 X99.460 Y72.438 E0.01967
G1 X113.522 Y86.500 E0.63053
G1 X113.522 Y87.039 E0.01710
G1 X98.844 Y72.361 E0.65814
G1 X98.229 Y72.285 E0.01967
G1 X113.522 Y87.579 E0.68574
G1 X113.522 Y88.118 E0.01710
G1 X97.613 Y72.209 E0.71334
G1 X96.997 Y72.132 E0.01967
G1 X113.522 Y88.657 E0.74095
G1 X113.522 Y89.196 E0.01710
G1 X96.382 Y72.056 E0.76855
G1 X95.766 Y71.979 E0.01967
G1 X113.522 Y89.736 E0.79616
M73 P7 R15
G1 X113.522 Y90.275 E0.01710
G1 X95.150 Y71.903 E0.82376
G1 X94.535 Y71.827 E0.01967
G1 X113.522 Y90.814 E0.85137
G1 X113.522 Y91.353 E0.01710
G1 X98.927 Y76.758 E0.65443
G1 X98.960 Y77.053 E0.00941
G1 X98.932 Y77.302 E0.00796
G1 X113.522 Y91.893 E0.65420
G1 X113.522 Y92.432 E0.01710
G1 X98.846 Y77.756 E0.65805
G1 X98.703 Y78.152 E0.01335
G1 X113.522 Y92.971 E0.66447
G1 X113.522 Y93.510 E0.01710
G1 X98.495 Y78.483 E0.67380
G1 X98.424 Y78.595 E0.00420
G1 X98.253 Y78.780 E0.00800
G1 X113.522 Y94.050 E0.68466
M73 P8 R15
G1 X113.522 Y94.589 E0.01710
G1 X97.963 Y79.029 E0.69766
G1 X97.726 Y79.204 E0.00935
G1 X97.640 Y79.246 E0.00302
G1 X113.522 Y95.128 E0.71214
G1 X113.522 Y95.667 E0.01710
G1 X97.263 Y79.408 E0.72904
G1 X97.004 Y79.488 E0.00860
G1 X96.824 Y79.508 E0.00574
G1 X113.522 Y96.207 E0.74873
G1 X113.522 Y96.746 E0.01710
G1 X102.887 Y86.111 E0.47685
G1 X102.936 Y86.699 E0.01871
G1 X113.522 Y97.285 E0.47467
G1 X113.522 Y97.824 E0.01710
G1 X102.985 Y87.287 E0.47248
G1 X103.034 Y87.875 E0.01871
G1 X113.522 Y98.364 E0.47029
G1 X113.522 Y98.903 E0.01710
G1 X103.082 Y88.463 E0.46810
G1 X103.131 Y89.051 E0.01871
G1 X113.522 Y99.442 E0.46591
M73 P9 R15
G1 X113.522 Y99.981 E0.01710
G1 X103.180 Y89.639 E0.46373
G1 X103.229 Y90.227 E0.01871
G1 X113.522 Y100.520 E0.46154
G1 X113.522 Y101.060 E0.01710
G1 X103.278 Y90.815 E0.45935
G1 X103.326 Y91.403 E0.01871
G1 X113.522 Y101.599 E0.45716
G1 X113.522 Y102.138 E0.01710
G1 X103.375 Y91.991 E0.45497
M73 P9 R14
G1 X103.424 Y92.579 E0.01871
G1 X113.522 Y102.677 E0.45279
G1 X113.522 Y103.217 E0.01710
G1 X103.473 Y93.167 E0.45060
G1 X103.522 Y93.755 E0.01871
G1 X113.522 Y103.756 E0.44841
G1 X113.522 Y104.295 E0.01710
G1 X103.570 Y94.343 E0.44622
G1 X103.619 Y94.931 E0.01871
G1 X113.522 Y104.834 E0.44403
G1 X113.522 Y105.374 E0.01710
G1 X103.668 Y95.519 E0.44185
G1 X103.717 Y96.107 E0.01871
G1 X113.522 Y105.913 E0.43966
G1 X113.522 Y106.452 E0.01710
G1 X103.766 Y96.695 E0.43747
M73 P10 R14
G1 X103.814 Y97.284 E0.01871
G1 X113.522 Y106.991 E0.43528
G1 X113.522 Y107.531 E0.01710
G1 X103.863 Y97.872 E0.43310
G1 X103.912 Y98.460 E0.01871
G1 X113.522 Y108.070 E0.43091
G1 X113.522 Y108.609 E0.01710
G1 X103.961 Y99.048 E0.42872
G1 X104.010 Y99.636 E0.01871
G1 X113.522 Y109.148 E0.42653
G1 X113.522 Y109.688 E0.01710
G1 X104.058 Y100.224 E0.42434
G1 X104.107 Y100.812 E0.01871
G1 X113.522 Y110.227 E0.42216
G1 X113.522 Y110.766 E0.01710
G1 X104.156 Y101.400 E0.41997
G1 X104.205 Y101.988 E0.01871
G1 X113.512 Y111.296 E0.41734
G1 X112.973 Y111.296 E0.01710
G1 X104.254 Y102.576 E0.39098
G1 X104.302 Y103.164 E0.01871
G1 X112.434 Y111.296 E0.36461
G1 X111.895 Y111.296 E0.01710
G1 X104.351 Y103.752 E0.33824
G1 X104.400 Y104.340 E0.01871
G1 X111.356 Y111.296 E0.31188
G1 X110.816 Y111.296 E0.01710
G1 X104.449 Y104.928 E0.28551
M73 P11 R14
G1 X104.497 Y105.516 E0.01871
G1 X110.277 Y111.296 E0.25914
G1 X109.738 Y111.296 E0.01710
G1 X104.546 Y106.104 E0.23278
G1 X104.595 Y106.692 E0.01871
G1 X109.199 Y111.296 E0.20641
G1 X108.659 Y111.296 E0.01710
G1 X104.644 Y107.280 E0.18004
G1 X104.693 Y107.868 E0.01871
G1 X108.120 Y111.296 E0.15368
G1 X107.581 Y111.296 E0.01710
G1 X104.741 Y108.456 E0.12731
G1 X104.790 Y109.044 E0.01871
G1 X107.042 Y111.296 E0.10094
G1 X106.502 Y111.296 E0.01710
G1 X104.839 Y109.632 E0.07458
G1 X104.888 Y110.220 E0.01871
G1 X105.963 Y111.296 E0.04821
G1 X105.424 Y111.296 E0.01710
G1 X104.751 Y110.623 E0.03017
M204 S1250
G1 E-2.24000 F4200.000
;WIPE_START
G1 F7200.000
G1 X105.424 Y111.296 E-0.52734
G1 X105.963 Y111.296 E-0.29883
G1 X105.854 Y111.186 E-0.08583
;WIPE_END
G1 E-0.04800 F4200.000
G1 Z0.400 F9000.000
G1 X102.117 Y85.340
G1 Z0.200
G1 E3.20000 F2400.000
M204 S800
G1 F1200.000
G1 X96.115 Y79.338 E0.26912
M204 S1250
G1 E-2.24000 F4200.000
;WIPE_START
G1 F7200.000
G1 X97.278 Y80.502 E-0.91200
