; generated by PrusaSlicer 2.3.0+win64 on 2021-08-05 at 12:49:59 UTC


;
;

;
;
; 

; external perimeters extrusion width = 0.45mm
; perimeters extrusion width = 0.45mm
; infill extrusion width = 0.45mm
; solid infill extrusion width = 0.45mm
; top infill extrusion width = 0.40mm
; first layer extrusion width = 0.42mm

M73 P0 R31
M201 X1250 Y1250 Z400 E5000 ; sets maximum accelerations, mm/sec^2
M203 X180 Y180 Z12 E80 ; sets maximum feedrates, mm/sec
M204 P1250 R1250 T1250 ; sets acceleration (P, T) and retract acceleration (R), mm/sec^2
M205 X8.00 Y8.00 Z2.00 E10.00 ; sets the jerk limits, mm/sec
M205 S0 T0 ; sets the minimum extruding and travel feed rate, mm/sec
M107
;TYPE:Custom
G90 ; use absolute coordinates
M83 ; extruder relative mode
M104 S170 ; set extruder temp for bed leveling
M140 S60 ; set bed temp
M109 R170 ; wait for bed leveling temp
M190 S60 ; wait for bed temp
G28 ; home all without mesh bed level
G29 ; mesh bed leveling 
M104 S215 ; set extruder temp
G92 E0.0
G1 Y-2.0 X179 F2400
G1 Z3 F720
M109 S215 ; wait for extruder temp

; intro line
G1 X170 F1000
G1 Z0.2 F720
G1 X110.0 E8.0 F900
G1 X40.0 E10.0 F700
G92 E0.0

M221 S95 ; set flow
G21 ; set units to millimeters
G90 ; use absolute coordinates
M83 ; use relative distances for extrusion
M900 K0.2 ; Filament gcode LA 1.5
; ; Filament gcode LA 1.0
;LAYER_CHANGE
;Z:0.2
;HEIGHT:0.2
;BEFORE_LAYER_CHANGE
G92 E0.0
;0.2


G1 E-3.20000 F4200.000
G1 Z0.200 F9000.000
;AFTER_LAYER_CHANGE
;0.2
G1 Z0.400
G1 X58.775 Y123.396
G1 Z0.200
G1 E3.20000 F2400.000
M204 S800
;TYPE:Skirt
;WIDTH:0.42
G1 F1200.000
G1 X58.251 Y123.081 E0.01917
G1 X57.827 Y122.646 E0.01906
G1 X57.527 Y122.118 E0.01906
G1 X57.370 Y121.527 E0.01917
G1 X53.191 Y87.821 E1.06489
G1 X53.237 Y86.346 E0.04629
G1 X53.409 Y85.563 E0.02514
G1 X53.693 Y84.779 E0.02613
G1 X54.378 Y83.601 E0.04272
G1 X55.193 Y82.701 E0.03806
M73 P1 R31
G1 X84.146 Y57.813 E1.19711
G1 X85.055 Y57.192 E0.03450
G1 X85.914 Y56.795 E0.02967
G1 X86.956 Y56.507 E0.03391
G1 X88.080 Y56.405 E0.03538
G1 X89.151 Y56.501 E0.03372
G1 X90.062 Y56.735 E0.02951
G1 X91.051 Y57.171 E0.03387
G1 X91.956 Y57.780 E0.03419
G1 X124.157 Y84.261 E1.30721
G1 X124.956 Y85.030 E0.03479
G1 X125.661 Y85.957 E0.03650
G1 X126.169 Y86.887 E0.03320
G1 X126.488 Y87.716 E0.02786
G1 X126.740 Y88.778 E0.03422
G1 X126.829 Y89.683 E0.02852
G1 X126.833 Y116.529 E0.84173
G1 X126.635 Y117.465 E0.03001
G1 X126.357 Y117.941 E0.01728
G1 X125.977 Y118.340 E0.01728
G1 X125.516 Y118.641 E0.01728
G1 X124.997 Y118.828 E0.01728
G1 X100.484 Y123.586 E0.78295
G1 X59.716 Y123.595 E1.27826
G1 X58.834 Y123.409 E0.02824
M204 S1250
; printing object RightBoardCradle_04.stl id:1 copy 0
G1 E-2.24000 F4200.000
;WIPE_START
G1 F7200.000
G1 X58.251 Y123.081 E-0.37049
G1 X57.827 Y122.646 E-0.33681
G1 X57.644 Y122.325 E-0.20470
;WIPE_END
G1 E-0.04800 F4200.000
G1 Z0.400 F9000.000
G1 X76.817 Y117.744
G1 Z0.200
G1 E3.20000 F2400.000
M204 S800
;TYPE:Perimeter
G1 F1200.000
G1 X76.694 Y117.287 E0.01484
G1 X76.666 Y116.937 E0.01101
G1 X76.691 Y116.596 E0.01074
G1 X76.817 Y116.129 E0.01516
G1 X77.037 Y115.710 E0.01484
G1 X77.255 Y115.434 E0.01102
G1 X77.506 Y115.201 E0.01074
G1 X77.915 Y114.944 E0.01518
G1 X78.382 Y114.781 E0.01550
G1 X78.852 Y114.727 E0.01484
G1 X79.214 Y114.752 E0.01136
G1 X79.672 Y114.875 E0.01487
G1 X79.989 Y115.028 E0.01104
G1 X80.379 Y115.315 E0.01518
G1 X80.701 Y115.690 E0.01550
G1 X80.923 Y116.108 E0.01484
G1 X81.031 Y116.454 E0.01136
G1 X81.086 Y116.936 E0.01521
G1 X81.032 Y117.417 E0.01518
G1 X80.931 Y117.743 E0.01070
G1 X80.783 Y118.050 E0.01070
G1 X80.495 Y118.440 E0.01518
G1 X80.120 Y118.763 E0.01552
G1 X79.692 Y118.989 E0.01518
G1 X79.356 Y119.093 E0.01104
G1 X78.875 Y119.147 E0.01518
G1 X78.383 Y119.091 E0.01552
G1 X77.915 Y118.928 E0.01552
G1 X77.506 Y118.670 E0.01518
G1 X77.256 Y118.438 E0.01070
G1 X77.043 Y118.172 E0.01070
G1 X76.845 Y117.797 E0.01328
M204 S1250
G1 X77.178 Y117.621 F9000.000
M204 S800
;TYPE:External perimeter
G1 F1200.000
G1 X77.067 Y117.223 E0.01297
G1 X77.044 Y116.936 E0.00901
G1 X77.065 Y116.659 E0.00872
G1 X77.170 Y116.267 E0.01273
G1 X77.354 Y115.916 E0.01242
G1 X77.532 Y115.691 E0.00901
G1 X77.736 Y115.502 E0.00872
G1 X78.080 Y115.286 E0.01273
G1 X78.467 Y115.150 E0.01285
G1 X78.861 Y115.105 E0.01242
G1 X79.151 Y115.126 E0.00913
G1 X79.540 Y115.230 E0.01262
G1 X79.794 Y115.352 E0.00883
G1 X80.120 Y115.593 E0.01273
G1 X80.388 Y115.904 E0.01285
G1 X80.574 Y116.254 E0.01242
G1 X80.661 Y116.532 E0.00913
G1 X80.706 Y116.936 E0.01275
G1 X80.661 Y117.340 E0.01273
G1 X80.579 Y117.605 E0.00870
G1 X80.459 Y117.855 E0.00870
G1 X80.217 Y118.182 E0.01273
G1 X79.906 Y118.449 E0.01286
G1 X79.547 Y118.639 E0.01273
G1 X79.278 Y118.722 E0.00883
G1 X78.875 Y118.767 E0.01273
G1 X78.467 Y118.721 E0.01286
G1 X78.080 Y118.586 E0.01286
G1 X77.736 Y118.370 E0.01273
G1 X77.533 Y118.181 E0.00870
G1 X77.360 Y117.964 E0.00870
G1 X77.206 Y117.674 E0.01029
M204 S1250
G1 X76.783 Y117.560 F9000.000
G1 E-2.24000 F4200.000
;WIPE_START
G1 F7200.000
G1 X77.067 Y117.223 E-0.26182
G1 X77.044 Y116.936 E-0.15921
G1 X77.065 Y116.659 E-0.15407
G1 X77.170 Y116.267 E-0.22496
G1 X77.264 Y116.088 E-0.11194
;WIPE_END
G1 E-0.04800 F4200.000
G1 Z0.400 F9000.000
G1 X72.794 Y105.562
G1 Z0.200
G1 E3.20000 F2400.000
M204 S800
;TYPE:Perimeter
G1 F1200.000
G1 X99.488 Y105.562 E0.83695
G1 X99.488 Y120.431 E0.46618
G1 X60.422 Y120.431 E1.22487
G1 X56.358 Y87.678 E1.03481
G1 X56.339 Y87.369 E0.00972
G1 X56.561 Y87.352 E0.00697
G1 X56.603 Y87.798 E0.01406
G1 X56.750 Y88.302 E0.01646
G1 X56.988 Y88.770 E0.01646
G1 X57.304 Y89.178 E0.01617
G1 X57.566 Y89.424 E0.01127
G1 X57.857 Y89.635 E0.01127
G1 X58.317 Y89.869 E0.01617
G1 X58.821 Y90.016 E0.01646
G1 X59.344 Y90.065 E0.01646
G1 X59.866 Y90.016 E0.01646
G1 X60.371 Y89.869 E0.01646
G1 X60.839 Y89.630 E0.01650
G1 X61.256 Y89.305 E0.01658
G1 X61.492 Y89.052 E0.01084
G1 X61.703 Y88.762 E0.01126
G1 X61.938 Y88.302 E0.01617
G1 X62.084 Y87.798 E0.01646
G1 X62.134 Y87.274 E0.01650
G1 X62.082 Y86.748 E0.01658
G1 X61.995 Y86.413 E0.01084
G1 X61.863 Y86.080 E0.01126
G1 X61.584 Y85.607 E0.01720
G1 X61.760 Y85.488 E0.00666
G1 X61.994 Y85.842 E0.01330
G1 X72.765 Y105.510 E0.70311
M204 S1250
M73 P2 R31
G1 E-2.24000 F4200.000
;WIPE_START
G1 F7200.000
G1 X74.411 Y105.513 E-0.91200
;WIPE_END
G1 E-0.04800 F4200.000
G1 Z0.400 F9000.000
G1 X61.569 Y85.599
G1 Z0.200
G1 E3.20000 F2400.000
M204 S800
G1 F1200.000
G1 X61.236 Y85.222 E0.01578
G1 X61.397 Y85.072 E0.00691
G1 X61.588 Y85.267 E0.00855
G1 X61.738 Y85.460 E0.00765
G1 X61.615 Y85.561 E0.00499
M204 S1250
G1 X61.194 Y85.195 F9000.000
M204 S800
G1 F1200.000
G1 X60.828 Y84.911 E0.01453
G1 X60.949 Y84.735 E0.00671
G1 X61.084 Y84.818 E0.00496
G1 X61.333 Y85.020 E0.01006
G1 X61.231 Y85.148 E0.00513
M204 S1250
G1 X60.811 Y84.906 F9000.000
M204 S800
G1 F1200.000
G1 X60.417 Y84.705 E0.01385
G1 X60.511 Y84.507 E0.00689
G1 X60.734 Y84.604 E0.00765
G1 X60.917 Y84.716 E0.00671
G1 X60.840 Y84.853 E0.00494
M204 S1250
G1 X60.407 Y84.692 F9000.000
M204 S800
G1 F1200.000
G1 X59.871 Y84.536 E0.01749
G1 X59.921 Y84.327 E0.00676
G1 X60.105 Y84.361 E0.00587
G1 X60.479 Y84.492 E0.01243
G1 X60.427 Y84.635 E0.00477
M204 S1250
G1 X59.856 Y84.534 F9000.000
M204 S800
G1 F1200.000
G1 X59.285 Y84.482 E0.01797
G1 X59.290 Y84.270 E0.00664
G1 X59.689 Y84.283 E0.01252
G1 X59.886 Y84.320 E0.00626
G1 X59.864 Y84.474 E0.00488
M204 S1250
G1 X58.982 Y84.511 F9000.000
M204 S800
G1 F1200.000
G1 X58.641 Y84.576 E0.01087
G1 X58.156 Y84.751 E0.01617
G1 X57.704 Y85.018 E0.01646
G1 X57.310 Y85.366 E0.01646
G1 X56.965 Y85.810 E0.01764
G1 X56.789 Y85.691 E0.00665
G1 X57.021 Y85.358 E0.01273
G1 X57.199 Y85.160 E0.00835
G1 X57.517 Y84.881 E0.01326
G1 X57.973 Y84.593 E0.01690
G1 X58.479 Y84.390 E0.01711
G1 X58.944 Y84.292 E0.01488
G1 X58.971 Y84.452 E0.00509
M204 S1250
G1 X59.795 Y84.907 F9000.000
M204 S800
;TYPE:External perimeter
G1 F1200.000
G1 X60.231 Y85.034 E0.01424
G1 X60.636 Y85.240 E0.01423
G1 X60.994 Y85.518 E0.01423
G1 X61.294 Y85.858 E0.01423
G1 X61.524 Y86.246 E0.01412
G1 X61.636 Y86.530 E0.00959
G1 X61.709 Y86.814 E0.00919
G1 X61.755 Y87.275 E0.01452
G1 X61.712 Y87.727 E0.01424
G1 X61.585 Y88.163 E0.01423
G1 X61.381 Y88.564 E0.01412
G1 X61.201 Y88.812 E0.00959
G1 X61.001 Y89.026 E0.00919
G1 X60.636 Y89.311 E0.01452
G1 X60.231 Y89.517 E0.01424
G1 X59.795 Y89.644 E0.01423
G1 X59.344 Y89.686 E0.01423
G1 X58.892 Y89.644 E0.01423
G1 X58.456 Y89.517 E0.01423
G1 X58.055 Y89.313 E0.01412
G1 X57.807 Y89.133 E0.00960
G1 X57.584 Y88.923 E0.00960
G1 X57.308 Y88.567 E0.01412
G1 X57.102 Y88.163 E0.01423
G1 X56.975 Y87.727 E0.01423
G1 X56.933 Y87.275 E0.01423
G1 X56.975 Y86.824 E0.01423
G1 X57.102 Y86.388 E0.01423
G1 X57.308 Y85.983 E0.01423
G1 X57.586 Y85.625 E0.01423
G1 X57.926 Y85.325 E0.01423
G1 X58.317 Y85.094 E0.01423
G1 X58.741 Y84.941 E0.01412
G1 X59.041 Y84.884 E0.00959
G1 X59.334 Y84.865 E0.00919
G1 X59.735 Y84.901 E0.01264
M204 S1250
G1 X60.059 Y84.607 F9000.000
G1 E-2.24000 F4200.000
;WIPE_START
G1 F7200.000
G1 X60.231 Y85.034 E-0.28441
G1 X60.636 Y85.240 E-0.25148
G1 X60.994 Y85.518 E-0.25148
G1 X61.143 Y85.686 E-0.12464
;WIPE_END
G1 E-0.04800 F4200.000
G1 Z0.400 F9000.000
G1 X56.965 Y85.825
G1 Z0.200
G1 E3.20000 F2400.000
M204 S800
;TYPE:Perimeter
G1 F1200.000
G1 X56.750 Y86.248 E0.01489
G1 X56.603 Y86.753 E0.01646
G1 X56.550 Y87.321 E0.01790
G1 X56.328 Y87.304 E0.00696
G1 X56.380 Y86.728 E0.01813
G1 X56.450 Y86.438 E0.00938
G1 X56.549 Y86.147 E0.00962
G1 X56.773 Y85.720 E0.01513
G1 X56.913 Y85.796 E0.00500
M204 S1250
G1 E-2.24000 F4200.000
;WIPE_START
G1 F7200.000
G1 X56.750 Y86.248 E-0.26631
G1 X56.603 Y86.753 E-0.29099
G1 X56.550 Y87.321 E-0.31629
G1 X56.480 Y87.316 E-0.03842
;WIPE_END
G1 E-0.04800 F4200.000
G1 Z0.400 F9000.000
G1 X73.018 Y105.185
G1 Z0.200
G1 E3.20000 F2400.000
M204 S800
;TYPE:External perimeter
G1 F1200.000
G1 X99.865 Y105.185 E0.84177
G1 X99.865 Y120.808 E0.48983
G1 X60.089 Y120.808 E1.24713
G1 X55.982 Y87.713 E1.04564
G1 X55.954 Y87.240 E0.01484
G1 X55.971 Y86.936 E0.00956
G1 X56.016 Y86.631 E0.00964
G1 X56.088 Y86.333 E0.00964
G1 X56.186 Y86.041 E0.00964
G1 X56.310 Y85.763 E0.00956
G1 X56.544 Y85.365 E0.01448
G1 X56.730 Y85.117 E0.00969
G1 X56.934 Y84.891 E0.00956
G1 X57.284 Y84.584 E0.01460
G1 X57.534 Y84.409 E0.00956
G1 X57.801 Y84.257 E0.00964
G1 X58.081 Y84.130 E0.00964
G1 X58.371 Y84.028 E0.00964
G1 X58.669 Y83.953 E0.00964
G1 X58.971 Y83.906 E0.00956
G1 X59.432 Y83.887 E0.01448
G1 X59.738 Y83.909 E0.00962
G1 X60.195 Y83.994 E0.01460
G1 X60.485 Y84.083 E0.00949
G1 X60.909 Y84.269 E0.01453
G1 X61.302 Y84.509 E0.01445
G1 X61.658 Y84.799 E0.01440
G1 X61.873 Y85.019 E0.00962
G1 X62.158 Y85.386 E0.01460
G1 X62.320 Y85.653 E0.00978
G1 X72.989 Y105.133 E0.69637
M204 S1250
G1 X73.084 Y105.580 F9000.000
G1 E-2.24000 F4200.000
;WIPE_START
G1 F7200.000
G1 X74.635 Y105.136 E-0.91200
;WIPE_END
G1 E-0.04800 F4200.000
G1 Z0.400 F9000.000
G1 X62.316 Y87.595
G1 Z0.200
G1 E3.20000 F2400.000
M204 S800
;TYPE:Gap fill
;WIDTH:0.121255
G1 F1200.000
G1 X62.346 Y87.437 E0.00105
M204 S1250
M204 S800
;WIDTH:0.15216
G1 X62.377 Y87.269 E0.00156
M204 S1250
M204 S800
;WIDTH:0.178891
G1 X62.391 Y87.126 E0.00162
M204 S1250
M204 S800
;WIDTH:0.205625
G1 X62.404 Y86.983 E0.00194
M204 S1250
G1 E-2.24000 F4200.000
;WIPE_START
G1 F7200.000
G1 X62.391 Y87.126 E-0.07946
;WIPE_END
G1 E-0.88054 F4200.000
G1 Z0.400 F9000.000
G1 X56.965 Y89.086
G1 Z0.200
G1 E3.20000 F2400.000
M204 S800
;WIDTH:0.129252
G1 F1200.000
G1 X56.748 Y88.837 E0.00237
G1 X56.688 Y88.643 E0.00146
M204 S1250
G1 E-2.24000 F4200.000
;WIPE_START
G1 F7200.000
G1 X56.748 Y88.837 E-0.11248
G1 X56.965 Y89.086 E-0.18318
;WIPE_END
G1 E-0.66434 F4200.000
G1 Z0.400 F9000.000
G1 X98.609 Y105.676
G1 Z0.200
G1 E3.20000 F2400.000
M204 S800
;TYPE:Solid infill
;WIDTH:0.421699
G1 F1200.000
G1 X99.205 Y106.272 E0.02656
G1 X99.205 Y106.807 E0.01687
G1 X98.243 Y105.845 E0.04286
G1 X97.707 Y105.845 E0.01687
G1 X99.205 Y107.343 E0.06672
G1 X99.205 Y107.879 E0.01687
G1 X97.171 Y105.845 E0.09058
G1 X96.636 Y105.845 E0.01687
G1 X99.205 Y108.414 E0.11444
G1 X99.205 Y108.950 E0.01687
G1 X96.100 Y105.845 E0.13830
G1 X95.564 Y105.845 E0.01687
G1 X99.205 Y109.486 E0.16216
G1 X99.205 Y110.021 E0.01687
G1 X95.029 Y105.845 E0.18602
G1 X94.493 Y105.845 E0.01687
G1 X99.205 Y110.557 E0.20988
G1 X99.205 Y111.093 E0.01687
G1 X93.957 Y105.845 E0.23373
G1 X93.422 Y105.845 E0.01687
G1 X99.205 Y111.628 E0.25759
G1 X99.205 Y112.164 E0.01687
G1 X92.886 Y105.845 E0.28145
G1 X92.350 Y105.845 E0.01687
G1 X99.205 Y112.700 E0.30531
G1 X99.205 Y113.235 E0.01687
G1 X91.815 Y105.845 E0.32917
G1 X91.279 Y105.845 E0.01687
G1 X99.205 Y113.771 E0.35303
G1 X99.205 Y114.307 E0.01687
G1 X90.743 Y105.845 E0.37689
M73 P2 R30
G1 X90.208 Y105.845 E0.01687
G1 X99.205 Y114.843 E0.40075
M73 P3 R30
G1 X99.205 Y115.378 E0.01687
G1 X89.672 Y105.845 E0.42461
G1 X89.136 Y105.845 E0.01687
G1 X99.205 Y115.914 E0.44847
G1 X99.205 Y116.450 E0.01687
G1 X88.601 Y105.845 E0.47233
G1 X88.065 Y105.845 E0.01687
G1 X99.205 Y116.985 E0.49619
G1 X99.205 Y117.521 E0.01687
G1 X87.529 Y105.845 E0.52005
G1 X86.994 Y105.845 E0.01687
G1 X99.205 Y118.057 E0.54391
G1 X99.205 Y118.592 E0.01687
G1 X86.458 Y105.845 E0.56777
G1 X85.922 Y105.845 E0.01687
G1 X99.205 Y119.128 E0.59163
G1 X99.205 Y119.664 E0.01687
G1 X85.387 Y105.845 E0.61549
G1 X84.851 Y105.845 E0.01687
G1 X99.154 Y120.148 E0.63706
G1 X98.618 Y120.148 E0.01687
G1 X84.315 Y105.845 E0.63706
G1 X83.780 Y105.845 E0.01687
G1 X98.082 Y120.148 E0.63706
G1 X97.547 Y120.148 E0.01687
G1 X83.244 Y105.845 E0.63706
G1 X82.708 Y105.845 E0.01687
G1 X97.011 Y120.148 E0.63706
G1 X96.475 Y120.148 E0.01687
G1 X82.172 Y105.845 E0.63706
G1 X81.637 Y105.845 E0.01687
G1 X95.939 Y120.148 E0.63706
G1 X95.404 Y120.148 E0.01687
G1 X81.101 Y105.845 E0.63706
G1 X80.565 Y105.845 E0.01687
G1 X94.868 Y120.148 E0.63706
G1 X94.332 Y120.148 E0.01687
G1 X80.030 Y105.845 E0.63706
M73 P4 R30
G1 X79.494 Y105.845 E0.01687
G1 X93.797 Y120.148 E0.63706
G1 X93.261 Y120.148 E0.01687
G1 X78.958 Y105.845 E0.63706
G1 X78.423 Y105.845 E0.01687
G1 X92.725 Y120.148 E0.63706
G1 X92.190 Y120.148 E0.01687
G1 X77.887 Y105.845 E0.63706
G1 X77.351 Y105.845 E0.01687
G1 X91.654 Y120.148 E0.63706
G1 X91.118 Y120.148 E0.01687
G1 X76.816 Y105.845 E0.63706
G1 X76.280 Y105.845 E0.01687
G1 X90.583 Y120.148 E0.63706
G1 X90.047 Y120.148 E0.01687
G1 X75.744 Y105.845 E0.63706
G1 X75.209 Y105.845 E0.01687
G1 X89.511 Y120.148 E0.63706
G1 X88.976 Y120.148 E0.01687
G1 X74.673 Y105.845 E0.63706
G1 X74.137 Y105.845 E0.01687
G1 X88.440 Y120.148 E0.63706
G1 X87.904 Y120.148 E0.01687
G1 X73.432 Y105.676 E0.64462
M204 S1250
G1 E-2.24000 F4200.000
;WIPE_START
G1 F7200.000
G1 X74.596 Y106.839 E-0.91200
;WIPE_END
G1 E-0.04800 F4200.000
G1 Z0.400 F9000.000
G1 X62.458 Y87.738
G1 Z0.200
G1 E3.20000 F2400.000
M204 S800
G1 F1200.000
G1 X63.014 Y88.294 E0.02479
G1 X63.663 Y89.478 E0.04253
G1 X62.289 Y88.105 E0.06118
G1 X62.202 Y88.407 E0.00991
G1 X62.152 Y88.504 E0.00342
G1 X64.312 Y90.663 E0.09617
G1 X64.960 Y91.847 E0.04253
G1 X61.972 Y88.858 E0.13312
G1 X61.753 Y89.175 E0.01213
G1 X65.609 Y93.031 E0.17176
G1 X66.257 Y94.216 E0.04253
G1 X61.500 Y89.458 E0.21191
G1 X61.208 Y89.701 E0.01198
G1 X66.906 Y95.400 E0.25381
G1 X67.555 Y96.584 E0.04253
G1 X60.892 Y89.921 E0.29678
G1 X60.537 Y90.102 E0.01254
G1 X68.203 Y97.768 E0.34147
G1 X68.852 Y98.953 E0.04253
G1 X60.132 Y90.233 E0.38839
G1 X59.920 Y90.295 E0.00697
G1 X59.681 Y90.317 E0.00755
G1 X69.500 Y100.137 E0.43738
G1 X70.149 Y101.321 E0.04253
G1 X59.160 Y90.332 E0.48949
G1 X58.768 Y90.295 E0.01240
G1 X58.513 Y90.221 E0.00836
G1 X70.798 Y102.506 E0.54718
M73 P5 R30
G1 X71.446 Y103.690 E0.04253
G1 X57.433 Y89.676 E0.62417
G1 X57.086 Y89.358 E0.01482
G1 X56.894 Y89.533 E0.00820
G1 X56.869 Y89.505 E0.00117
G1 X56.890 Y89.669 E0.00519
G1 X72.095 Y104.874 E0.67726
G1 X72.627 Y105.845 E0.03487
G1 X73.066 Y105.845 E0.01384
G1 X87.369 Y120.148 E0.63706
G1 X86.833 Y120.148 E0.01687
G1 X56.966 Y90.280 E1.33034
G1 X57.041 Y90.892 E0.01941
G1 X86.297 Y120.148 E1.30310
G1 X85.762 Y120.148 E0.01687
G1 X57.117 Y91.504 E1.27586
G1 X57.193 Y92.115 E0.01941
