; generated by PrusaSlicer 2.2.0+win64 on 2020-11-10 at 21:02:31 UTC


;
;

;
;
; 

; external perimeters extrusion width = 0.45mm
; perimeters extrusion width = 0.45mm
; infill extrusion width = 0.45mm
; solid infill extrusion width = 0.45mm
; top infill extrusion width = 0.40mm
; first layer extrusion width = 0.42mm

M73 P0 R17
M201 X1250 Y1250 Z400 E5000 ; sets maximum accelerations, mm/sec^2
M203 X180 Y180 Z12 E80 ; sets maximum feedrates, mm/sec
M204 P1250 R1250 T1250 ; sets acceleration (P, T) and retract acceleration (R), mm/sec^2
M205 X8.00 Y8.00 Z2.00 E10.00 ; sets the jerk limits, mm/sec
M205 S0 T0 ; sets the minimum extruding and travel feed rate, mm/sec
M107
G90 ; use absolute coordinates
M83 ; extruder relative mode
M104 S170 ; set extruder temp for bed leveling
M140 S60 ; set bed temp
M109 R170 ; wait for bed leveling temp
M190 S60 ; wait for bed temp
G28 ; home all without mesh bed level
G29 ; mesh bed leveling 
M104 S215 ; set extruder temp
G92 E0.0
G1 Y-2.0 X179 F2400
G1 Z3 F720
M109 S215 ; wait for extruder temp

; intro line
G1 X170 F1000
G1 Z0.2 F720
G1 X110.0 E8.0 F900
M73 P0 R17
G1 X40.0 E10.0 F700
G92 E0.0

M221 S95 ; set flow
G21 ; set units to millimeters
G90 ; use absolute coordinates
M83 ; use relative distances for extrusion
M900 K0.2 ; Filament gcode LA 1.5
; ; Filament gcode LA 1.0
;BEFORE_LAYER_CHANGE
G92 E0.0
;0.2


G1 Z0.200 F9000.000
;AFTER_LAYER_CHANGE
;0.2
G1 E-3.20000 F4200.00000
G1 Z0.400 F9000.000
G1 X10.199 Y8.443
G1 Z0.200
G1 E3.20000 F2400.00000
M204 S800
G1 F1200.000
G1 X10.961 Y7.915 E0.02907
G1 X11.868 Y7.719 E0.02907
G1 X148.810 Y7.718 E4.29374
G1 X149.642 Y7.870 E0.02649
G1 X150.364 Y8.300 E0.02637
G1 X150.894 Y8.958 E0.02649
G1 X151.160 Y9.760 E0.02649
G1 X171.797 Y169.604 E5.05339
G1 X171.733 Y170.529 E0.02907
G1 X171.319 Y171.359 E0.02907
G1 X170.620 Y171.968 E0.02907
G1 X169.737 Y172.263 E0.02919
G1 X150.012 Y172.282 E0.61846
G1 X149.391 Y172.197 E0.01965
G1 X101.338 Y153.509 E1.61660
G1 X96.950 Y151.670 E0.14919
G1 X93.449 Y149.971 E0.12201
G1 X89.849 Y147.989 E0.12884
G1 X86.126 Y145.699 E0.13705
G1 X81.546 Y142.564 E0.17403
G1 X76.900 Y139.060 E0.18246
G1 X73.444 Y136.181 E0.14102
G1 X70.706 Y133.588 E0.11826
G1 X68.434 Y131.083 E0.10601
G1 X66.507 Y128.551 E0.09978
G1 X64.652 Y125.613 E0.10894
G1 X63.044 Y122.600 E0.10709
G1 X9.761 Y11.117 E3.87420
G1 X9.594 Y10.640 E0.01585
G1 X9.531 Y10.138 E0.01585
G1 X9.695 Y9.226 E0.02907
G1 X10.167 Y8.493 E0.02731
M204 S1250
G1 E-2.24000 F4200.00000
G1 F7200.000
G1 X10.961 Y7.915 E-0.54470
G1 X11.609 Y7.775 E-0.36730
G1 E-0.04800 F4200.00000
G1 Z0.400 F9000.000
G1 X13.551 Y10.822
G1 Z0.200
G1 E3.20000 F2400.00000
M204 S800
G1 F1200.000
G1 X13.820 Y10.858 E0.00852
G1 X14.838 Y10.882 E0.03192
G1 X29.347 Y10.882 E0.45491
G1 X29.983 Y11.200 E0.02231
G1 X30.552 Y11.518 E0.02042
G1 X30.975 Y11.793 E0.01582
G1 X31.410 Y12.142 E0.01750
G1 X31.652 Y12.389 E0.01084
G1 X31.862 Y12.657 E0.01068
G1 X32.068 Y12.993 E0.01235
G1 X32.270 Y13.412 E0.01460
G1 X32.468 Y13.925 E0.01724
G1 X32.613 Y14.369 E0.01463
G1 X33.108 Y16.070 E0.05555
G1 X33.580 Y17.557 E0.04894
G1 X34.297 Y19.554 E0.06652
G1 X34.908 Y21.077 E0.05146
G1 X35.354 Y22.113 E0.03536
G1 X36.083 Y23.698 E0.05471
G1 X36.619 Y24.794 E0.03824
G1 X37.506 Y26.505 E0.06043
G1 X38.168 Y27.720 E0.04339
G1 X39.683 Y30.346 E0.09504
G1 X41.365 Y33.094 E0.10103
G1 X42.141 Y34.308 E0.04518
G1 X43.255 Y35.981 E0.06301
G1 X44.687 Y38.007 E0.07779
G1 X45.388 Y38.943 E0.03667
G1 X46.421 Y40.261 E0.05250
G1 X47.107 Y41.094 E0.03385
G1 X48.129 Y42.272 E0.04888
G1 X48.812 Y43.020 E0.03177
G1 X49.833 Y44.079 E0.04613
G1 X50.521 Y44.754 E0.03021
G1 X51.558 Y45.715 E0.04432
G1 X52.260 Y46.329 E0.02924
G1 X53.314 Y47.197 E0.04283
G1 X54.026 Y47.749 E0.02824
G1 X55.093 Y48.523 E0.04134
G1 X55.812 Y49.012 E0.02727
G1 X56.890 Y49.696 E0.04002
G1 X58.331 Y50.520 E0.05203
G1 X59.457 Y51.096 E0.03966
G1 X61.039 Y51.816 E0.05451
G1 X62.306 Y52.325 E0.04281
G1 X64.100 Y52.958 E0.05964
G1 X65.548 Y53.404 E0.04750
G1 X67.617 Y53.956 E0.06717
G1 X69.325 Y54.348 E0.05493
G1 X71.861 Y54.841 E0.08099
G1 X74.001 Y55.192 E0.06800
G1 X76.159 Y55.497 E0.06832
G1 X79.025 Y55.825 E0.09046
G1 X81.172 Y56.012 E0.06758
G1 X83.313 Y56.151 E0.06727
G1 X85.450 Y56.240 E0.06706
G1 X88.288 Y56.282 E0.08899
G1 X91.123 Y56.236 E0.08890
G1 X93.333 Y56.141 E0.06936
G1 X96.469 Y55.923 E0.09858
G1 X99.022 Y55.684 E0.08041
G1 X102.538 Y55.279 E0.11095
G1 X105.140 Y54.916 E0.08237
G1 X107.274 Y54.545 E0.06791
G1 X109.144 Y54.142 E0.05998
G1 X110.831 Y53.697 E0.05472
G1 X112.380 Y53.203 E0.05097
G1 X113.835 Y52.649 E0.04881
G1 X115.300 Y51.993 E0.05032
G1 X116.789 Y51.225 E0.05255
G1 X118.307 Y50.338 E0.05513
G1 X119.858 Y49.324 E0.05809
G1 X121.446 Y48.173 E0.06150
G1 X123.064 Y46.888 E0.06477
G1 X124.683 Y45.486 E0.06717
G1 X126.208 Y44.054 E0.06558
G1 X127.857 Y42.385 E0.07359
G1 X129.544 Y40.545 E0.07825
G1 X130.851 Y39.028 E0.06277
G1 X132.586 Y36.895 E0.08621
G1 X134.225 Y34.744 E0.08479
G1 X135.763 Y32.583 E0.08317
G1 X136.498 Y31.496 E0.04113
G1 X137.549 Y29.868 E0.06076
G1 X138.874 Y27.675 E0.08037
G1 X140.139 Y25.411 E0.08128
G1 X141.347 Y23.066 E0.08271
G1 X142.504 Y20.626 E0.08469
G1 X143.343 Y18.719 E0.06532
G1 X144.848 Y15.050 E0.12434
G1 X145.588 Y13.348 E0.05819
G1 X145.907 Y12.676 E0.02331
G1 X146.363 Y11.796 E0.03106
G1 X146.898 Y10.882 E0.03322
G1 X147.624 Y10.882 E0.02276
G1 X138.722 Y32.175 E0.72361
G1 X124.071 Y48.442 E0.68640
G1 X108.117 Y56.116 E0.55510
G1 X81.423 Y59.129 E0.84230
G1 X60.387 Y52.938 E0.68754
G1 X59.724 Y53.717 E0.03208
G1 X63.181 Y60.899 E0.24991
G1 X63.427 Y61.372 E0.01670
G1 X63.616 Y61.666 E0.01098
G1 X63.215 Y61.508 E0.01352
G1 X61.439 Y60.952 E0.05836
G1 X59.549 Y60.290 E0.06277
G1 X58.202 Y59.761 E0.04538
G1 X56.901 Y59.201 E0.04441
G1 X56.062 Y58.812 E0.02898
G1 X54.833 Y58.200 E0.04307
G1 X53.614 Y57.539 E0.04347
G1 X52.811 Y57.073 E0.02912
G1 X51.607 Y56.328 E0.04438
G1 X50.817 Y55.807 E0.02969
G1 X48.861 Y54.422 E0.07513
G1 X47.866 Y55.242 E0.04045
G1 X49.385 Y58.514 E0.11313
G1 X50.808 Y61.701 E0.10943
G1 X52.334 Y65.255 E0.12126
G1 X53.915 Y69.062 E0.12926
G1 X56.342 Y75.107 E0.20424
G1 X62.082 Y89.718 E0.49221
G1 X66.450 Y100.704 E0.37067
G1 X70.779 Y111.459 E0.36353
G1 X71.484 Y113.158 E0.05767
G1 X72.321 Y115.093 E0.06609
G1 X73.055 Y116.689 E0.05508
G1 X73.976 Y118.526 E0.06443
G1 X74.864 Y120.120 E0.05721
G1 X75.729 Y121.504 E0.05118
G1 X76.579 Y122.710 E0.04626
G1 X77.520 Y123.881 E0.04712
G1 X78.632 Y125.112 E0.05201
G1 X79.931 Y126.408 E0.05752
G1 X81.059 Y127.444 E0.04802
G1 X81.920 Y128.193 E0.03578
G1 X83.970 Y129.876 E0.08316
G1 X85.754 Y131.260 E0.07079
G1 X87.063 Y132.243 E0.05133
G1 X89.558 Y134.040 E0.09641
G1 X91.944 Y135.657 E0.09037
G1 X94.237 Y137.112 E0.08515
G1 X96.451 Y138.417 E0.08057
G1 X97.536 Y139.020 E0.03894
G1 X99.131 Y139.862 E0.05655
G1 X101.220 Y140.879 E0.07284
G1 X102.897 Y141.628 E0.05759
G1 X105.411 Y142.658 E0.08517
G1 X107.586 Y143.479 E0.07290
G1 X109.232 Y144.068 E0.05482
G1 X111.814 Y144.948 E0.08553
G1 X120.500 Y147.758 E0.28625
G1 X125.650 Y149.485 E0.17030
G1 X126.359 Y148.413 E0.04028
G1 X124.303 Y146.074 E0.09765
G1 X122.849 Y144.339 E0.07097
G1 X121.418 Y142.556 E0.07167
G1 X120.018 Y140.734 E0.07206
G1 X118.651 Y138.877 E0.07230
G1 X117.322 Y136.989 E0.07240
G1 X116.033 Y135.074 E0.07238
G1 X114.559 Y132.790 E0.08523
G1 X114.289 Y132.438 E0.01390
G1 X114.752 Y132.536 E0.01484
G1 X115.273 Y132.598 E0.01646
G1 X125.192 Y133.533 E0.31237
G1 X126.784 Y135.713 E0.08465
G1 X128.604 Y138.058 E0.09307
G1 X130.469 Y140.319 E0.09189
G1 X131.903 Y141.968 E0.06852
G1 X132.880 Y143.050 E0.04571
G1 X134.376 Y144.643 E0.06851
G1 X135.400 Y145.695 E0.04602
G1 X137.509 Y147.764 E0.09263
G1 X139.721 Y149.810 E0.09450
G1 X142.058 Y151.848 E0.09722
M73 P6 R16
G1 X144.546 Y153.899 E0.10108
G1 X147.222 Y155.986 E0.10643
G1 X150.142 Y158.146 E0.11386
G1 X153.389 Y160.430 E0.12447
G1 X157.111 Y162.930 E0.14059
G1 X160.394 Y165.056 E0.12264
G1 X166.879 Y169.135 E0.24021
G1 X166.462 Y169.120 E0.01310
G1 X150.213 Y169.118 E0.50947
G1 X148.242 Y168.092 E0.06967
G1 X145.685 Y166.814 E0.08962
G1 X143.216 Y165.630 E0.08586
G1 X141.278 Y164.734 E0.06694
G1 X138.694 Y163.584 E0.08867
G1 X136.656 Y162.709 E0.06954
G1 X133.919 Y161.578 E0.09286
G1 X131.745 Y160.712 E0.07338
G1 X127.570 Y159.124 E0.14006
G1 X123.132 Y157.534 E0.14780
G1 X118.466 Y155.958 E0.15441
G1 X110.738 Y153.464 E0.25462
G1 X107.786 Y152.481 E0.09755
G1 X104.581 Y151.351 E0.10656
G1 X101.834 Y150.304 E0.09217
G1 X99.977 Y149.542 E0.06294
G1 X97.692 Y148.529 E0.07838
G1 X96.022 Y147.727 E0.05809
G1 X94.328 Y146.859 E0.05967
G1 X92.607 Y145.922 E0.06142
G1 X90.856 Y144.911 E0.06342
G1 X89.067 Y143.820 E0.06569
G1 X87.234 Y142.644 E0.06830
G1 X85.347 Y141.373 E0.07133
G1 X83.395 Y139.997 E0.07489
G1 X81.362 Y138.501 E0.07915
G1 X78.855 Y136.572 E0.09916
G1 X77.317 Y135.330 E0.06198
G1 X75.539 Y133.810 E0.07333
G1 X74.365 Y132.740 E0.04983
G1 X72.959 Y131.366 E0.06163
G1 X71.712 Y130.036 E0.05716
G1 X70.599 Y128.734 E0.05369
G1 X69.592 Y127.430 E0.05168
G1 X68.613 Y126.016 E0.05392
G1 X67.634 Y124.446 E0.05802
G1 X66.644 Y122.683 E0.06339
G1 X65.616 Y120.656 E0.07125
G1 X64.787 Y118.881 E0.06144
G1 X63.959 Y116.995 E0.06457
G1 X62.960 Y114.597 E0.08145
G1 X58.791 Y104.244 E0.34993
G1 X54.258 Y92.858 E0.38425
G1 X48.253 Y77.616 E0.51367
G1 X46.842 Y74.079 E0.11938
G1 X45.016 Y69.587 E0.15205
G1 X43.386 Y65.686 E0.13258
G1 X41.394 Y61.091 E0.15702
G1 X39.535 Y56.998 E0.14093
G1 X38.129 Y54.039 E0.10275
G1 X36.609 Y50.959 E0.10769
G1 X34.914 Y47.647 E0.11662
G1 X33.142 Y44.294 E0.11893
G1 X31.612 Y41.466 E0.10082
G1 X28.386 Y35.645 E0.20867
G1 X18.575 Y18.239 E0.62648
G1 X17.836 Y16.977 E0.04585
G1 X16.857 Y15.372 E0.05894
G1 X15.978 Y14.009 E0.05084
G1 X15.169 Y12.834 E0.04474
G1 X14.411 Y11.813 E0.03986
G1 X13.899 Y11.178 E0.02559
G1 X13.596 Y10.862 E0.01373
M204 S1250
G1 E-2.24000 F4200.00000
G1 F7200.000
G1 X13.820 Y10.858 E-0.12427
G1 X14.838 Y10.882 E-0.56411
G1 X15.241 Y10.882 E-0.22362
G1 E-0.04800 F4200.00000
G1 Z0.400 F9000.000
G1 X60.515 Y53.369
G1 Z0.200
G1 E3.20000 F2400.00000
M204 S800
G1 F1200.000
G1 X60.170 Y53.775 E0.01671
G1 X63.518 Y60.730 E0.24204
G1 X63.754 Y61.182 E0.01598
G1 X64.035 Y61.622 E0.01637
G1 X64.352 Y62.007 E0.01563
G1 X64.566 Y62.469 E0.01596
G1 X64.106 Y62.347 E0.01491
G1 X63.619 Y62.073 E0.01751
G1 X63.089 Y61.864 E0.01787
G1 X61.320 Y61.310 E0.05813
G1 X59.418 Y60.643 E0.06319
G1 X58.058 Y60.110 E0.04579
G1 X56.747 Y59.545 E0.04477
G1 X55.899 Y59.152 E0.02931
G1 X54.659 Y58.534 E0.04344
G1 X53.430 Y57.868 E0.04384
G1 X52.617 Y57.396 E0.02946
G1 X51.404 Y56.646 E0.04472
G1 X50.604 Y56.118 E0.03005
G1 X48.879 Y54.896 E0.06629
G1 X48.330 Y55.348 E0.02227
G1 X49.728 Y58.358 E0.10407
G1 X51.153 Y61.550 E0.10960
G1 X52.682 Y65.108 E0.12141
G1 X54.264 Y68.919 E0.12940
G1 X56.692 Y74.968 E0.20436
G1 X62.433 Y89.580 E0.49223
G1 X66.800 Y100.564 E0.37062
G1 X71.128 Y111.317 E0.36344
G1 X71.831 Y113.011 E0.05752
G1 X72.665 Y114.939 E0.06587
G1 X73.395 Y116.525 E0.05475
G1 X74.309 Y118.350 E0.06397
G1 X75.189 Y119.928 E0.05666
G1 X76.043 Y121.295 E0.05055
G1 X76.881 Y122.483 E0.04556
G1 X77.807 Y123.637 E0.04641
G1 X78.905 Y124.852 E0.05136
G1 X80.191 Y126.136 E0.05697
G1 X81.310 Y127.163 E0.04762
G1 X82.163 Y127.905 E0.03545
G1 X84.205 Y129.581 E0.08283
G1 X85.982 Y130.960 E0.07053
G1 X87.286 Y131.939 E0.05112
G1 X89.774 Y133.731 E0.09613
G1 X92.150 Y135.342 E0.09002
G1 X94.434 Y136.790 E0.08478
G1 X96.638 Y138.090 E0.08023
G1 X97.716 Y138.689 E0.03866
G1 X99.302 Y139.525 E0.05623
G1 X101.379 Y140.537 E0.07246
G1 X103.045 Y141.281 E0.05721
G1 X105.549 Y142.307 E0.08482
G1 X107.716 Y143.125 E0.07263
G1 X109.356 Y143.712 E0.05462
G1 X111.933 Y144.590 E0.08535
G1 X120.618 Y147.400 E0.28622
G1 X125.495 Y149.035 E0.16128
G1 X125.885 Y148.446 E0.02216
G1 X124.017 Y146.320 E0.08875
G1 X122.557 Y144.578 E0.07124
G1 X121.122 Y142.789 E0.07192
G1 X119.716 Y140.961 E0.07230
G1 X118.345 Y139.097 E0.07254
G1 X117.011 Y137.203 E0.07264
G1 X115.718 Y135.282 E0.07262
G1 X114.250 Y133.007 E0.08488
G1 X114.003 Y132.685 E0.01273
G1 X113.477 Y132.118 E0.02424
G1 X113.312 Y131.846 E0.00999
G1 X113.840 Y131.884 E0.01660
G1 X114.305 Y132.056 E0.01555
G1 X114.813 Y132.164 E0.01628
G1 X115.313 Y132.223 E0.01578
G1 X125.397 Y133.173 E0.31756
G1 X127.086 Y135.486 E0.08980
G1 X128.899 Y137.823 E0.09273
G1 X130.757 Y140.075 E0.09156
G1 X132.185 Y141.718 E0.06826
G1 X133.158 Y142.794 E0.04549
G1 X134.648 Y144.383 E0.06829
G1 X135.667 Y145.428 E0.04578
G1 X137.769 Y147.491 E0.09232
G1 X139.973 Y149.529 E0.09416
G1 X142.302 Y151.561 E0.09688
G1 X144.782 Y153.605 E0.10075
G1 X147.450 Y155.686 E0.10612
G1 X150.363 Y157.840 E0.11357
G1 X153.603 Y160.119 E0.12421
G1 X157.319 Y162.615 E0.14036
G1 X160.597 Y164.738 E0.12246
G1 X166.868 Y168.689 E0.23239
G1 X167.253 Y168.919 E0.01405
G1 X168.326 Y169.411 E0.03703
G1 X168.745 Y169.691 E0.01579
G1 X167.969 Y169.678 E0.02433
G1 X167.481 Y169.575 E0.01563
G1 X166.965 Y169.515 E0.01628
G1 X166.455 Y169.497 E0.01600
G1 X150.121 Y169.495 E0.51216
G1 X148.070 Y168.428 E0.07246
G1 X145.519 Y167.152 E0.08943
G1 X143.055 Y165.972 E0.08568
G1 X141.122 Y165.078 E0.06677
G1 X138.543 Y163.930 E0.08850
G1 X136.510 Y163.057 E0.06938
G1 X133.777 Y161.927 E0.09271
G1 X131.608 Y161.063 E0.07321
G1 X127.439 Y159.478 E0.13986
G1 X123.008 Y157.890 E0.14758
G1 X118.348 Y156.316 E0.15422
G1 X110.620 Y153.822 E0.25459
G1 X107.664 Y152.838 E0.09771
G1 X104.451 Y151.705 E0.10681
G1 X101.695 Y150.655 E0.09247
G1 X99.829 Y149.889 E0.06325
G1 X97.534 Y148.871 E0.07872
G1 X95.854 Y148.065 E0.05843
G1 X94.152 Y147.193 E0.05998
G1 X92.423 Y146.251 E0.06172
G1 X90.663 Y145.235 E0.06370
G1 X88.867 Y144.140 E0.06597
G1 X87.027 Y142.959 E0.06857
G1 X85.133 Y141.684 E0.07158
G1 X83.174 Y140.303 E0.07514
G1 X81.135 Y138.802 E0.07940
G1 X78.622 Y136.868 E0.09943
G1 X77.076 Y135.620 E0.06229
G1 X75.290 Y134.093 E0.07368
G1 X74.106 Y133.014 E0.05022
G1 X72.690 Y131.630 E0.06210
G1 X71.431 Y130.288 E0.05770
G1 X70.306 Y128.972 E0.05426
G1 X69.288 Y127.652 E0.05228
G1 X68.298 Y126.223 E0.05451
G1 X67.310 Y124.638 E0.05858
G1 X66.312 Y122.860 E0.06391
G1 X65.277 Y120.821 E0.07169
G1 X64.443 Y119.036 E0.06178
G1 X63.613 Y117.143 E0.06481
G1 X62.611 Y114.740 E0.08163
G1 X58.441 Y104.385 E0.35002
G1 X53.908 Y92.997 E0.38430
G1 X47.902 Y77.755 E0.51366
G1 X46.493 Y74.220 E0.11932
G1 X44.668 Y69.731 E0.15195
G1 X43.039 Y65.833 E0.13244
G1 X41.050 Y61.244 E0.15684
G1 X39.193 Y57.157 E0.14073
G1 X37.790 Y54.203 E0.10256
G1 X36.272 Y51.128 E0.10752
G1 X34.580 Y47.821 E0.11646
G1 X32.810 Y44.472 E0.11879
G1 X31.281 Y41.647 E0.10071
G1 X28.057 Y35.829 E0.20856
G1 X18.248 Y18.427 E0.62634
G1 X17.512 Y17.170 E0.04565
G1 X16.538 Y15.572 E0.05868
G1 X15.664 Y14.219 E0.05051
G1 X14.862 Y13.054 E0.04436
G1 X14.113 Y12.044 E0.03941
G1 X13.616 Y11.427 E0.02484
G1 X13.327 Y11.126 E0.01309
G1 X12.668 Y10.616 E0.02613
G1 X12.390 Y10.308 E0.01298
G1 X12.863 Y10.305 E0.01482
G1 X13.339 Y10.414 E0.01531
G1 X13.850 Y10.482 E0.01614
G1 X14.842 Y10.505 E0.03114
G1 X29.436 Y10.505 E0.45756
G1 X30.159 Y10.867 E0.02537
G1 X30.747 Y11.195 E0.02109
G1 X31.196 Y11.487 E0.01681
G1 X31.663 Y11.862 E0.01878
G1 X31.936 Y12.140 E0.01220
G1 X32.172 Y12.442 E0.01202
G1 X32.399 Y12.812 E0.01361
G1 X32.616 Y13.262 E0.01567
G1 X32.823 Y13.799 E0.01803
G1 X32.973 Y14.257 E0.01514
G1 X33.468 Y15.960 E0.05560
G1 X33.937 Y17.437 E0.04857
G1 X34.650 Y19.420 E0.06609
G1 X35.256 Y20.933 E0.05109
G1 X35.698 Y21.960 E0.03506
G1 X36.424 Y23.537 E0.05443
G1 X36.956 Y24.624 E0.03796
G1 X37.839 Y26.328 E0.06017
G1 X38.497 Y27.536 E0.04313
G1 X40.007 Y30.153 E0.09474
G1 X41.684 Y32.894 E0.10076
G1 X42.457 Y34.102 E0.04496
G1 X43.566 Y35.768 E0.06274
G1 X44.992 Y37.785 E0.07746
G1 X45.687 Y38.714 E0.03638
G1 X46.715 Y40.025 E0.05222
G1 X47.395 Y40.851 E0.03356
G1 X48.410 Y42.022 E0.04858
G1 X49.087 Y42.762 E0.03146
G1 X50.101 Y43.814 E0.04580
G1 X50.781 Y44.481 E0.02988
G1 X51.810 Y45.435 E0.04398
G1 X52.504 Y46.041 E0.02889
