; generated by PrusaSlicer 2.3.0+win64 on 2021-08-23 at 16:29:18 UTC


;
;

;
;
; 

; external perimeters extrusion width = 0.45mm
; perimeters extrusion width = 0.45mm
; infill extrusion width = 0.45mm
; solid infill extrusion width = 0.45mm
; top infill extrusion width = 0.40mm
; first layer extrusion width = 0.42mm

M73 P0 R13
M201 X1250 Y1250 Z400 E5000 ; sets maximum accelerations, mm/sec^2
M203 X180 Y180 Z12 E80 ; sets maximum feedrates, mm/sec
M204 P1250 R1250 T1250 ; sets acceleration (P, T) and retract acceleration (R), mm/sec^2
M205 X8.00 Y8.00 Z2.00 E10.00 ; sets the jerk limits, mm/sec
M205 S0 T0 ; sets the minimum extruding and travel feed rate, mm/sec
M107
;TYPE:Custom
G90 ; use absolute coordinates
M83 ; extruder relative mode
M104 S170 ; set extruder temp for bed leveling
M140 S60 ; set bed temp
M109 R170 ; wait for bed leveling temp
M190 S60 ; wait for bed temp
G28 ; home all without mesh bed level
G29 ; mesh bed leveling 
M104 S215 ; set extruder temp
G92 E0.0
G1 Y-2.0 X179 F2400
G1 Z3 F720
M109 S215 ; wait for extruder temp

; intro line
G1 X170 F1000
G1 Z0.2 F720
G1 X110.0 E8.0 F900
M73 P1 R13
G1 X40.0 E10.0 F700
G92 E0.0

M221 S95 ; set flow
G21 ; set units to millimeters
G90 ; use absolute coordinates
M83 ; use relative distances for extrusion
M900 K0.2 ; Filament gcode LA 1.5
; ; Filament gcode LA 1.0
;LAYER_CHANGE
;Z:0.2
;HEIGHT:0.2
;BEFORE_LAYER_CHANGE
G92 E0.0
;0.2


M73 P2 R13
G1 E-3.20000 F4200.000
G1 Z0.200 F9000.000
;AFTER_LAYER_CHANGE
;0.2
G1 Z0.400
G1 X62.241 Y73.520
G1 Z0.200
G1 E3.20000 F2400.000
M204 S800
;TYPE:Skirt
;WIDTH:0.42
G1 F1200.000
G1 X62.593 Y72.861 E0.02343
G1 X62.955 Y72.481 E0.01645
G1 X63.390 Y72.189 E0.01645
G1 X63.880 Y72.000 E0.01645
G1 X64.398 Y71.923 E0.01645
G1 X87.991 Y71.921 E0.73973
G1 X115.896 Y75.856 E0.88359
G1 X116.702 Y76.144 E0.02684
G1 X117.356 Y76.701 E0.02696
G1 X117.746 Y77.387 E0.02473
G1 X117.890 Y78.159 E0.02461
G1 X117.890 Y105.729 E0.86444
G1 X117.827 Y106.246 E0.01633
G1 X117.653 Y106.736 E0.01633
G1 X117.376 Y107.178 E0.01633
G1 X117.013 Y107.546 E0.01621
G1 X116.335 Y107.932 E0.02449
G1 X115.567 Y108.078 E0.02449
G1 X93.914 Y108.077 E0.67893
G1 X64.277 Y106.166 E0.93117
M73 P3 R13
G1 X63.374 Y105.898 E0.02954
G1 X62.645 Y105.301 E0.02954
G1 X62.249 Y104.598 E0.02532
G1 X62.110 Y103.802 E0.02532
G1 X62.110 Y74.260 E0.92628
G1 X62.230 Y73.579 E0.02167
M204 S1250
; printing object LipoShell1.stl id:0 copy 0
G1 E-2.24000 F4200.000
;WIPE_START
G1 F7200.000
G1 X62.593 Y72.861 E-0.44583
G1 X62.955 Y72.481 E-0.29070
G1 X63.218 Y72.305 E-0.17547
;WIPE_END
G1 E-0.04800 F4200.000
G1 Z0.400 F9000.000
G1 X94.800 Y78.989
G1 Z0.200
G1 E3.20000 F2400.000
M204 S800
;TYPE:Perimeter
G1 F1200.000
G1 X114.726 Y78.989 E0.62476
G1 X114.726 Y104.915 E0.81289
M73 P3 R12
G1 X94.800 Y104.915 E0.62476
G1 X94.800 Y79.049 E0.81101
M204 S1250
G1 X94.423 Y78.612 F9000.000
M204 S800
;TYPE:External perimeter
G1 F1200.000
G1 X115.103 Y78.612 E0.64841
M73 P4 R12
G1 X115.103 Y105.292 E0.83653
G1 X94.423 Y105.292 E0.64841
G1 X94.423 Y78.672 E0.83465
M204 S1250
G1 X94.805 Y78.732 F9000.000
G1 E-2.24000 F4200.000
;WIPE_START
G1 F7200.000
G1 X96.069 Y78.667 E-0.91200
;WIPE_END
G1 E-0.04800 F4200.000
G1 Z0.400 F9000.000
G1 X113.848 Y79.102
G1 Z0.200
G1 E3.20000 F2400.000
M204 S800
;TYPE:Solid infill
;WIDTH:0.421219
G1 F1200.000
G1 X114.443 Y79.697 E0.02648
G1 X114.443 Y80.232 E0.01683
G1 X113.483 Y79.272 E0.04273
G1 X112.948 Y79.272 E0.01683
G1 X114.443 Y80.767 E0.06653
G1 X114.443 Y81.302 E0.01683
G1 X112.413 Y79.272 E0.09033
G1 X111.878 Y79.272 E0.01683
G1 X114.443 Y81.837 E0.11413
G1 X114.443 Y82.372 E0.01683
G1 X111.343 Y79.272 E0.13792
G1 X110.808 Y79.272 E0.01683
G1 X114.443 Y82.907 E0.16172
G1 X114.443 Y83.442 E0.01683
G1 X110.273 Y79.272 E0.18552
G1 X109.738 Y79.272 E0.01683
G1 X114.443 Y83.977 E0.20932
G1 X114.443 Y84.512 E0.01683
G1 X109.203 Y79.272 E0.23312
G1 X108.668 Y79.272 E0.01683
G1 X114.443 Y85.047 E0.25692
G1 X114.443 Y85.582 E0.01683
G1 X108.133 Y79.272 E0.28072
M73 P5 R12
G1 X107.598 Y79.272 E0.01683
G1 X114.443 Y86.117 E0.30452
G1 X114.443 Y86.652 E0.01683
G1 X107.063 Y79.272 E0.32832
G1 X106.528 Y79.272 E0.01683
G1 X114.443 Y87.187 E0.35212
G1 X114.443 Y87.722 E0.01683
G1 X105.993 Y79.272 E0.37592
G1 X105.458 Y79.272 E0.01683
G1 X114.443 Y88.257 E0.39972
G1 X114.443 Y88.792 E0.01683
G1 X104.923 Y79.272 E0.42352
G1 X104.388 Y79.272 E0.01683
G1 X114.443 Y89.327 E0.44732
G1 X114.443 Y89.862 E0.01683
G1 X103.853 Y79.272 E0.47111
G1 X103.318 Y79.272 E0.01683
G1 X114.443 Y90.397 E0.49491
G1 X114.443 Y90.932 E0.01683
G1 X102.783 Y79.272 E0.51871
G1 X102.248 Y79.272 E0.01683
G1 X114.443 Y91.467 E0.54251
M73 P6 R12
G1 X114.443 Y92.002 E0.01683
G1 X101.713 Y79.272 E0.56631
G1 X101.178 Y79.272 E0.01683
G1 X114.443 Y92.537 E0.59011
G1 X114.443 Y93.072 E0.01683
G1 X100.643 Y79.272 E0.61391
G1 X100.108 Y79.272 E0.01683
G1 X114.443 Y93.607 E0.63771
G1 X114.443 Y94.142 E0.01683
G1 X99.573 Y79.272 E0.66151
G1 X99.038 Y79.272 E0.01683
G1 X114.443 Y94.677 E0.68531
G1 X114.443 Y95.212 E0.01683
G1 X98.503 Y79.272 E0.70911
G1 X97.968 Y79.272 E0.01683
G1 X114.443 Y95.747 E0.73291
M73 P7 R12
G1 X114.443 Y96.282 E0.01683
G1 X97.433 Y79.272 E0.75671
G1 X96.898 Y79.272 E0.01683
G1 X114.443 Y96.817 E0.78051
G1 X114.443 Y97.352 E0.01683
G1 X96.363 Y79.272 E0.80431
G1 X95.828 Y79.272 E0.01683
G1 X114.443 Y97.887 E0.82810
G1 X114.443 Y98.422 E0.01683
G1 X95.293 Y79.272 E0.85190
G1 X95.083 Y79.272 E0.00660
G1 X95.083 Y79.597 E0.01023
G1 X114.443 Y98.957 E0.86124
M73 P8 R12
G1 X114.443 Y99.492 E0.01683
G1 X95.083 Y80.132 E0.86124
G1 X95.083 Y80.667 E0.01683
G1 X114.443 Y100.027 E0.86124
G1 X114.443 Y100.562 E0.01683
G1 X95.083 Y81.202 E0.86124
G1 X95.083 Y81.737 E0.01683
G1 X114.443 Y101.097 E0.86124
G1 X114.443 Y101.632 E0.01683
G1 X95.083 Y82.272 E0.86124
M73 P9 R12
G1 X95.083 Y82.807 E0.01683
G1 X114.443 Y102.167 E0.86124
G1 X114.443 Y102.702 E0.01683
G1 X95.083 Y83.342 E0.86124
G1 X95.083 Y83.877 E0.01683
G1 X114.443 Y103.237 E0.86124
G1 X114.443 Y103.772 E0.01683
G1 X95.083 Y84.412 E0.86124
G1 X95.083 Y84.947 E0.01683
G1 X114.443 Y104.307 E0.86124
G1 X114.443 Y104.632 E0.01022
G1 X114.233 Y104.632 E0.00661
G1 X95.083 Y85.482 E0.85190
M73 P10 R12
G1 X95.083 Y86.017 E0.01683
G1 X113.698 Y104.632 E0.82810
G1 X113.163 Y104.632 E0.01683
G1 X95.083 Y86.552 E0.80430
G1 X95.083 Y87.087 E0.01683
G1 X112.628 Y104.632 E0.78050
G1 X112.093 Y104.632 E0.01683
G1 X95.083 Y87.622 E0.75670
G1 X95.083 Y88.157 E0.01683
G1 X111.558 Y104.632 E0.73290
G1 X111.023 Y104.632 E0.01683
G1 X95.083 Y88.692 E0.70910
M73 P11 R12
G1 X95.083 Y89.227 E0.01683
G1 X110.488 Y104.632 E0.68531
M73 P11 R11
G1 X109.953 Y104.632 E0.01683
G1 X95.083 Y89.762 E0.66151
G1 X95.083 Y90.297 E0.01683
G1 X109.418 Y104.632 E0.63771
G1 X108.883 Y104.632 E0.01683
G1 X95.083 Y90.832 E0.61391
G1 X95.083 Y91.367 E0.01683
G1 X108.348 Y104.632 E0.59011
G1 X107.813 Y104.632 E0.01683
G1 X95.083 Y91.902 E0.56631
G1 X95.083 Y92.437 E0.01683
G1 X107.278 Y104.632 E0.54251
M73 P12 R11
G1 X106.743 Y104.632 E0.01683
G1 X95.083 Y92.972 E0.51871
G1 X95.083 Y93.507 E0.01683
G1 X106.208 Y104.632 E0.49491
G1 X105.673 Y104.632 E0.01683
G1 X95.083 Y94.042 E0.47111
G1 X95.083 Y94.577 E0.01683
G1 X105.138 Y104.632 E0.44731
G1 X104.603 Y104.632 E0.01683
G1 X95.083 Y95.112 E0.42351
G1 X95.083 Y95.647 E0.01683
G1 X104.068 Y104.632 E0.39971
G1 X103.533 Y104.632 E0.01683
G1 X95.083 Y96.182 E0.37591
G1 X95.083 Y96.717 E0.01683
G1 X102.998 Y104.632 E0.35211
G1 X102.463 Y104.632 E0.01683
G1 X95.083 Y97.252 E0.32832
G1 X95.083 Y97.787 E0.01683
G1 X101.928 Y104.632 E0.30452
G1 X101.393 Y104.632 E0.01683
G1 X95.083 Y98.322 E0.28072
M73 P13 R11
G1 X95.083 Y98.857 E0.01683
G1 X100.858 Y104.632 E0.25692
G1 X100.323 Y104.632 E0.01683
G1 X95.083 Y99.392 E0.23312
G1 X95.083 Y99.927 E0.01683
G1 X99.788 Y104.632 E0.20932
G1 X99.253 Y104.632 E0.01683
G1 X95.083 Y100.462 E0.18552
G1 X95.083 Y100.997 E0.01683
G1 X98.718 Y104.632 E0.16172
G1 X98.183 Y104.632 E0.01683
G1 X95.083 Y101.532 E0.13792
G1 X95.083 Y102.067 E0.01683
G1 X97.648 Y104.632 E0.11412
G1 X97.113 Y104.632 E0.01683
G1 X95.083 Y102.602 E0.09032
G1 X95.083 Y103.137 E0.01683
G1 X96.578 Y104.632 E0.06652
G1 X96.043 Y104.632 E0.01683
G1 X95.083 Y103.672 E0.04272
G1 X95.083 Y104.207 E0.01683
G1 X95.678 Y104.802 E0.02647
M204 S1250
G1 E-2.24000 F4200.000
;WIPE_START
G1 F7200.000
G1 X95.083 Y104.207 E-0.46638
G1 X95.083 Y103.672 E-0.29648
G1 X95.273 Y103.862 E-0.14914
;WIPE_END
G1 E-0.04800 F4200.000
G1 Z0.400 F9000.000
G1 X87.200 Y103.011
G1 Z0.200
G1 E3.20000 F2400.000
M204 S800
;TYPE:Perimeter
;WIDTH:0.42
G1 F1200.000
G1 X65.274 Y103.011 E0.68747
G1 X65.274 Y75.085 E0.87560
G1 X87.200 Y75.085 E0.68747
G1 X87.200 Y102.951 E0.87371
M204 S1250
M73 P14 R11
G1 X87.577 Y103.388 F9000.000
M204 S800
;TYPE:External perimeter
G1 F1200.000
G1 X64.897 Y103.388 E0.71112
G1 X64.897 Y74.708 E0.89924
G1 X87.577 Y74.708 E0.71112
G1 X87.577 Y103.328 E0.89736
M204 S1250
G1 X87.195 Y103.270 F9000.000
G1 E-2.24000 F4200.000
;WIPE_START
G1 F7200.000
G1 X85.931 Y103.332 E-0.91200
;WIPE_END
G1 E-0.04800 F4200.000
G1 Z0.400 F9000.000
G1 X86.318 Y75.198
G1 Z0.200
G1 E3.20000 F2400.000
M204 S800
;TYPE:Solid infill
;WIDTH:0.423179
G1 F1200.000
G1 X86.917 Y75.798 E0.02680
G1 X86.917 Y76.335 E0.01700
G1 X85.950 Y75.368 E0.04326
G1 X85.412 Y75.368 E0.01700
G1 X86.917 Y76.873 E0.06730
G1 X86.917 Y77.411 E0.01700
G1 X84.874 Y75.368 E0.09135
G1 X84.337 Y75.368 E0.01700
G1 X86.917 Y77.949 E0.11540
G1 X86.917 Y78.486 E0.01700
G1 X83.799 Y75.368 E0.13944
G1 X83.261 Y75.368 E0.01700
G1 X86.917 Y79.024 E0.16349
G1 X86.917 Y79.562 E0.01700
G1 X82.723 Y75.368 E0.18754
M73 P15 R11
G1 X82.185 Y75.368 E0.01700
G1 X86.917 Y80.100 E0.21158
G1 X86.917 Y80.637 E0.01700
G1 X81.648 Y75.368 E0.23563
G1 X81.110 Y75.368 E0.01700
G1 X86.917 Y81.175 E0.25968
G1 X86.917 Y81.713 E0.01700
G1 X80.572 Y75.368 E0.28372
G1 X80.034 Y75.368 E0.01700
G1 X86.917 Y82.251 E0.30777
G1 X86.917 Y82.789 E0.01700
G1 X79.497 Y75.368 E0.33182
G1 X78.959 Y75.368 E0.01700
G1 X86.917 Y83.326 E0.35586
G1 X86.917 Y83.864 E0.01700
G1 X78.421 Y75.368 E0.37991
G1 X77.883 Y75.368 E0.01700
G1 X86.917 Y84.402 E0.40396
G1 X86.917 Y84.940 E0.01700
G1 X77.346 Y75.368 E0.42800
G1 X76.808 Y75.368 E0.01700
G1 X86.917 Y85.477 E0.45205
G1 X86.917 Y86.015 E0.01700
G1 X76.270 Y75.368 E0.47610
G1 X75.732 Y75.368 E0.01700
G1 X86.917 Y86.553 E0.50014
M73 P16 R11
G1 X86.917 Y87.091 E0.01700
G1 X75.195 Y75.368 E0.52419
G1 X74.657 Y75.368 E0.01700
G1 X86.917 Y87.628 E0.54824
G1 X86.917 Y88.166 E0.01700
G1 X74.119 Y75.368 E0.57228
G1 X73.581 Y75.368 E0.01700
G1 X86.917 Y88.704 E0.59633
G1 X86.917 Y89.242 E0.01700
G1 X73.043 Y75.368 E0.62038
G1 X72.506 Y75.368 E0.01700
G1 X86.917 Y89.780 E0.64442
G1 X86.917 Y90.317 E0.01700
G1 X71.968 Y75.368 E0.66847
G1 X71.430 Y75.368 E0.01700
G1 X86.917 Y90.855 E0.69252
M73 P17 R11
G1 X86.917 Y91.393 E0.01700
G1 X70.892 Y75.368 E0.71656
G1 X70.355 Y75.368 E0.01700
G1 X86.917 Y91.931 E0.74061
G1 X86.917 Y92.468 E0.01700
G1 X69.817 Y75.368 E0.76466
G1 X69.279 Y75.368 E0.01700
G1 X86.917 Y93.006 E0.78870
G1 X86.917 Y93.544 E0.01700
G1 X68.741 Y75.368 E0.81275
G1 X68.204 Y75.368 E0.01700
G1 X86.917 Y94.082 E0.83679
M73 P18 R11
G1 X86.917 Y94.619 E0.01700
G1 X67.666 Y75.368 E0.86084
G1 X67.128 Y75.368 E0.01700
G1 X86.917 Y95.157 E0.88489
G1 X86.917 Y95.695 E0.01700
G1 X66.590 Y75.368 E0.90893
G1 X66.052 Y75.368 E0.01700
G1 X86.917 Y96.233 E0.93298
G1 X86.917 Y96.770 E0.01700
G1 X65.557 Y75.410 E0.95514
M73 P19 R10
G1 X65.557 Y75.948 E0.01700
G1 X86.917 Y97.308 E0.95514
G1 X86.917 Y97.846 E0.01700
G1 X65.557 Y76.486 E0.95514
G1 X65.557 Y77.024 E0.01700
G1 X86.917 Y98.384 E0.95514
G1 X86.917 Y98.922 E0.01700
G1 X65.557 Y77.561 E0.95514
G1 X65.557 Y78.099 E0.01700
G1 X86.917 Y99.459 E0.95514
G1 X86.917 Y99.997 E0.01700
M73 P20 R10
G1 X65.557 Y78.637 E0.95514
G1 X65.557 Y79.175 E0.01700
G1 X86.917 Y100.535 E0.95514
G1 X86.917 Y101.073 E0.01700
G1 X65.557 Y79.712 E0.95514
G1 X65.557 Y80.250 E0.01700
G1 X86.917 Y101.610 E0.95514
G1 X86.917 Y102.148 E0.01700
G1 X65.557 Y80.788 E0.95514
G1 X65.557 Y81.326 E0.01700
G1 X86.917 Y102.686 E0.95514
M73 P21 R10
G1 X86.917 Y102.728 E0.00134
G1 X86.422 Y102.728 E0.01567
G1 X65.557 Y81.863 E0.93298
G1 X65.557 Y82.401 E0.01700
G1 X85.884 Y102.728 E0.90893
G1 X85.346 Y102.728 E0.01700
G1 X65.557 Y82.939 E0.88489
G1 X65.557 Y83.477 E0.01700
G1 X84.808 Y102.728 E0.86084
G1 X84.271 Y102.728 E0.01700
G1 X65.557 Y84.015 E0.83679
M73 P22 R10
G1 X65.557 Y84.552 E0.01700
G1 X83.733 Y102.728 E0.81275
G1 X83.195 Y102.728 E0.01700
G1 X65.557 Y85.090 E0.78870
G1 X65.557 Y85.628 E0.01700
G1 X82.657 Y102.728 E0.76465
G1 X82.120 Y102.728 E0.01700
G1 X65.557 Y86.166 E0.74061
G1 X65.557 Y86.703 E0.01700
G1 X81.582 Y102.728 E0.71656
G1 X81.044 Y102.728 E0.01700
G1 X65.557 Y87.241 E0.69251
M73 P23 R10
G1 X65.557 Y87.779 E0.01700
G1 X80.506 Y102.728 E0.66847
G1 X79.969 Y102.728 E0.01700
G1 X65.557 Y88.317 E0.64442
G1 X65.557 Y88.854 E0.01700
G1 X79.431 Y102.728 E0.62037
G1 X78.893 Y102.728 E0.01700
G1 X65.557 Y89.392 E0.59633
G1 X65.557 Y89.930 E0.01700
G1 X78.355 Y102.728 E0.57228
G1 X77.817 Y102.728 E0.01700
G1 X65.557 Y90.468 E0.54823
G1 X65.557 Y91.005 E0.01700
G1 X77.280 Y102.728 E0.52419
G1 X76.742 Y102.728 E0.01700
G1 X65.557 Y91.543 E0.50014
M73 P24 R10
G1 X65.557 Y92.081 E0.01700
G1 X76.204 Y102.728 E0.47609
G1 X75.666 Y102.728 E0.01700
G1 X65.557 Y92.619 E0.45205
G1 X65.557 Y93.157 E0.01700
G1 X75.129 Y102.728 E0.42800
G1 X74.591 Y102.728 E0.01700
G1 X65.557 Y93.694 E0.40395
G1 X65.557 Y94.232 E0.01700
G1 X74.053 Y102.728 E0.37991
G1 X73.515 Y102.728 E0.01700
G1 X65.557 Y94.770 E0.35586
G1 X65.557 Y95.308 E0.01700
G1 X72.978 Y102.728 E0.33181
G1 X72.440 Y102.728 E0.01700
G1 X65.557 Y95.845 E0.30777
G1 X65.557 Y96.383 E0.01700
G1 X71.902 Y102.728 E0.28372
G1 X71.364 Y102.728 E0.01700
G1 X65.557 Y96.921 E0.25967
G1 X65.557 Y97.459 E0.01700
G1 X70.827 Y102.728 E0.23563
G1 X70.289 Y102.728 E0.01700
G1 X65.557 Y97.996 E0.21158
G1 X65.557 Y98.534 E0.01700
G1 X69.751 Y102.728 E0.18754
M73 P25 R10
G1 X69.213 Y102.728 E0.01700
G1 X65.557 Y99.072 E0.16349
G1 X65.557 Y99.610 E0.01700
G1 X68.675 Y102.728 E0.13944
G1 X68.138 Y102.728 E0.01700
G1 X65.557 Y100.148 E0.11540
G1 X65.557 Y100.685 E0.01700
G1 X67.600 Y102.728 E0.09135
G1 X67.062 Y102.728 E0.01700
G1 X65.557 Y101.223 E0.06730
G1 X65.557 Y101.761 E0.01700
G1 X66.524 Y102.728 E0.04326
G1 X65.987 Y102.728 E0.01700
G1 X65.387 Y102.129 E0.02680
M204 S1250
; stop printing object LipoShell1.stl id:0 copy 0
M106 S84.15
;LAYER_CHANGE
;Z:0.4
;HEIGHT:0.2
;BEFORE_LAYER_CHANGE
G92 E0.0
;0.4


G1 E-2.24000 F4200.000
;WIPE_START
G1 F7200.000
G1 X65.987 Y102.728 E-0.46966
G1 X66.524 Y102.728 E-0.29801
G1 X66.340 Y102.544 E-0.14433
;WIPE_END
G1 E-0.04800 F4200.000
G1 Z0.400 F9000.000
;AFTER_LAYER_CHANGE
;0.4
M104 S210 ; set temperature
G1 Z0.600
G1 X63.374 Y105.898
G1 Z0.400
G1 E3.20000 F2400.000
;TYPE:Skirt
;WIDTH:0.42
G1 X62.645 Y105.301 E0.02954
G1 X62.249 Y104.598 E0.02532
G1 X62.110 Y103.802 E0.02532
G1 X62.110 Y74.260 E0.92628
G1 X62.241 Y73.520 E0.02355
G1 X62.593 Y72.861 E0.02343
G1 X62.955 Y72.481 E0.01645
G1 X63.390 Y72.189 E0.01645
G1 X63.880 Y72.000 E0.01645
G1 X64.398 Y71.923 E0.01645
G1 X87.991 Y71.921 E0.73973
G1 X115.896 Y75.856 E0.88359
G1 X116.702 Y76.144 E0.02684
G1 X117.356 Y76.701 E0.02696
G1 X117.746 Y77.387 E0.02473
G1 X117.890 Y78.159 E0.02461
G1 X117.890 Y105.729 E0.86444
G1 X117.827 Y106.246 E0.01633
G1 X117.653 Y106.736 E0.01633
G1 X117.376 Y107.178 E0.01633
G1 X117.013 Y107.546 E0.01621
G1 X116.335 Y107.932 E0.02449
G1 X115.567 Y108.078 E0.02449
G1 X93.914 Y108.077 E0.67893
G1 X64.277 Y106.166 E0.93117
G1 X63.431 Y105.915 E0.02766
; printing object LipoShell1.stl id:0 copy 0
G1 E-2.24000 F4200.000
;WIPE_START
G1 F7200.000
G1 X62.645 Y105.301 E-0.55290
G1 X62.327 Y104.736 E-0.35910
;WIPE_END
G1 E-0.04800 F4200.000
G1 Z0.600 F9000.000
G1 X65.119 Y103.166
G1 Z0.400
G1 E3.20000 F2400.000
M204 S800
;TYPE:Perimeter
;WIDTH:0.45
G1 X65.119 Y74.930 E0.95575
G1 X87.355 Y74.930 E0.75266
M73 P26 R10
