; generated by PrusaSlicer 2.2.0+win64 on 2020-10-19 at 09:46:58 UTC


;
;

;
;
; 

; external perimeters extrusion width = 0.45mm
; perimeters extrusion width = 0.45mm
; infill extrusion width = 0.45mm
; solid infill extrusion width = 0.45mm
; top infill extrusion width = 0.40mm
; first layer extrusion width = 0.42mm

M73 P0 R36
M201 X1250 Y1250 Z400 E5000 ; sets maximum accelerations, mm/sec^2
M203 X180 Y180 Z12 E80 ; sets maximum feedrates, mm/sec
M204 P1250 R1250 T1250 ; sets acceleration (P, T) and retract acceleration (R), mm/sec^2
M205 X8.00 Y8.00 Z2.00 E10.00 ; sets the jerk limits, mm/sec
M205 S0 T0 ; sets the minimum extruding and travel feed rate, mm/sec
M107
G90 ; use absolute coordinates
M83 ; extruder relative mode
M104 S170 ; set extruder temp for bed leveling
M140 S60 ; set bed temp
M109 R170 ; wait for bed leveling temp
M190 S60 ; wait for bed temp
G28 ; home all without mesh bed level
G29 ; mesh bed leveling 
M104 S215 ; set extruder temp
G92 E0.0
G1 Y-2.0 X179 F2400
G1 Z3 F720
M109 S215 ; wait for extruder temp

; intro line
G1 X170 F1000
G1 Z0.2 F720
G1 X110.0 E8.0 F900
M73 P0 R36
G1 X40.0 E10.0 F700
G92 E0.0

M221 S95 ; set flow
G21 ; set units to millimeters
G90 ; use absolute coordinates
M83 ; use relative distances for extrusion
M900 K0.2 ; Filament gcode LA 1.5
; ; Filament gcode LA 1.0
;BEFORE_LAYER_CHANGE
G92 E0.0
;0.2


G1 Z0.200 F9000.000
;AFTER_LAYER_CHANGE
;0.2
G1 E-3.20000 F4200.00000
G1 Z0.400 F9000.000
G1 X49.187 Y75.953
G1 Z0.200
G1 E3.20000 F2400.00000
M204 S800
G1 F1200.000
G1 X50.086 Y75.479 E0.03188
G1 X51.246 Y75.037 E0.03892
G1 X52.711 Y74.712 E0.04705
G1 X53.981 Y74.623 E0.03991
G1 X126.004 Y74.623 E2.25823
G1 X127.829 Y74.803 E0.05750
G1 X129.372 Y75.250 E0.05038
G1 X131.014 Y76.076 E0.05762
G1 X132.293 Y77.048 E0.05038
G1 X133.523 Y78.402 E0.05733
G1 X134.370 Y79.773 E0.05053
G1 X135.033 Y81.484 E0.05752
G1 X135.332 Y83.082 E0.05098
G1 X135.373 Y96.289 E0.41410
G1 X135.247 Y97.554 E0.03987
G1 X134.962 Y98.758 E0.03880
G1 X134.522 Y99.911 E0.03868
G1 X134.054 Y100.803 E0.03158
G1 X133.360 Y101.810 E0.03835
G1 X132.547 Y102.713 E0.03808
G1 X131.786 Y103.379 E0.03173
G1 X130.780 Y104.067 E0.03820
G1 X129.698 Y104.617 E0.03806
G1 X128.754 Y104.963 E0.03152
G1 X127.287 Y105.288 E0.04712
G1 X126.013 Y105.377 E0.04004
G1 X53.356 Y105.355 E2.27810
G1 X51.861 Y105.130 E0.04741
G1 X50.626 Y104.749 E0.04054
G1 X49.260 Y104.090 E0.04755
G1 X48.184 Y103.355 E0.04085
G1 X47.072 Y102.319 E0.04765
G1 X46.268 Y101.306 E0.04056
G1 X45.512 Y99.984 E0.04777
G1 X45.037 Y98.754 E0.04133
G1 X44.712 Y97.289 E0.04705
G1 X44.623 Y96.013 E0.04011
G1 X44.627 Y83.711 E0.38572
G1 X44.711 Y82.722 E0.03111
G1 X44.948 Y81.554 E0.03737
G1 X45.264 Y80.593 E0.03174
G1 X45.790 Y79.469 E0.03891
G1 X46.452 Y78.436 E0.03847
G1 X47.258 Y77.482 E0.03916
G1 X48.184 Y76.644 E0.03916
G1 X49.137 Y75.987 E0.03629
M204 S1250
G1 E-2.24000 F4200.00000
G1 F7200.000
G1 X50.086 Y75.479 E-0.59647
G1 X50.618 Y75.276 E-0.31553
G1 E-0.04800 F4200.00000
G1 Z0.400 F9000.000
G1 X50.834 Y78.655
G1 Z0.200
G1 E3.20000 F2400.00000
M204 S800
G1 F1200.000
G1 X51.198 Y78.455 E0.01302
G1 X51.575 Y78.280 E0.01302
G1 X51.962 Y78.131 E0.01302
G1 X52.359 Y78.008 E0.01302
G1 X52.763 Y77.912 E0.01302
G1 X53.172 Y77.843 E0.01302
G1 X53.585 Y77.801 E0.01302
G1 X54.011 Y77.787 E0.01338
G1 X126.206 Y77.791 E2.26362
G1 X126.617 Y77.818 E0.01291
G1 X127.237 Y77.912 E0.01967
G1 X127.841 Y78.067 E0.01952
G1 X128.430 Y78.282 E0.01968
G1 X128.797 Y78.453 E0.01271
G1 X129.343 Y78.764 E0.01967
G1 X129.850 Y79.125 E0.01952
G1 X130.322 Y79.538 E0.01968
G1 X130.604 Y79.829 E0.01271
G1 X131.001 Y80.315 E0.01967
G1 X131.345 Y80.834 E0.01952
G1 X131.635 Y81.385 E0.01952
G1 X131.868 Y81.962 E0.01952
G1 X132.043 Y82.560 E0.01952
G1 X132.158 Y83.177 E0.01967
G1 X132.199 Y83.585 E0.01286
G1 X132.213 Y84.011 E0.01338
G1 X132.213 Y95.989 E0.37553
G1 X132.199 Y96.415 E0.01338
G1 X132.157 Y96.828 E0.01302
G1 X132.088 Y97.237 E0.01302
G1 X131.992 Y97.641 E0.01302
G1 X131.869 Y98.038 E0.01302
G1 X131.720 Y98.425 E0.01302
G1 X131.545 Y98.802 E0.01302
G1 X131.345 Y99.166 E0.01302
G1 X131.122 Y99.516 E0.01302
G1 X130.876 Y99.850 E0.01302
G1 X130.608 Y100.167 E0.01302
G1 X130.323 Y100.461 E0.01282
G1 X129.846 Y100.879 E0.01987
G1 X129.516 Y101.122 E0.01286
G1 X129.166 Y101.345 E0.01302
G1 X128.802 Y101.545 E0.01302
G1 X128.425 Y101.720 E0.01302
G1 X128.038 Y101.869 E0.01302
G1 X127.641 Y101.992 E0.01302
G1 X127.237 Y102.088 E0.01302
G1 X126.828 Y102.157 E0.01302
G1 X126.415 Y102.199 E0.01302
G1 X125.989 Y102.213 E0.01338
G1 X54.011 Y102.213 E2.25679
G1 X53.585 Y102.199 E0.01338
G1 X53.172 Y102.157 E0.01302
G1 X52.763 Y102.088 E0.01302
G1 X52.363 Y101.993 E0.01286
G1 X51.763 Y101.796 E0.01983
G1 X51.389 Y101.637 E0.01271
G1 X50.831 Y101.343 E0.01979
G1 X50.484 Y101.122 E0.01291
G1 X50.150 Y100.876 E0.01302
G1 X49.836 Y100.611 E0.01286
G1 X49.389 Y100.164 E0.01983
G1 X49.124 Y99.850 E0.01286
G1 X48.881 Y99.520 E0.01286
G1 X48.550 Y98.981 E0.01983
G1 X48.367 Y98.619 E0.01271
G1 X48.130 Y98.034 E0.01979
G1 X48.008 Y97.641 E0.01291
G1 X47.912 Y97.237 E0.01302
G1 X47.843 Y96.828 E0.01302
G1 X47.801 Y96.415 E0.01302
G1 X47.787 Y95.989 E0.01338
G1 X47.787 Y84.016 E0.37538
G1 X47.819 Y83.373 E0.02019
G1 X47.874 Y82.967 E0.01286
G1 X47.957 Y82.560 E0.01302
G1 X48.066 Y82.159 E0.01302
G1 X48.203 Y81.767 E0.01302
G1 X48.365 Y81.385 E0.01302
G1 X48.552 Y81.014 E0.01302
G1 X48.763 Y80.657 E0.01302
G1 X48.998 Y80.315 E0.01302
G1 X49.256 Y79.989 E0.01302
G1 X49.534 Y79.681 E0.01302
G1 X49.833 Y79.392 E0.01302
G1 X50.150 Y79.124 E0.01302
G1 X50.484 Y78.878 E0.01302
G1 X50.783 Y78.687 E0.01114
M204 S1250
G1 X50.580 Y78.369 F9000.000
M204 S800
G1 F1200.000
G1 X51.028 Y78.118 E0.01608
G1 X51.427 Y77.933 E0.01381
G1 X51.838 Y77.775 E0.01381
G1 X52.259 Y77.644 E0.01381
G1 X52.687 Y77.542 E0.01381
G1 X53.122 Y77.469 E0.01381
G1 X53.560 Y77.425 E0.01381
G1 X54.005 Y77.410 E0.01397
G1 X126.219 Y77.414 E2.26421
G1 X126.658 Y77.443 E0.01380
G1 X127.313 Y77.542 E0.02076
G1 X127.952 Y77.706 E0.02071
G1 X128.574 Y77.934 E0.02076
G1 X128.971 Y78.118 E0.01370
G1 X129.546 Y78.446 E0.02076
G1 X130.084 Y78.828 E0.02071
G1 X130.582 Y79.264 E0.02076
G1 X130.886 Y79.578 E0.01370
G1 X131.305 Y80.091 E0.02076
G1 X131.670 Y80.642 E0.02071
G1 X131.977 Y81.226 E0.02071
G1 X132.225 Y81.838 E0.02071
G1 X132.410 Y82.472 E0.02071
G1 X132.531 Y83.123 E0.02076
G1 X132.575 Y83.560 E0.01375
G1 X132.590 Y84.005 E0.01397
G1 X132.590 Y95.995 E0.37593
G1 X132.575 Y96.440 E0.01397
G1 X132.531 Y96.878 E0.01381
G1 X132.458 Y97.313 E0.01381
G1 X132.356 Y97.741 E0.01381
G1 X132.225 Y98.162 E0.01381
G1 X132.067 Y98.573 E0.01381
G1 X131.882 Y98.972 E0.01381
G1 X131.670 Y99.358 E0.01381
G1 X131.433 Y99.730 E0.01381
G1 X131.172 Y100.084 E0.01381
G1 X130.887 Y100.420 E0.01381
G1 X130.583 Y100.735 E0.01371
G1 X130.083 Y101.173 E0.02086
G1 X129.730 Y101.433 E0.01375
G1 X129.358 Y101.670 E0.01381
G1 X128.972 Y101.882 E0.01381
G1 X128.573 Y102.067 E0.01381
G1 X128.162 Y102.225 E0.01381
G1 X127.741 Y102.356 E0.01381
G1 X127.313 Y102.458 E0.01381
G1 X126.878 Y102.531 E0.01381
G1 X126.440 Y102.575 E0.01381
G1 X125.995 Y102.590 E0.01397
G1 X54.005 Y102.590 E2.25719
G1 X53.560 Y102.575 E0.01397
G1 X53.122 Y102.531 E0.01381
G1 X52.687 Y102.458 E0.01381
G1 X52.261 Y102.356 E0.01375
G1 X51.630 Y102.149 E0.02082
G1 X51.228 Y101.978 E0.01370
G1 X50.641 Y101.670 E0.02078
G1 X50.270 Y101.433 E0.01379
G1 X49.916 Y101.172 E0.01381
G1 X49.581 Y100.889 E0.01375
G1 X49.111 Y100.419 E0.02082
G1 X48.828 Y100.084 E0.01375
G1 X48.568 Y99.731 E0.01375
G1 X48.220 Y99.165 E0.02082
G1 X48.023 Y98.775 E0.01370
G1 X47.775 Y98.161 E0.02078
G1 X47.644 Y97.741 E0.01380
G1 X47.542 Y97.313 E0.01381
G1 X47.469 Y96.878 E0.01381
G1 X47.425 Y96.440 E0.01381
G1 X47.410 Y95.995 E0.01397
G1 X47.410 Y84.007 E0.37587
G1 X47.443 Y83.339 E0.02098
G1 X47.502 Y82.904 E0.01375
G1 X47.590 Y82.472 E0.01381
G1 X47.706 Y82.048 E0.01381
G1 X47.850 Y81.632 E0.01381
G1 X48.022 Y81.226 E0.01381
G1 X48.221 Y80.833 E0.01381
G1 X48.445 Y80.454 E0.01381
G1 X48.695 Y80.091 E0.01381
G1 X48.968 Y79.745 E0.01381
G1 X49.263 Y79.419 E0.01381
G1 X49.580 Y79.113 E0.01381
G1 X49.916 Y78.828 E0.01381
G1 X50.530 Y78.401 E0.02345
M204 S1250
G1 X50.933 Y78.559 F9000.000
G1 E-2.24000 F4200.00000
G1 F7200.000
G1 X51.028 Y78.118 E-0.31741
G1 X51.427 Y77.933 E-0.24406
G1 X51.838 Y77.775 E-0.24406
G1 X52.022 Y77.718 E-0.10647
G1 E-0.04800 F4200.00000
G1 Z0.400 F9000.000
G1 X131.194 Y80.810
G1 Z0.200
G1 E3.20000 F2400.00000
M204 S800
G1 F1200.000
G1 X130.117 Y79.734 E0.04796
G1 X129.674 Y79.347 E0.01854
G1 X129.190 Y79.002 E0.01872
G1 X128.668 Y78.705 E0.01895
G1 X128.452 Y78.604 E0.00751
G1 X131.396 Y81.549 E0.13123
G1 X131.601 Y82.055 E0.01720
G1 X131.698 Y82.386 E0.01087
G1 X127.611 Y78.300 E0.18210
G1 X127.181 Y78.190 E0.01400
G1 X126.927 Y78.151 E0.00811
G1 X131.851 Y83.076 E0.21946
G1 X131.919 Y83.680 E0.01914
G1 X126.321 Y78.082 E0.24944
G1 X125.777 Y78.074 E0.01715
G1 X131.930 Y84.227 E0.27420
G1 X131.930 Y84.763 E0.01689
G1 X125.241 Y78.074 E0.29808
G1 X124.705 Y78.074 E0.01689
G1 X131.930 Y85.299 E0.32197
G1 X131.930 Y85.834 E0.01689
G1 X124.169 Y78.074 E0.34585
G1 X123.633 Y78.074 E0.01689
G1 X131.930 Y86.370 E0.36974
G1 X131.930 Y86.906 E0.01689
G1 X123.097 Y78.074 E0.39362
G1 X122.561 Y78.073 E0.01689
G1 X131.930 Y87.442 E0.41750
G1 X131.930 Y87.978 E0.01689
G1 X122.025 Y78.073 E0.44139
G1 X121.489 Y78.073 E0.01689
G1 X131.930 Y88.514 E0.46527
G1 X131.930 Y89.050 E0.01689
G1 X120.953 Y78.073 E0.48916
G1 X120.417 Y78.073 E0.01689
G1 X131.930 Y89.586 E0.51304
G1 X131.930 Y90.122 E0.01689
G1 X119.882 Y78.073 E0.53693
G1 X119.346 Y78.073 E0.01689
G1 X131.930 Y90.658 E0.56081
G1 X131.930 Y91.194 E0.01689
G1 X118.810 Y78.073 E0.58469
G1 X118.274 Y78.073 E0.01689
G1 X131.930 Y91.730 E0.60858
G1 X131.930 Y92.266 E0.01689
G1 X117.738 Y78.073 E0.63246
G1 X117.202 Y78.073 E0.01689
G1 X131.930 Y92.802 E0.65635
G1 X131.930 Y93.338 E0.01689
G1 X116.666 Y78.073 E0.68023
G1 X116.130 Y78.073 E0.01689
G1 X131.930 Y93.874 E0.70412
G1 X131.930 Y94.409 E0.01689
G1 X115.594 Y78.073 E0.72800
G1 X115.058 Y78.073 E0.01689
G1 X131.930 Y94.945 E0.75188
G1 X131.930 Y95.481 E0.01689
G1 X114.522 Y78.073 E0.77577
M73 P3 R35
G1 X113.986 Y78.073 E0.01689
G1 X131.929 Y96.016 E0.79961
G1 X131.903 Y96.526 E0.01610
G1 X113.450 Y78.073 E0.82234
G1 X112.914 Y78.073 E0.01689
G1 X131.841 Y97.000 E0.84346
G1 X131.748 Y97.443 E0.01426
G1 X112.378 Y78.073 E0.86320
G1 X111.842 Y78.073 E0.01689
G1 X131.628 Y97.859 E0.88174
G1 X131.484 Y98.251 E0.01315
G1 X111.306 Y78.073 E0.89919
G1 X110.770 Y78.073 E0.01689
G1 X131.317 Y98.620 E0.91565
G1 X131.131 Y98.969 E0.01248
G1 X110.234 Y78.073 E0.93122
G1 X109.698 Y78.073 E0.01689
G1 X130.925 Y99.299 E0.94592
G1 X130.701 Y99.611 E0.01210
G1 X109.162 Y78.073 E0.95982
G1 X108.626 Y78.073 E0.01689
G1 X130.459 Y99.905 E0.97293
G1 X130.200 Y100.182 E0.01195
G1 X108.090 Y78.073 E0.98527
G1 X107.554 Y78.073 E0.01689
G1 X129.920 Y100.438 E0.99669
G1 X129.631 Y100.686 E0.01198
G1 X107.018 Y78.073 E1.00771
G1 X106.482 Y78.073 E0.01689
G1 X129.321 Y100.911 E1.01775
G1 X128.992 Y101.118 E0.01224
G1 X105.946 Y78.073 E1.02699
G1 X105.410 Y78.073 E0.01689
G1 X128.644 Y101.306 E1.03537
G1 X128.276 Y101.474 E0.01275
G1 X104.875 Y78.073 E1.04285
G1 X104.339 Y78.073 E0.01689
G1 X127.886 Y101.620 E1.04935
G1 X127.472 Y101.742 E0.01361
G1 X103.803 Y78.073 E1.05477
G1 X103.267 Y78.072 E0.01689
G1 X127.030 Y101.836 E1.05899
G1 X126.558 Y101.900 E0.01501
G1 X102.731 Y78.072 E1.06184
G1 X102.195 Y78.072 E0.01689
G1 X126.050 Y101.928 E1.06308
G1 X125.516 Y101.930 E0.01682
G1 X101.659 Y78.072 E1.06318
G1 X101.123 Y78.072 E0.01689
G1 X124.981 Y101.930 E1.06318
G1 X124.445 Y101.930 E0.01689
G1 X100.587 Y78.072 E1.06318
G1 X100.051 Y78.072 E0.01689
G1 X123.909 Y101.930 E1.06318
G1 X123.373 Y101.930 E0.01689
G1 X99.515 Y78.072 E1.06318
G1 X98.979 Y78.072 E0.01689
G1 X122.837 Y101.930 E1.06318
G1 X122.301 Y101.930 E0.01689
G1 X98.443 Y78.072 E1.06319
G1 X97.907 Y78.072 E0.01689
G1 X121.765 Y101.930 E1.06319
G1 X121.229 Y101.930 E0.01689
G1 X97.371 Y78.072 E1.06319
G1 X96.835 Y78.072 E0.01689
G1 X120.693 Y101.930 E1.06319
G1 X120.157 Y101.930 E0.01689
G1 X96.299 Y78.072 E1.06319
G1 X95.763 Y78.072 E0.01689
G1 X119.621 Y101.930 E1.06319
G1 X119.085 Y101.930 E0.01689
G1 X95.227 Y78.072 E1.06319
G1 X94.691 Y78.072 E0.01689
G1 X118.549 Y101.930 E1.06319
M73 P6 R34
G1 X118.013 Y101.930 E0.01689
G1 X94.155 Y78.072 E1.06320
G1 X93.619 Y78.072 E0.01689
G1 X117.477 Y101.930 E1.06320
G1 X116.941 Y101.930 E0.01689
G1 X93.083 Y78.072 E1.06320
G1 X92.547 Y78.072 E0.01689
G1 X116.406 Y101.930 E1.06320
G1 X115.870 Y101.930 E0.01689
G1 X92.011 Y78.072 E1.06320
G1 X91.475 Y78.072 E0.01689
G1 X115.334 Y101.930 E1.06320
G1 X114.798 Y101.930 E0.01689
G1 X90.939 Y78.072 E1.06320
G1 X90.403 Y78.072 E0.01689
G1 X114.262 Y101.930 E1.06320
G1 X113.726 Y101.930 E0.01689
G1 X89.868 Y78.072 E1.06321
G1 X89.332 Y78.072 E0.01689
G1 X113.190 Y101.930 E1.06321
G1 X112.654 Y101.930 E0.01689
G1 X88.796 Y78.072 E1.06321
G1 X88.260 Y78.072 E0.01689
G1 X112.118 Y101.930 E1.06321
G1 X111.582 Y101.930 E0.01689
G1 X87.724 Y78.072 E1.06321
G1 X87.188 Y78.072 E0.01689
G1 X111.046 Y101.930 E1.06321
G1 X110.510 Y101.930 E0.01689
G1 X86.652 Y78.072 E1.06321
G1 X86.116 Y78.072 E0.01689
G1 X109.974 Y101.930 E1.06321
G1 X109.438 Y101.930 E0.01689
G1 X85.580 Y78.072 E1.06322
G1 X85.044 Y78.072 E0.01689
G1 X108.902 Y101.930 E1.06322
G1 X108.366 Y101.930 E0.01689
G1 X84.508 Y78.071 E1.06322
G1 X83.972 Y78.071 E0.01689
G1 X107.831 Y101.930 E1.06322
G1 X107.295 Y101.930 E0.01689
G1 X83.436 Y78.071 E1.06322
G1 X82.900 Y78.071 E0.01689
G1 X106.759 Y101.930 E1.06322
G1 X106.223 Y101.930 E0.01689
G1 X82.364 Y78.071 E1.06322
G1 X81.828 Y78.071 E0.01689
G1 X105.687 Y101.930 E1.06323
G1 X105.151 Y101.930 E0.01689
G1 X81.292 Y78.071 E1.06323
G1 X80.756 Y78.071 E0.01689
G1 X104.615 Y101.930 E1.06323
G1 X104.079 Y101.930 E0.01689
G1 X80.220 Y78.071 E1.06323
G1 X79.684 Y78.071 E0.01689
G1 X103.543 Y101.930 E1.06323
G1 X103.007 Y101.930 E0.01689
G1 X79.148 Y78.071 E1.06323
G1 X78.612 Y78.071 E0.01689
G1 X102.471 Y101.930 E1.06323
G1 X101.935 Y101.930 E0.01689
G1 X78.076 Y78.071 E1.06323
G1 X77.540 Y78.071 E0.01689
G1 X101.399 Y101.930 E1.06324
G1 X100.863 Y101.930 E0.01689
G1 X77.004 Y78.071 E1.06324
G1 X76.468 Y78.071 E0.01689
G1 X100.327 Y101.930 E1.06324
G1 X99.792 Y101.930 E0.01689
G1 X75.932 Y78.071 E1.06324
M73 P8 R33
G1 X75.396 Y78.071 E0.01689
G1 X99.256 Y101.930 E1.06324
G1 X98.720 Y101.930 E0.01689
G1 X74.861 Y78.071 E1.06324
G1 X74.325 Y78.071 E0.01689
G1 X98.184 Y101.930 E1.06324
G1 X97.648 Y101.930 E0.01689
G1 X73.789 Y78.071 E1.06324
G1 X73.253 Y78.071 E0.01689
G1 X97.112 Y101.930 E1.06325
G1 X96.576 Y101.930 E0.01689
G1 X72.717 Y78.071 E1.06325
G1 X72.181 Y78.071 E0.01689
G1 X96.040 Y101.930 E1.06325
G1 X95.504 Y101.930 E0.01689
G1 X71.645 Y78.071 E1.06325
G1 X71.109 Y78.071 E0.01689
G1 X94.968 Y101.930 E1.06325
G1 X94.432 Y101.930 E0.01689
G1 X70.573 Y78.071 E1.06325
G1 X70.037 Y78.071 E0.01689
G1 X93.896 Y101.930 E1.06325
G1 X93.360 Y101.930 E0.01689
G1 X69.501 Y78.071 E1.06325
G1 X68.965 Y78.071 E0.01689
G1 X92.824 Y101.930 E1.06326
G1 X92.288 Y101.930 E0.01689
G1 X68.429 Y78.071 E1.06326
G1 X67.893 Y78.071 E0.01689
G1 X91.752 Y101.930 E1.06326
G1 X91.217 Y101.930 E0.01689
G1 X67.357 Y78.071 E1.06326
G1 X66.821 Y78.071 E0.01689
G1 X90.681 Y101.930 E1.06326
G1 X90.145 Y101.930 E0.01689
G1 X66.285 Y78.071 E1.06326
G1 X65.749 Y78.070 E0.01689
G1 X89.609 Y101.930 E1.06326
G1 X89.073 Y101.930 E0.01689
G1 X65.213 Y78.070 E1.06326
G1 X64.677 Y78.070 E0.01689
G1 X88.537 Y101.930 E1.06327
G1 X88.001 Y101.930 E0.01689
G1 X64.141 Y78.070 E1.06327
G1 X63.605 Y78.070 E0.01689
G1 X87.465 Y101.930 E1.06327
G1 X86.929 Y101.930 E0.01689
G1 X63.069 Y78.070 E1.06327
G1 X62.533 Y78.070 E0.01689
G1 X86.393 Y101.930 E1.06327
G1 X85.857 Y101.930 E0.01689
G1 X61.997 Y78.070 E1.06327
G1 X61.461 Y78.070 E0.01689
G1 X85.321 Y101.930 E1.06327
G1 X84.785 Y101.930 E0.01689
