; generated by PrusaSlicer 2.2.0+win64 on 2020-10-18 at 14:39:16 UTC


;
;

;
;
; 

; external perimeters extrusion width = 0.45mm
; perimeters extrusion width = 0.45mm
; infill extrusion width = 0.45mm
; solid infill extrusion width = 0.45mm
; top infill extrusion width = 0.40mm
; first layer extrusion width = 0.42mm

M73 P0 R32
M201 X1250 Y1250 Z400 E5000 ; sets maximum accelerations, mm/sec^2
M203 X180 Y180 Z12 E80 ; sets maximum feedrates, mm/sec
M204 P1250 R1250 T1250 ; sets acceleration (P, T) and retract acceleration (R), mm/sec^2
M205 X8.00 Y8.00 Z2.00 E10.00 ; sets the jerk limits, mm/sec
M205 S0 T0 ; sets the minimum extruding and travel feed rate, mm/sec
M107
G90 ; use absolute coordinates
M83 ; extruder relative mode
M104 S170 ; set extruder temp for bed leveling
M140 S60 ; set bed temp
M109 R170 ; wait for bed leveling temp
M190 S60 ; wait for bed temp
G28 ; home all without mesh bed level
G29 ; mesh bed leveling 
M104 S215 ; set extruder temp
G92 E0.0
G1 Y-2.0 X179 F2400
G1 Z3 F720
M109 S215 ; wait for extruder temp

; intro line
G1 X170 F1000
G1 Z0.2 F720
G1 X110.0 E8.0 F900
M73 P0 R32
G1 X40.0 E10.0 F700
G92 E0.0

M221 S95 ; set flow
G21 ; set units to millimeters
G90 ; use absolute coordinates
M83 ; use relative distances for extrusion
M900 K0.2 ; Filament gcode LA 1.5
; ; Filament gcode LA 1.0
;BEFORE_LAYER_CHANGE
G92 E0.0
;0.2


G1 Z0.200 F9000.000
;AFTER_LAYER_CHANGE
;0.2
G1 E-3.20000 F4200.00000
G1 Z0.400 F9000.000
G1 X50.809 Y78.478
G1 Z0.200
G1 E3.20000 F2400.00000
M204 S800
G1 F1200.000
G1 X51.564 Y78.106 E0.02639
G1 X52.377 Y77.833 E0.02687
G1 X53.173 Y77.677 E0.02544
G1 X53.994 Y77.623 E0.02580
G1 X126.004 Y77.623 E2.25782
G1 X127.138 Y77.726 E0.03571
G1 X128.386 Y78.086 E0.04071
G1 X129.411 Y78.612 E0.03614
G1 X130.328 Y79.318 E0.03628
G1 X131.196 Y80.303 E0.04116
G1 X131.777 Y81.299 E0.03616
G1 X132.170 Y82.388 E0.03628
G1 X132.367 Y83.659 E0.04034
G1 X132.377 Y96.034 E0.38801
G1 X132.322 Y96.834 E0.02513
G1 X132.166 Y97.626 E0.02532
G1 X131.898 Y98.424 E0.02639
G1 X131.524 Y99.187 E0.02664
G1 X131.058 Y99.883 E0.02627
G1 X130.508 Y100.510 E0.02615
G1 X129.890 Y101.053 E0.02579
G1 X129.184 Y101.525 E0.02664
G1 X128.436 Y101.894 E0.02615
G1 X127.623 Y102.167 E0.02687
G1 X126.827 Y102.323 E0.02544
G1 X126.005 Y102.377 E0.02583
G1 X53.702 Y102.370 E2.26702
G1 X52.641 Y102.230 E0.03354
G1 X51.621 Y101.916 E0.03345
G1 X50.794 Y101.512 E0.02887
G1 X49.935 Y100.913 E0.03284
G1 X49.269 Y100.276 E0.02889
G1 X48.623 Y99.428 E0.03343
G1 X48.127 Y98.485 E0.03342
G1 X47.833 Y97.623 E0.02854
G1 X47.679 Y96.839 E0.02507
G1 X47.623 Y96.010 E0.02604
G1 X47.623 Y83.973 E0.37740
G1 X47.775 Y82.615 E0.04286
G1 X48.016 Y81.796 E0.02675
G1 X48.433 Y80.892 E0.03123
G1 X48.926 Y80.138 E0.02823
G1 X49.460 Y79.522 E0.02556
G1 X50.101 Y78.954 E0.02686
G1 X50.760 Y78.512 E0.02488
M204 S1250
G1 E-2.24000 F4200.00000
G1 F7200.000
G1 X51.564 Y78.106 E-0.49945
G1 X52.270 Y77.869 E-0.41255
G1 E-0.04800 F4200.00000
G1 Z0.400 F9000.000
G1 X92.437 Y86.785
G1 Z0.200
G1 E3.20000 F2400.00000
M204 S800
G1 F1200.000
G1 X90.854 Y88.680 E0.07743
G1 X90.207 Y88.437 E0.02166
G1 X90.001 Y88.400 E0.00656
G1 X89.771 Y88.414 E0.00722
G1 X89.615 Y88.453 E0.00504
G1 X89.485 Y88.510 E0.00446
G1 X89.303 Y88.638 E0.00700
G1 X89.166 Y88.779 E0.00614
G1 X89.012 Y89.011 E0.00874
G1 X88.896 Y89.289 E0.00943
G1 X88.821 Y89.629 E0.01094
G1 X88.796 Y90.063 E0.01362
G1 X88.817 Y90.363 E0.00944
G1 X88.869 Y90.624 E0.00832
G1 X88.986 Y90.938 E0.01052
G1 X89.093 Y91.121 E0.00666
G1 X89.266 Y91.329 E0.00847
G1 X89.492 Y91.496 E0.00882
G1 X89.722 Y91.581 E0.00770
G1 X89.893 Y91.607 E0.00542
G1 X90.198 Y91.591 E0.00956
G1 X90.356 Y91.548 E0.00514
G1 X90.591 Y91.412 E0.00853
G1 X90.723 Y91.268 E0.00610
G1 X90.800 Y91.143 E0.00462
G1 X90.879 Y90.942 E0.00677
G1 X90.929 Y90.726 E0.00695
G1 X91.033 Y89.464 E0.03972
G1 X93.762 Y89.464 E0.08557
G1 X93.598 Y90.800 E0.04222
G1 X93.425 Y91.392 E0.01935
G1 X93.290 Y91.698 E0.01047
G1 X93.053 Y92.102 E0.01470
G1 X92.651 Y92.596 E0.01997
G1 X92.154 Y93.039 E0.02085
G1 X91.626 Y93.367 E0.01951
G1 X91.194 Y93.550 E0.01472
G1 X90.873 Y93.645 E0.01048
G1 X90.262 Y93.743 E0.01942
G1 X89.746 Y93.753 E0.01617
G1 X89.385 Y93.726 E0.01133
G1 X88.758 Y93.603 E0.02005
G1 X88.312 Y93.445 E0.01482
G1 X88.009 Y93.299 E0.01057
G1 X87.495 Y92.962 E0.01926
G1 X87.126 Y92.633 E0.01552
G1 X86.885 Y92.371 E0.01114
G1 X86.521 Y91.863 E0.01961
G1 X86.308 Y91.442 E0.01477
G1 X86.192 Y91.134 E0.01034
G1 X86.077 Y90.683 E0.01459
G1 X86.029 Y90.354 E0.01040
G1 X86.008 Y90.013 E0.01071
G1 X86.023 Y89.500 E0.01612
G1 X86.129 Y88.870 E0.02002
G1 X86.277 Y88.423 E0.01477
G1 X86.413 Y88.124 E0.01028
G1 X86.648 Y87.731 E0.01437
G1 X86.847 Y87.469 E0.01032
G1 X87.146 Y87.146 E0.01379
G1 X87.397 Y86.920 E0.01059
G1 X87.660 Y86.721 E0.01033
G1 X88.058 Y86.483 E0.01454
G1 X88.484 Y86.300 E0.01454
G1 X88.802 Y86.202 E0.01043
G1 X89.270 Y86.110 E0.01496
G1 X89.624 Y86.078 E0.01115
G1 X90.135 Y86.079 E0.01602
G1 X90.620 Y86.140 E0.01533
G1 X91.079 Y86.258 E0.01487
G1 X92.381 Y86.764 E0.04380
M204 S1250
G1 X91.811 Y86.947 F9000.000
M204 S800
G1 F1200.000
G1 X90.736 Y88.233 E0.05256
G1 X90.308 Y88.072 E0.01434
G1 X90.024 Y88.021 E0.00905
G1 X89.713 Y88.039 E0.00974
G1 X89.493 Y88.095 E0.00714
G1 X89.299 Y88.180 E0.00664
G1 X89.056 Y88.351 E0.00930
G1 X88.872 Y88.542 E0.00834
G1 X88.678 Y88.832 E0.01094
G1 X88.535 Y89.175 E0.01163
G1 X88.446 Y89.578 E0.01294
G1 X88.418 Y90.065 E0.01531
G1 X88.442 Y90.413 E0.01095
G1 X88.505 Y90.727 E0.01003
G1 X88.644 Y91.100 E0.01247
G1 X88.783 Y91.338 E0.00865
G1 X88.994 Y91.593 E0.01038
G1 X89.111 Y91.695 E0.00487
G1 X89.431 Y91.884 E0.01167
G1 X89.636 Y91.950 E0.00675
G1 X89.866 Y91.984 E0.00728
G1 X90.109 Y91.983 E0.00762
G1 X90.272 Y91.962 E0.00516
G1 X90.488 Y91.903 E0.00701
G1 X90.679 Y91.812 E0.00665
G1 X90.842 Y91.696 E0.00628
G1 X91.025 Y91.496 E0.00849
G1 X91.138 Y91.312 E0.00678
G1 X91.240 Y91.055 E0.00868
G1 X91.303 Y90.784 E0.00870
G1 X91.380 Y89.841 E0.02968
G1 X93.336 Y89.841 E0.06132
G1 X93.228 Y90.724 E0.02789
G1 X93.070 Y91.263 E0.01760
G1 X92.953 Y91.526 E0.00902
G1 X92.742 Y91.887 E0.01312
G1 X92.377 Y92.335 E0.01811
G1 X91.928 Y92.736 E0.01888
G1 X91.452 Y93.031 E0.01757
G1 X91.066 Y93.195 E0.01314
G1 X90.789 Y93.277 E0.00905
G1 X90.228 Y93.366 E0.01782
G1 X89.756 Y93.375 E0.01480
G1 X89.436 Y93.352 E0.01008
G1 X88.858 Y93.238 E0.01847
G1 X88.457 Y93.096 E0.01332
G1 X88.194 Y92.970 E0.00915
G1 X87.725 Y92.662 E0.01760
G1 X87.390 Y92.363 E0.01407
G1 X87.178 Y92.133 E0.00983
G1 X86.844 Y91.667 E0.01797
G1 X86.654 Y91.291 E0.01322
G1 X86.552 Y91.020 E0.00905
G1 X86.447 Y90.609 E0.01332
G1 X86.405 Y90.315 E0.00930
G1 X86.385 Y90.007 E0.00969
G1 X86.399 Y89.537 E0.01475
G1 X86.496 Y88.961 E0.01830
G1 X86.628 Y88.560 E0.01323
G1 X86.747 Y88.300 E0.00897
G1 X86.961 Y87.943 E0.01307
G1 X87.136 Y87.711 E0.00909
G1 X87.411 Y87.415 E0.01266
G1 X87.637 Y87.211 E0.00956
G1 X87.871 Y87.034 E0.00919
G1 X88.230 Y86.820 E0.01311
G1 X88.614 Y86.654 E0.01312
G1 X88.894 Y86.568 E0.00917
G1 X89.323 Y86.484 E0.01373
G1 X89.641 Y86.455 E0.00999
G1 X90.111 Y86.456 E0.01474
G1 X90.549 Y86.511 E0.01385
G1 X90.963 Y86.618 E0.01341
G1 X91.755 Y86.925 E0.02663
M204 S1250
G1 X92.147 Y87.164 F9000.000
G1 E-2.24000 F4200.00000
G1 F7200.000
G1 X90.743 Y88.223 E-0.91200
G1 E-0.04800 F4200.00000
G1 Z0.400 F9000.000
G1 X94.821 Y86.216
G1 Z0.200
G1 E3.20000 F2400.00000
M204 S800
G1 F1200.000
G1 X97.574 Y86.216 E0.08632
G1 X97.574 Y89.699 E0.10920
G1 X97.581 Y89.926 E0.00713
G1 X97.621 Y90.217 E0.00918
G1 X97.716 Y90.507 E0.00957
G1 X97.792 Y90.634 E0.00465
G1 X97.965 Y90.798 E0.00747
G1 X98.040 Y90.836 E0.00262
G1 X98.861 Y91.024 E0.02642
G1 X98.861 Y93.746 E0.08533
G1 X97.810 Y93.753 E0.03295
G1 X97.359 Y93.700 E0.01424
G1 X96.910 Y93.585 E0.01453
G1 X96.495 Y93.412 E0.01410
G1 X96.119 Y93.181 E0.01384
G1 X95.694 Y92.799 E0.01791
G1 X95.409 Y92.438 E0.01443
G1 X95.187 Y92.051 E0.01400
G1 X95.021 Y91.630 E0.01417
G1 X94.931 Y91.303 E0.01065
G1 X94.834 Y90.641 E0.02098
G1 X94.821 Y86.276 E0.13684
M204 S1250
G1 X95.199 Y86.594 F9000.000
M204 S800
G1 F1200.000
G1 X97.196 Y86.594 E0.06264
G1 X97.196 Y89.706 E0.09758
G1 X97.205 Y89.959 E0.00794
G1 X97.251 Y90.293 E0.01059
G1 X97.379 Y90.678 E0.01271
G1 X97.487 Y90.857 E0.00655
G1 X97.615 Y91.003 E0.00612
G1 X97.762 Y91.118 E0.00583
G1 X97.910 Y91.193 E0.00522
G1 X98.484 Y91.325 E0.01844
G1 X98.484 Y93.371 E0.06417
G1 X97.831 Y93.376 E0.02048
G1 X97.428 Y93.329 E0.01271
G1 X97.030 Y93.227 E0.01288
G1 X96.667 Y93.076 E0.01233
G1 X96.346 Y92.878 E0.01183
G1 X95.970 Y92.540 E0.01583
G1 X95.722 Y92.226 E0.01255
G1 X95.528 Y91.887 E0.01226
G1 X95.379 Y91.511 E0.01268
G1 X95.301 Y91.225 E0.00928
G1 X95.211 Y90.613 E0.01941
G1 X95.199 Y86.654 E0.12414
M204 S1250
G1 X95.196 Y86.194 F9000.000
G1 E-2.24000 F4200.00000
G1 F7200.000
G1 X96.844 Y86.604 E-0.91200
G1 E-0.04800 F4200.00000
G1 Z0.400 F9000.000
G1 X103.424 Y86.001
G1 Z0.200
G1 E3.20000 F2400.00000
M204 S800
G1 F1200.000
G1 X103.424 Y88.890 E0.09058
G1 X102.750 Y89.116 E0.02231
G1 X102.553 Y89.225 E0.00705
G1 X102.435 Y89.332 E0.00499
G1 X102.331 Y89.483 E0.00574
G1 X102.244 Y89.696 E0.00721
G1 X102.169 Y90.045 E0.01121
G1 X102.140 Y90.400 E0.01116
G1 X102.142 Y90.585 E0.00579
G1 X103.366 Y90.585 E0.03839
G1 X103.366 Y93.488 E0.09103
G1 X102.137 Y93.488 E0.03855
G1 X102.137 Y96.330 E0.08912
G1 X99.386 Y96.330 E0.08627
G1 X99.386 Y90.112 E0.19496
G1 X99.441 Y89.367 E0.02343
G1 X99.587 Y88.688 E0.02175
G1 X99.757 Y88.222 E0.01557
G1 X99.975 Y87.800 E0.01490
G1 X100.262 Y87.398 E0.01550
G1 X100.585 Y87.064 E0.01454
G1 X101.075 Y86.698 E0.01917
G1 X101.508 Y86.465 E0.01542
G1 X101.967 Y86.284 E0.01549
G1 X102.415 Y86.172 E0.01447
G1 X103.365 Y86.011 E0.03022
M204 S1250
G1 X103.047 Y86.448 F9000.000
M204 S800
G1 F1200.000
G1 X103.047 Y88.619 E0.06808
G1 X102.598 Y88.770 E0.01486
G1 X102.332 Y88.916 E0.00951
G1 X102.148 Y89.082 E0.00777
G1 X101.998 Y89.303 E0.00838
G1 X101.882 Y89.584 E0.00952
G1 X101.796 Y89.990 E0.01303
G1 X101.763 Y90.386 E0.01245
G1 X101.768 Y90.962 E0.01805
G1 X102.989 Y90.962 E0.03830
G1 X102.989 Y93.111 E0.06738
G1 X101.760 Y93.111 E0.03855
G1 X101.760 Y95.953 E0.08912
G1 X99.763 Y95.953 E0.06262
G1 X99.763 Y90.126 E0.18270
G1 X99.815 Y89.420 E0.02218
G1 X99.950 Y88.793 E0.02011
G1 X100.103 Y88.374 E0.01399
G1 X100.298 Y87.997 E0.01330
G1 X100.553 Y87.640 E0.01378
G1 X100.835 Y87.348 E0.01271
G1 X101.278 Y87.017 E0.01734
G1 X101.667 Y86.808 E0.01384
G1 X102.082 Y86.644 E0.01402
G1 X102.492 Y86.542 E0.01325
G1 X102.988 Y86.458 E0.01577
M204 S1250
G1 X103.446 Y86.421 F9000.000
G1 E-2.24000 F4200.00000
G1 F7200.000
G1 X103.033 Y88.103 E-0.91200
G1 E-0.04800 F4200.00000
G1 Z0.400 F9000.000
G1 X104.751 Y86.216
G1 Z0.200
G1 E3.20000 F2400.00000
M204 S800
G1 F1200.000
G1 X107.503 Y86.216 E0.08628
G1 X107.503 Y89.699 E0.10920
G1 X107.511 Y89.926 E0.00713
G1 X107.551 Y90.216 E0.00918
G1 X107.646 Y90.506 E0.00956
G1 X107.722 Y90.633 E0.00464
G1 X107.895 Y90.798 E0.00748
G1 X107.970 Y90.835 E0.00263
G1 X108.790 Y91.025 E0.02641
G1 X108.790 Y93.746 E0.08532
G1 X107.742 Y93.753 E0.03287
G1 X107.293 Y93.700 E0.01420
G1 X106.837 Y93.583 E0.01475
G1 X106.301 Y93.344 E0.01840
G1 X105.842 Y93.008 E0.01783
G1 X105.524 Y92.675 E0.01444
G1 X105.262 Y92.309 E0.01412
G1 X105.057 Y91.908 E0.01411
G1 X104.906 Y91.472 E0.01449
G1 X104.828 Y91.136 E0.01080
G1 X104.755 Y90.468 E0.02106
G1 X104.752 Y86.276 E0.13143
M204 S1250
G1 X105.129 Y86.594 F9000.000
M204 S800
G1 F1200.000
G1 X107.126 Y86.594 E0.06262
G1 X107.126 Y89.706 E0.09758
G1 X107.135 Y89.959 E0.00794
G1 X107.181 Y90.293 E0.01058
G1 X107.309 Y90.678 E0.01270
G1 X107.416 Y90.857 E0.00655
G1 X107.545 Y91.003 E0.00612
G1 X107.692 Y91.117 E0.00583
G1 X107.840 Y91.193 E0.00522
G1 X108.413 Y91.325 E0.01844
G1 X108.413 Y93.371 E0.06417
G1 X107.763 Y93.376 E0.02040
G1 X107.362 Y93.329 E0.01267
G1 X106.962 Y93.226 E0.01295
G1 X106.492 Y93.016 E0.01615
G1 X106.092 Y92.723 E0.01554
G1 X105.815 Y92.434 E0.01255
G1 X105.585 Y92.113 E0.01239
G1 X105.405 Y91.760 E0.01241
G1 X105.269 Y91.367 E0.01304
G1 X105.201 Y91.073 E0.00948
G1 X105.132 Y90.448 E0.01972
G1 X105.129 Y86.654 E0.11896
M204 S1250
G1 X105.127 Y86.194 F9000.000
G1 E-2.24000 F4200.00000
G1 F7200.000
G1 X106.774 Y86.604 E-0.91200
G1 E-0.04800 F4200.00000
G1 Z0.400 F9000.000
G1 X113.353 Y93.703
G1 Z0.200
G1 E3.20000 F2400.00000
M204 S800
G1 F1200.000
G1 X113.036 Y93.392 E0.01394
G1 X112.654 Y93.686 E0.01512
G1 X112.203 Y93.596 E0.01443
G1 X112.012 Y93.614 E0.00601
G1 X111.327 Y93.367 E0.02280
G1 X110.789 Y93.048 E0.01964
G1 X110.517 Y92.835 E0.01083
G1 X110.158 Y92.490 E0.01561
G1 X109.771 Y91.999 E0.01960
G1 X109.600 Y91.711 E0.01050
G1 X109.405 Y91.281 E0.01479
G1 X109.238 Y90.681 E0.01953
G1 X109.171 Y90.022 E0.02078
G1 X109.207 Y89.352 E0.02102
G1 X109.344 Y88.745 E0.01951
G1 X109.460 Y88.431 E0.01052
G1 X109.670 Y88.009 E0.01476
G1 X110.038 Y87.489 E0.01999
G1 X110.513 Y87.006 E0.02122
G1 X110.900 Y86.708 E0.01532
G1 X111.179 Y86.538 E0.01027
G1 X111.475 Y86.393 E0.01033
G1 X112.006 Y86.207 E0.01764
G1 X112.187 Y86.225 E0.00570
G1 X112.391 Y86.184 E0.00651
G1 X112.745 Y86.149 E0.01117
G1 X113.041 Y86.434 E0.01288
G1 X113.363 Y86.127 E0.01395
G1 X113.856 Y86.214 E0.01570
G1 X114.027 Y86.207 E0.00539
G1 X114.542 Y86.359 E0.01682
G1 X114.851 Y86.500 E0.01067
G1 X115.252 Y86.745 E0.01470
G1 X115.521 Y86.952 E0.01066
G1 X115.881 Y87.290 E0.01548
G1 X116.280 Y87.782 E0.01985
G1 X116.457 Y88.067 E0.01052
G1 X116.658 Y88.488 E0.01464
G1 X116.801 Y88.930 E0.01457
G1 X116.869 Y89.262 E0.01061
G1 X116.920 Y89.918 E0.02066
G1 X116.870 Y90.578 E0.02074
G1 X116.717 Y91.187 E0.01968
G1 X116.534 Y91.621 E0.01477
G1 X116.372 Y91.912 E0.01044
G1 X115.994 Y92.421 E0.01988
G1 X115.510 Y92.892 E0.02118
G1 X115.119 Y93.179 E0.01519
G1 X114.823 Y93.349 E0.01071
G1 X114.240 Y93.579 E0.01966
G1 X113.991 Y93.624 E0.00794
G1 X113.852 Y93.619 E0.00437
G1 X113.412 Y93.693 E0.01397
M204 S1250
G1 X112.854 Y93.056 F9000.000
M204 S800
G1 F1200.000
G1 X112.559 Y93.283 E0.01167
G1 X112.222 Y93.215 E0.01078
G1 X112.060 Y93.230 E0.00511
G1 X111.489 Y93.025 E0.01905
G1 X111.002 Y92.736 E0.01774
G1 X110.764 Y92.550 E0.00947
G1 X110.438 Y92.236 E0.01419
G1 X110.083 Y91.785 E0.01801
G1 X109.935 Y91.536 E0.00907
G1 X109.760 Y91.152 E0.01323
G1 X109.609 Y90.611 E0.01760
G1 X109.549 Y90.013 E0.01885
G1 X109.582 Y89.404 E0.01911
G1 X109.706 Y88.853 E0.01774
G1 X109.806 Y88.581 E0.00909
G1 X109.994 Y88.204 E0.01321
G1 X110.328 Y87.731 E0.01813
G1 X110.763 Y87.289 E0.01945
G1 X111.114 Y87.019 E0.01386
G1 X111.361 Y86.869 E0.00908
G1 X111.621 Y86.741 E0.00908
G1 X112.052 Y86.591 E0.01431
G1 X112.207 Y86.606 E0.00489
G1 X112.609 Y86.541 E0.01276
G1 X112.854 Y86.778 E0.01070
G1 X112.837 Y88.197 E0.04449
G1 X112.346 Y88.367 E0.01632
G1 X112.118 Y88.501 E0.00828
G1 X111.905 Y88.678 E0.00868
G1 X111.724 Y88.883 E0.00858
G1 X111.579 Y89.110 E0.00843
G1 X111.474 Y89.350 E0.00821
G1 X111.407 Y89.615 E0.00858
G1 X111.383 Y89.879 E0.00831
G1 X111.400 Y90.162 E0.00889
G1 X111.455 Y90.423 E0.00836
G1 X111.593 Y90.755 E0.01125
G1 X111.734 Y90.969 E0.00806
G1 X111.981 Y91.222 E0.01108
G1 X112.198 Y91.378 E0.00838
G1 X112.428 Y91.492 E0.00804
G1 X112.837 Y91.618 E0.01344
G1 X112.853 Y92.996 E0.04318
M204 S1250
G1 X113.041 Y93.377 F9000.000
G1 X113.230 Y93.000
M204 S800
G1 F1200.000
G1 X113.246 Y91.622 E0.04321
G1 X113.716 Y91.471 E0.01549
G1 X113.946 Y91.347 E0.00819
G1 X114.157 Y91.183 E0.00839
G1 X114.359 Y90.962 E0.00939
G1 X114.548 Y90.652 E0.01138
G1 X114.640 Y90.404 E0.00828
G1 X114.694 Y90.129 E0.00880
G1 X114.706 Y89.847 E0.00885
G1 X114.675 Y89.573 E0.00864
G1 X114.604 Y89.318 E0.00831
G1 X114.493 Y89.076 E0.00836
G1 X114.336 Y88.845 E0.00874
G1 X114.147 Y88.642 E0.00870
G1 X113.936 Y88.476 E0.00842
G1 X113.713 Y88.353 E0.00797
G1 X113.245 Y88.198 E0.01545
G1 X113.229 Y86.776 E0.04461
G1 X113.485 Y86.531 E0.01109
G1 X113.830 Y86.592 E0.01099
G1 X113.980 Y86.586 E0.00471
G1 X114.409 Y86.713 E0.01404
G1 X114.674 Y86.834 E0.00913
G1 X115.037 Y87.056 E0.01335
