; generated by PrusaSlicer 2.2.0+win64 on 2020-10-20 at 14:05:46 UTC


;
;

;
;
; 

; external perimeters extrusion width = 0.45mm
; perimeters extrusion width = 0.45mm
; infill extrusion width = 0.45mm
; solid infill extrusion width = 0.45mm
; top infill extrusion width = 0.40mm
; first layer extrusion width = 0.42mm

M73 P0 R41
M201 X1250 Y1250 Z400 E5000 ; sets maximum accelerations, mm/sec^2
M203 X180 Y180 Z12 E80 ; sets maximum feedrates, mm/sec
M204 P1250 R1250 T1250 ; sets acceleration (P, T) and retract acceleration (R), mm/sec^2
M205 X8.00 Y8.00 Z2.00 E10.00 ; sets the jerk limits, mm/sec
M205 S0 T0 ; sets the minimum extruding and travel feed rate, mm/sec
M107
G90 ; use absolute coordinates
M83 ; extruder relative mode
M104 S170 ; set extruder temp for bed leveling
M140 S60 ; set bed temp
M109 R170 ; wait for bed leveling temp
M190 S60 ; wait for bed temp
G28 ; home all without mesh bed level
G29 ; mesh bed leveling 
M104 S215 ; set extruder temp
G92 E0.0
G1 Y-2.0 X179 F2400
G1 Z3 F720
M109 S215 ; wait for extruder temp

; intro line
G1 X170 F1000
G1 Z0.2 F720
G1 X110.0 E8.0 F900
M73 P0 R41
G1 X40.0 E10.0 F700
G92 E0.0

M221 S95 ; set flow
G21 ; set units to millimeters
G90 ; use absolute coordinates
M83 ; use relative distances for extrusion
M900 K0.2 ; Filament gcode LA 1.5
; ; Filament gcode LA 1.0
;BEFORE_LAYER_CHANGE
G92 E0.0
;0.2


G1 Z0.200 F9000.000
;AFTER_LAYER_CHANGE
;0.2
G1 E-3.20000 F4200.00000
G1 Z0.400 F9000.000
G1 X61.115 Y78.000
G1 Z0.200
G1 E3.20000 F2400.00000
M204 S800
G1 F1200.000
G1 X62.341 Y77.094 E0.04779
G1 X63.650 Y76.313 E0.04779
G1 X65.036 Y75.661 E0.04803
G1 X66.802 Y75.056 E0.05853
G1 X68.311 Y74.719 E0.04850
G1 X89.966 Y71.313 E0.68732
G1 X117.146 Y71.289 E0.85219
G1 X118.563 Y71.427 E0.04465
G1 X119.912 Y71.829 E0.04415
G1 X121.019 Y72.391 E0.03891
G1 X122.149 Y73.248 E0.04446
G1 X123.087 Y74.298 E0.04415
G1 X123.736 Y75.359 E0.03897
G1 X124.244 Y76.670 E0.04409
G1 X124.496 Y78.084 E0.04504
G1 X124.572 Y93.447 E0.48169
G1 X124.519 Y101.369 E0.24842
G1 X124.432 Y102.462 E0.03438
G1 X124.244 Y103.329 E0.02780
G1 X123.945 Y104.186 E0.02845
G1 X123.459 Y105.143 E0.03368
G1 X122.942 Y105.893 E0.02854
G1 X122.339 Y106.569 E0.02842
G1 X121.515 Y107.275 E0.03398
G1 X120.751 Y107.768 E0.02854
G1 X119.952 Y108.155 E0.02783
G1 X118.586 Y108.569 E0.04475
G1 X117.185 Y108.711 E0.04415
G1 X90.090 Y108.695 E0.84954
G1 X67.949 Y105.214 E0.70274
G1 X66.099 Y104.731 E0.05996
G1 X64.329 Y104.028 E0.05972
G1 X62.659 Y103.112 E0.05972
G1 X61.113 Y101.999 E0.05972
G1 X59.716 Y100.704 E0.05972
G1 X58.488 Y99.248 E0.05972
G1 X57.448 Y97.653 E0.05972
G1 X56.606 Y95.928 E0.06020
G1 X56.097 Y94.507 E0.04731
G1 X55.726 Y93.029 E0.04779
G1 X55.502 Y91.521 E0.04779
G1 X55.428 Y89.999 E0.04779
G1 X55.503 Y88.476 E0.04779
G1 X55.727 Y86.969 E0.04779
G1 X56.098 Y85.491 E0.04779
G1 X56.612 Y84.056 E0.04779
G1 X57.265 Y82.679 E0.04779
G1 X58.050 Y81.372 E0.04779
G1 X58.959 Y80.149 E0.04779
G1 X59.984 Y79.021 E0.04779
G1 X61.071 Y78.040 E0.04591
M204 S1250
G1 E-2.24000 F4200.00000
G1 F7200.000
G1 X62.341 Y77.094 E-0.87771
G1 X62.394 Y77.062 E-0.03429
G1 E-0.04800 F4200.00000
G1 Z0.400 F9000.000
G1 X86.354 Y92.652
G1 Z0.200
G1 E3.20000 F2400.00000
M204 S800
G1 F1200.000
G1 X83.010 Y92.652 E0.10484
G1 X82.667 Y93.815 E0.03802
G1 X82.465 Y94.386 E0.01900
G1 X82.236 Y94.948 E0.01902
G1 X81.979 Y95.498 E0.01902
G1 X81.696 Y96.034 E0.01902
G1 X81.386 Y96.556 E0.01902
G1 X81.051 Y97.062 E0.01902
G1 X80.692 Y97.550 E0.01902
G1 X80.309 Y98.021 E0.01902
G1 X79.903 Y98.472 E0.01902
G1 X79.476 Y98.903 E0.01902
G1 X79.031 Y99.310 E0.01891
G1 X78.317 Y99.886 E0.02876
G1 X77.825 Y100.235 E0.01891
G1 X77.314 Y100.561 E0.01902
G1 X76.790 Y100.860 E0.01891
G1 X75.967 Y101.265 E0.02876
G1 X75.411 Y101.498 E0.01891
G1 X74.840 Y101.704 E0.01902
G1 X74.260 Y101.882 E0.01902
G1 X73.676 Y102.031 E0.01891
G1 X72.775 Y102.201 E0.02876
G1 X72.176 Y102.277 E0.01891
G1 X71.575 Y102.323 E0.01891
G1 X70.658 Y102.337 E0.02876
G1 X70.055 Y102.309 E0.01891
G1 X69.468 Y102.252 E0.01849
G1 X68.553 Y102.108 E0.02907
G1 X67.664 Y101.899 E0.02864
G1 X67.086 Y101.725 E0.01891
G1 X66.518 Y101.523 E0.01891
G1 X65.677 Y101.165 E0.02864
G1 X64.869 Y100.747 E0.02853
G1 X64.090 Y100.269 E0.02864
G1 X63.600 Y99.925 E0.01880
G1 X62.886 Y99.355 E0.02864
G1 X62.218 Y98.737 E0.02853
G1 X61.598 Y98.071 E0.02853
G1 X61.026 Y97.359 E0.02864
G1 X60.681 Y96.869 E0.01880
G1 X60.199 Y96.088 E0.02876
G1 X59.916 Y95.560 E0.01880
G1 X59.533 Y94.726 E0.02876
G1 X59.316 Y94.164 E0.01891
G1 X59.125 Y93.588 E0.01902
G1 X58.963 Y93.003 E0.01902
G1 X58.830 Y92.411 E0.01902
G1 X58.726 Y91.814 E0.01902
G1 X58.652 Y91.212 E0.01902
G1 X58.607 Y90.607 E0.01902
G1 X58.592 Y90.000 E0.01902
G1 X58.607 Y89.393 E0.01902
G1 X58.652 Y88.788 E0.01902
G1 X58.726 Y88.186 E0.01902
G1 X58.830 Y87.589 E0.01902
G1 X58.963 Y86.997 E0.01902
G1 X59.125 Y86.412 E0.01902
G1 X59.316 Y85.836 E0.01902
G1 X59.535 Y85.270 E0.01902
G1 X59.781 Y84.716 E0.01902
G1 X60.054 Y84.174 E0.01902
G1 X60.353 Y83.646 E0.01902
G1 X60.679 Y83.134 E0.01902
G1 X61.028 Y82.638 E0.01902
G1 X61.402 Y82.161 E0.01902
G1 X61.799 Y81.702 E0.01902
G1 X62.218 Y81.263 E0.01902
G1 X62.658 Y80.845 E0.01902
G1 X63.118 Y80.449 E0.01902
G1 X63.597 Y80.077 E0.01902
G1 X64.093 Y79.728 E0.01902
G1 X64.607 Y79.405 E0.01902
G1 X65.135 Y79.107 E0.01902
G1 X65.677 Y78.835 E0.01902
G1 X66.233 Y78.590 E0.01902
G1 X66.799 Y78.373 E0.01902
G1 X67.375 Y78.184 E0.01902
G1 X67.961 Y78.023 E0.01902
G1 X68.553 Y77.892 E0.01902
G1 X69.151 Y77.790 E0.01902
G1 X69.753 Y77.717 E0.01902
G1 X70.358 Y77.674 E0.01902
G1 X70.965 Y77.660 E0.01902
G1 X71.571 Y77.677 E0.01902
G1 X72.176 Y77.723 E0.01902
G1 X72.778 Y77.799 E0.01902
G1 X73.376 Y77.905 E0.01902
G1 X73.967 Y78.040 E0.01902
G1 X74.551 Y78.203 E0.01902
G1 X75.127 Y78.395 E0.01902
G1 X75.692 Y78.616 E0.01902
G1 X76.246 Y78.863 E0.01902
G1 X76.787 Y79.138 E0.01902
G1 X77.314 Y79.439 E0.01902
G1 X77.822 Y79.763 E0.01891
G1 X78.563 Y80.303 E0.02876
G1 X79.025 Y80.686 E0.01880
G1 X79.695 Y81.312 E0.02876
G1 X80.109 Y81.751 E0.01891
G1 X80.503 Y82.212 E0.01902
G1 X80.874 Y82.692 E0.01902
G1 X81.220 Y83.186 E0.01891
G1 X81.691 Y83.958 E0.02833
G1 X81.979 Y84.503 E0.01933
G1 X82.236 Y85.052 E0.01902
G1 X82.465 Y85.614 E0.01902
G1 X82.667 Y86.185 E0.01900
G1 X83.010 Y87.348 E0.03802
G1 X86.354 Y87.348 E0.10484
G1 X86.354 Y78.685 E0.27162
G1 X86.385 Y78.171 E0.01615
G1 X86.472 Y77.683 E0.01555
G1 X86.616 Y77.208 E0.01555
G1 X86.814 Y76.754 E0.01555
G1 X87.065 Y76.326 E0.01555
G1 X87.365 Y75.930 E0.01555
G1 X87.708 Y75.573 E0.01555
G1 X88.092 Y75.258 E0.01555
G1 X88.509 Y74.991 E0.01555
G1 X88.961 Y74.772 E0.01573
G1 X89.260 Y74.662 E0.01001
G1 X89.746 Y74.535 E0.01573
G1 X90.243 Y74.466 E0.01573
G1 X90.581 Y74.453 E0.01061
G1 X117.301 Y74.457 E0.83781
G1 X117.637 Y74.483 E0.01056
G1 X117.958 Y74.533 E0.01019
G1 X118.444 Y74.660 E0.01574
G1 X118.754 Y74.774 E0.01037
G1 X119.049 Y74.910 E0.01018
G1 X119.482 Y75.164 E0.01573
G1 X119.882 Y75.467 E0.01573
G1 X120.116 Y75.683 E0.01001
G1 X120.453 Y76.063 E0.01591
G1 X120.644 Y76.326 E0.01019
G1 X120.814 Y76.603 E0.01019
G1 X121.036 Y77.059 E0.01591
G1 X121.148 Y77.364 E0.01019
G1 X121.238 Y77.682 E0.01037
G1 X121.301 Y78.001 E0.01019
G1 X121.351 Y78.506 E0.01592
G1 X121.355 Y87.348 E0.27723
G1 X121.408 Y87.348 E0.00167
G1 X121.408 Y92.652 E0.16629
G1 X121.355 Y92.652 E0.00168
G1 X121.355 Y101.315 E0.27162
G1 X121.324 Y101.835 E0.01634
G1 X121.273 Y102.156 E0.01019
G1 X121.199 Y102.467 E0.01001
G1 X121.031 Y102.952 E0.01609
G1 X120.895 Y103.247 E0.01019
G1 X120.739 Y103.525 E0.01001
G1 X120.446 Y103.947 E0.01609
G1 X120.235 Y104.194 E0.01019
G1 X120.009 Y104.419 E0.01001
G1 X119.613 Y104.745 E0.01609
G1 X119.343 Y104.926 E0.01018
G1 X119.059 Y105.085 E0.01019
G1 X118.594 Y105.288 E0.01591
G1 X118.291 Y105.387 E0.01001
G1 X117.795 Y105.495 E0.01591
G1 X117.472 Y105.534 E0.01019
G1 X117.128 Y105.547 E0.01079
G1 X90.581 Y105.547 E0.83238
G1 X90.237 Y105.534 E0.01079
G1 X89.914 Y105.495 E0.01019
G1 X89.418 Y105.387 E0.01591
G1 X89.115 Y105.288 E0.01001
G1 X88.655 Y105.087 E0.01573
G1 X88.227 Y104.836 E0.01555
G1 X87.827 Y104.533 E0.01573
G1 X87.589 Y104.313 E0.01019
G1 X87.368 Y104.074 E0.01019
G1 X87.065 Y103.674 E0.01573
G1 X86.814 Y103.246 E0.01555
G1 X86.616 Y102.792 E0.01555
G1 X86.472 Y102.317 E0.01555
G1 X86.385 Y101.829 E0.01555
G1 X86.354 Y101.315 E0.01615
G1 X86.354 Y92.712 E0.26974
M204 S1250
G1 X85.977 Y93.029 F9000.000
M204 S800
G1 F1200.000
G1 X83.292 Y93.029 E0.08419
G1 X83.026 Y93.931 E0.02949
G1 X82.818 Y94.520 E0.01960
G1 X82.581 Y95.099 E0.01960
G1 X82.317 Y95.666 E0.01960
G1 X82.025 Y96.218 E0.01960
G1 X81.706 Y96.756 E0.01960
G1 X81.360 Y97.277 E0.01960
G1 X80.990 Y97.781 E0.01960
G1 X80.595 Y98.266 E0.01960
G1 X80.178 Y98.731 E0.01960
G1 X79.737 Y99.175 E0.01960
G1 X79.277 Y99.596 E0.01956
G1 X78.545 Y100.186 E0.02948
G1 X78.036 Y100.548 E0.01956
G1 X77.509 Y100.884 E0.01960
G1 X76.967 Y101.193 E0.01956
G1 X76.123 Y101.609 E0.02948
G1 X75.548 Y101.849 E0.01956
G1 X74.960 Y102.062 E0.01960
G1 X74.362 Y102.245 E0.01960
G1 X73.757 Y102.399 E0.01956
G1 X72.833 Y102.574 E0.02948
G1 X72.214 Y102.652 E0.01956
G1 X71.592 Y102.700 E0.01956
G1 X70.652 Y102.714 E0.02948
G1 X70.029 Y102.685 E0.01956
G1 X69.421 Y102.627 E0.01914
G1 X68.480 Y102.478 E0.02987
G1 X67.566 Y102.263 E0.02944
G1 X66.969 Y102.084 E0.01956
G1 X66.381 Y101.875 E0.01956
G1 X65.517 Y101.506 E0.02944
G1 X64.684 Y101.076 E0.02940
G1 X63.883 Y100.585 E0.02944
G1 X63.374 Y100.227 E0.01952
G1 X62.640 Y99.641 E0.02944
G1 X61.952 Y99.004 E0.02940
G1 X61.313 Y98.318 E0.02940
G1 X60.725 Y97.586 E0.02944
G1 X60.366 Y97.077 E0.01952
G1 X59.872 Y96.277 E0.02948
G1 X59.578 Y95.728 E0.01952
G1 X59.186 Y94.873 E0.02948
G1 X58.961 Y94.291 E0.01956
G1 X58.764 Y93.698 E0.01960
G1 X58.597 Y93.095 E0.01960
G1 X58.460 Y92.485 E0.01960
G1 X58.353 Y91.869 E0.01960
G1 X58.276 Y91.249 E0.01960
G1 X58.230 Y90.625 E0.01960
G1 X58.215 Y90.000 E0.01960
G1 X58.230 Y89.375 E0.01960
G1 X58.276 Y88.751 E0.01960
G1 X58.353 Y88.131 E0.01960
G1 X58.460 Y87.515 E0.01960
G1 X58.597 Y86.905 E0.01960
G1 X58.764 Y86.302 E0.01960
G1 X58.961 Y85.709 E0.01960
G1 X59.186 Y85.126 E0.01960
G1 X59.440 Y84.554 E0.01960
G1 X59.721 Y83.996 E0.01960
G1 X60.030 Y83.452 E0.01960
G1 X60.365 Y82.924 E0.01960
G1 X60.726 Y82.413 E0.01960
G1 X61.111 Y81.921 E0.01960
G1 X61.520 Y81.448 E0.01960
G1 X61.952 Y80.996 E0.01960
G1 X62.405 Y80.565 E0.01960
G1 X62.879 Y80.158 E0.01960
G1 X63.373 Y79.774 E0.01960
G1 X63.884 Y79.414 E0.01960
G1 X64.413 Y79.081 E0.01960
G1 X64.958 Y78.774 E0.01960
G1 X65.517 Y78.494 E0.01960
G1 X66.089 Y78.241 E0.01960
G1 X66.673 Y78.018 E0.01960
G1 X67.267 Y77.823 E0.01960
G1 X67.870 Y77.657 E0.01960
G1 X68.480 Y77.522 E0.01960
G1 X69.096 Y77.416 E0.01960
G1 X69.717 Y77.341 E0.01960
G1 X70.341 Y77.297 E0.01960
G1 X70.966 Y77.283 E0.01960
G1 X71.591 Y77.300 E0.01960
G1 X72.214 Y77.348 E0.01960
G1 X72.835 Y77.426 E0.01960
G1 X73.450 Y77.535 E0.01960
G1 X74.060 Y77.674 E0.01960
G1 X74.662 Y77.843 E0.01960
G1 X75.255 Y78.041 E0.01960
G1 X75.838 Y78.268 E0.01960
G1 X76.408 Y78.523 E0.01960
G1 X76.966 Y78.806 E0.01960
G1 X77.509 Y79.116 E0.01960
G1 X78.035 Y79.452 E0.01956
G1 X78.795 Y80.005 E0.02948
G1 X79.275 Y80.402 E0.01952
G1 X79.961 Y81.045 E0.02948
G1 X80.389 Y81.499 E0.01956
G1 X80.796 Y81.974 E0.01960
G1 X81.178 Y82.468 E0.01960
G1 X81.535 Y82.980 E0.01956
G1 X82.018 Y83.771 E0.02906
G1 X82.317 Y84.334 E0.01999
G1 X82.581 Y84.901 E0.01960
G1 X82.818 Y85.480 E0.01960
G1 X83.026 Y86.069 E0.01960
G1 X83.292 Y86.971 E0.02949
G1 X85.977 Y86.971 E0.08419
G1 X85.977 Y78.674 E0.26015
G1 X86.009 Y78.126 E0.01720
G1 X86.104 Y77.594 E0.01694
G1 X86.261 Y77.077 E0.01694
G1 X86.478 Y76.582 E0.01694
G1 X86.751 Y76.116 E0.01694
G1 X87.077 Y75.685 E0.01694
G1 X87.452 Y75.296 E0.01694
G1 X87.870 Y74.953 E0.01694
G1 X88.325 Y74.661 E0.01694
G1 X88.813 Y74.425 E0.01701
G1 X89.147 Y74.301 E0.01117
G1 X89.672 Y74.164 E0.01701
G1 X90.209 Y74.090 E0.01701
G1 X90.573 Y74.076 E0.01143
G1 X117.316 Y74.079 E0.83850
G1 X117.681 Y74.108 E0.01148
G1 X118.035 Y74.164 E0.01123
G1 X118.557 Y74.300 E0.01689
G1 X118.898 Y74.425 E0.01142
G1 X119.224 Y74.575 E0.01123
G1 X119.692 Y74.850 E0.01701
G1 X120.124 Y75.177 E0.01701
G1 X120.386 Y75.419 E0.01117
G1 X120.747 Y75.826 E0.01707
G1 X120.958 Y76.116 E0.01124
G1 X121.145 Y76.421 E0.01124
G1 X121.383 Y76.911 E0.01707
G1 X121.507 Y77.248 E0.01124
G1 X121.605 Y77.594 E0.01130
G1 X121.675 Y77.946 E0.01124
G1 X121.728 Y78.488 E0.01707
G1 X121.732 Y86.971 E0.26599
G1 X121.785 Y86.971 E0.00167
G1 X121.785 Y93.029 E0.18994
G1 X121.732 Y93.029 E0.00168
G1 X121.732 Y101.326 E0.26015
G1 X121.699 Y101.876 E0.01726
G1 X121.643 Y102.230 E0.01124
G1 X121.561 Y102.572 E0.01105
G1 X121.381 Y103.093 E0.01726
G1 X121.231 Y103.418 E0.01123
G1 X121.059 Y103.726 E0.01105
G1 X120.745 Y104.177 E0.01726
G1 X120.512 Y104.450 E0.01123
G1 X120.263 Y104.699 E0.01105
G1 X119.838 Y105.049 E0.01726
G1 X119.540 Y105.248 E0.01123
G1 X119.227 Y105.423 E0.01123
G1 X118.728 Y105.641 E0.01707
G1 X118.390 Y105.751 E0.01117
G1 X117.858 Y105.868 E0.01707
G1 X117.502 Y105.910 E0.01123
G1 X117.136 Y105.924 E0.01149
G1 X90.573 Y105.924 E0.83284
G1 X90.207 Y105.910 E0.01149
G1 X89.851 Y105.868 E0.01123
G1 X89.319 Y105.751 E0.01707
G1 X88.981 Y105.641 E0.01117
G1 X88.484 Y105.424 E0.01701
G1 X88.017 Y105.150 E0.01694
G1 X87.585 Y104.823 E0.01701
G1 X87.322 Y104.580 E0.01124
G1 X87.079 Y104.317 E0.01124
G1 X86.751 Y103.884 E0.01701
G1 X86.478 Y103.418 E0.01694
G1 X86.261 Y102.923 E0.01694
G1 X86.104 Y102.406 E0.01694
G1 X86.009 Y101.874 E0.01694
G1 X85.977 Y101.326 E0.01720
G1 X85.977 Y93.089 E0.25827
M204 S1250
G1 X85.977 Y92.629 F9000.000
G1 E-2.24000 F4200.00000
G1 F7200.000
G1 X84.332 Y93.052 E-0.91200
G1 E-0.04800 F4200.00000
G1 Z0.400 F9000.000
G1 X83.403 Y87.461
G1 Z0.200
G1 E3.20000 F2400.00000
M204 S800
G1 F1200.000
G1 X101.206 Y105.264 E0.79099
G1 X101.741 Y105.264 E0.01679
G1 X84.107 Y87.631 E0.78345
G1 X84.642 Y87.631 E0.01679
G1 X102.275 Y105.264 E0.78345
G1 X102.809 Y105.264 E0.01679
G1 X85.176 Y87.631 E0.78345
G1 X85.710 Y87.631 E0.01679
G1 X103.344 Y105.264 E0.78345
G1 X103.878 Y105.264 E0.01679
G1 X86.245 Y87.631 E0.78345
G1 X86.637 Y87.631 E0.01233
G1 X86.637 Y87.489 E0.00445
G1 X104.412 Y105.264 E0.78975
G1 X104.947 Y105.264 E0.01679
G1 X86.637 Y86.955 E0.81349
G1 X86.637 Y86.421 E0.01679
G1 X105.481 Y105.264 E0.83723
G1 X106.015 Y105.264 E0.01679
G1 X86.637 Y85.886 E0.86097
G1 X86.637 Y85.352 E0.01679
G1 X106.550 Y105.264 E0.88471
G1 X107.084 Y105.264 E0.01679
G1 X86.637 Y84.818 E0.90846
G1 X86.637 Y84.283 E0.01679
G1 X107.618 Y105.264 E0.93220
G1 X108.153 Y105.264 E0.01679
G1 X86.637 Y83.749 E0.95594
G1 X86.637 Y83.215 E0.01679
G1 X108.687 Y105.264 E0.97968
G1 X109.221 Y105.264 E0.01679
G1 X86.637 Y82.680 E1.00342
G1 X86.637 Y82.146 E0.01679
G1 X109.756 Y105.264 E1.02716
M73 P2 R39
G1 X110.290 Y105.264 E0.01679
G1 X86.637 Y81.612 E1.05090
G1 X86.637 Y81.077 E0.01679
G1 X110.824 Y105.264 E1.07464
G1 X111.359 Y105.264 E0.01679
G1 X86.637 Y80.543 E1.09838
G1 X86.637 Y80.008 E0.01679
G1 X111.893 Y105.264 E1.12212
G1 X112.427 Y105.264 E0.01679
G1 X86.637 Y79.474 E1.14586
G1 X86.637 Y78.940 E0.01679
G1 X112.962 Y105.264 E1.16960
G1 X113.496 Y105.264 E0.01679
G1 X86.653 Y78.421 E1.19263
G1 X86.666 Y78.204 E0.00684
G1 X86.712 Y77.946 E0.00823
G1 X114.030 Y105.264 E1.21376
G1 X114.565 Y105.264 E0.01679
G1 X86.817 Y77.517 E1.23281
G1 X86.960 Y77.126 E0.01309
G1 X115.099 Y105.264 E1.25020
G1 X115.633 Y105.264 E0.01679
G1 X87.135 Y76.766 E1.26618
G1 X87.338 Y76.434 E0.01221
G1 X116.168 Y105.264 E1.28092
G1 X116.702 Y105.264 E0.01679
G1 X87.568 Y76.130 E1.29443
G1 X87.828 Y75.856 E0.01187
G1 X117.232 Y105.260 E1.30642
G1 X117.725 Y105.219 E0.01555
G1 X88.113 Y75.607 E1.31568
G1 X88.423 Y75.382 E0.01202
G1 X118.165 Y105.125 E1.32147
G1 X118.217 Y105.113 E0.00165
G1 X118.567 Y104.991 E0.01164
G1 X88.759 Y75.184 E1.32435
G1 X89.123 Y75.014 E0.01262
G1 X118.938 Y104.828 E1.32468
G1 X119.275 Y104.631 E0.01227
