; generated by PrusaSlicer 2.2.0+win64 on 2020-10-29 at 14:27:22 UTC


;
;

;
;
; 

; external perimeters extrusion width = 0.45mm
; perimeters extrusion width = 0.45mm
; infill extrusion width = 0.45mm
; solid infill extrusion width = 0.45mm
; top infill extrusion width = 0.40mm
; first layer extrusion width = 0.42mm

M73 P0 R75
M201 X1250 Y1250 Z400 E5000 ; sets maximum accelerations, mm/sec^2
M203 X180 Y180 Z12 E80 ; sets maximum feedrates, mm/sec
M204 P1250 R1250 T1250 ; sets acceleration (P, T) and retract acceleration (R), mm/sec^2
M205 X8.00 Y8.00 Z2.00 E10.00 ; sets the jerk limits, mm/sec
M205 S0 T0 ; sets the minimum extruding and travel feed rate, mm/sec
M107
G90 ; use absolute coordinates
M83 ; extruder relative mode
M104 S170 ; set extruder temp for bed leveling
M140 S60 ; set bed temp
M109 R170 ; wait for bed leveling temp
M190 S60 ; wait for bed temp
G28 ; home all without mesh bed level
G29 ; mesh bed leveling 
M104 S215 ; set extruder temp
G92 E0.0
G1 Y-2.0 X179 F2400
G1 Z3 F720
M109 S215 ; wait for extruder temp

; intro line
G1 X170 F1000
G1 Z0.2 F720
G1 X110.0 E8.0 F900
M73 P0 R75
G1 X40.0 E10.0 F700
G92 E0.0

M221 S95 ; set flow
G21 ; set units to millimeters
G90 ; use absolute coordinates
M83 ; use relative distances for extrusion
M900 K0.2 ; Filament gcode LA 1.5
; ; Filament gcode LA 1.0
;BEFORE_LAYER_CHANGE
G92 E0.0
;0.2


G1 Z0.200 F9000.000
;AFTER_LAYER_CHANGE
;0.2
G1 E-3.20000 F4200.00000
G1 Z0.400 F9000.000
G1 X40.434 Y79.705
G1 Z0.200
G1 E3.20000 F2400.00000
M204 S800
G1 F1200.000
G1 X41.078 Y79.237 E0.02496
G1 X49.694 Y75.379 E0.29599
G1 X50.883 Y74.962 E0.03951
G1 X52.126 Y74.707 E0.03978
G1 X53.366 Y74.623 E0.03896
G1 X125.385 Y74.623 E2.25812
G1 X126.939 Y74.753 E0.04890
G1 X128.437 Y75.135 E0.04845
G1 X138.826 Y79.193 E0.34973
G1 X139.370 Y79.526 E0.02000
G1 X139.803 Y79.990 E0.01989
G1 X140.100 Y80.555 E0.02000
G1 X140.235 Y81.174 E0.01989
G1 X140.243 Y98.096 E0.53058
G1 X140.172 Y98.639 E0.01716
G1 X139.977 Y99.154 E0.01728
G1 X139.525 Y99.764 E0.02378
G1 X138.905 Y100.200 E0.02378
G1 X129.072 Y104.620 E0.33801
G1 X127.879 Y105.038 E0.03963
G1 X126.634 Y105.293 E0.03985
G1 X125.390 Y105.377 E0.03909
G1 X52.741 Y105.355 E2.27786
G1 X50.903 Y105.043 E0.05847
G1 X49.137 Y104.361 E0.05936
G1 X40.899 Y100.093 E0.29089
G1 X40.241 Y99.499 E0.02778
G1 X39.846 Y98.706 E0.02778
G1 X39.757 Y98.075 E0.02000
G1 X39.757 Y81.348 E0.52446
G1 X39.816 Y80.842 E0.01597
G1 X39.979 Y80.363 E0.01585
G1 X40.400 Y79.755 E0.02320
M204 S1250
G1 E-2.24000 F4200.00000
G1 F7200.000
G1 X41.078 Y79.237 E-0.47269
G1 X41.802 Y78.913 E-0.43931
G1 E-0.04800 F4200.00000
G1 Z0.400 F9000.000
G1 X42.921 Y82.154
G1 Z0.200
G1 E3.20000 F2400.00000
M204 S800
G1 F1200.000
G1 X43.820 Y82.154 E0.02817
G1 X43.820 Y87.670 E0.17297
G1 X47.168 Y87.670 E0.10499
G1 X47.168 Y84.011 E0.11472
G1 X47.182 Y83.585 E0.01338
G1 X47.224 Y83.177 E0.01286
G1 X47.338 Y82.560 E0.01968
G1 X47.514 Y81.959 E0.01963
G1 X47.660 Y81.579 E0.01275
G1 X47.933 Y81.015 E0.01967
G1 X48.260 Y80.484 E0.01952
G1 X48.637 Y79.989 E0.01952
G1 X49.066 Y79.531 E0.01968
G1 X49.370 Y79.256 E0.01286
G1 X49.691 Y79.002 E0.01282
G1 X50.215 Y78.655 E0.01972
G1 X50.766 Y78.365 E0.01952
G1 X51.343 Y78.132 E0.01952
G1 X51.946 Y77.956 E0.01968
G1 X52.348 Y77.874 E0.01286
G1 X52.754 Y77.819 E0.01286
G1 X53.398 Y77.787 E0.02019
G1 X125.583 Y77.791 E2.26331
G1 X126.214 Y77.844 E0.01987
G1 X126.619 Y77.912 E0.01286
G1 X127.018 Y78.007 E0.01286
G1 X127.619 Y78.204 E0.01983
G1 X127.996 Y78.365 E0.01286
G1 X128.362 Y78.550 E0.01286
G1 X128.901 Y78.881 E0.01983
G1 X129.231 Y79.124 E0.01286
G1 X129.548 Y79.392 E0.01302
G1 X129.847 Y79.681 E0.01302
G1 X130.121 Y79.984 E0.01282
G1 X130.503 Y80.484 E0.01972
G1 X130.829 Y81.015 E0.01952
G1 X131.100 Y81.575 E0.01952
G1 X131.316 Y82.164 E0.01968
G1 X131.425 Y82.560 E0.01286
G1 X131.507 Y82.967 E0.01302
G1 X131.563 Y83.378 E0.01302
G1 X131.590 Y83.793 E0.01303
G1 X131.595 Y87.670 E0.12158
G1 X134.870 Y87.670 E0.10268
G1 X134.870 Y82.154 E0.17297
G1 X137.079 Y82.154 E0.06926
G1 X137.079 Y97.275 E0.47411
G1 X134.870 Y97.275 E0.06926
G1 X134.870 Y89.973 E0.22895
G1 X131.594 Y89.973 E0.10270
G1 X131.594 Y95.989 E0.18862
G1 X131.580 Y96.415 E0.01338
G1 X131.539 Y96.823 E0.01286
G1 X131.424 Y97.440 E0.01967
G1 X131.248 Y98.042 E0.01968
G1 X131.103 Y98.421 E0.01271
G1 X130.827 Y98.990 E0.01983
G1 X130.618 Y99.343 E0.01286
G1 X130.386 Y99.681 E0.01286
G1 X129.985 Y100.171 E0.01983
G1 X129.700 Y100.466 E0.01286
G1 X129.392 Y100.744 E0.01302
G1 X129.066 Y101.002 E0.01302
G1 X128.728 Y101.234 E0.01286
G1 X128.179 Y101.547 E0.01983
G1 X127.806 Y101.720 E0.01286
G1 X127.425 Y101.867 E0.01282
G1 X126.817 Y102.044 E0.01987
G1 X126.415 Y102.126 E0.01286
G1 X126.008 Y102.181 E0.01286
G1 X125.365 Y102.213 E0.02019
G1 X53.393 Y102.213 E2.25664
G1 X52.966 Y102.199 E0.01338
G1 X52.553 Y102.157 E0.01302
G1 X52.144 Y102.088 E0.01302
G1 X51.740 Y101.992 E0.01302
G1 X51.343 Y101.869 E0.01302
G1 X50.956 Y101.720 E0.01302
G1 X50.579 Y101.545 E0.01302
G1 X50.219 Y101.348 E0.01286
G1 X49.692 Y100.999 E0.01983
G1 X49.370 Y100.744 E0.01286
G1 X49.062 Y100.466 E0.01302
G1 X48.774 Y100.167 E0.01302
G1 X48.506 Y99.850 E0.01302
G1 X48.259 Y99.516 E0.01302
G1 X48.039 Y99.170 E0.01286
G1 X47.746 Y98.615 E0.01967
G1 X47.513 Y98.038 E0.01952
G1 X47.338 Y97.440 E0.01952
G1 X47.224 Y96.823 E0.01968
G1 X47.182 Y96.415 E0.01286
G1 X47.168 Y95.989 E0.01338
G1 X47.168 Y89.973 E0.18862
G1 X43.820 Y89.973 E0.10499
G1 X43.820 Y97.275 E0.22895
G1 X42.921 Y97.275 E0.02817
G1 X42.921 Y82.214 E0.47223
M204 S1250
G1 E-2.24000 F4200.00000
G1 F7200.000
G1 X43.820 Y82.154 E-0.49899
G1 X43.820 Y82.899 E-0.41301
G1 E-0.04800 F4200.00000
G1 Z0.400 F9000.000
G1 X131.971 Y87.293
G1 Z0.200
G1 E3.20000 F2400.00000
M204 S800
G1 F1200.000
G1 X134.493 Y87.293 E0.07905
G1 X134.493 Y81.777 E0.17297
G1 X137.456 Y81.777 E0.09291
G1 X137.456 Y97.652 E0.49775
G1 X134.493 Y97.652 E0.09291
G1 X134.493 Y90.350 E0.22895
G1 X131.971 Y90.350 E0.07906
G1 X131.971 Y95.995 E0.17700
G1 X131.956 Y96.440 E0.01397
G1 X131.912 Y96.877 E0.01375
G1 X131.791 Y97.528 E0.02076
G1 X131.606 Y98.163 E0.02076
G1 X131.449 Y98.571 E0.01370
G1 X131.159 Y99.168 E0.02082
G1 X130.936 Y99.546 E0.01375
G1 X130.687 Y99.908 E0.01375
G1 X130.267 Y100.422 E0.02082
G1 X129.962 Y100.737 E0.01375
G1 X129.636 Y101.032 E0.01381
G1 X129.290 Y101.305 E0.01381
G1 X128.929 Y101.554 E0.01375
G1 X128.352 Y101.882 E0.02082
G1 X127.954 Y102.067 E0.01375
G1 X127.546 Y102.224 E0.01371
G1 X126.907 Y102.411 E0.02086
G1 X126.477 Y102.498 E0.01375
G1 X126.043 Y102.557 E0.01375
G1 X125.374 Y102.590 E0.02098
G1 X53.386 Y102.590 E2.25713
G1 X52.941 Y102.575 E0.01397
G1 X52.503 Y102.531 E0.01381
G1 X52.069 Y102.458 E0.01381
G1 X51.640 Y102.356 E0.01381
G1 X51.220 Y102.225 E0.01381
G1 X50.809 Y102.067 E0.01381
G1 X50.409 Y101.882 E0.01381
G1 X50.024 Y101.671 E0.01375
G1 X49.471 Y101.304 E0.02082
G1 X49.127 Y101.032 E0.01375
G1 X48.800 Y100.737 E0.01381
G1 X48.494 Y100.420 E0.01381
G1 X48.209 Y100.084 E0.01381
G1 X47.948 Y99.730 E0.01381
G1 X47.712 Y99.360 E0.01375
G1 X47.404 Y98.774 E0.02076
G1 X47.156 Y98.162 E0.02071
G1 X46.971 Y97.528 E0.02071
G1 X46.850 Y96.877 E0.02076
G1 X46.806 Y96.440 E0.01375
G1 X46.791 Y95.995 E0.01397
G1 X46.791 Y90.350 E0.17700
G1 X44.197 Y90.350 E0.08134
G1 X44.197 Y97.652 E0.22895
G1 X42.544 Y97.652 E0.05182
G1 X42.544 Y81.777 E0.49775
G1 X44.197 Y81.777 E0.05182
G1 X44.197 Y87.293 E0.17297
G1 X46.791 Y87.293 E0.08134
G1 X46.791 Y84.005 E0.10310
G1 X46.806 Y83.560 E0.01397
G1 X46.850 Y83.123 E0.01375
G1 X46.971 Y82.472 E0.02076
G1 X47.156 Y81.838 E0.02072
G1 X47.314 Y81.429 E0.01374
G1 X47.602 Y80.833 E0.02076
G1 X47.948 Y80.271 E0.02071
G1 X48.349 Y79.746 E0.02071
G1 X48.801 Y79.262 E0.02076
G1 X49.127 Y78.968 E0.01375
G1 X49.470 Y78.697 E0.01371
G1 X50.023 Y78.330 E0.02080
G1 X50.607 Y78.023 E0.02071
G1 X51.220 Y77.775 E0.02071
G1 X51.855 Y77.589 E0.02076
G1 X52.285 Y77.502 E0.01375
G1 X52.720 Y77.443 E0.01375
G1 X53.388 Y77.410 E0.02098
G1 X125.598 Y77.414 E2.26410
G1 X126.261 Y77.469 E0.02086
G1 X126.694 Y77.542 E0.01375
G1 X127.120 Y77.644 E0.01375
G1 X127.751 Y77.851 E0.02082
G1 X128.155 Y78.022 E0.01375
G1 X128.547 Y78.220 E0.01375
G1 X129.112 Y78.568 E0.02082
G1 X129.465 Y78.828 E0.01375
G1 X129.802 Y79.113 E0.01381
G1 X130.118 Y79.419 E0.01381
G1 X130.411 Y79.743 E0.01371
G1 X130.814 Y80.271 E0.02080
G1 X131.160 Y80.833 E0.02071
G1 X131.448 Y81.427 E0.02071
G1 X131.676 Y82.049 E0.02076
G1 X131.792 Y82.472 E0.01375
G1 X131.879 Y82.904 E0.01381
G1 X131.938 Y83.340 E0.01381
G1 X131.967 Y83.780 E0.01381
G1 X131.971 Y87.233 E0.10828
M204 S1250
G1 X131.973 Y87.693 F9000.000
G1 E-2.24000 F4200.00000
G1 F7200.000
G1 X133.617 Y87.272 E-0.91200
G1 E-0.04800 F4200.00000
G1 Z0.400 F9000.000
G1 X132.550 Y89.860
G1 Z0.200
G1 E3.20000 F2400.00000
M204 S800
G1 F1200.000
G1 X120.763 Y78.073 E0.52469
G1 X120.228 Y78.073 E0.01685
G1 X131.844 Y89.690 E0.51713
G1 X131.311 Y89.692 E0.01678
G1 X119.693 Y78.073 E0.51724
G1 X119.157 Y78.073 E0.01685
G1 X131.311 Y90.227 E0.54107
G1 X131.311 Y90.763 E0.01685
G1 X118.622 Y78.073 E0.56491
G1 X118.086 Y78.073 E0.01685
G1 X131.311 Y91.298 E0.58874
G1 X131.311 Y91.834 E0.01685
G1 X117.551 Y78.073 E0.61258
G1 X117.016 Y78.073 E0.01685
G1 X131.311 Y92.369 E0.63641
G1 X131.311 Y92.904 E0.01685
G1 X116.480 Y78.073 E0.66025
G1 X115.945 Y78.073 E0.01685
G1 X131.311 Y93.440 E0.68408
G1 X131.311 Y93.975 E0.01685
G1 X115.409 Y78.073 E0.70792
G1 X114.874 Y78.073 E0.01685
G1 X131.311 Y94.511 E0.73175
M73 P1 R74
G1 X131.311 Y95.046 E0.01685
G1 X114.338 Y78.073 E0.75559
G1 X113.803 Y78.073 E0.01685
G1 X131.311 Y95.581 E0.77942
G1 X131.307 Y96.112 E0.01672
G1 X113.268 Y78.073 E0.80307
G1 X112.732 Y78.073 E0.01685
G1 X131.275 Y96.616 E0.82549
G1 X131.203 Y97.080 E0.01476
G1 X112.197 Y78.073 E0.84613
G1 X111.661 Y78.073 E0.01685
G1 X131.107 Y97.518 E0.86565
G1 X130.986 Y97.933 E0.01359
G1 X111.126 Y78.073 E0.88410
G1 X110.591 Y78.073 E0.01685
G1 X130.837 Y98.320 E0.90133
G1 X130.663 Y98.680 E0.01261
G1 X110.055 Y78.073 E0.91739
G1 X109.520 Y78.073 E0.01685
G1 X130.475 Y99.028 E0.93289
G1 X130.266 Y99.355 E0.01220
G1 X108.984 Y78.073 E0.94742
G1 X108.449 Y78.073 E0.01685
G1 X130.037 Y99.661 E0.96104
G1 X129.796 Y99.955 E0.01198
G1 X107.913 Y78.073 E0.97416
G1 X107.378 Y78.073 E0.01685
G1 X129.535 Y100.230 E0.98637
G1 X129.256 Y100.486 E0.01193
G1 X106.843 Y78.073 E0.99778
G1 X106.307 Y78.073 E0.01685
G1 X128.960 Y100.725 E1.00844
G1 X128.646 Y100.947 E0.01209
G1 X105.772 Y78.073 E1.01831
G1 X105.236 Y78.073 E0.01685
G1 X128.310 Y101.146 E1.02719
G1 X127.963 Y101.335 E0.01243
G1 X104.701 Y78.073 E1.03558
G1 X104.166 Y78.073 E0.01685
G1 X127.592 Y101.499 E1.04289
G1 X127.196 Y101.639 E0.01321
G1 X103.630 Y78.073 E1.04911
G1 X103.095 Y78.072 E0.01685
G1 X126.782 Y101.760 E1.05450
G1 X126.338 Y101.851 E0.01427
G1 X102.559 Y78.072 E1.05856
G1 X102.024 Y78.072 E0.01685
G1 X125.857 Y101.905 E1.06097
G1 X125.346 Y101.930 E0.01609
G1 X101.489 Y78.072 E1.06208
G1 X100.953 Y78.072 E0.01685
G1 X124.811 Y101.930 E1.06208
G1 X124.275 Y101.930 E0.01685
G1 X100.418 Y78.072 E1.06209
G1 X99.882 Y78.072 E0.01685
G1 X123.740 Y101.930 E1.06209
G1 X123.205 Y101.930 E0.01685
G1 X99.347 Y78.072 E1.06209
G1 X98.811 Y78.072 E0.01685
G1 X122.669 Y101.930 E1.06209
G1 X122.134 Y101.930 E0.01685
G1 X98.276 Y78.072 E1.06209
G1 X97.741 Y78.072 E0.01685
G1 X121.599 Y101.930 E1.06209
G1 X121.063 Y101.930 E0.01685
G1 X97.205 Y78.072 E1.06209
G1 X96.670 Y78.072 E0.01685
G1 X120.528 Y101.930 E1.06209
G1 X119.992 Y101.930 E0.01685
G1 X96.134 Y78.072 E1.06210
G1 X95.599 Y78.072 E0.01685
G1 X119.457 Y101.930 E1.06210
G1 X118.922 Y101.930 E0.01685
G1 X95.064 Y78.072 E1.06210
G1 X94.528 Y78.072 E0.01685
G1 X118.386 Y101.930 E1.06210
M73 P2 R73
G1 X117.851 Y101.930 E0.01685
G1 X93.993 Y78.072 E1.06210
G1 X93.457 Y78.072 E0.01685
G1 X117.315 Y101.930 E1.06210
G1 X116.780 Y101.930 E0.01685
G1 X92.922 Y78.072 E1.06210
G1 X92.387 Y78.072 E0.01685
G1 X116.245 Y101.930 E1.06210
G1 X115.709 Y101.930 E0.01685
G1 X91.851 Y78.072 E1.06211
G1 X91.316 Y78.072 E0.01685
G1 X115.174 Y101.930 E1.06211
G1 X114.639 Y101.930 E0.01685
G1 X90.780 Y78.072 E1.06211
G1 X90.245 Y78.072 E0.01685
G1 X114.103 Y101.930 E1.06211
G1 X113.568 Y101.930 E0.01685
G1 X89.709 Y78.072 E1.06211
G1 X89.174 Y78.072 E0.01685
G1 X113.032 Y101.930 E1.06211
G1 X112.497 Y101.930 E0.01685
G1 X88.639 Y78.072 E1.06211
G1 X88.103 Y78.072 E0.01685
G1 X111.962 Y101.930 E1.06211
G1 X111.426 Y101.930 E0.01685
G1 X87.568 Y78.072 E1.06212
G1 X87.032 Y78.072 E0.01685
G1 X110.891 Y101.930 E1.06212
G1 X110.355 Y101.930 E0.01685
G1 X86.497 Y78.072 E1.06212
G1 X85.962 Y78.072 E0.01685
G1 X109.820 Y101.930 E1.06212
G1 X109.285 Y101.930 E0.01685
G1 X85.426 Y78.072 E1.06212
G1 X84.891 Y78.072 E0.01685
G1 X108.749 Y101.930 E1.06212
G1 X108.214 Y101.930 E0.01685
G1 X84.355 Y78.072 E1.06212
G1 X83.820 Y78.071 E0.01685
G1 X107.679 Y101.930 E1.06212
G1 X107.143 Y101.930 E0.01685
G1 X83.285 Y78.071 E1.06213
G1 X82.749 Y78.071 E0.01685
G1 X106.608 Y101.930 E1.06213
G1 X106.072 Y101.930 E0.01685
G1 X82.214 Y78.071 E1.06213
G1 X81.678 Y78.071 E0.01685
G1 X105.537 Y101.930 E1.06213
G1 X105.002 Y101.930 E0.01685
G1 X81.143 Y78.071 E1.06213
G1 X80.607 Y78.071 E0.01685
G1 X104.466 Y101.930 E1.06213
G1 X103.931 Y101.930 E0.01685
G1 X80.072 Y78.071 E1.06213
G1 X79.537 Y78.071 E0.01685
G1 X103.395 Y101.930 E1.06213
G1 X102.860 Y101.930 E0.01685
G1 X79.001 Y78.071 E1.06214
G1 X78.466 Y78.071 E0.01685
G1 X102.325 Y101.930 E1.06214
G1 X101.789 Y101.930 E0.01685
G1 X77.930 Y78.071 E1.06214
G1 X77.395 Y78.071 E0.01685
G1 X101.254 Y101.930 E1.06214
G1 X100.719 Y101.930 E0.01685
G1 X76.860 Y78.071 E1.06214
G1 X76.324 Y78.071 E0.01685
G1 X100.183 Y101.930 E1.06214
G1 X99.648 Y101.930 E0.01685
G1 X75.789 Y78.071 E1.06214
M73 P4 R72
G1 X75.253 Y78.071 E0.01685
G1 X99.112 Y101.930 E1.06214
G1 X98.577 Y101.930 E0.01685
G1 X74.718 Y78.071 E1.06215
G1 X74.183 Y78.071 E0.01685
G1 X98.042 Y101.930 E1.06215
G1 X97.506 Y101.930 E0.01685
G1 X73.647 Y78.071 E1.06215
G1 X73.112 Y78.071 E0.01685
G1 X96.971 Y101.930 E1.06215
G1 X96.435 Y101.930 E0.01685
G1 X72.576 Y78.071 E1.06215
G1 X72.041 Y78.071 E0.01685
G1 X95.900 Y101.930 E1.06215
G1 X95.365 Y101.930 E0.01685
G1 X71.505 Y78.071 E1.06215
G1 X70.970 Y78.071 E0.01685
G1 X94.829 Y101.930 E1.06215
G1 X94.294 Y101.930 E0.01685
G1 X70.435 Y78.071 E1.06216
G1 X69.899 Y78.071 E0.01685
G1 X93.759 Y101.930 E1.06216
G1 X93.223 Y101.930 E0.01685
G1 X69.364 Y78.071 E1.06216
G1 X68.828 Y78.071 E0.01685
G1 X92.688 Y101.930 E1.06216
G1 X92.152 Y101.930 E0.01685
G1 X68.293 Y78.071 E1.06216
G1 X67.758 Y78.071 E0.01685
G1 X91.617 Y101.930 E1.06216
G1 X91.082 Y101.930 E0.01685
G1 X67.222 Y78.071 E1.06216
G1 X66.687 Y78.071 E0.01685
G1 X90.546 Y101.930 E1.06216
G1 X90.011 Y101.930 E0.01685
G1 X66.151 Y78.071 E1.06217
G1 X65.616 Y78.071 E0.01685
G1 X89.475 Y101.930 E1.06217
G1 X88.940 Y101.930 E0.01685
G1 X65.080 Y78.070 E1.06217
G1 X64.545 Y78.070 E0.01685
G1 X88.405 Y101.930 E1.06217
G1 X87.869 Y101.930 E0.01685
G1 X64.010 Y78.070 E1.06217
G1 X63.474 Y78.070 E0.01685
G1 X87.334 Y101.930 E1.06217
G1 X86.799 Y101.930 E0.01685
G1 X62.939 Y78.070 E1.06217
G1 X62.403 Y78.070 E0.01685
G1 X86.263 Y101.930 E1.06217
G1 X85.728 Y101.930 E0.01685
G1 X61.868 Y78.070 E1.06218
G1 X61.333 Y78.070 E0.01685
G1 X85.192 Y101.930 E1.06218
G1 X84.657 Y101.930 E0.01685
G1 X60.797 Y78.070 E1.06218
G1 X60.262 Y78.070 E0.01685
G1 X84.122 Y101.930 E1.06218
G1 X83.586 Y101.930 E0.01685
G1 X59.726 Y78.070 E1.06218
G1 X59.191 Y78.070 E0.01685
G1 X83.051 Y101.930 E1.06218
G1 X82.515 Y101.930 E0.01685
G1 X58.656 Y78.070 E1.06218
G1 X58.120 Y78.070 E0.01685
G1 X81.980 Y101.930 E1.06218
G1 X81.445 Y101.930 E0.01685
G1 X57.585 Y78.070 E1.06219
G1 X57.049 Y78.070 E0.01685
G1 X80.909 Y101.930 E1.06219
M73 P5 R71
G1 X80.374 Y101.930 E0.01685
G1 X56.514 Y78.070 E1.06219
G1 X55.978 Y78.070 E0.01685
G1 X79.839 Y101.930 E1.06219
G1 X79.303 Y101.930 E0.01685
G1 X55.443 Y78.070 E1.06219
G1 X54.908 Y78.070 E0.01685
G1 X78.768 Y101.930 E1.06219
