; generated by PrusaSlicer 2.2.0+win64 on 2020-10-24 at 18:27:47 UTC


;
;

;
;
; 

; external perimeters extrusion width = 0.45mm
; perimeters extrusion width = 0.45mm
; infill extrusion width = 0.45mm
; solid infill extrusion width = 0.45mm
; top infill extrusion width = 0.40mm
; first layer extrusion width = 0.42mm

M73 P0 R47
M201 X1250 Y1250 Z400 E5000 ; sets maximum accelerations, mm/sec^2
M203 X180 Y180 Z12 E80 ; sets maximum feedrates, mm/sec
M204 P1250 R1250 T1250 ; sets acceleration (P, T) and retract acceleration (R), mm/sec^2
M205 X8.00 Y8.00 Z2.00 E10.00 ; sets the jerk limits, mm/sec
M205 S0 T0 ; sets the minimum extruding and travel feed rate, mm/sec
M107
G90 ; use absolute coordinates
M83 ; extruder relative mode
M104 S170 ; set extruder temp for bed leveling
M140 S60 ; set bed temp
M109 R170 ; wait for bed leveling temp
M190 S60 ; wait for bed temp
G28 ; home all without mesh bed level
G29 ; mesh bed leveling 
M104 S215 ; set extruder temp
G92 E0.0
G1 Y-2.0 X179 F2400
G1 Z3 F720
M109 S215 ; wait for extruder temp

; intro line
G1 X170 F1000
G1 Z0.2 F720
G1 X110.0 E8.0 F900
M73 P0 R47
G1 X40.0 E10.0 F700
G92 E0.0

M221 S95 ; set flow
G21 ; set units to millimeters
G90 ; use absolute coordinates
M83 ; use relative distances for extrusion
M900 K0.2 ; Filament gcode LA 1.5
; ; Filament gcode LA 1.0
;BEFORE_LAYER_CHANGE
G92 E0.0
;0.2


G1 Z0.200 F9000.000
;AFTER_LAYER_CHANGE
;0.2
G1 E-3.20000 F4200.00000
G1 Z0.400 F9000.000
G1 X36.849 Y73.432
G1 Z0.200
G1 E3.20000 F2400.00000
M204 S800
G1 F1200.000
G1 X38.343 Y72.795 E0.05092
G1 X39.920 Y72.283 E0.05199
G1 X41.530 Y71.917 E0.05177
G1 X43.157 Y71.697 E0.05148
G1 X44.803 Y71.623 E0.05167
G1 X144.510 Y74.629 E3.12764
G1 X146.387 Y74.882 E0.05940
G1 X147.571 Y75.250 E0.03887
G1 X148.701 Y75.774 E0.03906
G1 X149.758 Y76.448 E0.03930
G1 X150.693 Y77.235 E0.03832
G1 X151.534 Y78.158 E0.03915
G1 X152.125 Y78.989 E0.03195
G1 X152.710 Y80.062 E0.03834
G1 X153.165 Y81.250 E0.03987
G1 X153.488 Y82.711 E0.04693
G1 X153.577 Y83.974 E0.03967
G1 X153.573 Y96.278 E0.38580
G1 X153.319 Y98.188 E0.06040
G1 X152.846 Y99.632 E0.04765
G1 X152.251 Y100.808 E0.04133
G1 X151.365 Y102.050 E0.04783
G1 X150.282 Y103.138 E0.04815
G1 X149.218 Y103.922 E0.04142
G1 X147.867 Y104.631 E0.04785
G1 X146.410 Y105.113 E0.04810
G1 X145.111 Y105.333 E0.04132
G1 X45.393 Y108.368 E3.12804
G1 X42.953 Y108.285 E0.07652
G1 X40.521 Y107.872 E0.07735
G1 X38.945 Y107.420 E0.05141
G1 X37.410 Y106.826 E0.05160
G1 X35.939 Y106.100 E0.05144
G1 X34.517 Y105.232 E0.05224
G1 X33.213 Y104.265 E0.05092
G1 X31.971 Y103.159 E0.05212
G1 X30.847 Y101.961 E0.05152
G1 X29.651 Y100.403 E0.06159
G1 X28.755 Y98.961 E0.05323
G1 X28.019 Y97.492 E0.05152
G1 X27.413 Y95.952 E0.05189
G1 X26.952 Y94.380 E0.05136
G1 X26.631 Y92.764 E0.05168
G1 X26.458 Y91.139 E0.05123
G1 X26.430 Y89.487 E0.05181
G1 X26.548 Y87.856 E0.05127
G1 X26.813 Y86.234 E0.05152
G1 X27.223 Y84.635 E0.05177
G1 X27.773 Y83.087 E0.05152
G1 X28.456 Y81.598 E0.05135
G1 X29.270 Y80.174 E0.05144
G1 X30.212 Y78.824 E0.05160
G1 X31.272 Y77.562 E0.05169
G1 X32.457 Y76.386 E0.05235
G1 X33.722 Y75.338 E0.05152
G1 X35.381 Y74.220 E0.06272
G1 X36.796 Y73.461 E0.05035
M204 S1250
G1 E-2.24000 F4200.00000
G1 F7200.000
G1 X38.308 Y72.810 E-0.91200
G1 E-0.04800 F4200.00000
G1 Z0.400 F9000.000
G1 X59.986 Y88.760
G1 Z0.200
G1 E3.20000 F2400.00000
M204 S800
G1 F1200.000
G1 X65.987 Y88.760 E0.18815
G1 X65.987 Y84.017 E0.14872
G1 X66.019 Y83.379 E0.02004
G1 X66.113 Y82.763 E0.01952
G1 X66.267 Y82.160 E0.01952
G1 X66.481 Y81.575 E0.01952
G1 X66.755 Y81.011 E0.01967
G1 X66.964 Y80.658 E0.01286
G1 X67.196 Y80.319 E0.01286
G1 X67.596 Y79.830 E0.01983
G1 X67.881 Y79.535 E0.01286
G1 X68.186 Y79.260 E0.01286
G1 X68.684 Y78.879 E0.01968
G1 X69.219 Y78.550 E0.01968
G1 X69.585 Y78.365 E0.01286
G1 X69.963 Y78.205 E0.01286
G1 X70.564 Y78.008 E0.01983
G1 X70.963 Y77.912 E0.01286
G1 X71.372 Y77.843 E0.01302
G1 X71.785 Y77.802 E0.01302
G1 X72.212 Y77.788 E0.01338
G1 X144.184 Y77.788 E2.25664
G1 X144.822 Y77.820 E0.02004
G1 X145.442 Y77.914 E0.01967
G1 X145.842 Y78.009 E0.01286
G1 X146.238 Y78.132 E0.01302
G1 X146.626 Y78.281 E0.01302
G1 X147.002 Y78.456 E0.01302
G1 X147.366 Y78.655 E0.01302
G1 X147.716 Y78.879 E0.01302
G1 X148.050 Y79.125 E0.01302
G1 X148.368 Y79.393 E0.01302
G1 X148.666 Y79.682 E0.01302
G1 X148.944 Y79.989 E0.01302
G1 X149.202 Y80.315 E0.01302
G1 X149.437 Y80.658 E0.01302
G1 X149.648 Y81.015 E0.01302
G1 X149.833 Y81.381 E0.01286
G1 X150.070 Y81.967 E0.01983
G1 X150.192 Y82.359 E0.01286
G1 X150.288 Y82.763 E0.01302
G1 X150.357 Y83.172 E0.01302
G1 X150.399 Y83.586 E0.01302
G1 X150.413 Y84.012 E0.01338
G1 X150.413 Y95.984 E0.37538
G1 X150.381 Y96.622 E0.02004
G1 X150.287 Y97.243 E0.01967
G1 X150.192 Y97.642 E0.01286
G1 X150.069 Y98.038 E0.01302
G1 X149.922 Y98.421 E0.01286
G1 X149.646 Y98.990 E0.01983
G1 X149.439 Y99.339 E0.01271
G1 X149.076 Y99.850 E0.01967
G1 X148.662 Y100.323 E0.01968
G1 X148.368 Y100.608 E0.01286
G1 X148.054 Y100.873 E0.01286
G1 X147.543 Y101.237 E0.01968
G1 X146.998 Y101.547 E0.01968
G1 X146.626 Y101.720 E0.01286
G1 X146.243 Y101.868 E0.01286
G1 X145.636 Y102.045 E0.01983
G1 X145.238 Y102.126 E0.01271
G1 X144.610 Y102.199 E0.01983
G1 X144.189 Y102.213 E0.01322
G1 X72.212 Y102.213 E2.25679
G1 X71.785 Y102.199 E0.01338
G1 X71.372 Y102.158 E0.01302
G1 X70.968 Y102.089 E0.01286
G1 X70.360 Y101.934 E0.01968
G1 X69.770 Y101.718 E0.01968
G1 X69.398 Y101.545 E0.01286
G1 X69.034 Y101.346 E0.01302
G1 X68.684 Y101.122 E0.01302
G1 X68.350 Y100.876 E0.01302
G1 X68.033 Y100.608 E0.01302
G1 X67.738 Y100.323 E0.01286
G1 X67.322 Y99.847 E0.01983
G1 X67.078 Y99.516 E0.01286
G1 X66.858 Y99.171 E0.01286
G1 X66.565 Y98.615 E0.01968
G1 X66.332 Y98.038 E0.01952
G1 X66.157 Y97.441 E0.01952
G1 X66.043 Y96.824 E0.01968
G1 X66.002 Y96.415 E0.01286
G1 X65.987 Y95.989 E0.01338
G1 X65.987 Y91.241 E0.14887
G1 X59.991 Y91.241 E0.18800
G1 X59.784 Y92.624 E0.04385
G1 X59.653 Y93.288 E0.02120
G1 X59.397 Y94.282 E0.03220
G1 X59.192 Y94.927 E0.02123
G1 X58.959 Y95.563 E0.02123
G1 X58.551 Y96.505 E0.03220
G1 X58.248 Y97.111 E0.02123
G1 X57.917 Y97.705 E0.02133
G1 X57.561 Y98.281 E0.02123
G1 X56.974 Y99.123 E0.03220
G1 X56.556 Y99.655 E0.02123
G1 X56.115 Y100.169 E0.02123
G1 X55.403 Y100.909 E0.03220
G1 X54.909 Y101.368 E0.02112
G1 X54.120 Y102.024 E0.03220
G1 X53.575 Y102.427 E0.02123
G1 X53.011 Y102.807 E0.02133
G1 X52.430 Y103.161 E0.02133
G1 X51.837 Y103.487 E0.02123
G1 X50.912 Y103.931 E0.03220
G1 X50.289 Y104.188 E0.02112
G1 X49.319 Y104.526 E0.03220
G1 X48.672 Y104.712 E0.02112
G1 X47.676 Y104.939 E0.03202
G1 X47.003 Y105.053 E0.02140
G1 X46.328 Y105.136 E0.02133
G1 X45.653 Y105.189 E0.02123
G1 X44.626 Y105.212 E0.03220
G1 X43.953 Y105.190 E0.02112
G1 X42.936 Y105.099 E0.03202
G1 X42.260 Y105.000 E0.02140
G1 X41.592 Y104.871 E0.02133
G1 X40.931 Y104.713 E0.02133
G1 X40.277 Y104.525 E0.02133
G1 X39.632 Y104.309 E0.02133
G1 X38.998 Y104.063 E0.02133
G1 X38.375 Y103.790 E0.02133
G1 X37.765 Y103.489 E0.02133
G1 X37.171 Y103.163 E0.02123
G1 X36.306 Y102.621 E0.03202
G1 X35.748 Y102.227 E0.02140
G1 X35.210 Y101.811 E0.02133
G1 X34.692 Y101.370 E0.02133
G1 X34.194 Y100.907 E0.02133
G1 X33.717 Y100.422 E0.02133
G1 X33.262 Y99.916 E0.02133
G1 X32.830 Y99.390 E0.02133
G1 X32.423 Y98.846 E0.02133
G1 X32.040 Y98.284 E0.02133
G1 X31.682 Y97.705 E0.02133
G1 X31.352 Y97.114 E0.02123
G1 X30.905 Y96.195 E0.03202
G1 X30.641 Y95.566 E0.02140
G1 X30.407 Y94.927 E0.02133
G1 X30.201 Y94.279 E0.02133
G1 X30.024 Y93.622 E0.02133
G1 X29.877 Y92.958 E0.02133
G1 X29.760 Y92.288 E0.02133
G1 X29.673 Y91.613 E0.02133
G1 X29.616 Y90.935 E0.02133
G1 X29.589 Y90.256 E0.02133
G1 X29.593 Y89.575 E0.02133
G1 X29.627 Y88.896 E0.02133
G1 X29.691 Y88.219 E0.02133
G1 X29.786 Y87.545 E0.02133
G1 X29.911 Y86.876 E0.02133
G1 X30.066 Y86.214 E0.02133
G1 X30.250 Y85.559 E0.02133
G1 X30.463 Y84.913 E0.02133
G1 X30.704 Y84.277 E0.02133
G1 X30.974 Y83.653 E0.02133
G1 X31.272 Y83.041 E0.02133
G1 X31.597 Y82.443 E0.02133
G1 X31.948 Y81.861 E0.02133
G1 X32.324 Y81.294 E0.02133
G1 X32.726 Y80.745 E0.02133
G1 X33.152 Y80.215 E0.02133
G1 X33.599 Y79.706 E0.02123
G1 X34.315 Y78.978 E0.03202
G1 X34.820 Y78.519 E0.02140
G1 X35.343 Y78.084 E0.02133
G1 X35.885 Y77.673 E0.02133
G1 X36.445 Y77.287 E0.02133
G1 X37.022 Y76.926 E0.02133
G1 X37.614 Y76.592 E0.02133
G1 X38.221 Y76.284 E0.02133
G1 X38.841 Y76.003 E0.02133
G1 X39.472 Y75.751 E0.02133
G1 X40.115 Y75.527 E0.02133
G1 X40.766 Y75.332 E0.02133
G1 X41.426 Y75.166 E0.02133
G1 X42.093 Y75.030 E0.02133
G1 X42.765 Y74.924 E0.02133
G1 X43.441 Y74.849 E0.02133
G1 X44.116 Y74.803 E0.02123
G1 X45.137 Y74.792 E0.03202
G1 X45.819 Y74.822 E0.02140
G1 X46.497 Y74.883 E0.02133
G1 X47.171 Y74.974 E0.02133
G1 X47.840 Y75.095 E0.02133
G1 X48.504 Y75.246 E0.02133
G1 X49.160 Y75.426 E0.02133
G1 X49.807 Y75.635 E0.02133
G1 X50.444 Y75.874 E0.02133
G1 X51.070 Y76.140 E0.02133
G1 X51.683 Y76.434 E0.02133
G1 X52.283 Y76.756 E0.02133
G1 X52.867 Y77.103 E0.02133
G1 X53.436 Y77.477 E0.02133
G1 X53.987 Y77.876 E0.02133
G1 X54.520 Y78.298 E0.02133
G1 X55.034 Y78.745 E0.02133
G1 X55.526 Y79.213 E0.02133
G1 X55.998 Y79.704 E0.02133
G1 X56.447 Y80.215 E0.02133
G1 X56.873 Y80.745 E0.02133
G1 X57.275 Y81.294 E0.02133
G1 X57.651 Y81.861 E0.02133
G1 X58.002 Y82.443 E0.02133
G1 X58.327 Y83.041 E0.02133
G1 X58.625 Y83.653 E0.02133
G1 X58.895 Y84.277 E0.02133
G1 X59.136 Y84.913 E0.02133
G1 X59.350 Y85.559 E0.02133
G1 X59.534 Y86.214 E0.02133
G1 X59.688 Y86.876 E0.02133
G1 X59.813 Y87.546 E0.02135
G1 X59.978 Y88.701 E0.03658
M204 S1250
G1 X60.313 Y88.383 F9000.000
M204 S800
G1 F1200.000
G1 X65.610 Y88.383 E0.16608
G1 X65.610 Y84.007 E0.13719
G1 X65.644 Y83.341 E0.02092
G1 X65.743 Y82.688 E0.02071
G1 X65.906 Y82.048 E0.02071
G1 X66.133 Y81.428 E0.02071
G1 X66.422 Y80.832 E0.02076
G1 X66.646 Y80.455 E0.01375
G1 X66.894 Y80.093 E0.01375
G1 X67.314 Y79.579 E0.02082
G1 X67.619 Y79.264 E0.01375
G1 X67.944 Y78.969 E0.01375
G1 X68.471 Y78.568 E0.02076
G1 X69.035 Y78.221 E0.02076
G1 X69.426 Y78.023 E0.01375
G1 X69.830 Y77.852 E0.01375
G1 X70.461 Y77.644 E0.02082
G1 X70.888 Y77.543 E0.01375
G1 X71.322 Y77.469 E0.01381
G1 X71.760 Y77.425 E0.01381
G1 X72.205 Y77.410 E0.01397
G1 X144.193 Y77.410 E2.25713
G1 X144.860 Y77.444 E0.02092
G1 X145.515 Y77.543 E0.02076
G1 X145.941 Y77.645 E0.01375
G1 X146.362 Y77.775 E0.01381
G1 X146.773 Y77.934 E0.01381
G1 X147.172 Y78.119 E0.01381
G1 X147.559 Y78.331 E0.01381
G1 X147.930 Y78.568 E0.01381
G1 X148.284 Y78.829 E0.01381
G1 X148.621 Y79.113 E0.01381
G1 X148.937 Y79.419 E0.01381
G1 X149.233 Y79.746 E0.01381
G1 X149.506 Y80.092 E0.01381
G1 X149.755 Y80.455 E0.01381
G1 X149.979 Y80.834 E0.01381
G1 X150.177 Y81.225 E0.01375
G1 X150.426 Y81.841 E0.02082
G1 X150.556 Y82.259 E0.01375
G1 X150.658 Y82.688 E0.01381
G1 X150.731 Y83.122 E0.01381
G1 X150.775 Y83.560 E0.01381
G1 X150.790 Y84.006 E0.01397
G1 X150.790 Y95.994 E0.37587
G1 X150.757 Y96.660 E0.02092
G1 X150.658 Y97.315 E0.02076
G1 X150.556 Y97.742 E0.01375
G1 X150.425 Y98.162 E0.01381
G1 X150.268 Y98.571 E0.01375
G1 X149.978 Y99.169 E0.02082
G1 X149.756 Y99.545 E0.01370
G1 X149.372 Y100.084 E0.02076
G1 X148.936 Y100.583 E0.02076
G1 X148.621 Y100.888 E0.01375
G1 X148.286 Y101.171 E0.01375
G1 X147.746 Y101.555 E0.02076
G1 X147.171 Y101.883 E0.02076
G1 X146.773 Y102.067 E0.01375
G1 X146.363 Y102.225 E0.01375
G1 X145.726 Y102.411 E0.02082
G1 X145.298 Y102.498 E0.01370
G1 X144.639 Y102.576 E0.02082
G1 X144.195 Y102.590 E0.01392
G1 X72.205 Y102.590 E2.25719
G1 X71.760 Y102.576 E0.01397
G1 X71.322 Y102.532 E0.01381
G1 X70.889 Y102.459 E0.01375
G1 X70.248 Y102.294 E0.02076
G1 X69.626 Y102.067 E0.02076
G1 X69.228 Y101.882 E0.01375
G1 X68.842 Y101.670 E0.01381
G1 X68.471 Y101.433 E0.01381
G1 X68.116 Y101.172 E0.01381
G1 X67.780 Y100.888 E0.01381
G1 X67.465 Y100.583 E0.01375
G1 X67.027 Y100.083 E0.02082
G1 X66.767 Y99.730 E0.01375
G1 X66.531 Y99.360 E0.01375
G1 X66.223 Y98.774 E0.02076
G1 X65.975 Y98.162 E0.02071
G1 X65.790 Y97.528 E0.02071
G1 X65.669 Y96.877 E0.02076
G1 X65.625 Y96.441 E0.01375
G1 X65.610 Y95.995 E0.01397
G1 X65.610 Y91.618 E0.13725
G1 X60.316 Y91.618 E0.16599
G1 X60.156 Y92.689 E0.03395
G1 X60.021 Y93.371 E0.02181
G1 X59.760 Y94.386 E0.03286
G1 X59.549 Y95.050 E0.02182
G1 X59.309 Y95.703 E0.02182
G1 X58.893 Y96.665 E0.03286
G1 X58.582 Y97.287 E0.02182
G1 X58.242 Y97.896 E0.02186
G1 X57.877 Y98.488 E0.02182
G1 X57.277 Y99.347 E0.03286
G1 X56.847 Y99.895 E0.02182
G1 X56.394 Y100.423 E0.02182
G1 X55.667 Y101.178 E0.03286
G1 X55.159 Y101.651 E0.02178
G1 X54.352 Y102.321 E0.03286
G1 X53.793 Y102.735 E0.02182
G1 X53.215 Y103.124 E0.02186
G1 X52.620 Y103.487 E0.02186
G1 X52.010 Y103.823 E0.02182
G1 X51.065 Y104.276 E0.03286
G1 X50.423 Y104.541 E0.02178
G1 X49.433 Y104.886 E0.03286
G1 X48.765 Y105.078 E0.02178
G1 X47.749 Y105.309 E0.03268
G1 X47.057 Y105.426 E0.02200
G1 X46.366 Y105.512 E0.02186
G1 X45.672 Y105.566 E0.02182
G1 X44.624 Y105.589 E0.03286
G1 X43.930 Y105.566 E0.02178
G1 X42.892 Y105.473 E0.03268
G1 X42.197 Y105.372 E0.02200
G1 X41.513 Y105.240 E0.02186
G1 X40.835 Y105.078 E0.02186
G1 X40.165 Y104.886 E0.02186
G1 X39.504 Y104.663 E0.02186
G1 X38.854 Y104.412 E0.02186
G1 X38.215 Y104.132 E0.02186
G1 X37.590 Y103.823 E0.02186
G1 X36.980 Y103.488 E0.02182
G1 X36.097 Y102.935 E0.03268
G1 X35.524 Y102.531 E0.02200
G1 X34.973 Y102.103 E0.02186
G1 X34.441 Y101.652 E0.02186
G1 X33.931 Y101.177 E0.02186
G1 X33.442 Y100.680 E0.02186
G1 X32.976 Y100.162 E0.02186
G1 X32.534 Y99.623 E0.02186
G1 X32.116 Y99.065 E0.02186
G1 X31.723 Y98.489 E0.02186
G1 X31.357 Y97.896 E0.02186
G1 X31.018 Y97.288 E0.02182
G1 X30.562 Y96.351 E0.03268
G1 X30.290 Y95.704 E0.02200
G1 X30.050 Y95.050 E0.02186
G1 X29.839 Y94.385 E0.02186
G1 X29.658 Y93.712 E0.02186
G1 X29.507 Y93.031 E0.02186
G1 X29.387 Y92.345 E0.02186
G1 X29.297 Y91.653 E0.02186
G1 X29.239 Y90.959 E0.02186
G1 X29.212 Y90.262 E0.02186
G1 X29.216 Y89.565 E0.02186
G1 X29.251 Y88.869 E0.02186
G1 X29.317 Y88.175 E0.02186
G1 X29.414 Y87.484 E0.02186
G1 X29.542 Y86.799 E0.02186
G1 X29.700 Y86.120 E0.02186
G1 X29.889 Y85.449 E0.02186
G1 X30.107 Y84.787 E0.02186
G1 X30.355 Y84.135 E0.02186
G1 X30.632 Y83.495 E0.02186
G1 X30.937 Y82.869 E0.02186
G1 X31.269 Y82.256 E0.02186
G1 X31.629 Y81.659 E0.02186
G1 X32.015 Y81.078 E0.02186
G1 X32.427 Y80.516 E0.02186
G1 X32.863 Y79.972 E0.02186
G1 X33.323 Y79.449 E0.02182
G1 X34.053 Y78.706 E0.03268
G1 X34.572 Y78.234 E0.02200
G1 X35.109 Y77.789 E0.02186
G1 X35.664 Y77.368 E0.02186
G1 X36.238 Y76.972 E0.02186
G1 X36.829 Y76.602 E0.02186
G1 X37.436 Y76.259 E0.02186
G1 X38.058 Y75.944 E0.02186
G1 X38.693 Y75.656 E0.02186
G1 X39.340 Y75.398 E0.02186
G1 X39.999 Y75.168 E0.02186
G1 X40.666 Y74.968 E0.02186
G1 X41.343 Y74.799 E0.02186
G1 X42.026 Y74.659 E0.02186
G1 X42.714 Y74.551 E0.02186
G1 X43.407 Y74.473 E0.02186
G1 X44.101 Y74.426 E0.02182
G1 X45.144 Y74.414 E0.03268
G1 X45.845 Y74.446 E0.02200
G1 X46.539 Y74.508 E0.02186
G1 X47.230 Y74.601 E0.02186
G1 X47.916 Y74.725 E0.02186
G1 X48.596 Y74.880 E0.02186
G1 X49.268 Y75.065 E0.02186
G1 X49.931 Y75.279 E0.02186
G1 X50.584 Y75.523 E0.02186
G1 X51.225 Y75.796 E0.02186
G1 X51.854 Y76.098 E0.02186
G1 X52.468 Y76.427 E0.02186
G1 X53.068 Y76.784 E0.02186
G1 X53.650 Y77.166 E0.02186
G1 X54.215 Y77.575 E0.02186
G1 X54.761 Y78.008 E0.02186
G1 X55.287 Y78.466 E0.02186
G1 X55.792 Y78.946 E0.02186
G1 X56.276 Y79.448 E0.02186
G1 X56.736 Y79.972 E0.02186
G1 X57.172 Y80.516 E0.02186
G1 X57.584 Y81.078 E0.02186
G1 X57.970 Y81.659 E0.02186
G1 X58.330 Y82.256 E0.02186
G1 X58.662 Y82.869 E0.02186
G1 X58.967 Y83.495 E0.02186
G1 X59.244 Y84.135 E0.02186
G1 X59.492 Y84.787 E0.02186
G1 X59.710 Y85.449 E0.02186
G1 X59.899 Y86.120 E0.02186
G1 X60.057 Y86.799 E0.02186
G1 X60.185 Y87.484 E0.02187
G1 X60.305 Y88.324 E0.02658
M204 S1250
G1 X60.335 Y88.782 F9000.000
G1 X59.775 Y88.081
M204 S800
G1 F1200.000
G1 X46.919 Y75.225 E0.57221
G1 X47.561 Y75.332 E0.02048
G1 X59.468 Y87.238 E0.52997
G1 X59.324 Y86.559 E0.02187
G1 X48.241 Y75.476 E0.49330
G1 X48.966 Y75.666 E0.02361
G1 X59.133 Y85.832 E0.45250
G1 X58.883 Y85.047 E0.02592
