; generated by PrusaSlicer 2.3.0+win64 on 2021-05-10 at 18:53:08 UTC


;
;

;
;
; 

; external perimeters extrusion width = 0.45mm
; perimeters extrusion width = 0.45mm
; infill extrusion width = 0.45mm
; solid infill extrusion width = 0.45mm
; top infill extrusion width = 0.40mm
; first layer extrusion width = 0.42mm

M73 P0 R73
M201 X1250 Y1250 Z400 E5000 ; sets maximum accelerations, mm/sec^2
M203 X180 Y180 Z12 E80 ; sets maximum feedrates, mm/sec
M204 P1250 R1250 T1250 ; sets acceleration (P, T) and retract acceleration (R), mm/sec^2
M205 X8.00 Y8.00 Z2.00 E10.00 ; sets the jerk limits, mm/sec
M205 S0 T0 ; sets the minimum extruding and travel feed rate, mm/sec
M107
;TYPE:Custom
G90 ; use absolute coordinates
M83 ; extruder relative mode
M104 S170 ; set extruder temp for bed leveling
M140 S60 ; set bed temp
M109 R170 ; wait for bed leveling temp
M190 S60 ; wait for bed temp
G28 ; home all without mesh bed level
G29 ; mesh bed leveling 
M104 S215 ; set extruder temp
G92 E0.0
G1 Y-2.0 X179 F2400
G1 Z3 F720
M109 S215 ; wait for extruder temp

; intro line
G1 X170 F1000
G1 Z0.2 F720
G1 X110.0 E8.0 F900
G1 X40.0 E10.0 F700
G92 E0.0

M221 S95 ; set flow
G21 ; set units to millimeters
G90 ; use absolute coordinates
M83 ; use relative distances for extrusion
M900 K0.2 ; Filament gcode LA 1.5
; ; Filament gcode LA 1.0
;LAYER_CHANGE
;Z:0.2
;HEIGHT:0.2
;BEFORE_LAYER_CHANGE
G92 E0.0
;0.2


G1 E-3.20000 F4200.000
G1 Z0.200 F9000.000
;AFTER_LAYER_CHANGE
;0.2
G1 Z0.400
G1 X97.706 Y16.365
G1 Z0.200
G1 E3.20000 F2400.000
M204 S800
;TYPE:Skirt
;WIDTH:0.42
G1 F1200.000
G1 X114.122 Y16.320 E0.51473
G1 X114.930 Y16.399 E0.02544
G1 X115.640 Y16.604 E0.02319
G1 X116.376 Y16.973 E0.02582
G1 X116.992 Y17.447 E0.02436
G1 X117.540 Y18.063 E0.02583
G1 X117.956 Y18.773 E0.02583
G1 X118.214 Y19.494 E0.02401
G1 X118.341 Y20.312 E0.02595
G1 X122.413 Y136.847 E3.65612
G1 X122.414 Y160.738 E0.74906
G1 X122.351 Y161.255 E0.01633
G1 X122.142 Y161.895 E0.02113
G1 X121.790 Y162.529 E0.02272
G1 X121.263 Y163.026 E0.02272
G1 X120.345 Y163.523 E0.03274
G1 X119.556 Y163.679 E0.02520
G1 X60.462 Y163.680 E1.85287
G1 X59.645 Y163.533 E0.02602
G1 X58.716 Y163.037 E0.03301
G1 X58.183 Y162.540 E0.02284
G1 X57.827 Y161.909 E0.02272
G1 X57.556 Y160.879 E0.03338
G1 X57.550 Y136.900 E0.75186
G1 X57.684 Y135.961 E0.02973
G1 X94.361 Y19.070 E3.84123
G1 X94.890 Y18.080 E0.03521
G1 X95.664 Y17.261 E0.03532
G1 X96.607 Y16.684 E0.03466
G1 X97.648 Y16.382 E0.03400
M204 S1250
; printing object Marshmello.stl id:0 copy 0
G1 E-2.24000 F4200.000
;WIPE_START
G1 F7200.000
G1 X99.294 Y16.376 E-0.91200
;WIPE_END
G1 E-0.04800 F4200.000
G1 Z0.400 F9000.000
G1 X79.610 Y127.421
G1 Z0.200
G1 E3.20000 F2400.000
M204 S800
;TYPE:Perimeter
G1 F1200.000
G1 X79.611 Y138.751 E0.35523
G1 X80.898 Y138.147 E0.04458
G1 X82.469 Y137.773 E0.05063
G1 X86.241 Y137.263 E0.11936
G1 X86.750 Y137.281 E0.01595
G1 X86.726 Y139.628 E0.07359
G1 X86.753 Y148.809 E0.28787
G1 X86.726 Y151.764 E0.09266
G1 X86.748 Y156.202 E0.13914
G1 X86.725 Y157.533 E0.04174
G1 X86.751 Y160.516 E0.09353
G1 X60.716 Y160.516 E0.81633
G1 X60.741 Y157.533 E0.09353
G1 X60.719 Y156.202 E0.04174
G1 X60.741 Y151.764 E0.13914
G1 X60.714 Y148.809 E0.09266
G1 X60.741 Y139.628 E0.28787
G1 X60.717 Y137.281 E0.07359
G1 X61.226 Y137.263 E0.01595
G1 X64.998 Y137.773 E0.11936
G1 X66.569 Y138.147 E0.05063
G1 X67.792 Y138.720 E0.04235
G1 X67.792 Y127.421 E0.35428
G1 X79.550 Y127.421 E0.36866
M204 S1250
G1 E-2.24000 F4200.000
;WIPE_START
G1 F7200.000
G1 X79.559 Y129.067 E-0.91200
;WIPE_END
G1 E-0.04800 F4200.000
G1 Z0.400 F9000.000
G1 X79.988 Y138.157
G1 Z0.200
G1 E3.20000 F2400.000
M204 S800
;TYPE:External perimeter
G1 F1200.000
G1 X80.773 Y137.789 E0.02719
G1 X82.399 Y137.401 E0.05243
G1 X86.222 Y136.885 E0.12095
G1 X87.130 Y136.917 E0.02849
G1 X87.103 Y139.629 E0.08504
G1 X87.130 Y148.810 E0.28786
M73 P1 R73
G1 X87.103 Y151.765 E0.09265
G1 X87.125 Y156.204 E0.13919
G1 X87.103 Y157.535 E0.04172
G1 X87.129 Y160.644 E0.09751
G1 X87.080 Y160.788 E0.00477
G1 X86.891 Y160.893 E0.00676
G1 X60.576 Y160.893 E0.82511
G1 X60.387 Y160.788 E0.00676
G1 X60.337 Y160.644 E0.00477
G1 X60.364 Y157.535 E0.09751
G1 X60.342 Y156.204 E0.04172
G1 X60.364 Y151.765 E0.13919
G1 X60.337 Y148.810 E0.09265
G1 X60.364 Y139.629 E0.28786
G1 X60.337 Y136.917 E0.08504
G1 X61.245 Y136.885 E0.02849
G1 X65.067 Y137.401 E0.12095
G1 X66.694 Y137.789 E0.05243
G1 X67.415 Y138.127 E0.02496
G1 X67.415 Y127.044 E0.34750
G1 X79.987 Y127.044 E0.39419
G1 X79.988 Y138.097 E0.34657
M204 S1250
G1 X80.205 Y138.493 F9000.000
G1 E-2.24000 F4200.000
;WIPE_START
G1 F7200.000
G1 X80.773 Y137.789 E-0.46735
G1 X81.553 Y137.603 E-0.44465
;WIPE_END
G1 E-0.04800 F4200.000
G1 Z0.400 F9000.000
G1 X79.497 Y128.303
G1 Z0.200
G1 E3.20000 F2400.000
M204 S800
;TYPE:Solid infill
;WIDTH:0.423076
G1 F1200.000
G1 X78.898 Y127.704 E0.02678
G1 X78.360 Y127.704 E0.01699
G1 X79.328 Y128.671 E0.04323
G1 X79.328 Y129.209 E0.01699
G1 X77.823 Y127.704 E0.06727
G1 X77.285 Y127.704 E0.01699
G1 X79.328 Y129.746 E0.09130
G1 X79.328 Y130.284 E0.01699
G1 X76.748 Y127.704 E0.11534
G1 X76.210 Y127.704 E0.01699
G1 X79.328 Y130.822 E0.13937
G1 X79.328 Y131.359 E0.01699
G1 X75.672 Y127.704 E0.16340
G1 X75.135 Y127.704 E0.01699
G1 X79.328 Y131.897 E0.18744
G1 X79.328 Y132.434 E0.01699
G1 X74.597 Y127.704 E0.21147
G1 X74.060 Y127.704 E0.01699
G1 X79.328 Y132.972 E0.23551
G1 X79.328 Y133.510 E0.01699
G1 X73.522 Y127.704 E0.25954
G1 X72.984 Y127.704 E0.01699
G1 X79.328 Y134.047 E0.28358
G1 X79.328 Y134.585 E0.01699
G1 X72.447 Y127.704 E0.30761
G1 X71.909 Y127.704 E0.01699
G1 X79.328 Y135.123 E0.33164
G1 X79.328 Y135.660 E0.01699
G1 X71.371 Y127.704 E0.35568
G1 X70.834 Y127.704 E0.01699
G1 X79.328 Y136.198 E0.37971
G1 X79.328 Y136.736 E0.01699
G1 X70.296 Y127.704 E0.40375
G1 X69.759 Y127.704 E0.01699
G1 X79.328 Y137.273 E0.42778
G1 X79.328 Y137.811 E0.01699
G1 X69.221 Y127.704 E0.45182
G1 X68.683 Y127.704 E0.01699
G1 X79.498 Y138.518 E0.48344
M204 S1250
G1 E-2.24000 F4200.000
;WIPE_START
G1 F7200.000
G1 X78.334 Y137.354 E-0.91200
;WIPE_END
G1 E-0.04800 F4200.000
G1 Z0.400 F9000.000
G1 X85.926 Y137.420
G1 Z0.200
G1 E3.20000 F2400.000
M204 S800
G1 F1200.000
G1 X86.460 Y137.954 E0.02388
G1 X86.455 Y138.486 E0.01683
G1 X85.603 Y137.635 E0.03807
M73 P1 R72
G1 X85.129 Y137.699 E0.01511
G1 X86.449 Y139.018 E0.05901
G1 X86.444 Y139.551 E0.01683
G1 X84.656 Y137.763 E0.07994
G1 X84.182 Y137.827 E0.01511
G1 X86.445 Y140.089 E0.10114
G1 X86.446 Y140.628 E0.01704
G1 X83.709 Y137.890 E0.12239
G1 X83.235 Y137.954 E0.01511
G1 X86.448 Y141.167 E0.14363
G1 X86.449 Y141.707 E0.01704
G1 X82.761 Y138.018 E0.16488
G1 X82.307 Y138.102 E0.01460
G1 X86.451 Y142.246 E0.18525
G1 X86.453 Y142.785 E0.01704
G1 X81.873 Y138.205 E0.20474
G1 X81.439 Y138.309 E0.01411
G1 X86.454 Y143.324 E0.22422
G1 X86.456 Y143.864 E0.01704
G1 X81.004 Y138.412 E0.24370
G1 X80.636 Y138.582 E0.01281
G1 X86.457 Y144.403 E0.26022
G1 X86.459 Y144.942 E0.01704
G1 X80.271 Y138.753 E0.27665
G1 X79.905 Y138.925 E0.01278
G1 X86.461 Y145.481 E0.29307
G1 X86.462 Y146.020 E0.01704
G1 X68.146 Y127.704 E0.81881
G1 X68.075 Y127.704 E0.00223
G1 X68.075 Y128.171 E0.01477
G1 X86.464 Y146.560 E0.82203
G1 X86.465 Y147.099 E0.01704
G1 X68.075 Y128.709 E0.82210
G1 X68.075 Y129.246 E0.01699
G1 X86.467 Y147.638 E0.82217
G1 X86.469 Y148.177 E0.01704
G1 X68.075 Y129.784 E0.82225
G1 X68.075 Y130.321 E0.01699
G1 X86.470 Y148.716 E0.82232
G1 X86.466 Y149.250 E0.01687
G1 X68.075 Y130.859 E0.82215
G1 X68.075 Y131.397 E0.01699
G1 X86.461 Y149.783 E0.82193
G1 X86.456 Y150.316 E0.01684
G1 X68.075 Y131.934 E0.82171
G1 X68.075 Y132.472 E0.01699
G1 X86.451 Y150.848 E0.82148
G1 X86.446 Y151.381 E0.01684
G1 X68.075 Y133.009 E0.82126
G1 X68.075 Y133.547 E0.01699
G1 X86.444 Y151.916 E0.82114
G1 X86.446 Y152.456 E0.01708
G1 X68.075 Y134.085 E0.82126
G1 X68.075 Y134.622 E0.01699
G1 X86.449 Y152.996 E0.82138
G1 X86.452 Y153.537 E0.01708
G1 X68.075 Y135.160 E0.82151
G1 X68.075 Y135.697 E0.01699
G1 X86.454 Y154.077 E0.82163
G1 X86.457 Y154.617 E0.01708
G1 X68.075 Y136.235 E0.82175
G1 X68.075 Y136.773 E0.01699
G1 X86.460 Y155.158 E0.82187
G1 X86.463 Y155.698 E0.01708
G1 X68.075 Y137.310 E0.82199
M73 P2 R72
G1 X68.075 Y137.848 E0.01699
G1 X86.464 Y156.237 E0.82208
G1 X86.456 Y156.766 E0.01671
G1 X68.075 Y138.385 E0.82168
G1 X68.075 Y138.923 E0.01699
G1 X86.447 Y157.295 E0.82128
G1 X86.445 Y157.831 E0.01695
G1 X67.519 Y138.905 E0.84608
G1 X66.506 Y138.430 E0.03536
G1 X86.450 Y158.373 E0.89156
G1 X86.455 Y158.916 E0.01714
G1 X65.791 Y138.252 E0.92373
G1 X65.085 Y138.084 E0.02293
G1 X86.459 Y159.458 E0.95549
G1 X86.464 Y160.000 E0.01714
G1 X64.447 Y137.984 E0.98423
G1 X63.826 Y137.900 E0.01983
G1 X86.159 Y160.233 E0.99839
G1 X85.622 Y160.233 E0.01699
G1 X63.204 Y137.816 E1.00214
G1 X62.582 Y137.732 E0.01983
G1 X85.084 Y160.233 E1.00589
G1 X84.546 Y160.233 E0.01699
G1 X61.961 Y137.648 E1.00965
G1 X61.339 Y137.564 E0.01983
G1 X84.009 Y160.233 E1.01340
G1 X83.471 Y160.233 E0.01699
G1 X61.005 Y137.767 E1.00431
G1 X61.010 Y138.310 E0.01717
G1 X82.933 Y160.233 E0.98003
G1 X82.396 Y160.233 E0.01699
G1 X61.016 Y138.853 E0.95576
G1 X61.021 Y139.396 E0.01717
G1 X81.858 Y160.233 E0.93148
G1 X81.321 Y160.233 E0.01699
G1 X61.023 Y139.935 E0.90739
G1 X61.021 Y140.471 E0.01694
G1 X80.783 Y160.233 E0.88342
G1 X80.245 Y160.233 E0.01699
G1 X61.019 Y141.007 E0.85946
M73 P2 R71
G1 X61.018 Y141.543 E0.01694
G1 X79.708 Y160.233 E0.83550
G1 X79.170 Y160.233 E0.01699
G1 X61.016 Y142.079 E0.81153
G1 X61.015 Y142.615 E0.01694
G1 X78.632 Y160.233 E0.78757
G1 X78.095 Y160.233 E0.01699
G1 X61.013 Y143.151 E0.76361
G1 X61.012 Y143.688 E0.01694
G1 X77.557 Y160.233 E0.73965
G1 X77.020 Y160.233 E0.01699
G1 X61.010 Y144.224 E0.71568
G1 X61.008 Y144.760 E0.01694
G1 X76.482 Y160.233 E0.69172
G1 X75.944 Y160.233 E0.01699
G1 X61.007 Y145.296 E0.66776
G1 X61.005 Y145.832 E0.01694
G1 X75.407 Y160.233 E0.64379
G1 X74.869 Y160.233 E0.01699
G1 X61.004 Y146.368 E0.61983
G1 X61.002 Y146.904 E0.01694
G1 X74.331 Y160.233 E0.59587
G1 X73.794 Y160.233 E0.01699
G1 X61.001 Y147.440 E0.57191
M73 P3 R71
G1 X60.999 Y147.976 E0.01694
G1 X73.256 Y160.233 E0.54794
G1 X72.719 Y160.233 E0.01699
G1 X60.997 Y148.512 E0.52398
G1 X60.999 Y149.051 E0.01704
G1 X72.181 Y160.233 E0.49988
G1 X71.643 Y160.233 E0.01699
G1 X61.004 Y149.594 E0.47563
G1 X61.009 Y150.136 E0.01715
G1 X71.106 Y160.233 E0.45137
G1 X70.568 Y160.233 E0.01699
G1 X61.014 Y150.679 E0.42711
G1 X61.019 Y151.222 E0.01715
G1 X70.030 Y160.233 E0.40285
G1 X69.493 Y160.233 E0.01699
G1 X61.024 Y151.764 E0.37859
G1 X61.021 Y152.299 E0.01691
G1 X68.955 Y160.233 E0.35467
G1 X68.418 Y160.233 E0.01699
G1 X61.019 Y152.834 E0.33076
G1 X61.016 Y153.369 E0.01691
G1 X67.880 Y160.233 E0.30685
G1 X67.342 Y160.233 E0.01699
G1 X61.013 Y153.904 E0.28293
G1 X61.011 Y154.439 E0.01691
G1 X66.805 Y160.233 E0.25902
G1 X66.267 Y160.233 E0.01699
G1 X61.008 Y154.974 E0.23511
G1 X61.005 Y155.509 E0.01691
G1 X65.730 Y160.233 E0.21119
G1 X65.192 Y160.233 E0.01699
G1 X61.003 Y156.044 E0.18728
G1 X61.008 Y156.587 E0.01718
G1 X64.654 Y160.233 E0.16299
G1 X64.117 Y160.233 E0.01699
G1 X61.018 Y157.134 E0.13854
G1 X61.023 Y157.677 E0.01717
G1 X63.579 Y160.233 E0.11426
G1 X63.041 Y160.233 E0.01699
G1 X61.018 Y158.210 E0.09044
G1 X61.014 Y158.743 E0.01685
G1 X62.504 Y160.233 E0.06661
G1 X61.966 Y160.233 E0.01699
G1 X61.009 Y159.276 E0.04278
G1 X61.005 Y159.809 E0.01685
G1 X61.598 Y160.403 E0.02654
M204 S1250
G1 E-2.24000 F4200.000
;WIPE_START
G1 F7200.000
G1 X61.005 Y159.809 E-0.46528
G1 X61.009 Y159.276 E-0.29538
G1 X61.202 Y159.469 E-0.15134
;WIPE_END
G1 E-0.04800 F4200.000
G1 Z0.400 F9000.000
G1 X98.934 Y126.688
G1 Z0.200
G1 E3.20000 F2400.000
M204 S800
;TYPE:Perimeter
;WIDTH:0.42
G1 F1200.000
G1 X98.934 Y21.160 E3.30876
G1 X113.508 Y21.160 E0.45696
G1 X113.508 Y126.575 E3.30520
G1 X112.000 Y126.288 E0.04814
G1 X109.252 Y125.982 E0.08670
G1 X109.252 Y25.984 E3.13535
G1 X103.100 Y25.984 E0.19288
G1 X103.100 Y125.921 E3.13347
G1 X101.048 Y126.262 E0.06521
G1 X98.993 Y126.676 E0.06575
M204 S1250
G1 X99.311 Y126.227 F9000.000
M204 S800
;TYPE:External perimeter
G1 F1200.000
G1 X99.311 Y21.537 E3.28250
G1 X113.131 Y21.537 E0.43332
G1 X113.131 Y126.119 E3.27910
M73 P4 R71
G1 X112.056 Y125.915 E0.03431
G1 X109.629 Y125.644 E0.07657
G1 X109.629 Y25.607 E3.13660
M73 P4 R70
G1 X102.723 Y25.607 E0.21652
G1 X102.723 Y125.602 E3.13527
G1 X100.980 Y125.891 E0.05539
G1 X99.370 Y126.216 E0.05151
M204 S1250
G1 X98.912 Y126.252 F9000.000
G1 E-2.24000 F4200.000
;WIPE_START
G1 F7200.000
G1 X99.369 Y124.570 E-0.91200
;WIPE_END
G1 E-0.04800 F4200.000
G1 Z0.400 F9000.000
G1 X112.115 Y127.912
G1 Z0.200
G1 E3.20000 F2400.000
M204 S800
;TYPE:Perimeter
G1 F1200.000
G1 X112.115 Y138.724 E0.33903
G1 X113.334 Y138.152 E0.04224
G1 X114.906 Y137.778 E0.05064
G1 X118.711 Y137.263 E0.12040
G1 X119.221 Y137.281 E0.01600
G1 X119.199 Y141.637 E0.13658
G1 X119.223 Y148.809 E0.22489
G1 X119.199 Y151.763 E0.09261
G1 X119.217 Y154.725 E0.09288
G1 X119.198 Y157.536 E0.08813
G1 X119.221 Y160.516 E0.09345
G1 X93.156 Y160.516 E0.81726
G1 X93.179 Y157.536 E0.09345
G1 X93.160 Y154.725 E0.08813
G1 X93.179 Y151.763 E0.09288
G1 X93.154 Y148.809 E0.09261
G1 X93.179 Y141.637 E0.22489
G1 X93.156 Y137.281 E0.13658
G1 X93.666 Y137.263 E0.01600
G1 X97.472 Y137.778 E0.12040
G1 X99.043 Y138.152 E0.05064
G1 X100.327 Y138.755 E0.04447
G1 X100.327 Y128.102 E0.33401
G1 X98.775 Y128.467 E0.04999
G1 X98.123 Y128.645 E0.02121
G1 X97.632 Y128.814 E0.01625
G1 X97.175 Y129.021 E0.01573
G1 X97.246 Y128.382 E0.02017
G1 X97.257 Y127.850 E0.01667
G1 X97.258 Y20.575 E3.36353
G1 X97.273 Y20.383 E0.00604
G1 X97.310 Y20.228 E0.00500
G1 X97.404 Y20.016 E0.00729
G1 X97.497 Y19.880 E0.00516
G1 X97.612 Y19.759 E0.00521
G1 X97.744 Y19.658 E0.00523
G1 X97.891 Y19.578 E0.00523
G1 X98.048 Y19.522 E0.00523
G1 X98.205 Y19.493 E0.00499
G1 X114.161 Y19.486 E0.50031
G1 X114.332 Y19.508 E0.00541
G1 X114.551 Y19.579 E0.00720
G1 X114.745 Y19.691 E0.00704
G1 X114.865 Y19.793 E0.00492
G1 X115.009 Y19.971 E0.00718
G1 X115.110 Y20.169 E0.00696
G1 X115.169 Y20.391 E0.00720
G1 X115.184 Y20.575 E0.00580
G1 X115.184 Y127.850 E3.36354
G1 X115.195 Y128.382 E0.01667
G1 X115.271 Y129.064 E0.02153
G1 X114.998 Y128.932 E0.00952
G1 X113.853 Y128.458 E0.03886
G1 X112.172 Y127.930 E0.05524
M204 S1250
G1 X112.492 Y128.426 F9000.000
M204 S800
;TYPE:External perimeter
G1 F1200.000
G1 X112.492 Y138.131 E0.30431
G1 X113.209 Y137.794 E0.02485
G1 X114.837 Y137.407 E0.05245
G1 X118.692 Y136.885 E0.12200
G1 X119.600 Y136.917 E0.02848
G1 X119.576 Y141.637 E0.14800
G1 X119.600 Y148.810 E0.22491
G1 X119.576 Y151.763 E0.09259
G1 X119.594 Y154.725 E0.09287
G1 X119.576 Y157.535 E0.08812
G1 X119.599 Y160.644 E0.09747
G1 X119.550 Y160.788 E0.00477
G1 X119.361 Y160.893 E0.00676
G1 X93.016 Y160.893 E0.82602
G1 X92.828 Y160.788 E0.00676
G1 X92.778 Y160.644 E0.00477
G1 X92.802 Y157.535 E0.09747
G1 X92.783 Y154.725 E0.08812
G1 X92.802 Y151.763 E0.09287
G1 X92.777 Y148.810 E0.09259
G1 X92.802 Y141.637 E0.22491
G1 X92.777 Y136.917 E0.14800
G1 X93.685 Y136.885 E0.02848
G1 X97.541 Y137.407 E0.12200
G1 X99.168 Y137.794 E0.05245
G1 X99.950 Y138.161 E0.02707
G1 X99.950 Y128.578 E0.30047
G1 X98.868 Y128.833 E0.03485
G1 X98.234 Y129.006 E0.02062
G1 X97.772 Y129.165 E0.01531
G1 X97.409 Y129.329 E0.01247
G1 X97.297 Y129.449 E0.00516
G1 X97.238 Y129.481 E0.00211
G1 X96.931 Y129.587 E0.01016
G1 X96.949 Y129.744 E0.00496
G1 X96.681 Y129.878 E0.00940
G1 X96.681 Y129.369 E0.01598
G1 X96.811 Y128.881 E0.01583
G1 X96.870 Y128.357 E0.01654
G1 X96.880 Y127.846 E0.01602
G1 X96.881 Y20.560 E3.36387
G1 X96.899 Y20.324 E0.00743
G1 X96.952 Y20.107 E0.00701
G1 X97.074 Y19.831 E0.00945
G1 X97.203 Y19.642 E0.00718
G1 X97.359 Y19.478 E0.00709
G1 X97.538 Y19.340 E0.00709
G1 X97.737 Y19.232 E0.00709
G1 X97.950 Y19.157 E0.00709
G1 X98.170 Y19.116 E0.00701
G1 X114.186 Y19.109 E0.50216
G1 X114.416 Y19.139 E0.00727
G1 X114.705 Y19.233 E0.00953
G1 X114.963 Y19.382 E0.00936
G1 X115.136 Y19.528 E0.00710
G1 X115.327 Y19.765 E0.00953
G1 X115.464 Y20.033 E0.00945
G1 X115.543 Y20.327 E0.00953
