; generated by PrusaSlicer 2.2.0+win64 on 2020-10-03 at 15:12:07 UTC


;
;

;
;
; 

; external perimeters extrusion width = 0.45mm
; perimeters extrusion width = 0.45mm
; infill extrusion width = 0.45mm
; solid infill extrusion width = 0.45mm
; top infill extrusion width = 0.40mm
; first layer extrusion width = 0.42mm

M73 P0 R6
M201 X1250 Y1250 Z400 E5000 ; sets maximum accelerations, mm/sec^2
M203 X180 Y180 Z12 E80 ; sets maximum feedrates, mm/sec
M204 P1250 R1250 T1250 ; sets acceleration (P, T) and retract acceleration (R), mm/sec^2
M205 X8.00 Y8.00 Z2.00 E10.00 ; sets the jerk limits, mm/sec
M205 S0 T0 ; sets the minimum extruding and travel feed rate, mm/sec
M107
G90 ; use absolute coordinates
M83 ; extruder relative mode
M104 S170 ; set extruder temp for bed leveling
M140 S60 ; set bed temp
M109 R170 ; wait for bed leveling temp
M190 S60 ; wait for bed temp
G28 ; home all without mesh bed level
G29 ; mesh bed leveling 
M104 S215 ; set extruder temp
G92 E0.0
G1 Y-2.0 X179 F2400
G1 Z3 F720
M109 S215 ; wait for extruder temp

; intro line
G1 X170 F1000
G1 Z0.2 F720
G1 X110.0 E8.0 F900
M73 P2 R6
G1 X40.0 E10.0 F700
G92 E0.0

M221 S95 ; set flow
G21 ; set units to millimeters
G90 ; use absolute coordinates
M83 ; use relative distances for extrusion
M900 K0.2 ; Filament gcode LA 1.5
; ; Filament gcode LA 1.0
;BEFORE_LAYER_CHANGE
G92 E0.0
;0.2


G1 Z0.200 F9000.000
;AFTER_LAYER_CHANGE
;0.2
G1 E-3.20000 F4200.00000
G1 Z0.400 F9000.000
G1 X70.269 Y69.179
G1 Z0.200
G1 E3.20000 F2400.00000
M204 S800
G1 F1200.000
G1 X70.668 Y68.486 E0.02508
G1 X71.032 Y68.130 E0.01597
G1 X71.464 Y67.860 E0.01597
G1 X71.944 Y67.689 E0.01597
G1 X72.446 Y67.624 E0.01585
G1 X107.504 Y67.623 E1.09923
G1 X108.392 Y67.797 E0.02837
G1 X109.148 Y68.287 E0.02825
G1 X109.667 Y69.023 E0.02825
G1 X109.875 Y69.900 E0.02825
G1 X109.877 Y110.030 E1.25827
G1 X109.731 Y110.821 E0.02520
G1 X109.332 Y111.514 E0.02508
G1 X108.962 Y111.875 E0.01621
G1 X108.522 Y112.146 E0.01621
G1 X108.034 Y112.316 E0.01621
G1 X107.520 Y112.377 E0.01621
G1 X72.466 Y112.377 E1.09911
G1 X71.679 Y112.231 E0.02508
G1 X70.986 Y111.832 E0.02508
G1 X70.623 Y111.459 E0.01633
G1 X70.352 Y111.018 E0.01621
G1 X70.183 Y110.530 E0.01621
G1 X70.123 Y110.016 E0.01621
G1 X70.123 Y69.970 E1.25564
G1 X70.258 Y69.238 E0.02332
M204 S1250
G1 E-2.24000 F4200.00000
G1 F7200.000
G1 X70.668 Y68.486 E-0.47475
G1 X71.032 Y68.130 E-0.28231
G1 X71.270 Y67.982 E-0.15494
G1 E-0.04800 F4200.00000
G1 Z0.400 F9000.000
G1 X77.613 Y77.613
G1 Z0.200
G1 E3.20000 F2400.00000
M204 S800
G1 F1200.000
G1 X89.244 Y77.613 E0.36467
G1 X89.096 Y77.545 E0.00509
G1 X88.836 Y77.360 E0.01001
G1 X88.615 Y77.133 E0.00992
G1 X88.430 Y76.861 E0.01033
G1 X88.265 Y76.444 E0.01405
G1 X88.213 Y76.107 E0.01069
G1 X88.239 Y75.681 E0.01340
G1 X88.334 Y75.345 E0.01093
G1 X88.477 Y75.060 E0.01001
G1 X88.667 Y74.806 E0.00992
G1 X88.907 Y74.581 E0.01033
G1 X89.294 Y74.354 E0.01405
G1 X89.607 Y74.254 E0.01033
G1 X89.921 Y74.212 E0.00992
G1 X90.237 Y74.226 E0.00992
G1 X90.545 Y74.296 E0.00992
G1 X90.849 Y74.423 E0.01033
G1 X91.214 Y74.684 E0.01405
G1 X91.434 Y74.929 E0.01033
G1 X91.600 Y75.198 E0.00992
G1 X91.720 Y75.503 E0.01028
G1 X91.788 Y75.925 E0.01340
G1 X91.769 Y76.273 E0.01093
G1 X91.692 Y76.583 E0.01001
G1 X91.563 Y76.872 E0.00992
G1 X91.378 Y77.144 E0.01033
G1 X91.050 Y77.450 E0.01405
G1 X90.774 Y77.613 E0.01006
G1 X102.387 Y77.613 E0.36413
G1 X102.387 Y102.387 E0.77678
G1 X90.763 Y102.387 E0.36446
G1 X90.974 Y102.498 E0.00746
G1 X91.223 Y102.693 E0.00992
G1 X91.434 Y102.929 E0.00992
G1 X91.600 Y103.198 E0.00992
G1 X91.720 Y103.503 E0.01028
G1 X91.788 Y103.925 E0.01340
G1 X91.769 Y104.273 E0.01093
G1 X91.692 Y104.583 E0.01001
G1 X91.563 Y104.872 E0.00992
G1 X91.378 Y105.144 E0.01033
G1 X91.050 Y105.450 E0.01405
G1 X90.766 Y105.617 E0.01033
G1 X90.470 Y105.727 E0.00992
G1 X90.158 Y105.783 E0.00992
G1 X89.830 Y105.783 E0.01028
G1 X89.413 Y105.691 E0.01340
G1 X89.096 Y105.545 E0.01093
G1 X88.836 Y105.360 E0.01001
G1 X88.615 Y105.133 E0.00992
G1 X88.430 Y104.861 E0.01033
G1 X88.265 Y104.444 E0.01405
G1 X88.213 Y104.107 E0.01069
G1 X88.239 Y103.681 E0.01340
G1 X88.334 Y103.345 E0.01093
G1 X88.477 Y103.060 E0.01001
G1 X88.667 Y102.806 E0.00992
G1 X88.906 Y102.582 E0.01028
G1 X89.235 Y102.387 E0.01199
G1 X77.613 Y102.387 E0.36439
G1 X77.613 Y77.673 E0.77490
M204 S1250
G1 E-2.24000 F4200.00000
G1 F7200.000
G1 X79.259 Y77.664 E-0.91200
G1 E-0.04800 F4200.00000
G1 Z0.400 F9000.000
G1 X89.431 Y102.709
G1 Z0.200
G1 E3.20000 F2400.00000
M204 S800
G1 F1200.000
G1 X89.689 Y102.624 E0.00853
G1 X89.942 Y102.590 E0.00800
G1 X90.305 Y102.622 E0.01142
G1 X90.547 Y102.699 E0.00797
G1 X90.768 Y102.816 E0.00782
G1 X90.964 Y102.970 E0.00782
G1 X91.130 Y103.156 E0.00782
G1 X91.261 Y103.368 E0.00782
G1 X91.355 Y103.604 E0.00795
G1 X91.410 Y103.945 E0.01084
G1 X91.394 Y104.217 E0.00853
G1 X91.334 Y104.460 E0.00785
G1 X91.232 Y104.687 E0.00782
G1 X91.089 Y104.898 E0.00797
G1 X90.823 Y105.146 E0.01142
G1 X90.604 Y105.275 E0.00797
G1 X90.370 Y105.362 E0.00782
G1 X90.125 Y105.405 E0.00782
G1 X89.871 Y105.405 E0.00795
G1 X89.534 Y105.331 E0.01084
G1 X89.286 Y105.217 E0.00853
G1 X89.082 Y105.072 E0.00785
G1 X88.908 Y104.894 E0.00782
G1 X88.765 Y104.684 E0.00797
G1 X88.631 Y104.345 E0.01142
G1 X88.591 Y104.089 E0.00810
G1 X88.613 Y103.744 E0.01084
G1 X88.687 Y103.483 E0.00853
G1 X88.799 Y103.259 E0.00785
G1 X88.949 Y103.059 E0.00782
G1 X89.134 Y102.886 E0.00795
G1 X89.379 Y102.740 E0.00896
M204 S1250
G1 X89.458 Y102.438 F9000.000
G1 E-2.24000 F4200.00000
G1 F7200.000
G1 X89.689 Y102.624 E-0.18346
G1 X89.942 Y102.590 E-0.14142
G1 X90.305 Y102.622 E-0.20191
G1 X90.547 Y102.699 E-0.14081
G1 X90.768 Y102.816 E-0.13822
G1 X90.919 Y102.934 E-0.10618
G1 E-0.04800 F4200.00000
G1 Z0.400 F9000.000
G1 X77.990 Y77.990
G1 Z0.200
G1 E3.20000 F2400.00000
M204 S800
G1 F1200.000
G1 X102.010 Y77.990 E0.75313
G1 X102.010 Y102.010 E0.75313
G1 X77.990 Y102.010 E0.75313
G1 X77.990 Y78.050 E0.75125
M204 S1250
G1 X77.886 Y77.604 F9000.000
G1 E-2.24000 F4200.00000
G1 F7200.000
G1 X79.636 Y78.046 E-0.91200
G1 E-0.04800 F4200.00000
G1 Z0.400 F9000.000
G1 X88.631 Y76.345
G1 Z0.200
G1 E3.20000 F2400.00000
M204 S800
G1 F1200.000
G1 X88.591 Y76.089 E0.00810
G1 X88.613 Y75.744 E0.01084
G1 X88.687 Y75.483 E0.00853
G1 X88.799 Y75.259 E0.00785
G1 X88.949 Y75.059 E0.00782
G1 X89.134 Y74.885 E0.00797
G1 X89.448 Y74.701 E0.01142
G1 X89.690 Y74.623 E0.00797
G1 X89.938 Y74.590 E0.00782
G1 X90.187 Y74.601 E0.00782
G1 X90.430 Y74.656 E0.00782
G1 X90.664 Y74.755 E0.00797
G1 X90.961 Y74.966 E0.01142
G1 X91.130 Y75.156 E0.00797
G1 X91.261 Y75.368 E0.00782
G1 X91.355 Y75.604 E0.00795
G1 X91.410 Y75.945 E0.01084
G1 X91.394 Y76.217 E0.00853
G1 X91.334 Y76.460 E0.00785
G1 X91.232 Y76.687 E0.00782
G1 X91.089 Y76.898 E0.00797
G1 X90.823 Y77.146 E0.01142
G1 X90.604 Y77.275 E0.00797
G1 X90.370 Y77.362 E0.00782
G1 X90.125 Y77.405 E0.00782
G1 X89.871 Y77.405 E0.00795
G1 X89.534 Y77.331 E0.01084
G1 X89.286 Y77.217 E0.00853
G1 X89.082 Y77.072 E0.00785
G1 X88.908 Y76.894 E0.00782
G1 X88.765 Y76.684 E0.00797
G1 X88.653 Y76.400 E0.00954
M204 S1250
G1 X88.382 Y76.277 F9000.000
G1 E-2.24000 F4200.00000
G1 F7200.000
G1 X88.591 Y76.089 E-0.17570
G1 X88.613 Y75.744 E-0.19154
G1 X88.687 Y75.483 E-0.15085
G1 X88.799 Y75.259 E-0.13881
G1 X88.949 Y75.059 E-0.13822
G1 X89.103 Y74.915 E-0.11687
G1 E-0.04800 F4200.00000
G1 Z0.400 F9000.000
G1 X79.205 Y74.542
G1 Z0.200
G1 E3.20000 F2400.00000
M204 S800
G1 F1200.000
G1 X79.065 Y74.869 E0.01117
G1 X78.878 Y75.143 E0.01038
G1 X78.568 Y75.437 E0.01340
G1 X78.269 Y75.616 E0.01093
G1 X77.970 Y75.727 E0.01001
G1 X77.658 Y75.783 E0.00992
G1 X77.330 Y75.783 E0.01028
G1 X76.913 Y75.691 E0.01340
G1 X76.596 Y75.545 E0.01093
G1 X76.336 Y75.360 E0.01001
G1 X76.106 Y75.124 E0.01033
G1 X75.870 Y74.743 E0.01405
G1 X75.763 Y74.431 E0.01033
G1 X75.713 Y74.107 E0.01028
G1 X75.739 Y73.681 E0.01340
G1 X75.834 Y73.345 E0.01093
G1 X75.977 Y73.060 E0.01001
G1 X76.167 Y72.806 E0.00992
G1 X76.406 Y72.582 E0.01028
G1 X76.773 Y72.364 E0.01340
G1 X77.104 Y72.254 E0.01093
G1 X77.421 Y72.212 E0.01001
G1 X77.737 Y72.226 E0.00992
G1 X78.045 Y72.296 E0.00992
G1 X78.337 Y72.418 E0.00992
G1 X78.602 Y72.590 E0.00992
G1 X78.833 Y72.806 E0.00992
G1 X79.023 Y73.060 E0.00992
G1 X79.170 Y73.354 E0.01033
G1 X79.278 Y73.790 E0.01406
G1 X79.286 Y74.132 E0.01073
G1 X79.217 Y74.483 E0.01123
M204 S1250
G1 X78.841 Y74.437 F9000.000
M204 S800
G1 F1200.000
G1 X78.733 Y74.687 E0.00853
G1 X78.590 Y74.897 E0.00798
G1 X78.338 Y75.135 E0.01084
G1 X78.105 Y75.275 E0.00853
G1 X77.870 Y75.362 E0.00785
G1 X77.625 Y75.405 E0.00782
G1 X77.371 Y75.405 E0.00795
G1 X77.034 Y75.331 E0.01084
G1 X76.786 Y75.217 E0.00853
G1 X76.582 Y75.072 E0.00785
G1 X76.405 Y74.890 E0.00797
G1 X76.213 Y74.580 E0.01142
G1 X76.131 Y74.340 E0.00797
G1 X76.091 Y74.089 E0.00795
G1 X76.113 Y73.744 E0.01084
G1 X76.187 Y73.483 E0.00853
G1 X76.299 Y73.259 E0.00785
G1 X76.449 Y73.059 E0.00782
G1 X76.634 Y72.886 E0.00795
G1 X76.931 Y72.709 E0.01084
G1 X77.189 Y72.624 E0.00854
G1 X77.438 Y72.590 E0.00785
G1 X77.687 Y72.601 E0.00782
G1 X77.930 Y72.656 E0.00782
G1 X78.160 Y72.753 E0.00782
G1 X78.369 Y72.889 E0.00782
G1 X78.551 Y73.059 E0.00782
G1 X78.701 Y73.259 E0.00782
G1 X78.814 Y73.486 E0.00797
G1 X78.902 Y73.840 E0.01143
G1 X78.908 Y74.099 E0.00813
G1 X78.853 Y74.378 E0.00892
M204 S1250
G1 X79.025 Y74.638 F9000.000
G1 E-2.24000 F4200.00000
G1 F7200.000
G1 X78.733 Y74.687 E-0.18344
G1 X78.590 Y74.897 E-0.14111
G1 X78.338 Y75.135 E-0.19154
G1 X78.105 Y75.275 E-0.15085
G1 X77.870 Y75.362 E-0.13881
G1 X77.682 Y75.395 E-0.10624
G1 E-0.04800 F4200.00000
G1 Z0.400 F9000.000
G1 X101.526 Y104.498
G1 Z0.200
G1 E3.20000 F2400.00000
M204 S800
G1 F1200.000
G1 X101.806 Y104.350 E0.00992
G1 X102.107 Y104.254 E0.00992
G1 X102.432 Y104.211 E0.01028
G1 X102.858 Y104.246 E0.01340
G1 X103.191 Y104.349 E0.01093
G1 X103.474 Y104.498 E0.01001
G1 X103.723 Y104.693 E0.00992
G1 X103.934 Y104.929 E0.00992
G1 X104.100 Y105.198 E0.00992
G1 X104.221 Y105.504 E0.01032
G1 X104.290 Y105.943 E0.01393
G1 X104.268 Y106.275 E0.01044
G1 X104.189 Y106.596 E0.01035
G1 X103.988 Y106.996 E0.01405
G1 X103.779 Y107.251 E0.01033
G1 X103.539 Y107.457 E0.00992
G1 X103.266 Y107.617 E0.00992
G1 X102.957 Y107.731 E0.01033
G1 X102.500 Y107.792 E0.01446
G1 X102.043 Y107.731 E0.01446
G1 X101.734 Y107.617 E0.01033
G1 X101.461 Y107.457 E0.00992
G1 X101.221 Y107.251 E0.00992
G1 X101.020 Y107.007 E0.00992
G1 X100.860 Y106.719 E0.01033
G1 X100.733 Y106.289 E0.01405
G1 X100.711 Y105.960 E0.01033
G1 X100.746 Y105.646 E0.00992
G1 X100.839 Y105.330 E0.01033
G1 X101.058 Y104.939 E0.01405
G1 X101.277 Y104.693 E0.01033
G1 X101.479 Y104.535 E0.00804
M204 S1250
G1 X101.366 Y105.159 F9000.000
M204 S800
G1 F1200.000
G1 X101.536 Y104.970 E0.00797
G1 X101.732 Y104.816 E0.00782
G1 X101.953 Y104.699 E0.00782
G1 X102.190 Y104.623 E0.00782
G1 X102.442 Y104.590 E0.00795
G1 X102.786 Y104.619 E0.01084
G1 X103.046 Y104.699 E0.00853
G1 X103.268 Y104.816 E0.00785
G1 X103.464 Y104.970 E0.00782
G1 X103.630 Y105.156 E0.00782
G1 X103.761 Y105.368 E0.00782
G1 X103.855 Y105.604 E0.00796
G1 X103.911 Y105.960 E0.01131
G1 X103.894 Y106.217 E0.00807
G1 X103.833 Y106.464 E0.00797
G1 X103.670 Y106.790 E0.01142
G1 X103.509 Y106.987 E0.00797
G1 X103.319 Y107.149 E0.00782
G1 X103.104 Y107.275 E0.00782
G1 X102.866 Y107.363 E0.00797
G1 X102.500 Y107.412 E0.01157
G1 X102.134 Y107.363 E0.01157
G1 X101.896 Y107.275 E0.00797
G1 X101.681 Y107.149 E0.00782
G1 X101.491 Y106.987 E0.00782
G1 X101.333 Y106.794 E0.00782
G1 X101.210 Y106.572 E0.00797
G1 X101.106 Y106.222 E0.01142
G1 X101.089 Y105.969 E0.00797
G1 X101.117 Y105.721 E0.00782
G1 X101.189 Y105.477 E0.00797
G1 X101.337 Y105.211 E0.00954
M204 S1250
G1 X101.263 Y104.927 F9000.000
G1 E-2.24000 F4200.00000
G1 F7200.000
G1 X101.536 Y104.970 E-0.17341
G1 X101.732 Y104.816 E-0.13822
G1 X101.953 Y104.699 E-0.13822
G1 X102.190 Y104.623 E-0.13821
G1 X102.442 Y104.590 E-0.14051
G1 X102.772 Y104.617 E-0.18343
G1 E-0.04800 F4200.00000
G1 Z0.400 F9000.000
G1 X106.713 Y109.213
G1 Z0.200
G1 E3.20000 F2400.00000
M204 S800
G1 F1200.000
G1 X73.287 Y109.213 E1.04804
G1 X73.287 Y70.787 E1.20482
G1 X106.713 Y70.787 E1.04804
G1 X106.713 Y109.153 E1.20293
M204 S1250
G1 X107.090 Y109.590 F9000.000
M204 S800
G1 F1200.000
G1 X72.910 Y109.590 E1.07169
G1 X72.910 Y70.410 E1.22846
G1 X107.090 Y70.410 E1.07169
G1 X107.090 Y109.530 E1.22658
M204 S1250
G1 X106.706 Y109.478 F9000.000
G1 E-2.24000 F4200.00000
G1 F7200.000
G1 X105.444 Y109.533 E-0.91200
G1 E-0.04800 F4200.00000
G1 Z0.400 F9000.000
G1 X106.600 Y107.933
G1 Z0.200
G1 E3.20000 F2400.00000
M204 S800
G1 F1200.000
G1 X104.570 Y105.903 E0.09004
G1 X104.549 Y106.319 E0.01306
G1 X104.530 Y106.397 E0.00251
G1 X106.430 Y108.297 E0.08429
G1 X106.430 Y108.830 E0.01673
G1 X104.402 Y106.802 E0.08996
G1 X104.223 Y107.156 E0.01245
G1 X105.996 Y108.930 E0.07867
G1 X105.463 Y108.930 E0.01673
G1 X103.983 Y107.450 E0.06566
G1 X103.694 Y107.694 E0.01187
G1 X104.930 Y108.930 E0.05482
G1 X104.396 Y108.930 E0.01673
G1 X103.353 Y107.887 E0.04628
G1 X103.026 Y108.008 E0.01094
G1 X102.950 Y108.018 E0.00239
G1 X103.863 Y108.930 E0.04047
G1 X103.330 Y108.930 E0.01673
G1 X102.474 Y108.074 E0.03796
G1 X101.974 Y108.008 E0.01580
G1 X101.815 Y107.949 E0.00534
G1 X102.796 Y108.930 E0.04353
G1 X102.263 Y108.930 E0.01673
G1 X96.002 Y102.670 E0.27765
G1 X96.536 Y102.670 E0.01673
G1 X100.557 Y106.691 E0.17832
G1 X100.453 Y106.339 E0.01149
G1 X100.432 Y106.033 E0.00963
G1 X97.069 Y102.670 E0.14915
G1 X97.603 Y102.670 E0.01673
G1 X100.480 Y105.547 E0.12762
G1 X100.577 Y105.220 E0.01071
G1 X100.616 Y105.150 E0.00251
G1 X98.136 Y102.670 E0.10999
G1 X98.669 Y102.670 E0.01673
G1 X100.807 Y104.807 E0.09480
G1 X101.053 Y104.520 E0.01186
G1 X99.203 Y102.670 E0.08205
G1 X99.736 Y102.670 E0.01673
G1 X101.346 Y104.280 E0.07142
G1 X101.691 Y104.091 E0.01232
G1 X100.270 Y102.670 E0.06304
G1 X100.803 Y102.670 E0.01673
G1 X102.102 Y103.969 E0.05763
G1 X102.425 Y103.926 E0.01021
G1 X102.608 Y103.942 E0.00575
G1 X101.336 Y102.670 E0.05640
G1 X101.870 Y102.670 E0.01673
G1 X106.430 Y107.230 E0.20226
G1 X106.430 Y106.697 E0.01673
G1 X102.403 Y102.670 E0.17860
G1 X102.670 Y102.670 E0.00836
G1 X102.670 Y102.403 E0.00836
G1 X106.430 Y106.163 E0.16677
G1 X106.430 Y105.630 E0.01673
G1 X102.670 Y101.870 E0.16677
G1 X102.670 Y101.336 E0.01673
G1 X106.430 Y105.097 E0.16677
G1 X106.430 Y104.563 E0.01673
G1 X102.670 Y100.803 E0.16677
G1 X102.670 Y100.270 E0.01673
G1 X106.430 Y104.030 E0.16677
G1 X106.430 Y103.496 E0.01673
G1 X102.670 Y99.736 E0.16677
G1 X102.670 Y99.203 E0.01673
G1 X106.430 Y102.963 E0.16677
G1 X106.430 Y102.430 E0.01673
G1 X102.670 Y98.669 E0.16677
G1 X102.670 Y98.136 E0.01673
G1 X106.430 Y101.896 E0.16677
G1 X106.430 Y101.363 E0.01673
G1 X102.670 Y97.603 E0.16677
G1 X102.670 Y97.069 E0.01673
G1 X106.430 Y100.830 E0.16677
G1 X106.430 Y100.296 E0.01673
G1 X102.670 Y96.536 E0.16677
G1 X102.670 Y96.002 E0.01673
G1 X106.430 Y99.763 E0.16677
G1 X106.430 Y99.229 E0.01673
G1 X102.670 Y95.469 E0.16677
G1 X102.670 Y94.936 E0.01673
G1 X106.430 Y98.696 E0.16677
G1 X106.430 Y98.163 E0.01673
G1 X102.670 Y94.402 E0.16677
G1 X102.670 Y93.869 E0.01673
G1 X106.430 Y97.629 E0.16677
G1 X106.430 Y97.096 E0.01673
G1 X102.670 Y93.336 E0.16677
G1 X102.670 Y92.802 E0.01673
G1 X106.430 Y96.562 E0.16677
G1 X106.430 Y96.029 E0.01673
G1 X102.670 Y92.269 E0.16677
G1 X102.670 Y91.735 E0.01673
G1 X106.430 Y95.496 E0.16677
G1 X106.430 Y94.962 E0.01673
G1 X102.670 Y91.202 E0.16677
G1 X102.670 Y90.669 E0.01673
G1 X106.430 Y94.429 E0.16677
G1 X106.430 Y93.895 E0.01673
G1 X102.670 Y90.135 E0.16677
G1 X102.670 Y89.602 E0.01673
G1 X106.430 Y93.362 E0.16677
G1 X106.430 Y92.829 E0.01673
G1 X102.670 Y89.068 E0.16677
M73 P19 R5
G1 X102.670 Y88.535 E0.01673
G1 X106.430 Y92.295 E0.16677
G1 X106.430 Y91.762 E0.01673
G1 X102.670 Y88.002 E0.16677
G1 X102.670 Y87.468 E0.01673
G1 X106.430 Y91.228 E0.16677
G1 X106.430 Y90.695 E0.01673
G1 X102.670 Y86.935 E0.16677
G1 X102.670 Y86.401 E0.01673
G1 X106.430 Y90.162 E0.16677
G1 X106.430 Y89.628 E0.01673
