; generated by PrusaSlicer 2.2.0+win64 on 2020-09-25 at 13:09:32 UTC


;
;

;
;
; 

; external perimeters extrusion width = 0.45mm
; perimeters extrusion width = 0.45mm
; infill extrusion width = 0.45mm
; solid infill extrusion width = 0.45mm
; top infill extrusion width = 0.40mm
; first layer extrusion width = 0.42mm

M73 P0 R60
M201 X1250 Y1250 Z400 E5000 ; sets maximum accelerations, mm/sec^2
M203 X180 Y180 Z12 E80 ; sets maximum feedrates, mm/sec
M204 P1250 R1250 T1250 ; sets acceleration (P, T) and retract acceleration (R), mm/sec^2
M205 X8.00 Y8.00 Z2.00 E10.00 ; sets the jerk limits, mm/sec
M205 S0 T0 ; sets the minimum extruding and travel feed rate, mm/sec
M107
G90 ; use absolute coordinates
M83 ; extruder relative mode
M104 S170 ; set extruder temp for bed leveling
M140 S60 ; set bed temp
M109 R170 ; wait for bed leveling temp
M190 S60 ; wait for bed temp
G28 ; home all without mesh bed level
G29 ; mesh bed leveling 
M104 S215 ; set extruder temp
G92 E0.0
G1 Y-2.0 X179 F2400
G1 Z3 F720
M109 S215 ; wait for extruder temp

; intro line
G1 X170 F1000
G1 Z0.2 F720
G1 X110.0 E8.0 F900
M73 P0 R60
G1 X40.0 E10.0 F700
G92 E0.0

M221 S95 ; set flow
G21 ; set units to millimeters
G90 ; use absolute coordinates
M83 ; use relative distances for extrusion
M900 K0.2 ; Filament gcode LA 1.5
; ; Filament gcode LA 1.0
;BEFORE_LAYER_CHANGE
G92 E0.0
;0.35


G1 Z0.350 F7800.000
;AFTER_LAYER_CHANGE
;0.35
G1 E-3.20000 F4200.00000
G1 Z0.550 F7800.000
G1 X78.443 Y78.443
G1 Z0.350
G1 E3.20000 F2400.00000
G1 F1800.000
G1 X120.621 Y36.265 E2.99350
G1 X139.584 Y20.182 E1.24785
G1 X140.458 Y19.623 E0.05210
G1 X141.406 Y19.215 E0.05179
G1 X142.408 Y18.967 E0.05179
G1 X143.436 Y18.884 E0.05179
G1 X144.667 Y19.006 E0.06205
G1 X145.850 Y19.364 E0.06205
G1 X146.941 Y19.945 E0.06205
G1 X147.900 Y20.727 E0.06205
G1 X156.858 Y29.737 E0.63765
G1 X157.446 Y30.607 E0.05272
G1 X157.881 Y31.557 E0.05241
G1 X158.155 Y32.571 E0.05272
G1 X158.258 Y33.610 E0.05241
G1 X158.217 Y34.442 E0.04182
G1 X158.068 Y35.262 E0.04182
G1 X157.812 Y36.055 E0.04182
G1 X157.454 Y36.808 E0.04182
G1 X144.634 Y58.218 E1.25239
G1 X144.095 Y58.979 E0.04680
G1 X59.063 Y144.025 E6.03554
G1 X58.210 Y144.639 E0.05272
G1 X36.964 Y157.364 E1.24289
G1 X36.244 Y157.733 E0.04057
G1 X35.424 Y158.024 E0.04369
G1 X34.572 Y158.201 E0.04369
G1 X33.703 Y158.259 E0.04369
G1 X32.835 Y158.198 E0.04369
G1 X31.983 Y158.018 E0.04369
G1 X31.164 Y157.724 E0.04369
G1 X30.392 Y157.320 E0.04369
G1 X29.679 Y156.811 E0.04400
G1 X20.668 Y147.840 E0.63809
G1 X20.104 Y147.169 E0.04400
G1 X19.637 Y146.427 E0.04400
G1 X19.256 Y145.569 E0.04712
G1 X19.007 Y144.670 E0.04680
G1 X18.892 Y143.745 E0.04680
G1 X18.915 Y142.806 E0.04712
G1 X19.074 Y141.887 E0.04680
G1 X19.369 Y140.996 E0.04712
G1 X19.792 Y140.158 E0.04712
G1 X20.334 Y139.392 E0.04712
G1 X36.252 Y120.634 E1.23465
G1 X78.400 Y78.485 E2.99142
G1 E-2.24000 F4200.00000
G1 F6240.000
G1 X79.409 Y77.476 E-0.91200
G1 E-0.04800 F4200.00000
G1 Z0.550 F7800.000
G1 X44.352 Y136.177
G1 Z0.350
G1 E3.20000 F2400.00000
G1 F1800.000
G1 X44.029 Y136.616 E0.02735
G1 X43.729 Y136.894 E0.02053
G1 X43.268 Y137.183 E0.02729
G1 X42.766 Y137.357 E0.02667
G1 X42.349 Y137.418 E0.02114
G1 X41.802 Y137.392 E0.02746
G1 X41.262 Y137.240 E0.02816
G1 X40.795 Y136.986 E0.02667
G1 X40.469 Y136.719 E0.02114
G1 X40.132 Y136.311 E0.02660
G1 X39.943 Y135.967 E0.01967
G1 X39.809 Y135.599 E0.01967
G1 X39.724 Y135.078 E0.02649
G1 X39.736 Y134.669 E0.02053
G1 X39.854 Y134.137 E0.02735
G1 X40.088 Y133.645 E0.02735
G1 X40.320 Y133.329 E0.01967
G1 X40.597 Y133.052 E0.01967
G1 X41.048 Y132.746 E0.02735
G1 X41.572 Y132.544 E0.02816
G1 X42.098 Y132.467 E0.02667
G1 X42.518 Y132.485 E0.02114
G1 X43.034 Y132.609 E0.02660
G1 X43.406 Y132.778 E0.02052
G1 X43.836 Y133.082 E0.02643
G1 X44.121 Y133.377 E0.02058
G1 X44.409 Y133.820 E0.02649
G1 X44.564 Y134.198 E0.02053
G1 X44.671 Y134.733 E0.02735
G1 X44.656 Y135.277 E0.02735
G1 X44.568 Y135.677 E0.02053
G1 X44.376 Y136.122 E0.02434
G1 X44.051 Y136.005 F7800.000
G1 F1800.000
G1 X43.771 Y136.386 E0.02373
G1 X43.519 Y136.619 E0.01724
G1 X43.118 Y136.869 E0.02370
G1 X42.683 Y137.020 E0.02310
G1 X42.332 Y137.072 E0.01784
G1 X41.858 Y137.050 E0.02380
G1 X41.393 Y136.919 E0.02423
G1 X40.989 Y136.699 E0.02310
G1 X40.714 Y136.474 E0.01784
G1 X40.418 Y136.116 E0.02327
G1 X40.258 Y135.824 E0.01671
G1 X40.144 Y135.511 E0.01671
G1 X40.070 Y135.055 E0.02320
G1 X40.080 Y134.712 E0.01724
G1 X40.182 Y134.250 E0.02373
G1 X40.385 Y133.823 E0.02373
G1 X40.583 Y133.555 E0.01671
G1 X40.818 Y133.319 E0.01671
G1 X41.209 Y133.054 E0.02373
G1 X41.660 Y132.880 E0.02423
G1 X42.115 Y132.813 E0.02310
G1 X42.470 Y132.828 E0.01784
G1 X42.921 Y132.937 E0.02327
G1 X43.234 Y133.079 E0.01724
G1 X43.611 Y133.345 E0.02315
G1 X43.850 Y133.593 E0.01729
G1 X44.102 Y133.981 E0.02321
G1 X44.232 Y134.299 E0.01724
G1 X44.325 Y134.762 E0.02373
G1 X44.312 Y135.235 E0.02373
G1 X44.238 Y135.570 E0.01724
G1 X44.074 Y135.950 E0.02072
G1 X43.750 Y135.832 F7800.000
G1 F1800.000
G1 X43.512 Y136.155 E0.02012
G1 X43.308 Y136.344 E0.01396
G1 X42.968 Y136.556 E0.02010
G1 X42.601 Y136.684 E0.01953
G1 X42.314 Y136.726 E0.01453
G1 X41.913 Y136.707 E0.02014
G1 X41.524 Y136.598 E0.02030
G1 X41.182 Y136.411 E0.01953
G1 X40.958 Y136.228 E0.01453
G1 X40.705 Y135.922 E0.01994
G1 X40.573 Y135.681 E0.01376
G1 X40.479 Y135.424 E0.01376
G1 X40.416 Y135.032 E0.01991
G1 X40.424 Y134.754 E0.01396
G1 X40.510 Y134.363 E0.02012
G1 X40.683 Y134.001 E0.02012
G1 X40.845 Y133.780 E0.01376
G1 X41.039 Y133.586 E0.01376
G1 X41.371 Y133.361 E0.02012
G1 X41.748 Y133.215 E0.02030
G1 X42.133 Y133.159 E0.01953
G1 X42.422 Y133.172 E0.01453
G1 X42.808 Y133.265 E0.01994
G1 X43.062 Y133.380 E0.01396
G1 X43.385 Y133.608 E0.01987
G1 X43.579 Y133.809 E0.01400
G1 X43.795 Y134.141 E0.01992
G1 X43.900 Y134.399 E0.01396
G1 X43.980 Y134.792 E0.02012
G1 X43.968 Y135.192 E0.02012
G1 X43.908 Y135.464 E0.01396
G1 X43.773 Y135.777 E0.01710
G1 X43.946 Y136.180 F7800.000
G1 E-2.24000 F4200.00000
G1 F6240.000
G1 X43.512 Y136.155 E-0.29381
G1 X43.308 Y136.344 E-0.17783
G1 X42.968 Y136.556 E-0.25613
G1 X42.696 Y136.651 E-0.18422
G1 E-0.04800 F4200.00000
G1 Z0.550 F7800.000
G1 X35.636 Y141.863
G1 Z0.350
G1 E3.20000 F2400.00000
G1 F1800.000
G1 X35.924 Y142.305 E0.02650
G1 X36.078 Y142.684 E0.02053
G1 X36.183 Y143.201 E0.02649
G1 X36.187 Y143.610 E0.02053
G1 X36.089 Y144.146 E0.02735
G1 X35.867 Y144.663 E0.02821
G1 X35.534 Y145.116 E0.02821
G1 X35.120 Y145.471 E0.02735
G1 X34.780 Y145.665 E0.01967
G1 X34.415 Y145.807 E0.01967
G1 X33.880 Y145.904 E0.02729
G1 X33.349 Y145.880 E0.02667
G1 X32.939 Y145.784 E0.02114
G1 X32.441 Y145.558 E0.02741
G1 X32.018 Y145.236 E0.02667
G1 X31.736 Y144.923 E0.02114
G1 X31.464 Y144.468 E0.02660
G1 X31.324 Y144.084 E0.02053
G1 X31.239 Y143.563 E0.02649
G1 X31.251 Y143.154 E0.02053
G1 X31.368 Y142.622 E0.02735
G1 X31.603 Y142.130 E0.02735
G1 X31.844 Y141.802 E0.02047
G1 X32.221 Y141.451 E0.02581
G1 X32.577 Y141.226 E0.02114
G1 X33.086 Y141.029 E0.02741
G1 X33.612 Y140.953 E0.02667
G1 X34.033 Y140.970 E0.02114
G1 X34.548 Y141.095 E0.02660
G1 X34.921 Y141.264 E0.02052
G1 X35.351 Y141.567 E0.02643
G1 X35.594 Y141.819 E0.01757
G1 X35.365 Y142.078 F7800.000
G1 F1800.000
G1 X35.617 Y142.466 E0.02321
G1 X35.747 Y142.784 E0.01724
G1 X35.838 Y143.237 E0.02320
G1 X35.841 Y143.581 E0.01724
G1 X35.757 Y144.046 E0.02373
G1 X35.565 Y144.490 E0.02427
G1 X35.279 Y144.880 E0.02427
G1 X34.920 Y145.188 E0.02373
G1 X34.631 Y145.353 E0.01671
G1 X34.321 Y145.473 E0.01671
G1 X33.856 Y145.558 E0.02370
G1 X33.396 Y145.537 E0.02310
G1 X33.050 Y145.456 E0.01784
G1 X32.619 Y145.260 E0.02377
G1 X32.253 Y144.981 E0.02310
G1 X32.015 Y144.717 E0.01784
G1 X31.777 Y144.319 E0.02327
G1 X31.659 Y143.997 E0.01724
G1 X31.585 Y143.540 E0.02320
G1 X31.595 Y143.197 E0.01724
G1 X31.697 Y142.735 E0.02373
G1 X31.900 Y142.308 E0.02373
G1 X32.103 Y142.032 E0.01721
G1 X32.432 Y141.726 E0.02257
G1 X32.733 Y141.536 E0.01784
G1 X33.174 Y141.365 E0.02377
G1 X33.630 Y141.299 E0.02310
G1 X33.985 Y141.314 E0.01784
G1 X34.436 Y141.422 E0.02327
G1 X34.749 Y141.564 E0.01724
G1 X35.125 Y141.830 E0.02315
G1 X35.323 Y142.035 E0.01428
G1 X35.093 Y142.294 F7800.000
G1 F1800.000
G1 X35.310 Y142.627 E0.01992
G1 X35.415 Y142.884 E0.01396
G1 X35.494 Y143.273 E0.01991
G1 X35.496 Y143.551 E0.01396
G1 X35.424 Y143.946 E0.02012
G1 X35.264 Y144.317 E0.02032
G1 X35.024 Y144.644 E0.02032
G1 X34.720 Y144.905 E0.02012
G1 X34.483 Y145.041 E0.01376
G1 X34.227 Y145.140 E0.01376
G1 X33.833 Y145.212 E0.02010
G1 X33.444 Y145.194 E0.01953
G1 X33.162 Y145.128 E0.01453
G1 X32.797 Y144.962 E0.02013
G1 X32.487 Y144.726 E0.01953
G1 X32.293 Y144.511 E0.01453
G1 X32.089 Y144.170 E0.01994
G1 X31.994 Y143.909 E0.01396
G1 X31.930 Y143.517 E0.01991
G1 X31.938 Y143.239 E0.01396
G1 X32.025 Y142.848 E0.02012
G1 X32.197 Y142.486 E0.02012
G1 X32.362 Y142.262 E0.01394
G1 X32.644 Y142.000 E0.01933
G1 X32.888 Y141.845 E0.01453
G1 X33.263 Y141.701 E0.02013
G1 X33.648 Y141.645 E0.01953
G1 X33.937 Y141.657 E0.01453
G1 X34.323 Y141.750 E0.01994
G1 X34.576 Y141.865 E0.01396
G1 X34.900 Y142.093 E0.01987
G1 X35.052 Y142.251 E0.01099
G1 X35.486 Y142.233 F7800.000
G1 E-2.24000 F4200.00000
G1 F6240.000
G1 X35.310 Y142.627 E-0.29153
G1 X35.415 Y142.884 E-0.17783
G1 X35.494 Y143.273 E-0.25373
G1 X35.496 Y143.551 E-0.17783
G1 X35.493 Y143.568 E-0.01108
G1 E-0.04800 F4200.00000
G1 Z0.550 F7800.000
G1 X133.670 Y44.328
G1 Z0.350
G1 E3.20000 F2400.00000
G1 F1800.000
G1 X133.240 Y44.000 E0.02718
G1 X132.965 Y43.692 E0.02068
G1 X132.693 Y43.239 E0.02652
G1 X132.553 Y42.855 E0.02053
G1 X132.468 Y42.334 E0.02648
G1 X132.480 Y41.925 E0.02053
G1 X132.598 Y41.393 E0.02735
G1 X132.832 Y40.901 E0.02735
G1 X133.074 Y40.572 E0.02047
G1 X133.450 Y40.222 E0.02581
G1 X133.806 Y39.997 E0.02114
G1 X134.316 Y39.800 E0.02741
G1 X134.842 Y39.723 E0.02667
G1 X135.263 Y39.741 E0.02114
G1 X135.794 Y39.869 E0.02741
G1 X136.269 Y40.106 E0.02667
G1 X136.605 Y40.360 E0.02114
G1 X136.958 Y40.755 E0.02660
G1 X137.168 Y41.106 E0.02053
G1 X137.349 Y41.602 E0.02649
G1 X137.412 Y41.989 E0.01967
G1 X137.416 Y42.381 E0.01967
G1 X137.318 Y42.917 E0.02735
G1 X137.103 Y43.417 E0.02735
G1 X136.883 Y43.742 E0.01967
G1 X136.616 Y44.029 E0.01967
G1 X136.177 Y44.352 E0.02735
G1 X135.661 Y44.574 E0.02821
G1 X135.125 Y44.672 E0.02735
G1 X134.716 Y44.668 E0.02053
G1 X134.182 Y44.560 E0.02735
G1 X133.725 Y44.353 E0.02519
G1 X133.848 Y44.030 F7800.000
G1 F1800.000
G1 X133.475 Y43.745 E0.02357
G1 X133.244 Y43.487 E0.01739
G1 X133.006 Y43.090 E0.02322
G1 X132.888 Y42.767 E0.01724
G1 X132.814 Y42.311 E0.02320
G1 X132.824 Y41.968 E0.01724
G1 X132.926 Y41.506 E0.02373
G1 X133.129 Y41.079 E0.02373
G1 X133.333 Y40.803 E0.01721
G1 X133.662 Y40.496 E0.02257
G1 X133.962 Y40.306 E0.01784
G1 X134.404 Y40.135 E0.02377
G1 X134.859 Y40.069 E0.02310
G1 X135.214 Y40.084 E0.01784
G1 X135.675 Y40.195 E0.02377
G1 X136.087 Y40.400 E0.02310
G1 X136.370 Y40.615 E0.01784
G1 X136.679 Y40.961 E0.02327
G1 X136.856 Y41.255 E0.01724
G1 X137.014 Y41.690 E0.02320
G1 X137.068 Y42.018 E0.01671
G1 X137.071 Y42.351 E0.01671
G1 X136.986 Y42.817 E0.02373
G1 X136.799 Y43.251 E0.02373
G1 X136.612 Y43.526 E0.01671
G1 X136.386 Y43.771 E0.01671
G1 X136.005 Y44.051 E0.02373
G1 X135.561 Y44.242 E0.02427
G1 X135.095 Y44.327 E0.02373
G1 X134.752 Y44.323 E0.01724
G1 X134.288 Y44.230 E0.02373
G1 X133.903 Y44.055 E0.02125
G1 X134.026 Y43.732 F7800.000
G1 F1800.000
G1 X133.710 Y43.491 E0.01997
G1 X133.523 Y43.282 E0.01410
G1 X133.319 Y42.941 E0.01992
G1 X133.223 Y42.680 E0.01396
G1 X133.160 Y42.288 E0.01991
G1 X133.168 Y42.010 E0.01396
G1 X133.254 Y41.619 E0.02012
G1 X133.427 Y41.257 E0.02012
G1 X133.591 Y41.033 E0.01394
G1 X133.873 Y40.770 E0.01933
G1 X134.118 Y40.616 E0.01453
G1 X134.492 Y40.471 E0.02013
G1 X134.877 Y40.415 E0.01953
G1 X135.166 Y40.427 E0.01453
G1 X135.556 Y40.521 E0.02013
G1 X135.905 Y40.695 E0.01953
G1 X136.136 Y40.869 E0.01453
G1 X136.400 Y41.166 E0.01994
G1 X136.543 Y41.404 E0.01396
G1 X136.679 Y41.777 E0.01991
G1 X136.723 Y42.048 E0.01376
G1 X136.726 Y42.322 E0.01376
G1 X136.654 Y42.716 E0.02012
G1 X136.495 Y43.084 E0.02012
G1 X136.341 Y43.311 E0.01376
G1 X136.155 Y43.512 E0.01376
G1 X135.832 Y43.750 E0.02012
G1 X135.460 Y43.910 E0.02032
G1 X135.066 Y43.981 E0.02012
G1 X134.788 Y43.979 E0.01396
G1 X134.395 Y43.900 E0.02012
G1 X134.081 Y43.757 E0.01730
G1 X133.679 Y43.926 F7800.000
G1 E-2.24000 F4200.00000
G1 F6240.000
G1 X133.710 Y43.491 E-0.29192
G1 X133.523 Y43.282 E-0.17968
G1 X133.319 Y42.941 E-0.25382
G1 X133.223 Y42.680 E-0.17784
G1 X133.221 Y42.666 E-0.00875
G1 E-0.04800 F4200.00000
G1 Z0.550 F7800.000
G1 X142.155 Y35.843
G1 Z0.350
G1 E3.20000 F2400.00000
G1 F1800.000
G1 X141.725 Y35.514 E0.02718
G1 X141.450 Y35.207 E0.02068
G1 X141.179 Y34.754 E0.02652
G1 X141.038 Y34.370 E0.02053
G1 X140.951 Y33.832 E0.02735
G1 X140.987 Y33.288 E0.02735
G1 X141.090 Y32.892 E0.02053
G1 X141.318 Y32.416 E0.02649
G1 X141.550 Y32.100 E0.01967
G1 X141.827 Y31.823 E0.01967
G1 X142.278 Y31.517 E0.02735
G1 X142.801 Y31.314 E0.02816
G1 X143.327 Y31.238 E0.02667
G1 X143.748 Y31.256 E0.02114
G1 X144.263 Y31.380 E0.02660
G1 X144.636 Y31.549 E0.02053
G1 X145.081 Y31.863 E0.02735
G1 X145.444 Y32.270 E0.02735
G1 X145.645 Y32.606 E0.01967
G1 X145.793 Y32.969 E0.01967
G1 X145.901 Y33.503 E0.02735
G1 X145.885 Y34.048 E0.02735
G1 X145.797 Y34.447 E0.02053
G1 X145.581 Y34.948 E0.02735
G1 X145.248 Y35.401 E0.02821
G1 X144.835 Y35.756 E0.02735
G1 X144.495 Y35.951 E0.01967
G1 X144.129 Y36.092 E0.01967
G1 X143.610 Y36.187 E0.02649
G1 X143.201 Y36.183 E0.02053
G1 X142.667 Y36.075 E0.02735
G1 X142.210 Y35.868 E0.02519
G1 X142.333 Y35.545 F7800.000
G1 F1800.000
G1 X141.960 Y35.260 E0.02357
G1 X141.729 Y35.002 E0.01739
G1 X141.491 Y34.605 E0.02322
G1 X141.373 Y34.282 E0.01724
G1 X141.298 Y33.815 E0.02373
G1 X141.329 Y33.343 E0.02373
G1 X141.416 Y33.011 E0.01724
G1 X141.615 Y32.594 E0.02320
G1 X141.812 Y32.325 E0.01671
G1 X142.047 Y32.090 E0.01671
G1 X142.439 Y31.824 E0.02373
G1 X142.889 Y31.650 E0.02423
G1 X143.345 Y31.584 E0.02310
G1 X143.700 Y31.599 E0.01784
G1 X144.151 Y31.708 E0.02327
G1 X144.463 Y31.850 E0.01724
G1 X144.850 Y32.122 E0.02373
G1 X145.165 Y32.475 E0.02373
G1 X145.336 Y32.761 E0.01671
G1 X145.462 Y33.069 E0.01671
G1 X145.555 Y33.533 E0.02373
G1 X145.541 Y34.006 E0.02373
G1 X145.467 Y34.341 E0.01724
G1 X145.280 Y34.775 E0.02373
G1 X144.994 Y35.165 E0.02427
G1 X144.635 Y35.473 E0.02373
G1 X144.346 Y35.639 E0.01671
G1 X144.035 Y35.759 E0.01671
G1 X143.581 Y35.841 E0.02320
G1 X143.237 Y35.838 E0.01724
G1 X142.773 Y35.745 E0.02373
G1 X142.388 Y35.570 E0.02125
G1 X142.512 Y35.247 F7800.000
G1 F1800.000
G1 X142.195 Y35.006 E0.01997
G1 X142.008 Y34.796 E0.01410
G1 X141.804 Y34.456 E0.01992
G1 X141.709 Y34.194 E0.01396
G1 X141.644 Y33.799 E0.02012
G1 X141.671 Y33.399 E0.02012
G1 X141.741 Y33.130 E0.01396
G1 X141.912 Y32.772 E0.01991
G1 X142.074 Y32.551 E0.01376
G1 X142.268 Y32.357 E0.01376
G1 X142.600 Y32.132 E0.02012
G1 X142.977 Y31.986 E0.02030
G1 X143.362 Y31.930 E0.01953
G1 X143.652 Y31.942 E0.01453
G1 X144.038 Y32.035 E0.01994
G1 X144.291 Y32.150 E0.01396
G1 X144.619 Y32.381 E0.02012
G1 X144.885 Y32.680 E0.02012
G1 X145.026 Y32.916 E0.01376
G1 X145.130 Y33.169 E0.01376
G1 X145.209 Y33.562 E0.02012
G1 X145.198 Y33.963 E0.02012
G1 X145.138 Y34.235 E0.01396
G1 X144.979 Y34.603 E0.02012
G1 X144.739 Y34.929 E0.02032
G1 X144.435 Y35.190 E0.02012
G1 X144.197 Y35.326 E0.01376
G1 X143.942 Y35.425 E0.01376
G1 X143.551 Y35.496 E0.01991
G1 X143.273 Y35.494 E0.01396
G1 X142.880 Y35.414 E0.02012
G1 X142.566 Y35.272 E0.01730
G1 X142.164 Y35.441 F7800.000
G1 E-2.24000 F4200.00000
G1 F6240.000
G1 X142.195 Y35.006 E-0.29193
G1 X142.008 Y34.796 E-0.17967
G1 X141.804 Y34.456 E-0.25382
G1 X141.709 Y34.194 E-0.17784
G1 X141.706 Y34.181 E-0.00875
G1 E-0.04800 F4200.00000
G1 Z0.550 F7800.000
G1 X133.388 Y50.685
G1 Z0.350
G1 E3.20000 F2400.00000
G1 F1800.000
G1 X137.645 Y54.942 E0.30212
G1 X54.942 Y137.645 E5.86977
G1 X50.685 Y133.388 E0.30212
G1 X33.714 Y150.359 E1.20446
G1 X26.784 Y143.429 E0.49184
G1 X43.755 Y126.458 E1.20446
