; generated by PrusaSlicer 2.2.0+win64 on 2020-09-26 at 14:52:43 UTC


;
;

;
;
; 

; external perimeters extrusion width = 0.45mm
; perimeters extrusion width = 0.45mm
; infill extrusion width = 0.45mm
; solid infill extrusion width = 0.45mm
; top infill extrusion width = 0.40mm
; first layer extrusion width = 0.42mm

M73 P0 R61
M201 X1250 Y1250 Z400 E5000 ; sets maximum accelerations, mm/sec^2
M203 X180 Y180 Z12 E80 ; sets maximum feedrates, mm/sec
M204 P1250 R1250 T1250 ; sets acceleration (P, T) and retract acceleration (R), mm/sec^2
M205 X8.00 Y8.00 Z2.00 E10.00 ; sets the jerk limits, mm/sec
M205 S0 T0 ; sets the minimum extruding and travel feed rate, mm/sec
M107
G90 ; use absolute coordinates
M83 ; extruder relative mode
M104 S170 ; set extruder temp for bed leveling
M140 S60 ; set bed temp
M109 R170 ; wait for bed leveling temp
M190 S60 ; wait for bed temp
G28 ; home all without mesh bed level
G29 ; mesh bed leveling 
M104 S215 ; set extruder temp
G92 E0.0
G1 Y-2.0 X179 F2400
G1 Z3 F720
M109 S215 ; wait for extruder temp

; intro line
G1 X170 F1000
G1 Z0.2 F720
G1 X110.0 E8.0 F900
M73 P0 R61
G1 X40.0 E10.0 F700
G92 E0.0

M221 S95 ; set flow
G21 ; set units to millimeters
G90 ; use absolute coordinates
M83 ; use relative distances for extrusion
M900 K0.2 ; Filament gcode LA 1.5
; ; Filament gcode LA 1.0
;BEFORE_LAYER_CHANGE
G92 E0.0
;0.2


G1 Z0.200 F9000.000
;AFTER_LAYER_CHANGE
;0.2
G1 E-3.20000 F4200.00000
G1 Z0.400 F9000.000
G1 X94.203 Y5.156
G1 Z0.200
G1 E3.20000 F2400.00000
M204 S800
G1 F1200.000
G1 X94.855 Y5.481 E0.02284
G1 X95.378 Y5.989 E0.02284
G1 X95.722 Y6.631 E0.02284
G1 X102.288 Y29.775 E0.75433
G1 X102.373 Y30.274 E0.01585
G1 X102.372 Y149.736 E3.74565
G1 X102.288 Y150.223 E0.01550
G1 X95.764 Y173.239 E0.75009
G1 X95.340 Y174.060 E0.02896
G1 X94.997 Y174.410 E0.01538
G1 X94.586 Y174.684 E0.01550
G1 X94.130 Y174.866 E0.01538
G1 X93.643 Y174.951 E0.01550
G1 X82.324 Y174.952 E0.35491
G1 X81.560 Y174.772 E0.02461
G1 X80.899 Y174.355 E0.02449
G1 X80.409 Y173.747 E0.02449
G1 X80.143 Y173.013 E0.02449
G1 X77.624 Y149.656 E0.73657
G1 X77.628 Y30.264 E3.74346
G1 X80.119 Y7.142 E0.72915
G1 X80.239 Y6.628 E0.01657
G1 X80.467 Y6.156 E0.01645
G1 X80.810 Y5.729 E0.01716
G1 X81.241 Y5.392 E0.01716
G1 X81.737 Y5.162 E0.01716
G1 X82.277 Y5.052 E0.01728
G1 X93.484 Y5.043 E0.35137
G1 X94.144 Y5.146 E0.02096
M204 S1250
G1 E-2.24000 F4200.00000
G1 F7200.000
G1 X94.855 Y5.481 E-0.43549
G1 X95.378 Y5.989 E-0.40368
G1 X95.440 Y6.104 E-0.07283
G1 E-0.04800 F4200.00000
G1 Z0.400 F9000.000
G1 X88.196 Y153.426
G1 Z0.200
G1 E3.20000 F2400.00000
M204 S800
G1 F1200.000
G1 X88.654 Y153.523 E0.01469
G1 X88.976 Y153.658 E0.01096
G1 X89.376 Y153.924 E0.01504
G1 X89.705 Y154.272 E0.01504
G1 X89.893 Y154.567 E0.01096
G1 X90.066 Y155.002 E0.01469
G1 X90.132 Y155.345 E0.01094
G1 X90.133 Y155.802 E0.01434
G1 X90.067 Y156.156 E0.01129
G1 X89.889 Y156.603 E0.01506
G1 X89.623 Y156.988 E0.01469
G1 X89.368 Y157.242 E0.01129
G1 X88.967 Y157.508 E0.01508
G1 X88.518 Y157.677 E0.01504
G1 X88.173 Y157.736 E0.01096
G1 X87.705 Y157.727 E0.01469
G1 X87.363 Y157.655 E0.01097
G1 X86.921 Y157.469 E0.01504
G1 X86.532 Y157.189 E0.01504
G1 X86.291 Y156.935 E0.01096
G1 X86.040 Y156.540 E0.01469
G1 X85.910 Y156.215 E0.01096
G1 X85.822 Y155.755 E0.01469
G1 X85.822 Y155.405 E0.01096
G1 X85.912 Y154.935 E0.01502
G1 X86.101 Y154.506 E0.01469
G1 X86.305 Y154.209 E0.01129
G1 X86.640 Y153.880 E0.01473
G1 X86.931 Y153.686 E0.01096
G1 X87.373 Y153.501 E0.01504
G1 X87.845 Y153.419 E0.01500
G1 X88.136 Y153.425 E0.00911
M204 S1250
G1 X88.129 Y153.802 F9000.000
M204 S800
G1 F1200.000
G1 X88.541 Y153.884 E0.01319
G1 X88.797 Y153.992 E0.00872
G1 X89.131 Y154.214 E0.01257
G1 X89.406 Y154.505 E0.01257
G1 X89.556 Y154.740 E0.00872
G1 X89.703 Y155.108 E0.01244
G1 X89.755 Y155.381 E0.00871
G1 X89.756 Y155.768 E0.01212
G1 X89.703 Y156.051 E0.00904
G1 X89.555 Y156.424 E0.01258
G1 X89.333 Y156.745 E0.01224
G1 X89.128 Y156.948 E0.00903
G1 X88.794 Y157.170 E0.01258
G1 X88.419 Y157.311 E0.01257
G1 X88.145 Y157.358 E0.00872
G1 X87.748 Y157.351 E0.01244
G1 X87.476 Y157.293 E0.00872
G1 X87.106 Y157.138 E0.01257
G1 X86.781 Y156.904 E0.01257
G1 X86.590 Y156.702 E0.00872
G1 X86.377 Y156.367 E0.01244
G1 X86.274 Y156.109 E0.00872
G1 X86.199 Y155.719 E0.01244
G1 X86.199 Y155.441 E0.00872
G1 X86.275 Y155.047 E0.01256
G1 X86.432 Y154.690 E0.01224
G1 X86.595 Y154.452 E0.00903
G1 X86.878 Y154.174 E0.01246
G1 X87.110 Y154.020 E0.00872
G1 X87.480 Y153.865 E0.01257
G1 X87.874 Y153.797 E0.01254
G1 X88.069 Y153.801 E0.00611
M204 S1250
G1 X88.362 Y153.477 F9000.000
G1 E-2.24000 F4200.00000
G1 F7200.000
G1 X88.541 Y153.884 E-0.26586
G1 X88.797 Y153.992 E-0.15411
G1 X89.131 Y154.214 E-0.22213
G1 X89.406 Y154.505 E-0.22213
G1 X89.453 Y154.578 E-0.04777
G1 E-0.04800 F4200.00000
G1 Z0.400 F9000.000
G1 X87.373 Y165.501
G1 Z0.200
G1 E3.20000 F2400.00000
M204 S800
G1 F1200.000
G1 X87.845 Y165.419 E0.01500
G1 X88.196 Y165.426 E0.01100
G1 X88.654 Y165.523 E0.01469
G1 X88.976 Y165.658 E0.01096
G1 X89.376 Y165.924 E0.01504
G1 X89.705 Y166.272 E0.01504
G1 X89.893 Y166.567 E0.01096
G1 X90.066 Y167.002 E0.01469
G1 X90.132 Y167.345 E0.01094
G1 X90.133 Y167.802 E0.01434
G1 X90.067 Y168.156 E0.01129
G1 X89.889 Y168.603 E0.01506
G1 X89.623 Y168.988 E0.01469
G1 X89.368 Y169.242 E0.01129
G1 X88.967 Y169.508 E0.01508
G1 X88.518 Y169.677 E0.01504
G1 X88.173 Y169.736 E0.01097
G1 X87.705 Y169.727 E0.01468
G1 X87.363 Y169.655 E0.01096
G1 X86.921 Y169.469 E0.01504
G1 X86.532 Y169.189 E0.01504
G1 X86.291 Y168.935 E0.01096
G1 X86.040 Y168.540 E0.01469
G1 X85.910 Y168.215 E0.01096
G1 X85.820 Y167.744 E0.01504
G1 X85.838 Y167.265 E0.01504
G1 X85.917 Y166.924 E0.01094
G1 X86.101 Y166.506 E0.01434
G1 X86.298 Y166.218 E0.01094
G1 X86.532 Y165.971 E0.01066
G1 X86.921 Y165.691 E0.01504
G1 X87.318 Y165.524 E0.01351
M204 S1250
G1 X87.464 Y165.872 F9000.000
M204 S800
G1 F1200.000
G1 X87.874 Y165.797 E0.01306
G1 X88.153 Y165.802 E0.00875
G1 X88.541 Y165.884 E0.01244
G1 X88.797 Y165.992 E0.00872
G1 X89.131 Y166.214 E0.01257
G1 X89.406 Y166.505 E0.01257
G1 X89.556 Y166.740 E0.00872
G1 X89.703 Y167.108 E0.01244
G1 X89.755 Y167.381 E0.00871
G1 X89.756 Y167.768 E0.01212
G1 X89.703 Y168.051 E0.00904
G1 X89.555 Y168.424 E0.01258
G1 X89.333 Y168.745 E0.01224
G1 X89.128 Y168.948 E0.00903
G1 X88.794 Y169.170 E0.01258
G1 X88.419 Y169.311 E0.01257
G1 X88.145 Y169.358 E0.00872
G1 X87.748 Y169.351 E0.01244
G1 X87.476 Y169.293 E0.00872
G1 X87.106 Y169.138 E0.01257
G1 X86.781 Y168.904 E0.01257
G1 X86.590 Y168.702 E0.00872
G1 X86.377 Y168.367 E0.01244
G1 X86.274 Y168.109 E0.00872
G1 X86.199 Y167.715 E0.01257
G1 X86.214 Y167.315 E0.01257
G1 X86.276 Y167.044 E0.00871
G1 X86.432 Y166.690 E0.01212
G1 X86.593 Y166.456 E0.00891
G1 X86.781 Y166.256 E0.00861
G1 X87.106 Y166.022 E0.01257
G1 X87.409 Y165.895 E0.01028
M204 S1250
G1 X87.556 Y165.482 F9000.000
G1 E-2.24000 F4200.00000
G1 F7200.000
G1 X87.874 Y165.797 E-0.26334
G1 X88.153 Y165.802 E-0.15465
G1 X88.541 Y165.884 E-0.21994
G1 X88.797 Y165.992 E-0.15411
G1 X88.978 Y166.112 E-0.11995
G1 E-0.04800 F4200.00000
G1 Z0.400 F9000.000
G1 X87.973 Y26.585
G1 Z0.200
G1 E3.20000 F2400.00000
M204 S800
G1 F1200.000
G1 X87.530 Y26.538 E0.01397
G1 X87.067 Y26.384 E0.01530
G1 X86.657 Y26.134 E0.01504
G1 X86.407 Y25.906 E0.01061
G1 X86.194 Y25.643 E0.01061
G1 X85.973 Y25.230 E0.01469
G1 X85.868 Y24.897 E0.01096
G1 X85.815 Y24.431 E0.01469
G1 X85.842 Y24.082 E0.01096
G1 X85.964 Y23.630 E0.01469
G1 X86.118 Y23.316 E0.01096
G1 X86.405 Y22.933 E0.01502
G1 X86.763 Y22.630 E0.01469
G1 X87.076 Y22.453 E0.01129
G1 X87.532 Y22.301 E0.01506
G1 X87.998 Y22.256 E0.01469
G1 X88.357 Y22.288 E0.01129
G1 X88.808 Y22.420 E0.01473
G1 X89.119 Y22.579 E0.01096
G1 X89.497 Y22.874 E0.01504
G1 X89.799 Y23.247 E0.01504
G1 X89.964 Y23.555 E0.01096
G1 X90.107 Y24.013 E0.01504
G1 X90.144 Y24.502 E0.01539
G1 X90.072 Y24.976 E0.01504
G1 X89.955 Y25.306 E0.01096
G1 X89.719 Y25.710 E0.01469
G1 X89.496 Y25.965 E0.01061
G1 X89.237 Y26.183 E0.01061
G1 X88.818 Y26.417 E0.01504
G1 X88.355 Y26.552 E0.01513
G1 X88.033 Y26.580 E0.01014
M204 S1250
G1 X87.610 Y26.168 F9000.000
M204 S800
G1 F1200.000
G1 X87.227 Y26.040 E0.01266
G1 X86.885 Y25.831 E0.01257
G1 X86.682 Y25.646 E0.00859
G1 X86.509 Y25.433 E0.00859
G1 X86.322 Y25.084 E0.01244
G1 X86.239 Y24.818 E0.00872
G1 X86.194 Y24.424 E0.01244
G1 X86.215 Y24.147 E0.00872
G1 X86.319 Y23.764 E0.01244
G1 X86.441 Y23.514 E0.00872
G1 X86.681 Y23.193 E0.01256
G1 X86.979 Y22.941 E0.01224
G1 X87.230 Y22.799 E0.00903
G1 X87.611 Y22.672 E0.01258
G1 X87.999 Y22.634 E0.01224
G1 X88.286 Y22.660 E0.00904
G1 X88.668 Y22.772 E0.01246
G1 X88.915 Y22.898 E0.00872
G1 X89.231 Y23.145 E0.01257
G1 X89.484 Y23.456 E0.01257
G1 X89.615 Y23.701 E0.00872
G1 X89.735 Y24.084 E0.01257
G1 X89.765 Y24.488 E0.01269
G1 X89.705 Y24.884 E0.01257
G1 X89.612 Y25.146 E0.00872
G1 X89.411 Y25.488 E0.01244
G1 X89.231 Y25.695 E0.00859
G1 X89.021 Y25.871 E0.00859
G1 X88.671 Y26.067 E0.01257
G1 X88.286 Y26.180 E0.01260
G1 X87.977 Y26.206 E0.00972
G1 X87.669 Y26.174 E0.00968
M204 S1250
G1 X87.339 Y26.462 F9000.000
G1 E-2.24000 F4200.00000
G1 F7200.000
G1 X87.227 Y26.040 E-0.25636
G1 X86.885 Y25.831 E-0.22213
G1 X86.682 Y25.646 E-0.15190
G1 X86.509 Y25.433 E-0.15190
G1 X86.399 Y25.227 E-0.12970
G1 E-0.04800 F4200.00000
G1 Z0.400 F9000.000
G1 X87.973 Y14.585
G1 Z0.200
G1 E3.20000 F2400.00000
M204 S800
G1 F1200.000
G1 X87.530 Y14.538 E0.01397
G1 X87.067 Y14.384 E0.01530
G1 X86.657 Y14.134 E0.01504
G1 X86.407 Y13.906 E0.01061
G1 X86.194 Y13.643 E0.01061
G1 X85.973 Y13.230 E0.01469
G1 X85.868 Y12.897 E0.01096
G1 X85.815 Y12.431 E0.01469
G1 X85.842 Y12.082 E0.01096
G1 X85.964 Y11.630 E0.01469
G1 X86.118 Y11.316 E0.01096
G1 X86.405 Y10.933 E0.01502
G1 X86.763 Y10.630 E0.01469
G1 X87.076 Y10.453 E0.01129
G1 X87.532 Y10.301 E0.01506
G1 X87.998 Y10.256 E0.01469
G1 X88.357 Y10.288 E0.01129
G1 X88.818 Y10.423 E0.01508
G1 X89.237 Y10.657 E0.01504
G1 X89.504 Y10.883 E0.01096
G1 X89.799 Y11.247 E0.01469
G1 X89.964 Y11.555 E0.01096
G1 X90.107 Y12.013 E0.01504
G1 X90.144 Y12.502 E0.01539
G1 X90.072 Y12.976 E0.01504
G1 X89.955 Y13.306 E0.01096
G1 X89.719 Y13.710 E0.01469
G1 X89.496 Y13.965 E0.01061
G1 X89.237 Y14.183 E0.01061
G1 X88.818 Y14.417 E0.01504
G1 X88.355 Y14.552 E0.01513
G1 X88.033 Y14.580 E0.01014
M204 S1250
G1 X87.610 Y14.168 F9000.000
M204 S800
G1 F1200.000
G1 X87.227 Y14.040 E0.01266
G1 X86.885 Y13.831 E0.01257
G1 X86.682 Y13.646 E0.00859
G1 X86.509 Y13.433 E0.00859
G1 X86.322 Y13.084 E0.01244
G1 X86.239 Y12.818 E0.00872
G1 X86.194 Y12.424 E0.01244
G1 X86.215 Y12.147 E0.00872
G1 X86.319 Y11.764 E0.01244
G1 X86.441 Y11.514 E0.00872
G1 X86.681 Y11.193 E0.01256
G1 X86.979 Y10.941 E0.01224
G1 X87.230 Y10.799 E0.00903
G1 X87.611 Y10.672 E0.01258
G1 X87.999 Y10.634 E0.01224
G1 X88.286 Y10.660 E0.00904
G1 X88.671 Y10.773 E0.01258
G1 X89.021 Y10.969 E0.01257
G1 X89.234 Y11.148 E0.00872
G1 X89.484 Y11.456 E0.01244
G1 X89.615 Y11.701 E0.00872
G1 X89.735 Y12.084 E0.01257
G1 X89.765 Y12.488 E0.01269
G1 X89.705 Y12.884 E0.01257
G1 X89.612 Y13.146 E0.00872
G1 X89.411 Y13.488 E0.01244
G1 X89.231 Y13.695 E0.00859
G1 X89.021 Y13.871 E0.00860
G1 X88.671 Y14.067 E0.01257
G1 X88.286 Y14.180 E0.01260
G1 X87.977 Y14.206 E0.00972
G1 X87.669 Y14.174 E0.00968
M204 S1250
G1 X87.339 Y14.462 F9000.000
G1 E-2.24000 F4200.00000
G1 F7200.000
G1 X87.227 Y14.040 E-0.25637
G1 X86.885 Y13.831 E-0.22212
G1 X86.682 Y13.646 E-0.15191
G1 X86.509 Y13.433 E-0.15190
G1 X86.399 Y13.227 E-0.12971
G1 E-0.04800 F4200.00000
G1 Z0.400 F9000.000
G1 X92.693 Y31.207
G1 Z0.200
G1 E3.20000 F2400.00000
M204 S800
G1 F1200.000
G1 X99.213 Y31.207 E0.20443
G1 X99.213 Y148.793 E3.68682
G1 X92.693 Y148.793 E0.20443
G1 X92.693 Y171.793 E0.72115
G1 X83.267 Y171.793 E0.29554
G1 X83.267 Y148.793 E0.72115
G1 X80.787 Y148.793 E0.07776
G1 X80.787 Y31.207 E3.68682
G1 X83.267 Y31.207 E0.07776
G1 X83.267 Y8.207 E0.72115
G1 X92.693 Y8.207 E0.29554
G1 X92.693 Y31.147 E0.71927
M204 S1250
G1 X93.070 Y30.830 F9000.000
M204 S800
G1 F1200.000
G1 X99.590 Y30.830 E0.20443
G1 X99.590 Y149.170 E3.71047
G1 X93.070 Y149.170 E0.20443
G1 X93.070 Y172.170 E0.72115
M73 P1 R60
G1 X82.890 Y172.170 E0.31919
G1 X82.890 Y149.170 E0.72115
G1 X80.410 Y149.170 E0.07776
G1 X80.410 Y30.830 E3.71047
G1 X82.890 Y30.830 E0.07776
G1 X82.890 Y7.830 E0.72115
G1 X93.070 Y7.830 E0.31919
G1 X93.070 Y30.770 E0.71927
M204 S1250
G1 X93.125 Y31.226 F9000.000
G1 X92.580 Y30.998
M204 S800
G1 F1200.000
G1 X88.412 Y26.830 E0.18521
G1 X88.826 Y26.710 E0.01354
G1 X92.410 Y30.293 E0.15928
G1 X92.410 Y29.759 E0.01680
G1 X89.186 Y26.535 E0.14327
G1 X89.398 Y26.416 E0.00764
G1 X89.509 Y26.323 E0.00454
G1 X92.410 Y29.225 E0.12894
G1 X92.410 Y28.690 E0.01680
G1 X89.784 Y26.064 E0.11670
G1 X89.949 Y25.876 E0.00786
G1 X90.016 Y25.762 E0.00417
G1 X92.410 Y28.156 E0.10640
G1 X92.410 Y27.621 E0.01680
G1 X90.213 Y25.424 E0.09763
G1 X90.350 Y25.027 E0.01321
G1 X92.410 Y27.087 E0.09154
G1 X92.410 Y26.552 E0.01680
G1 X90.421 Y24.563 E0.08839
G1 X90.390 Y23.997 E0.01781
G1 X92.410 Y26.018 E0.08979
G1 X92.410 Y25.483 E0.01680
G1 X83.550 Y16.623 E0.39376
G1 X83.550 Y16.089 E0.01680
G1 X92.410 Y24.949 E0.39376
G1 X92.410 Y24.414 E0.01680
G1 X83.550 Y15.554 E0.39376
G1 X83.550 Y15.020 E0.01680
G1 X92.410 Y23.880 E0.39376
G1 X92.410 Y23.345 E0.01680
G1 X83.550 Y14.485 E0.39376
G1 X83.550 Y13.951 E0.01680
G1 X92.410 Y22.811 E0.39376
G1 X92.410 Y22.276 E0.01680
G1 X83.550 Y13.416 E0.39376
G1 X83.550 Y12.882 E0.01680
G1 X92.410 Y21.742 E0.39376
G1 X92.410 Y21.207 E0.01680
G1 X83.550 Y12.347 E0.39376
G1 X83.550 Y11.813 E0.01680
G1 X92.410 Y20.673 E0.39376
G1 X92.410 Y20.138 E0.01680
G1 X83.550 Y11.278 E0.39376
G1 X83.550 Y10.744 E0.01680
G1 X85.568 Y12.762 E0.08971
G1 X85.531 Y12.437 E0.01030
G1 X85.549 Y12.208 E0.00720
G1 X83.550 Y10.209 E0.08882
G1 X83.550 Y9.675 E0.01680
G1 X85.636 Y11.761 E0.09271
G1 X85.698 Y11.530 E0.00750
G1 X85.778 Y11.368 E0.00568
G1 X83.550 Y9.140 E0.09901
G1 X83.550 Y8.606 E0.01680
G1 X85.977 Y11.033 E0.10786
G1 X86.208 Y10.729 E0.01198
G1 X83.968 Y8.490 E0.09953
G1 X84.503 Y8.490 E0.01680
G1 X86.497 Y10.484 E0.08864
G1 X86.600 Y10.397 E0.00424
G1 X86.820 Y10.273 E0.00794
G1 X85.037 Y8.490 E0.07923
G1 X85.572 Y8.490 E0.01680
G1 X87.196 Y10.115 E0.07220
G1 X87.473 Y10.023 E0.00915
G1 X87.624 Y10.008 E0.00479
G1 X86.106 Y8.490 E0.06746
G1 X86.641 Y8.490 E0.01680
G1 X88.135 Y9.984 E0.06641
G1 X88.409 Y10.009 E0.00866
G1 X88.811 Y10.126 E0.01316
G1 X87.175 Y8.490 E0.07272
G1 X87.710 Y8.490 E0.01680
G1 X92.410 Y13.190 E0.20890
G1 X92.410 Y12.656 E0.01680
G1 X88.244 Y8.490 E0.18514
G1 X88.779 Y8.490 E0.01680
G1 X92.410 Y12.121 E0.16139
G1 X92.410 Y11.587 E0.01680
G1 X89.313 Y8.490 E0.13764
G1 X89.848 Y8.490 E0.01680
G1 X92.410 Y11.052 E0.11389
G1 X92.410 Y10.518 E0.01680
G1 X90.382 Y8.490 E0.09013
G1 X90.916 Y8.490 E0.01680
G1 X92.410 Y9.984 E0.06638
G1 X92.410 Y9.449 E0.01680
G1 X91.451 Y8.490 E0.04263
G1 X91.985 Y8.490 E0.01680
G1 X92.580 Y9.084 E0.02642
M204 S1250
G1 E-2.24000 F4200.00000
G1 F7200.000
G1 X91.985 Y8.490 E-0.46583
G1 X91.451 Y8.490 E-0.29619
G1 X91.642 Y8.681 E-0.14999
G1 E-0.04800 F4200.00000
G1 Z0.400 F9000.000
G1 X92.580 Y13.895
G1 Z0.200
G1 E3.20000 F2400.00000
M204 S800
G1 F1200.000
G1 X90.270 Y11.585 E0.10265
G1 X90.387 Y11.959 E0.01232
G1 X90.410 Y12.259 E0.00945
G1 X92.410 Y14.259 E0.08890
G1 X92.410 Y14.794 E0.01680
G1 X90.389 Y12.773 E0.08981
G1 X90.348 Y13.045 E0.00866
G1 X90.290 Y13.208 E0.00543
G1 X92.410 Y15.328 E0.09422
G1 X92.410 Y15.863 E0.01680
G1 X90.124 Y13.577 E0.10159
G1 X89.921 Y13.908 E0.01221
G1 X92.410 Y16.397 E0.11062
G1 X92.410 Y16.932 E0.01680
G1 X89.668 Y14.189 E0.12188
G1 X89.374 Y14.430 E0.01193
G1 X92.410 Y17.466 E0.13493
G1 X92.410 Y18.001 E0.01680
G1 X89.031 Y14.622 E0.15015
G1 X88.929 Y14.680 E0.00371
G1 X88.639 Y14.764 E0.00947
G1 X92.410 Y18.535 E0.16759
G1 X92.410 Y19.070 E0.01680
G1 X88.191 Y14.850 E0.18752
G1 X87.970 Y14.869 E0.00696
G1 X87.640 Y14.834 E0.01042
G1 X92.580 Y19.774 E0.21952
M204 S1250
G1 E-2.24000 F4200.00000
G1 F7200.000
G1 X91.416 Y18.610 E-0.91200
G1 E-0.04800 F4200.00000
