; generated by PrusaSlicer 2.3.0+win64 on 2021-07-09 at 20:29:04 UTC


;
;

;
;
; 

; external perimeters extrusion width = 0.45mm
; perimeters extrusion width = 0.45mm
; infill extrusion width = 0.45mm
; solid infill extrusion width = 0.45mm
; top infill extrusion width = 0.40mm
; first layer extrusion width = 0.42mm

M73 P0 R78
M201 X1250 Y1250 Z400 E5000 ; sets maximum accelerations, mm/sec^2
M203 X180 Y180 Z12 E80 ; sets maximum feedrates, mm/sec
M204 P1250 R1250 T1250 ; sets acceleration (P, T) and retract acceleration (R), mm/sec^2
M205 X8.00 Y8.00 Z2.00 E10.00 ; sets the jerk limits, mm/sec
M205 S0 T0 ; sets the minimum extruding and travel feed rate, mm/sec
M107
;TYPE:Custom
G90 ; use absolute coordinates
M83 ; extruder relative mode
M104 S170 ; set extruder temp for bed leveling
M140 S60 ; set bed temp
M109 R170 ; wait for bed leveling temp
M190 S60 ; wait for bed temp
G28 ; home all without mesh bed level
G29 ; mesh bed leveling 
M104 S215 ; set extruder temp
G92 E0.0
G1 Y-2.0 X179 F2400
G1 Z3 F720
M109 S215 ; wait for extruder temp

; intro line
G1 X170 F1000
G1 Z0.2 F720
G1 X110.0 E8.0 F900
M73 P0 R77
G1 X40.0 E10.0 F700
G92 E0.0

M221 S95 ; set flow
G21 ; set units to millimeters
G90 ; use absolute coordinates
M83 ; use relative distances for extrusion
M900 K0.2 ; Filament gcode LA 1.5
; ; Filament gcode LA 1.0
;LAYER_CHANGE
;Z:0.2
;HEIGHT:0.2
;BEFORE_LAYER_CHANGE
G92 E0.0
;0.2


G1 E-3.20000 F4200.000
G1 Z0.200 F9000.000
;AFTER_LAYER_CHANGE
;0.2
G1 Z0.400
G1 X35.738 Y72.059
G1 Z0.200
G1 E3.20000 F2400.000
M204 S800
;TYPE:Skirt
;WIDTH:0.42
G1 F1200.000
G1 X36.375 Y71.709 E0.02276
G1 X69.747 Y59.369 E1.11560
G1 X71.732 Y59.141 E0.06267
G1 X94.310 Y59.141 E0.70791
G1 X96.061 Y59.322 E0.05519
G1 X137.074 Y64.797 E1.29734
G1 X138.884 Y65.223 E0.05830
G1 X140.388 Y65.887 E0.05157
G1 X141.913 Y66.925 E0.05783
G1 X143.066 Y68.066 E0.05087
G1 X144.113 Y69.564 E0.05729
G1 X144.788 Y71.037 E0.05082
G1 X145.204 Y72.604 E0.05084
G1 X145.348 Y74.419 E0.05707
G1 X145.181 Y76.054 E0.05155
G1 X144.655 Y77.842 E0.05842
G1 X143.789 Y79.497 E0.05858
G1 X142.766 Y80.798 E0.05187
G1 X141.355 Y82.034 E0.05881
G1 X85.022 Y120.295 E2.13517
G1 X84.532 Y120.539 E0.01716
G1 X83.857 Y120.718 E0.02192
G1 X82.143 Y120.696 E0.05373
G1 X81.416 Y120.495 E0.02366
G1 X80.831 Y120.142 E0.02142
G1 X46.327 Y91.485 E1.40632
G1 X44.133 Y89.450 E0.09382
G1 X42.117 Y87.272 E0.09305
G1 X41.100 Y86.042 E0.05003
G1 X39.326 Y83.636 E0.09374
G1 X37.706 Y81.077 E0.09495
G1 X36.230 Y78.334 E0.09767
G1 X34.834 Y75.242 E0.10637
G1 X34.667 Y74.560 E0.02201
G1 X34.696 Y73.738 E0.02579
G1 X34.911 Y73.077 E0.02179
G1 X35.240 Y72.553 E0.01941
G1 X35.696 Y72.101 E0.02013
M204 S1250
; printing object Mine_Flexy_Pterodactyl.stl id:0 copy 0
G1 E-2.24000 F4200.000
;WIPE_START
G1 F7200.000
G1 X36.375 Y71.709 E-0.43435
G1 X37.183 Y71.410 E-0.47765
;WIPE_END
G1 E-0.04800 F4200.000
G1 Z0.400 F9000.000
G1 X85.334 Y93.893
G1 Z0.200
G1 E3.20000 F2400.000
M204 S800
;TYPE:Perimeter
G1 F1200.000
G1 X85.547 Y93.880 E0.00668
G1 X85.592 Y94.256 E0.01186
G1 X85.551 Y94.723 E0.01473
G1 X85.334 Y94.714 E0.00678
G1 X85.334 Y93.953 E0.02385
M204 S1250
G1 E-2.24000 F4200.000
;WIPE_START
G1 F7200.000
G1 X85.547 Y93.880 E-0.12457
G1 X85.592 Y94.256 E-0.20954
G1 X85.551 Y94.723 E-0.26029
G1 X85.334 Y94.714 E-0.11992
G1 X85.334 Y94.357 E-0.19769
;WIPE_END
G1 E-0.04800 F4200.000
G1 Z0.400 F9000.000
G1 X85.102 Y95.961
G1 Z0.200
G1 E3.20000 F2400.000
M204 S800
G1 F1200.000
G1 X84.904 Y96.319 E0.01281
G1 X83.134 Y116.044 E0.62094
G1 X82.927 Y116.044 E0.00649
G1 X81.157 Y96.319 E0.62094
G1 X80.960 Y95.961 E0.01282
G1 X85.042 Y95.961 E0.12799
M204 S1250
G1 E-2.24000 F4200.000
;WIPE_START
G1 F7200.000
G1 X84.904 Y96.319 E-0.21235
G1 X84.791 Y97.576 E-0.69965
;WIPE_END
G1 E-0.04800 F4200.000
G1 Z0.400 F9000.000
G1 X80.727 Y94.714
G1 Z0.200
G1 E3.20000 F2400.000
M204 S800
G1 F1200.000
G1 X80.511 Y94.724 E0.00678
G1 X80.469 Y94.256 E0.01474
G1 X80.514 Y93.880 E0.01187
G1 X80.727 Y93.893 E0.00668
G1 X80.727 Y94.654 E0.02388
M204 S1250
G1 X81.104 Y95.584 F9000.000
M204 S800
;TYPE:External perimeter
G1 F1200.000
G1 X84.957 Y95.584 E0.12082
G1 X84.957 Y92.370 E0.10079
G1 X85.372 Y92.370 E0.01299
G1 X85.649 Y92.837 E0.01703
G1 X85.884 Y93.527 E0.02288
G1 X85.971 Y94.250 E0.02281
G1 X85.907 Y94.974 E0.02280
G1 X85.693 Y95.671 E0.02287
G1 X85.272 Y96.432 E0.02725
G1 X83.365 Y117.684 E0.66904
G1 X82.696 Y117.684 E0.02099
G1 X80.789 Y96.432 E0.66904
G1 X80.368 Y95.671 E0.02725
G1 X80.154 Y94.974 E0.02287
G1 X80.090 Y94.250 E0.02280
G1 X80.177 Y93.528 E0.02281
G1 X80.412 Y92.837 E0.02288
G1 X80.689 Y92.370 E0.01704
G1 X81.104 Y92.370 E0.01299
G1 X81.104 Y95.524 E0.09891
M204 S1250
G1 X81.121 Y95.984 F9000.000
G1 E-2.24000 F4200.000
;WIPE_START
G1 F7200.000
G1 X82.749 Y95.550 E-0.91200
;WIPE_END
G1 E-0.04800 F4200.000
G1 Z0.400 F9000.000
G1 X80.625 Y93.698
G1 Z0.200
G1 E3.20000 F2400.000
M204 S800
;TYPE:Gap fill
;WIDTH:0.541824
G1 F1200.000
G1 X80.672 Y93.413 E0.01198
M204 S1250
M204 S800
;WIDTH:0.503611
G1 X80.719 Y93.128 E0.01106
M204 S1250
M204 S800
;WIDTH:0.465398
G1 X80.767 Y92.843 E0.01014
M204 S1250
M204 S800
;WIDTH:0.427185
G1 X80.814 Y92.558 E0.00923
M204 S1250
G1 E-2.24000 F4200.000
;WIPE_START
G1 F7200.000
G1 X80.767 Y92.843 E-0.16002
;WIPE_END
G1 E-0.79998 F4200.000
G1 Z0.400 F9000.000
G1 X85.247 Y92.558
G1 Z0.200
G1 E3.20000 F2400.000
M204 S800
;WIDTH:0.427185
G1 F1200.000
G1 X85.295 Y92.843 E0.00923
M204 S1250
M204 S800
;WIDTH:0.465416
G1 X85.342 Y93.128 E0.01015
M204 S1250
M204 S800
;WIDTH:0.503646
G1 X85.389 Y93.413 E0.01106
M204 S1250
M204 S800
;WIDTH:0.541876
G1 X85.436 Y93.698 E0.01198
M204 S1250
G1 E-2.24000 F4200.000
;WIPE_START
G1 F7200.000
G1 X85.389 Y93.413 E-0.16005
;WIPE_END
G1 E-0.79995 F4200.000
G1 Z0.400 F9000.000
G1 X84.160 Y96.074
G1 Z0.200
G1 E3.20000 F2400.000
M204 S800
;TYPE:Solid infill
;WIDTH:0.42045
G1 F1200.000
G1 X84.602 Y96.517 E0.01964
G1 X84.558 Y97.007 E0.01544
G1 X83.795 Y96.244 E0.03386
G1 X83.262 Y96.244 E0.01676
G1 X84.514 Y97.497 E0.05561
G1 X84.470 Y97.987 E0.01544
G1 X82.728 Y96.244 E0.07736
G1 X82.194 Y96.244 E0.01676
G1 X84.426 Y98.477 E0.09911
G1 X84.382 Y98.967 E0.01544
G1 X81.660 Y96.244 E0.12087
G1 X81.435 Y96.244 E0.00707
G1 X81.465 Y96.583 E0.01069
G1 X84.338 Y99.456 E0.12756
G1 X84.294 Y99.946 E0.01544
G1 X81.518 Y97.170 E0.12327
G1 X81.570 Y97.756 E0.01849
G1 X84.250 Y100.436 E0.11898
G1 X84.206 Y100.926 E0.01544
G1 X81.623 Y98.343 E0.11470
G1 X81.676 Y98.929 E0.01849
G1 X84.163 Y101.416 E0.11041
G1 X84.119 Y101.906 E0.01544
G1 X81.728 Y99.516 E0.10612
G1 X81.781 Y100.102 E0.01849
G1 X84.075 Y102.396 E0.10183
G1 X84.031 Y102.886 E0.01544
G1 X81.833 Y100.689 E0.09754
G1 X81.886 Y101.275 E0.01849
G1 X83.987 Y103.376 E0.09326
G1 X83.943 Y103.866 E0.01544
G1 X81.939 Y101.862 E0.08897
G1 X81.991 Y102.448 E0.01849
G1 X83.899 Y104.356 E0.08468
G1 X83.855 Y104.846 E0.01544
G1 X82.044 Y103.035 E0.08039
G1 X82.097 Y103.622 E0.01849
G1 X83.811 Y105.336 E0.07611
G1 X83.767 Y105.826 E0.01544
G1 X82.149 Y104.208 E0.07182
G1 X82.202 Y104.795 E0.01849
G1 X83.723 Y106.316 E0.06753
G1 X83.679 Y106.806 E0.01544
G1 X82.254 Y105.381 E0.06324
G1 X82.307 Y105.968 E0.01849
G1 X83.635 Y107.296 E0.05895
G1 X83.591 Y107.786 E0.01544
G1 X82.360 Y106.554 E0.05467
G1 X82.412 Y107.141 E0.01849
G1 X83.547 Y108.276 E0.05038
G1 X83.503 Y108.765 E0.01544
G1 X82.465 Y107.727 E0.04609
G1 X82.518 Y108.314 E0.01849
G1 X83.459 Y109.255 E0.04180
G1 X83.415 Y109.745 E0.01544
G1 X82.570 Y108.900 E0.03751
G1 X82.623 Y109.487 E0.01849
G1 X83.371 Y110.235 E0.03323
G1 X83.327 Y110.725 E0.01544
G1 X82.675 Y110.073 E0.02894
G1 X82.728 Y110.660 E0.01849
G1 X83.283 Y111.215 E0.02465
G1 X83.239 Y111.705 E0.01544
G1 X82.594 Y111.059 E0.02867
M204 S1250
G1 X83.031 Y112.013 F9000.000
M204 S800
;TYPE:Gap fill
;WIDTH:0.547257
G1 F1200.000
G1 X83.031 Y112.294 E0.01181
M204 S1250
M204 S800
;WIDTH:0.501864
G1 X83.031 Y112.576 E0.01075
M204 S1250
M204 S800
;WIDTH:0.45647
G1 X83.031 Y112.858 E0.00969
M204 S1250
M204 S800
;WIDTH:0.411076
G1 X83.031 Y113.139 E0.00862
M204 S1250
M204 S800
;WIDTH:0.365682
G1 X83.031 Y113.421 E0.00756
M204 S1250
M204 S800
;WIDTH:0.320289
G1 X83.031 Y113.703 E0.00650
M204 S1250
M204 S800
;WIDTH:0.274895
G1 X83.031 Y113.985 E0.00543
M204 S1250
M204 S800
;WIDTH:0.229501
G1 X83.031 Y114.266 E0.00437
M204 S1250
M204 S800
;WIDTH:0.184107
G1 X83.031 Y114.548 E0.00331
M204 S1250
M204 S800
;WIDTH:0.138714
G1 X83.031 Y114.830 E0.00224
M204 S1250
G1 X83.031 Y116.232 F9000.000
M204 S800
;WIDTH:0.547257
G1 F1200.000
G1 X83.031 Y116.653 E0.01767
M204 S1250
M204 S800
;WIDTH:0.497567
G1 X83.031 Y117.075 E0.01593
M204 S1250
M204 S800
;WIDTH:0.447877
G1 X83.031 Y117.496 E0.01419
M204 S1250
G1 E-2.24000 F4200.000
;WIPE_START
G1 F7200.000
G1 X83.031 Y117.075 E-0.23346
;WIPE_END
G1 E-0.72654 F4200.000
G1 Z0.400 F9000.000
G1 X62.940 Y97.252
G1 Z0.200
G1 E3.20000 F2400.000
M204 S800
;TYPE:Perimeter
;WIDTH:0.42
G1 F1200.000
G1 X62.762 Y96.690 E0.01850
G1 X62.476 Y96.338 E0.01420
G1 X62.132 Y96.164 E0.01208
G1 X60.854 Y95.834 E0.04140
G1 X60.854 Y81.712 E0.44280
G1 X61.690 Y81.576 E0.02656
G1 X62.673 Y81.358 E0.03156
G1 X63.645 Y81.073 E0.03178
G1 X64.653 Y80.704 E0.03363
G1 X65.319 Y84.030 E0.10637
G1 X62.410 Y84.613 E0.09303
G1 X63.309 Y89.099 E0.14343
G1 X66.218 Y88.516 E0.09303
G1 X66.893 Y91.884 E0.10772
G1 X66.181 Y92.735 E0.03478
G1 X65.498 Y93.651 E0.03581
G1 X64.856 Y94.594 E0.03579
G1 X63.813 Y96.240 E0.06110
G1 X63.330 Y96.847 E0.02431
M73 P1 R77
G1 X62.982 Y97.209 E0.01574
M204 S1250
G1 E-2.24000 F4200.000
;WIPE_START
G1 F7200.000
G1 X62.762 Y96.690 E-0.31256
G1 X62.476 Y96.338 E-0.25096
G1 X62.132 Y96.164 E-0.21358
G1 X61.897 Y96.103 E-0.13490
;WIPE_END
G1 E-0.04800 F4200.000
G1 Z0.400 F9000.000
G1 X62.854 Y84.909
G1 Z0.200
G1 E3.20000 F2400.000
M204 S800
;TYPE:External perimeter
G1 F1200.000
G1 X63.604 Y88.655 E0.11979
G1 X66.514 Y88.072 E0.09303
G1 X67.298 Y91.988 E0.12522
G1 X66.477 Y92.969 E0.04013
G1 X65.805 Y93.869 E0.03522
G1 X65.171 Y94.801 E0.03534
G1 X64.120 Y96.459 E0.06154
G1 X63.614 Y97.096 E0.02550
G1 X63.054 Y97.678 E0.02533
G1 X61.855 Y98.764 E0.05073
G1 X61.585 Y98.977 E0.01077
G1 X61.237 Y99.034 E0.01105
G1 X61.386 Y98.631 E0.01348
G1 X61.949 Y98.128 E0.02367
G1 X62.374 Y97.711 E0.01865
G1 X62.494 Y97.447 E0.00911
G1 X62.514 Y97.154 E0.00919
G1 X62.424 Y96.872 E0.00928
G1 X62.234 Y96.638 E0.00945
G1 X62.000 Y96.519 E0.00824
G1 X60.988 Y96.267 E0.03270
G1 X60.477 Y96.116 E0.01670
G1 X60.477 Y88.318 E0.24450
G1 X58.563 Y88.318 E0.06002
G1 X58.563 Y87.471 E0.02655
G1 X60.477 Y87.471 E0.06002
G1 X60.477 Y81.391 E0.19066
G1 X61.619 Y81.206 E0.03628
G1 X62.579 Y80.993 E0.03082
G1 X63.527 Y80.715 E0.03099
G1 X64.460 Y80.373 E0.03113
G1 X64.929 Y80.166 E0.01610
G1 X65.763 Y84.326 E0.13304
G1 X62.913 Y84.897 E0.09115
M204 S1250
G1 X62.506 Y85.107 F9000.000
G1 E-2.24000 F4200.000
;WIPE_START
G1 F7200.000
G1 X63.211 Y86.516 E-0.91200
;WIPE_END
G1 E-0.04800 F4200.000
G1 Z0.400 F9000.000
G1 X64.763 Y81.831
G1 Z0.200
G1 E3.20000 F2400.000
M204 S800
;TYPE:Solid infill
;WIDTH:0.429003
G1 F1200.000
G1 X64.129 Y81.197 E0.02878
G1 X63.729 Y81.343 E0.01367
G1 X64.683 Y82.297 E0.04332
G1 X64.820 Y82.980 E0.02236
G1 X63.307 Y81.467 E0.06870
G1 X62.885 Y81.591 E0.01413
G1 X64.957 Y83.663 E0.09409
G1 X64.986 Y83.809 E0.00478
G1 X64.629 Y83.880 E0.01171
G1 X62.446 Y81.698 E0.09908
G1 X61.999 Y81.797 E0.01469
G1 X64.174 Y83.972 E0.09872
G1 X63.719 Y84.063 E0.01489
G1 X61.543 Y81.886 E0.09880
G1 X61.137 Y81.952 E0.01320
G1 X61.137 Y82.027 E0.00239
G1 X63.264 Y84.154 E0.09658
G1 X62.809 Y84.245 E0.01489
G1 X61.137 Y82.573 E0.07593
G1 X61.137 Y83.119 E0.01753
G1 X62.354 Y84.336 E0.05528
G1 X62.077 Y84.392 E0.00908
G1 X62.131 Y84.658 E0.00873
G1 X61.137 Y83.665 E0.04512
G1 X61.137 Y84.211 E0.01753
G1 X62.267 Y85.341 E0.05133
G1 X62.404 Y86.024 E0.02236
G1 X61.137 Y84.757 E0.05754
G1 X61.137 Y85.303 E0.01753
G1 X62.541 Y86.707 E0.06376
G1 X62.678 Y87.390 E0.02236
G1 X61.137 Y85.849 E0.06997
G1 X61.137 Y86.395 E0.01753
G1 X63.031 Y88.289 E0.08601
M204 S1250
G1 E-2.24000 F4200.000
;WIPE_START
G1 F7200.000
G1 X61.868 Y87.125 E-0.91200
;WIPE_END
G1 E-0.04800 F4200.000
G1 Z0.400 F9000.000
G1 X65.668 Y88.741
G1 Z0.200
G1 E3.20000 F2400.000
M204 S800
G1 F1200.000
G1 X66.052 Y89.126 E0.01744
G1 X66.189 Y89.808 E0.02236
G1 X65.357 Y88.977 E0.03776
G1 X64.902 Y89.068 E0.01489
G1 X66.326 Y90.491 E0.06462
G1 X66.462 Y91.174 E0.02236
G1 X64.447 Y89.159 E0.09149
G1 X63.992 Y89.250 E0.01489
G1 X66.571 Y91.829 E0.11707
G1 X66.322 Y92.126 E0.01244
G1 X63.538 Y89.341 E0.12642
G1 X63.087 Y89.432 E0.01475
G1 X62.952 Y88.755 E0.02214
G1 X61.137 Y86.941 E0.08240
G1 X61.137 Y87.487 E0.01753
G1 X66.073 Y92.423 E0.22413
G1 X65.833 Y92.729 E0.01248
G1 X61.137 Y88.033 E0.21321
G1 X61.137 Y88.579 E0.01753
G1 X65.600 Y93.041 E0.20262
G1 X65.366 Y93.354 E0.01252
G1 X61.137 Y89.125 E0.19202
G1 X61.137 Y89.671 E0.01753
G1 X65.140 Y93.674 E0.18175
G1 X64.919 Y93.999 E0.01262
G1 X61.137 Y90.217 E0.17171
G1 X61.137 Y90.763 E0.01753
G1 X64.698 Y94.324 E0.16168
G1 X64.483 Y94.655 E0.01267
G1 X61.137 Y91.309 E0.15191
G1 X61.137 Y91.855 E0.01753
G1 X64.271 Y94.989 E0.14229
G1 X64.059 Y95.323 E0.01270
G1 X61.137 Y92.401 E0.13268
G1 X61.137 Y92.947 E0.01753
G1 X63.847 Y95.657 E0.12306
G1 X63.636 Y95.991 E0.01270
G1 X61.137 Y93.493 E0.11345
G1 X61.137 Y94.039 E0.01753
G1 X63.401 Y96.303 E0.10281
G1 X63.160 Y96.607 E0.01247
G1 X61.137 Y94.585 E0.09183
G1 X61.137 Y95.131 E0.01753
G1 X62.025 Y96.019 E0.04034
M204 S1250
G1 X62.717 Y97.241 F9000.000
M204 S800
;TYPE:Gap fill
;WIDTH:0.136561
G1 F1200.000
G1 X62.733 Y97.369 E0.00101
M204 S1250
M204 S800
;WIDTH:0.179803
G1 X62.748 Y97.498 E0.00147
M204 S1250
M204 S800
;WIDTH:0.194582
G1 X62.754 Y97.695 E0.00249
M204 S1250
G1 X62.829 Y97.525 F9000.000
M204 S800
;WIDTH:0.101168
G1 F1200.000
G1 X62.431 Y97.954 E0.00283
M204 S1250
G1 E-2.24000 F4200.000
;WIPE_START
G1 F7200.000
G1 X62.829 Y97.525 E-0.32412
;WIPE_END
G1 E-0.63588 F4200.000
G1 Z0.400 F9000.000
G1 X60.665 Y87.895
G1 Z0.200
G1 E3.20000 F2400.000
M204 S800
;WIDTH:0.512716
G1 F1200.000
G1 X58.751 Y87.895 E0.07478
M204 S1250
G1 E-2.24000 F4200.000
;WIPE_START
G1 F7200.000
G1 X60.397 Y87.895 E-0.91200
;WIPE_END
G1 E-0.04800 F4200.000
G1 Z0.400 F9000.000
G1 X102.752 Y89.099
G1 Z0.200
G1 E3.20000 F2400.000
M204 S800
;TYPE:Perimeter
;WIDTH:0.42
G1 F1200.000
G1 X103.651 Y84.613 E0.14343
G1 X100.742 Y84.030 E0.09303
G1 X101.409 Y80.704 E0.10637
G1 X102.416 Y81.073 E0.03363
G1 X103.388 Y81.358 E0.03178
G1 X104.371 Y81.576 E0.03156
G1 X105.207 Y81.712 E0.02656
G1 X105.207 Y95.834 E0.44280
G1 X103.929 Y96.164 E0.04140
G1 X103.585 Y96.338 E0.01208
G1 X103.299 Y96.690 E0.01420
G1 X103.121 Y97.252 E0.01850
G1 X102.731 Y96.847 E0.01763
G1 X102.249 Y96.240 E0.02431
G1 X101.205 Y94.594 E0.06110
G1 X100.563 Y93.651 E0.03579
G1 X99.880 Y92.735 E0.03581
G1 X99.168 Y91.884 E0.03478
G1 X99.843 Y88.516 E0.10772
G1 X102.693 Y89.087 E0.09115
M204 S1250
G1 X102.457 Y88.655 F9000.000
M204 S800
;TYPE:External perimeter
G1 F1200.000
G1 X103.207 Y84.909 E0.11979
G1 X100.298 Y84.326 E0.09303
G1 X101.132 Y80.166 E0.13304
G1 X101.602 Y80.373 E0.01610
G1 X102.534 Y80.715 E0.03113
G1 X103.482 Y80.993 E0.03099
G1 X104.442 Y81.206 E0.03082
G1 X105.584 Y81.391 E0.03628
G1 X105.584 Y87.471 E0.19066
G1 X107.499 Y87.471 E0.06002
G1 X107.499 Y88.318 E0.02655
G1 X105.584 Y88.318 E0.06002
G1 X105.584 Y96.116 E0.24450
G1 X105.073 Y96.267 E0.01670
G1 X104.062 Y96.519 E0.03270
G1 X103.827 Y96.638 E0.00824
G1 X103.637 Y96.872 E0.00945
G1 X103.548 Y97.154 E0.00928
G1 X103.567 Y97.447 E0.00919
G1 X103.687 Y97.711 E0.00911
G1 X104.112 Y98.128 E0.01865
G1 X104.675 Y98.631 E0.02367
G1 X104.824 Y99.034 E0.01348
G1 X104.476 Y98.977 E0.01105
G1 X104.207 Y98.764 E0.01077
G1 X103.007 Y97.678 E0.05073
G1 X102.447 Y97.096 E0.02533
G1 X101.941 Y96.459 E0.02550
G1 X100.890 Y94.801 E0.06154
G1 X100.256 Y93.869 E0.03534
G1 X99.584 Y92.969 E0.03522
G1 X98.763 Y91.988 E0.04013
G1 X99.547 Y88.072 E0.12522
G1 X102.398 Y88.643 E0.09115
M204 S1250
G1 X102.854 Y88.610 F9000.000
