; generated by PrusaSlicer 2.3.0+win64 on 2021-04-22 at 13:11:04 UTC


;
;

;
;
; 

; external perimeters extrusion width = 0.45mm
; perimeters extrusion width = 0.45mm
; infill extrusion width = 0.45mm
; solid infill extrusion width = 0.45mm
; top infill extrusion width = 0.40mm
; first layer extrusion width = 0.42mm

M73 P0 R8
M201 X1250 Y1250 Z400 E5000 ; sets maximum accelerations, mm/sec^2
M203 X180 Y180 Z12 E80 ; sets maximum feedrates, mm/sec
M204 P1250 R1250 T1250 ; sets acceleration (P, T) and retract acceleration (R), mm/sec^2
M205 X8.00 Y8.00 Z2.00 E10.00 ; sets the jerk limits, mm/sec
M205 S0 T0 ; sets the minimum extruding and travel feed rate, mm/sec
M107
;TYPE:Custom
G90 ; use absolute coordinates
M83 ; extruder relative mode
M104 S170 ; set extruder temp for bed leveling
M140 S60 ; set bed temp
M109 R170 ; wait for bed leveling temp
M190 S60 ; wait for bed temp
G28 ; home all without mesh bed level
G29 ; mesh bed leveling 
M104 S215 ; set extruder temp
G92 E0.0
G1 Y-2.0 X179 F2400
G1 Z3 F720
M109 S215 ; wait for extruder temp

; intro line
G1 X170 F1000
M73 P1 R8
G1 Z0.2 F720
G1 X110.0 E8.0 F900
M73 P2 R8
G1 X40.0 E10.0 F700
G92 E0.0

M221 S95 ; set flow
G21 ; set units to millimeters
G90 ; use absolute coordinates
M83 ; use relative distances for extrusion
M900 K0.2 ; Filament gcode LA 1.5
; ; Filament gcode LA 1.0
;LAYER_CHANGE
;Z:0.2
;HEIGHT:0.2
;BEFORE_LAYER_CHANGE
G92 E0.0
;0.2


M73 P3 R8
G1 E-3.20000 F4200.000
G1 Z0.200 F9000.000
;AFTER_LAYER_CHANGE
;0.2
G1 Z0.400
G1 X61.205 Y71.992
G1 Z0.200
G1 E3.20000 F2400.000
M204 S800
;TYPE:Skirt
;WIDTH:0.42
G1 F1200.000
G1 X61.744 Y71.532 E0.02225
G1 X62.396 Y71.251 E0.02225
G1 X62.995 Y71.173 E0.01894
G1 X117.004 Y71.173 E1.69340
M73 P4 R8
G1 X117.835 Y71.324 E0.02649
G1 X118.564 Y71.760 E0.02661
G1 X119.093 Y72.423 E0.02661
G1 X119.355 Y73.230 E0.02661
G1 X119.377 Y85.400 E0.38157
G1 X119.297 Y85.960 E0.01775
G1 X119.086 Y86.490 E0.01787
G1 X118.687 Y87.025 E0.02095
G1 X97.570 Y108.142 E0.93634
G1 X97.077 Y108.515 E0.01941
G1 X96.503 Y108.749 E0.01941
G1 X95.916 Y108.827 E0.01858
G1 X84.050 Y108.827 E0.37203
G1 X83.413 Y108.726 E0.02024
G1 X82.823 Y108.455 E0.02036
G1 X82.422 Y108.134 E0.01609
G1 X61.306 Y87.017 E0.93634
G1 X60.935 Y86.527 E0.01929
M73 P5 R8
G1 X60.701 Y85.953 E0.01941
G1 X60.623 Y85.362 E0.01870
G1 X60.639 Y73.276 E0.37894
G1 X60.825 Y72.592 E0.02225
G1 X61.172 Y72.043 E0.02037
M204 S1250
; printing object MirrorHolder03_cutdon.stl id:0 copy 0
G1 E-2.24000 F4200.000
;WIPE_START
G1 F7200.000
G1 X61.744 Y71.532 E-0.42513
G1 X62.396 Y71.251 E-0.39325
G1 X62.564 Y71.229 E-0.09362
;WIPE_END
G1 E-0.04800 F4200.000
G1 Z0.400 F9000.000
G1 X95.603 Y99.782
G1 Z0.200
G1 E3.20000 F2400.000
M204 S800
;TYPE:External perimeter
;WIDTH:0.64292
G1 F1200.000
G1 X95.600 Y101.767 E0.09904
M204 S1250
G1 X95.237 Y102.477 F9000.000
M204 S800
;TYPE:Perimeter
;WIDTH:0.42
G1 F1200.000
G1 X95.147 Y103.076 E0.01901
G1 X95.118 Y103.593 E0.01621
G1 X95.114 Y105.663 E0.06491
G1 X84.886 Y105.663 E0.32069
G1 X84.882 Y103.593 E0.06491
G1 X84.853 Y103.076 E0.01621
G1 X84.763 Y102.477 E0.01901
G1 X85.069 Y102.562 E0.00996
G1 X85.630 Y102.626 E0.01769
G1 X93.860 Y102.636 E0.25807
G1 X94.376 Y102.626 E0.01618
G1 X94.931 Y102.562 E0.01751
G1 X95.179 Y102.493 E0.00808
M204 S1250
G1 X95.690 Y101.960 F9000.000
M204 S800
;TYPE:External perimeter
G1 F1200.000
G1 X95.690 Y102.169 E0.00655
G1 X95.596 Y102.627 E0.01466
G1 X95.523 Y103.115 E0.01549
G1 X95.495 Y103.604 E0.01535
G1 X95.490 Y106.040 E0.07638
G1 X84.510 Y106.040 E0.34430
M73 P5 R7
G1 X84.505 Y103.604 E0.07638
G1 X84.477 Y103.115 E0.01535
G1 X84.404 Y102.627 E0.01549
G1 X84.310 Y102.169 E0.01466
G1 X84.310 Y101.960 E0.00655
G1 X85.141 Y102.190 E0.02705
G1 X85.651 Y102.249 E0.01610
G1 X94.351 Y102.249 E0.27276
G1 X94.859 Y102.190 E0.01603
G1 X95.632 Y101.976 E0.02517
M204 S1250
G1 X95.599 Y102.148 F9000.000
G1 E-2.24000 F4200.000
;WIPE_START
G1 F7200.000
G1 X95.690 Y102.169 E-0.11157
G1 X95.596 Y102.627 E-0.25911
G1 X95.523 Y103.115 E-0.27371
G1 X95.495 Y103.597 E-0.26760
;WIPE_END
G1 E-0.04800 F4200.000
G1 Z0.400 F9000.000
G1 X84.400 Y101.767
M73 P6 R7
G1 Z0.200
G1 E3.20000 F2400.000
M204 S800
;WIDTH:0.64292
G1 F1200.000
G1 X84.397 Y99.782 E0.09904
M204 S1250
G1 E-2.24000 F4200.000
;WIPE_START
G1 F7200.000
G1 X84.400 Y101.427 E-0.91200
;WIPE_END
G1 E-0.04800 F4200.000
G1 Z0.400 F9000.000
G1 X95.020 Y103.323
G1 Z0.200
G1 E3.20000 F2400.000
M204 S800
;TYPE:Solid infill
;WIDTH:0.429021
G1 F1200.000
G1 X94.583 Y102.886 E0.01983
G1 X94.066 Y102.915 E0.01664
G1 X94.835 Y103.684 E0.03492
G1 X94.834 Y104.229 E0.01750
G1 X93.524 Y102.919 E0.05949
G1 X92.977 Y102.918 E0.01755
G1 X94.833 Y104.774 E0.08427
G1 X94.832 Y105.319 E0.01750
G1 X92.430 Y102.917 E0.10904
G1 X91.884 Y102.917 E0.01755
G1 X94.347 Y105.380 E0.11184
G1 X93.801 Y105.380 E0.01753
G1 X91.337 Y102.916 E0.11187
G1 X90.790 Y102.915 E0.01755
G1 X93.255 Y105.380 E0.11190
G1 X92.709 Y105.380 E0.01753
G1 X90.243 Y102.915 E0.11194
G1 X89.697 Y102.914 E0.01755
G1 X92.163 Y105.380 E0.11197
G1 X91.617 Y105.380 E0.01753
G1 X89.150 Y102.913 E0.11200
G1 X88.603 Y102.913 E0.01755
G1 X91.071 Y105.380 E0.11203
G1 X90.525 Y105.380 E0.01753
G1 X88.057 Y102.912 E0.11206
G1 X87.510 Y102.911 E0.01755
G1 X89.979 Y105.380 E0.11209
G1 X89.433 Y105.380 E0.01753
G1 X86.963 Y102.911 E0.11212
G1 X86.417 Y102.910 E0.01755
G1 X88.887 Y105.380 E0.11215
G1 X88.341 Y105.380 E0.01753
G1 X85.870 Y102.909 E0.11218
G1 X85.613 Y102.909 E0.00824
G1 X85.286 Y102.871 E0.01058
G1 X87.795 Y105.380 E0.11391
G1 X87.249 Y105.380 E0.01753
G1 X85.147 Y103.279 E0.09540
G1 X85.165 Y103.843 E0.01811
G1 X86.703 Y105.380 E0.06980
G1 X86.156 Y105.380 E0.01753
G1 X85.166 Y104.390 E0.04496
M73 P7 R7
G1 X85.167 Y104.937 E0.01756
G1 X85.780 Y105.550 E0.02782
M204 S1250
G1 E-2.24000 F4200.000
;WIPE_START
G1 F7200.000
G1 X85.167 Y104.937 E-0.48026
G1 X85.166 Y104.390 E-0.30317
G1 X85.330 Y104.554 E-0.12856
;WIPE_END
G1 E-0.04800 F4200.000
G1 Z0.400 F9000.000
G1 X69.668 Y85.053
G1 Z0.200
G1 E3.20000 F2400.000
M204 S800
;TYPE:External perimeter
;WIDTH:0.636666
G1 F1200.000
G1 X67.683 Y85.050 E0.09801
M204 S1250
G1 X66.973 Y84.687 F9000.000
M204 S800
;TYPE:Perimeter
;WIDTH:0.42
G1 F1200.000
G1 X66.374 Y84.597 E0.01901
G1 X65.857 Y84.568 E0.01621
G1 X63.787 Y84.564 E0.06491
G1 X63.787 Y74.336 E0.32069
G1 X65.857 Y74.332 E0.06491
G1 X66.374 Y74.303 E0.01621
G1 X66.973 Y74.213 E0.01901
G1 X66.888 Y74.519 E0.00996
G1 X66.824 Y75.077 E0.01760
G1 X66.813 Y76.074 E0.03129
G1 X66.824 Y83.821 E0.24287
G1 X66.888 Y84.381 E0.01769
G1 X66.957 Y84.629 E0.00808
M204 S1250
G1 X67.490 Y85.140 F9000.000
M204 S800
;TYPE:External perimeter
G1 F1200.000
G1 X67.281 Y85.140 E0.00655
G1 X66.823 Y85.046 E0.01466
G1 X66.335 Y84.973 E0.01549
G1 X65.846 Y84.945 E0.01535
G1 X63.410 Y84.940 E0.07638
G1 X63.410 Y73.960 E0.34430
G1 X65.846 Y73.955 E0.07638
G1 X66.335 Y73.927 E0.01535
G1 X66.823 Y73.854 E0.01549
G1 X67.281 Y73.760 E0.01466
G1 X67.490 Y73.760 E0.00655
G1 X67.260 Y74.591 E0.02705
G1 X67.201 Y75.100 E0.01606
G1 X67.190 Y76.076 E0.03060
G1 X67.201 Y83.799 E0.24213
G1 X67.260 Y84.309 E0.01609
G1 X67.474 Y85.082 E0.02517
M204 S1250
G1 X67.302 Y85.049 F9000.000
G1 E-2.24000 F4200.000
;WIPE_START
G1 F7200.000
G1 X67.281 Y85.140 E-0.11157
G1 X66.823 Y85.046 E-0.25911
G1 X66.335 Y84.973 E-0.27371
G1 X65.853 Y84.945 E-0.26761
;WIPE_END
G1 E-0.04800 F4200.000
G1 Z0.400 F9000.000
G1 X67.683 Y73.850
G1 Z0.200
G1 E3.20000 F2400.000
M204 S800
;WIDTH:0.636666
G1 F1200.000
G1 X69.668 Y73.847 E0.09801
M204 S1250
G1 E-2.24000 F4200.000
;WIPE_START
G1 F7200.000
G1 X68.023 Y73.850 E-0.91200
;WIPE_END
G1 E-0.04800 F4200.000
G1 Z0.400 F9000.000
G1 X66.127 Y74.430
G1 Z0.200
G1 E3.20000 F2400.000
M204 S800
;TYPE:Solid infill
;WIDTH:0.429021
M73 P8 R7
G1 F1200.000
G1 X66.564 Y74.867 E0.01983
G1 X66.541 Y75.059 E0.00621
G1 X66.538 Y75.387 E0.01053
G1 X65.766 Y74.615 E0.03505
G1 X65.221 Y74.616 E0.01750
G1 X66.532 Y75.927 E0.05952
G1 X66.531 Y76.472 E0.01750
G1 X64.676 Y74.617 E0.08421
G1 X64.131 Y74.618 E0.01750
G1 X66.531 Y77.019 E0.10899
G1 X66.532 Y77.565 E0.01755
G1 X64.070 Y75.103 E0.11180
G1 X64.070 Y75.649 E0.01753
G1 X66.533 Y78.112 E0.11183
G1 X66.534 Y78.659 E0.01755
G1 X64.070 Y76.195 E0.11187
G1 X64.070 Y76.741 E0.01753
G1 X66.535 Y79.206 E0.11190
G1 X66.535 Y79.753 E0.01755
G1 X64.070 Y77.287 E0.11194
G1 X64.070 Y77.833 E0.01753
G1 X66.536 Y80.299 E0.11197
G1 X66.537 Y80.846 E0.01755
G1 X64.070 Y78.379 E0.11201
G1 X64.070 Y78.925 E0.01753
G1 X66.538 Y81.393 E0.11204
G1 X66.538 Y81.940 E0.01755
G1 X64.070 Y79.471 E0.11208
G1 X64.070 Y80.017 E0.01753
G1 X66.539 Y82.487 E0.11211
G1 X66.540 Y83.033 E0.01755
G1 X64.070 Y80.563 E0.11214
G1 X64.070 Y81.109 E0.01753
G1 X66.541 Y83.580 E0.11218
G1 X66.541 Y83.837 E0.00825
G1 X66.579 Y84.164 E0.01058
G1 X64.070 Y81.655 E0.11391
G1 X64.070 Y82.201 E0.01753
G1 X66.171 Y84.303 E0.09540
G1 X65.607 Y84.285 E0.01811
G1 X64.070 Y82.747 E0.06980
G1 X64.070 Y83.293 E0.01753
G1 X65.060 Y84.284 E0.04496
G1 X64.513 Y84.283 E0.01756
G1 X63.900 Y83.670 E0.02782
M204 S1250
G1 E-2.24000 F4200.000
;WIPE_START
G1 F7200.000
G1 X64.513 Y84.283 E-0.48027
G1 X65.060 Y84.284 E-0.30318
G1 X64.896 Y84.120 E-0.12855
;WIPE_END
G1 E-0.04800 F4200.000
G1 Z0.400 F9000.000
G1 X110.332 Y85.053
G1 Z0.200
G1 E3.20000 F2400.000
M204 S800
;TYPE:External perimeter
;WIDTH:0.64292
G1 F1200.000
G1 X112.317 Y85.050 E0.09904
M204 S1250
M73 P9 R7
G1 X113.027 Y84.687 F9000.000
M204 S800
;TYPE:Perimeter
;WIDTH:0.42
G1 F1200.000
G1 X113.112 Y84.381 E0.00996
G1 X113.176 Y83.823 E0.01760
G1 X113.187 Y82.826 E0.03129
G1 X113.176 Y75.079 E0.24287
G1 X113.112 Y74.519 E0.01769
G1 X113.027 Y74.213 E0.00996
G1 X113.626 Y74.303 E0.01901
G1 X114.143 Y74.332 E0.01621
G1 X116.213 Y74.336 E0.06491
G1 X116.213 Y84.564 E0.32069
G1 X114.143 Y84.568 E0.06491
G1 X113.626 Y84.597 E0.01621
G1 X113.086 Y84.678 E0.01713
M204 S1250
G1 X112.510 Y85.140 F9000.000
M204 S800
;TYPE:External perimeter
G1 F1200.000
G1 X112.740 Y84.309 E0.02705
G1 X112.799 Y83.800 E0.01606
G1 X112.810 Y82.824 E0.03060
G1 X112.799 Y75.101 E0.24213
G1 X112.740 Y74.591 E0.01609
G1 X112.510 Y73.760 E0.02705
G1 X112.719 Y73.760 E0.00655
G1 X113.177 Y73.854 E0.01466
G1 X113.665 Y73.927 E0.01549
G1 X114.154 Y73.955 E0.01535
G1 X116.590 Y73.960 E0.07638
G1 X116.590 Y84.940 E0.34430
G1 X114.154 Y84.945 E0.07638
G1 X113.665 Y84.973 E0.01535
G1 X113.177 Y85.046 E0.01549
G1 X112.719 Y85.140 E0.01466
G1 X112.570 Y85.140 E0.00467
M204 S1250
G1 X112.754 Y84.823 F9000.000
G1 E-2.24000 F4200.000
;WIPE_START
G1 F7200.000
G1 X112.740 Y84.309 E-0.47038
G1 X112.799 Y83.800 E-0.28389
G1 X112.802 Y83.515 E-0.15773
;WIPE_END
G1 E-0.04800 F4200.000
G1 Z0.400 F9000.000
G1 X112.317 Y73.850
G1 Z0.200
G1 E3.20000 F2400.000
M204 S800
;WIDTH:0.64292
G1 F1200.000
G1 X110.332 Y73.847 E0.09904
M204 S1250
G1 E-2.24000 F4200.000
;WIPE_START
G1 F7200.000
G1 X111.977 Y73.850 E-0.91200
;WIPE_END
G1 E-0.04800 F4200.000
G1 Z0.400 F9000.000
G1 X116.100 Y75.230
G1 Z0.200
G1 E3.20000 F2400.000
M204 S800
;TYPE:Solid infill
;WIDTH:0.429021
G1 F1200.000
G1 X115.487 Y74.617 E0.02783
G1 X114.940 Y74.616 E0.01756
G1 X115.930 Y75.607 E0.04496
G1 X115.930 Y76.153 E0.01753
G1 X114.393 Y74.615 E0.06980
G1 X113.829 Y74.597 E0.01811
G1 X115.930 Y76.699 E0.09540
G1 X115.930 Y77.245 E0.01753
G1 X113.421 Y74.736 E0.11391
M73 P10 R7
G1 X113.459 Y75.063 E0.01057
G1 X113.459 Y75.320 E0.00825
G1 X115.930 Y77.791 E0.11218
G1 X115.930 Y78.337 E0.01753
G1 X113.460 Y75.867 E0.11214
G1 X113.461 Y76.414 E0.01755
G1 X115.930 Y78.883 E0.11211
G1 X115.930 Y79.429 E0.01753
G1 X113.462 Y76.960 E0.11207
G1 X113.462 Y77.507 E0.01755
G1 X115.930 Y79.975 E0.11204
G1 X115.930 Y80.521 E0.01753
G1 X113.463 Y78.054 E0.11201
G1 X113.464 Y78.601 E0.01755
G1 X115.930 Y81.067 E0.11197
G1 X115.930 Y81.613 E0.01753
G1 X113.465 Y79.148 E0.11194
G1 X113.465 Y79.694 E0.01755
G1 X115.930 Y82.159 E0.11190
G1 X115.930 Y82.705 E0.01753
G1 X113.466 Y80.241 E0.11187
G1 X113.467 Y80.788 E0.01755
G1 X115.930 Y83.251 E0.11183
G1 X115.930 Y83.797 E0.01753
G1 X113.468 Y81.335 E0.11180
G1 X113.469 Y81.882 E0.01755
G1 X115.869 Y84.282 E0.10898
G1 X115.324 Y84.283 E0.01750
G1 X113.469 Y82.428 E0.08421
G1 X113.468 Y82.973 E0.01750
G1 X114.779 Y84.284 E0.05951
G1 X114.234 Y84.285 E0.01750
G1 X113.462 Y83.513 E0.03504
G1 X113.459 Y83.841 E0.01053
G1 X113.436 Y84.033 E0.00621
G1 X113.873 Y84.470 E0.01983
M204 S1250
; stop printing object MirrorHolder03_cutdon.stl id:0 copy 0
M106 S84.15
;LAYER_CHANGE
;Z:0.4
;HEIGHT:0.2
;BEFORE_LAYER_CHANGE
G92 E0.0
;0.4


G1 E-2.24000 F4200.000
;WIPE_START
G1 F7200.000
G1 X113.436 Y84.033 E-0.34221
G1 X113.459 Y83.841 E-0.10721
G1 X113.462 Y83.513 E-0.18177
G1 X113.820 Y83.872 E-0.28080
;WIPE_END
G1 E-0.04800 F4200.000
G1 Z0.400 F9000.000
;AFTER_LAYER_CHANGE
;0.4
G1 Z0.600
G1 X119.093 Y72.423
G1 Z0.400
G1 E3.20000 F2400.000
;TYPE:Skirt
;WIDTH:0.42
G1 X119.355 Y73.230 E0.02661
G1 X119.377 Y85.400 E0.38157
G1 X119.297 Y85.960 E0.01775
G1 X119.086 Y86.490 E0.01787
G1 X118.687 Y87.025 E0.02095
G1 X97.570 Y108.142 E0.93634
M73 P11 R7
G1 X97.077 Y108.515 E0.01941
G1 X96.503 Y108.749 E0.01941
G1 X95.916 Y108.827 E0.01858
G1 X84.050 Y108.827 E0.37203
G1 X83.413 Y108.726 E0.02024
G1 X82.823 Y108.455 E0.02036
G1 X82.422 Y108.134 E0.01609
G1 X61.306 Y87.017 E0.93634
G1 X60.935 Y86.527 E0.01929
G1 X60.701 Y85.953 E0.01941
G1 X60.623 Y85.362 E0.01870
G1 X60.639 Y73.276 E0.37894
G1 X60.825 Y72.592 E0.02225
G1 X61.205 Y71.992 E0.02225
G1 X61.744 Y71.532 E0.02225
G1 X62.396 Y71.251 E0.02225
G1 X62.995 Y71.173 E0.01894
G1 X117.004 Y71.173 E1.69340
G1 X117.835 Y71.324 E0.02649
G1 X118.564 Y71.760 E0.02661
G1 X119.055 Y72.376 E0.02473
; printing object MirrorHolder03_cutdon.stl id:0 copy 0
G1 E-2.24000 F4200.000
;WIPE_START
G1 F7200.000
G1 X119.355 Y73.230 E-0.50156
G1 X119.357 Y73.971 E-0.41044
;WIPE_END
G1 E-0.04800 F4200.000
G1 Z0.600 F9000.000
G1 X115.408 Y84.596
G1 Z0.400
G1 E3.20000 F2400.000
M204 S1000
;TYPE:Solid infill
;WIDTH:0.456874
G1 F4800.000
G1 X116.063 Y83.941 E0.03185
G1 X116.063 Y83.356 E0.02015
G1 X115.006 Y84.413 E0.05143
G1 X114.421 Y84.413 E0.02015
G1 X116.063 Y82.771 E0.07993
G1 X116.063 Y82.185 E0.02015
G1 X113.835 Y84.413 E0.10842
G1 X113.337 Y84.413 E0.01714
G1 X113.337 Y84.325 E0.00301
G1 X116.063 Y81.600 E0.13266
G1 X116.063 Y81.014 E0.02015
G1 X113.337 Y83.740 E0.13266
G1 X113.337 Y83.154 E0.02015
G1 X116.063 Y80.429 E0.13266
G1 X116.063 Y79.844 E0.02015
G1 X113.337 Y82.569 E0.13266
G1 X113.337 Y81.983 E0.02015
G1 X116.063 Y79.258 E0.13266
G1 X116.063 Y78.673 E0.02015
M73 P12 R7
G1 X113.337 Y81.398 E0.13266
G1 X113.337 Y80.813 E0.02015
G1 X116.063 Y78.087 E0.13266
G1 X116.063 Y77.502 E0.02015
G1 X113.337 Y80.227 E0.13266
G1 X113.337 Y79.642 E0.02015
G1 X116.063 Y76.916 E0.13266
G1 X116.063 Y76.331 E0.02015
G1 X113.337 Y79.056 E0.13266
G1 X113.337 Y78.471 E0.02015
G1 X116.063 Y75.746 E0.13266
G1 X116.063 Y75.160 E0.02015
G1 X113.337 Y77.885 E0.13266
G1 X113.337 Y77.300 E0.02015
G1 X116.063 Y74.575 E0.13266
G1 X116.063 Y74.487 E0.00301
G1 X115.565 Y74.487 E0.01714
G1 X113.337 Y76.715 E0.10842
G1 X113.337 Y76.129 E0.02015
G1 X114.979 Y74.487 E0.07992
G1 X114.394 Y74.487 E0.02015
G1 X113.337 Y75.544 E0.05142
G1 X113.337 Y74.958 E0.02015
G1 X113.992 Y74.304 E0.03184
M204 S1250
G1 E-2.24000 F4200.000
;WIPE_START
G1 F7200.000
G1 X113.337 Y74.958 E-0.51268
G1 X113.337 Y75.544 E-0.32442
G1 X113.433 Y75.448 E-0.07490
;WIPE_END
G1 E-0.04800 F4200.000
G1 Z0.600 F9000.000
G1 X85.692 Y102.604
G1 Z0.400
G1 E3.20000 F2400.000
M204 S1000
G1 F4800.000
G1 X85.037 Y103.258 E0.03184
G1 X85.037 Y103.844 E0.02015
G1 X86.094 Y102.787 E0.05142
G1 X86.679 Y102.787 E0.02015
G1 X85.037 Y104.429 E0.07992
G1 X85.037 Y105.015 E0.02015
G1 X87.265 Y102.787 E0.10842
G1 X87.850 Y102.787 E0.02015
G1 X85.125 Y105.513 E0.13266
G1 X85.710 Y105.513 E0.02015
G1 X88.435 Y102.787 E0.13266
G1 X89.021 Y102.787 E0.02015
G1 X86.296 Y105.513 E0.13266
G1 X86.881 Y105.513 E0.02015
G1 X89.606 Y102.787 E0.13266
G1 X90.192 Y102.787 E0.02015
G1 X87.466 Y105.513 E0.13266
G1 X88.052 Y105.513 E0.02015
