; generated by PrusaSlicer 2.3.0+win64 on 2021-04-21 at 20:29:59 UTC


;
;

;
;
; 

; external perimeters extrusion width = 0.45mm
; perimeters extrusion width = 0.45mm
; infill extrusion width = 0.45mm
; solid infill extrusion width = 0.45mm
; top infill extrusion width = 0.40mm
; first layer extrusion width = 0.42mm

M73 P0 R33
M201 X1250 Y1250 Z400 E5000 ; sets maximum accelerations, mm/sec^2
M203 X180 Y180 Z12 E80 ; sets maximum feedrates, mm/sec
M204 P1250 R1250 T1250 ; sets acceleration (P, T) and retract acceleration (R), mm/sec^2
M205 X8.00 Y8.00 Z2.00 E10.00 ; sets the jerk limits, mm/sec
M205 S0 T0 ; sets the minimum extruding and travel feed rate, mm/sec
M107
;TYPE:Custom
G90 ; use absolute coordinates
M83 ; extruder relative mode
M104 S170 ; set extruder temp for bed leveling
M140 S60 ; set bed temp
M109 R170 ; wait for bed leveling temp
M190 S60 ; wait for bed temp
G28 ; home all without mesh bed level
G29 ; mesh bed leveling 
M104 S215 ; set extruder temp
G92 E0.0
G1 Y-2.0 X179 F2400
G1 Z3 F720
M109 S215 ; wait for extruder temp

; intro line
G1 X170 F1000
G1 Z0.2 F720
G1 X110.0 E8.0 F900
G1 X40.0 E10.0 F700
G92 E0.0

M221 S95 ; set flow
G21 ; set units to millimeters
G90 ; use absolute coordinates
M83 ; use relative distances for extrusion
M900 K0.2 ; Filament gcode LA 1.5
; ; Filament gcode LA 1.0
;LAYER_CHANGE
;Z:0.2
;HEIGHT:0.2
;BEFORE_LAYER_CHANGE
G92 E0.0
;0.2


G1 E-3.20000 F4200.000
G1 Z0.200 F9000.000
;AFTER_LAYER_CHANGE
;0.2
G1 Z0.400
G1 X65.599 Y73.930
G1 Z0.200
G1 E3.20000 F2400.000
M204 S800
;TYPE:Skirt
;WIDTH:0.42
G1 F1200.000
G1 X66.185 Y73.617 E0.02083
G1 X66.725 Y73.489 E0.01740
G1 X72.556 Y72.873 E0.18383
G1 X107.404 Y72.873 E1.09264
G1 X113.568 Y73.542 E0.19441
G1 X114.047 Y73.716 E0.01597
G1 X114.478 Y73.988 E0.01597
G1 X114.840 Y74.346 E0.01597
G1 X115.119 Y74.772 E0.01597
G1 X115.309 Y75.285 E0.01716
G1 X115.377 Y75.825 E0.01704
G1 X115.377 Y87.669 E0.37137
G1 X115.269 Y88.359 E0.02190
G1 X115.035 Y88.879 E0.01787
G1 X114.684 Y89.328 E0.01787
G1 X97.567 Y106.444 E0.75898
M73 P1 R33
G1 X97.171 Y106.759 E0.01585
G1 X96.718 Y106.982 E0.01585
G1 X95.927 Y107.127 E0.02520
G1 X84.070 Y107.127 E0.37179
G1 X83.468 Y107.041 E0.01906
G1 X82.907 Y106.806 E0.01906
G1 X82.425 Y106.437 E0.01906
G1 X65.311 Y89.323 E0.75886
G1 X64.993 Y88.924 E0.01597
G1 X64.768 Y88.468 E0.01597
G1 X64.623 Y87.673 E0.02532
G1 X64.634 Y75.626 E0.37775
G1 X64.789 Y74.976 E0.02095
G1 X65.120 Y74.395 E0.02095
G1 X65.556 Y73.971 E0.01907
M204 S1250
; printing object MirrorHolder02.stl id:0 copy 0
G1 E-2.24000 F4200.000
;WIPE_START
G1 F7200.000
G1 X66.185 Y73.617 E-0.40024
G1 X66.725 Y73.489 E-0.30748
G1 X67.092 Y73.450 E-0.20429
;WIPE_END
G1 E-0.04800 F4200.000
G1 Z0.400 F9000.000
G1 X84.394 Y102.085
G1 Z0.200
G1 E3.20000 F2400.000
M204 S800
;TYPE:External perimeter
;WIDTH:0.629329
G1 F1200.000
G1 X84.393 Y102.134 E0.00238
M204 S1250
M204 S800
;WIDTH:0.642608
G1 X84.403 Y104.150 E0.10055
M204 S1250
M204 S800
;WIDTH:0.669593
G1 X84.420 Y104.232 E0.00434
M204 S1250
M204 S800
;WIDTH:0.702987
G1 X84.437 Y104.313 E0.00457
M204 S1250
M204 S800
;WIDTH:0.73638
G1 X84.454 Y104.395 E0.00480
G1 X84.536 Y104.412 E0.00482
M204 S1250
M204 S800
;WIDTH:0.634252
G1 X84.700 Y104.446 E0.00823
G1 X95.300 Y104.446 E0.52120
M204 S1250
M204 S800
;WIDTH:0.668296
G1 X95.382 Y104.429 E0.00435
M204 S1250
M204 S800
;WIDTH:0.702339
G1 X95.464 Y104.412 E0.00459
M204 S1250
M204 S800
;WIDTH:0.736383
G1 X95.546 Y104.395 E0.00482
G1 X95.563 Y104.313 E0.00480
M204 S1250
M204 S800
;WIDTH:0.629331
G1 X95.597 Y104.150 E0.00812
G1 X95.606 Y102.085 E0.10070
M204 S1250
G1 E-2.24000 F4200.000
;WIPE_START
G1 F7200.000
G1 X95.599 Y103.731 E-0.91200
;WIPE_END
G1 E-0.04800 F4200.000
G1 Z0.400 F9000.000
G1 X96.200 Y96.232
G1 Z0.200
G1 E3.20000 F2400.000
M204 S800
;WIDTH:0.64292
G1 F1200.000
G1 X96.202 Y98.719 E0.12408
M204 S1250
G1 E-2.24000 F4200.000
;WIPE_START
G1 F7200.000
G1 X96.201 Y97.073 E-0.91200
;WIPE_END
G1 E-0.04800 F4200.000
G1 Z0.400 F9000.000
G1 X83.798 Y98.719
G1 Z0.200
G1 E3.20000 F2400.000
M204 S800
G1 F1200.000
G1 X83.800 Y96.232 E0.12408
M204 S1250
G1 E-2.24000 F4200.000
;WIPE_START
G1 F7200.000
G1 X83.798 Y97.877 E-0.91200
;WIPE_END
G1 E-0.04800 F4200.000
G1 Z0.400 F9000.000
G1 X75.518 Y87.950
G1 Z0.200
G1 E3.20000 F2400.000
M204 S800
G1 F1200.000
G1 X73.031 Y87.952 E0.12408
M204 S1250
G1 E-2.24000 F4200.000
;WIPE_START
G1 F7200.000
G1 X74.677 Y87.951 E-0.91200
;WIPE_END
G1 E-0.04800 F4200.000
G1 Z0.400 F9000.000
G1 X73.029 Y75.550
G1 Z0.200
G1 E3.20000 F2400.000
M204 S800
;WIDTH:0.616232
G1 F1200.000
G1 X73.082 Y75.550 E0.00251
M204 S1250
M204 S800
;WIDTH:0.64292
G1 X75.518 Y75.550 E0.12155
M204 S1250
G1 X76.219 Y75.890 F9000.000
M204 S800
;TYPE:Perimeter
;WIDTH:0.42
G1 F1200.000
G1 X76.471 Y75.952 E0.00813
G1 X77.034 Y76.020 E0.01780
G1 X78.064 Y76.037 E0.03228
G1 X101.936 Y76.037 E0.74851
G1 X102.966 Y76.020 E0.03228
G1 X103.529 Y75.952 E0.01780
G1 X103.781 Y75.890 E0.00813
G1 X103.688 Y76.231 E0.01109
G1 X103.624 Y76.794 E0.01777
G1 X103.614 Y77.319 E0.01645
G1 X103.624 Y86.703 E0.29423
G1 X103.688 Y87.269 E0.01786
G1 X103.775 Y87.587 E0.01034
G1 X103.172 Y87.497 E0.01911
G1 X102.652 Y87.468 E0.01631
G1 X98.974 Y87.463 E0.11532
G1 X95.713 Y90.724 E0.14463
G1 X95.718 Y94.402 E0.11532
G1 X95.747 Y94.922 E0.01631
G1 X95.837 Y95.525 E0.01911
G1 X95.519 Y95.438 E0.01034
G1 X94.953 Y95.374 E0.01786
G1 X93.937 Y95.363 E0.03187
G1 X85.569 Y95.364 E0.26236
G1 X85.044 Y95.374 E0.01645
G1 X84.481 Y95.438 E0.01777
G1 X84.163 Y95.525 E0.01034
G1 X84.253 Y94.922 E0.01911
G1 X84.282 Y94.402 E0.01631
G1 X84.287 Y90.724 E0.11532
G1 X81.026 Y87.463 E0.14463
G1 X77.348 Y87.468 E0.11532
G1 X76.828 Y87.497 E0.01631
G1 X76.225 Y87.587 E0.01911
G1 X76.312 Y87.269 E0.01034
G1 X76.376 Y86.703 E0.01786
G1 X76.387 Y85.687 E0.03187
G1 X76.386 Y77.319 E0.26236
G1 X76.376 Y76.794 E0.01645
G1 X76.312 Y76.231 E0.01777
G1 X76.235 Y75.948 E0.00921
M204 S1250
G1 X75.712 Y75.460 F9000.000
M204 S800
;TYPE:External perimeter
G1 F1200.000
G1 X76.054 Y75.460 E0.01074
G1 X76.539 Y75.581 E0.01567
G1 X77.060 Y75.643 E0.01645
G1 X78.067 Y75.660 E0.03157
G1 X101.933 Y75.660 E0.74831
G1 X102.940 Y75.643 E0.03157
G1 X103.461 Y75.581 E0.01645
G1 X103.946 Y75.460 E0.01567
G1 X104.288 Y75.460 E0.01074
G1 X104.060 Y76.302 E0.02736
G1 X104.001 Y76.819 E0.01632
G1 X103.990 Y85.684 E0.27796
G1 X104.001 Y86.680 E0.03120
G1 X104.060 Y87.198 E0.01635
G1 X104.288 Y88.040 E0.02736
G1 X104.086 Y88.040 E0.00635
G1 X103.625 Y87.946 E0.01476
G1 X103.133 Y87.873 E0.01558
G1 X102.641 Y87.845 E0.01544
G1 X99.130 Y87.840 E0.11009
G1 X96.090 Y90.880 E0.13482
G1 X96.095 Y94.391 E0.11009
G1 X96.123 Y94.883 E0.01544
G1 X96.196 Y95.375 E0.01558
G1 X96.290 Y95.836 E0.01476
G1 X96.290 Y96.038 E0.00635
G1 X95.448 Y95.810 E0.02736
G1 X94.930 Y95.751 E0.01635
G1 X93.934 Y95.740 E0.03120
G1 X85.069 Y95.751 E0.27796
G1 X84.552 Y95.810 E0.01632
G1 X83.710 Y96.038 E0.02736
G1 X83.710 Y95.836 E0.00635
G1 X83.804 Y95.375 E0.01476
G1 X83.877 Y94.883 E0.01558
G1 X83.905 Y94.391 E0.01544
G1 X83.910 Y90.880 E0.11009
G1 X80.870 Y87.840 E0.13482
G1 X77.359 Y87.845 E0.11009
G1 X76.867 Y87.873 E0.01544
G1 X76.375 Y87.946 E0.01558
G1 X75.914 Y88.040 E0.01476
G1 X75.712 Y88.040 E0.00635
G1 X75.940 Y87.198 E0.02736
G1 X75.999 Y86.680 E0.01635
G1 X76.010 Y85.684 E0.03120
G1 X75.999 Y76.819 E0.27796
G1 X75.940 Y76.302 E0.01632
G1 X75.727 Y75.518 E0.02548
M204 S1250
G1 X76.020 Y75.610 F9000.000
G1 E-2.24000 F4200.000
;WIPE_START
G1 F7200.000
G1 X76.054 Y75.460 E-0.18397
G1 X76.539 Y75.581 E-0.27690
G1 X77.060 Y75.643 E-0.29073
G1 X77.349 Y75.648 E-0.16040
;WIPE_END
G1 E-0.04800 F4200.000
G1 Z0.400 F9000.000
G1 X106.971 Y75.550
G1 Z0.200
G1 E3.20000 F2400.000
M204 S800
;WIDTH:0.616233
G1 F1200.000
G1 X104.482 Y75.550 E0.11866
M204 S1250
G1 E-2.24000 F4200.000
;WIPE_START
G1 F7200.000
G1 X106.127 Y75.550 E-0.91200
;WIPE_END
G1 E-0.04800 F4200.000
G1 Z0.400 F9000.000
G1 X104.482 Y87.950
G1 Z0.200
G1 E3.20000 F2400.000
M204 S800
;WIDTH:0.637399
G1 F1200.000
G1 X106.969 Y87.952 E0.12294
M204 S1250
G1 E-2.24000 F4200.000
;WIPE_START
G1 F7200.000
G1 X105.323 Y87.951 E-0.91200
;WIPE_END
G1 E-0.04800 F4200.000
G1 Z0.400 F9000.000
G1 X102.937 Y76.134
G1 Z0.200
G1 E3.20000 F2400.000
M204 S800
;TYPE:Solid infill
;WIDTH:0.423275
G1 F1200.000
G1 X103.366 Y76.562 E0.01918
G1 X103.336 Y77.070 E0.01609
G1 X102.575 Y76.309 E0.03403
G1 X102.046 Y76.318 E0.01674
G1 X103.331 Y77.603 E0.05747
G1 X103.331 Y78.141 E0.01701
G1 X101.510 Y76.320 E0.08145
G1 X100.972 Y76.320 E0.01701
G1 X103.331 Y78.679 E0.10550
G1 X103.331 Y79.216 E0.01701
G1 X100.434 Y76.320 E0.12956
G1 X99.896 Y76.320 E0.01701
M73 P2 R33
G1 X103.331 Y79.754 E0.15362
G1 X103.331 Y80.292 E0.01701
G1 X99.358 Y76.320 E0.17767
G1 X98.820 Y76.320 E0.01701
G1 X103.331 Y80.830 E0.20173
G1 X103.330 Y81.368 E0.01701
G1 X98.282 Y76.320 E0.22579
G1 X97.744 Y76.320 E0.01701
G1 X103.330 Y81.906 E0.24984
G1 X103.330 Y82.444 E0.01701
G1 X97.207 Y76.320 E0.27390
G1 X96.669 Y76.320 E0.01701
G1 X103.330 Y82.981 E0.29796
G1 X103.330 Y83.519 E0.01701
G1 X96.131 Y76.320 E0.32201
G1 X95.593 Y76.320 E0.01701
G1 X103.330 Y84.057 E0.34607
M73 P2 R32
G1 X103.330 Y84.595 E0.01701
G1 X95.055 Y76.320 E0.37013
G1 X94.517 Y76.320 E0.01701
G1 X103.330 Y85.133 E0.39418
G1 X103.330 Y85.671 E0.01701
G1 X93.979 Y76.320 E0.41824
G1 X93.441 Y76.320 E0.01701
G1 X103.336 Y86.214 E0.44256
G1 X103.346 Y86.763 E0.01734
G1 X92.903 Y76.320 E0.46708
G1 X92.365 Y76.320 E0.01701
G1 X103.272 Y87.227 E0.48782
G1 X102.695 Y87.187 E0.01830
G1 X91.828 Y76.320 E0.48607
G1 X91.290 Y76.320 E0.01701
G1 X102.154 Y87.185 E0.48594
G1 X101.616 Y87.184 E0.01704
G1 X90.752 Y76.320 E0.48591
G1 X90.214 Y76.320 E0.01701
G1 X101.077 Y87.183 E0.48587
G1 X100.538 Y87.182 E0.01704
G1 X89.676 Y76.320 E0.48584
G1 X89.138 Y76.320 E0.01701
G1 X100.000 Y87.181 E0.48580
G1 X99.461 Y87.180 E0.01704
G1 X88.600 Y76.320 E0.48576
G1 X88.062 Y76.320 E0.01701
G1 X98.922 Y87.180 E0.48573
G1 X98.857 Y87.180 E0.00205
G1 X98.621 Y87.416 E0.01058
G1 X87.524 Y76.320 E0.49631
G1 X86.986 Y76.320 E0.01701
G1 X98.352 Y87.685 E0.50834
G1 X98.083 Y87.954 E0.01203
G1 X86.448 Y76.320 E0.52037
G1 X85.911 Y76.320 E0.01701
G1 X97.814 Y88.223 E0.53240
G1 X97.545 Y88.492 E0.01203
G1 X85.373 Y76.320 E0.54443
G1 X84.835 Y76.320 E0.01701
G1 X97.276 Y88.761 E0.55646
G1 X97.007 Y89.030 E0.01203
G1 X84.297 Y76.320 E0.56848
M73 P3 R32
G1 X83.759 Y76.320 E0.01701
G1 X96.738 Y89.299 E0.58051
G1 X96.469 Y89.568 E0.01203
G1 X83.221 Y76.320 E0.59254
G1 X82.683 Y76.320 E0.01701
G1 X96.200 Y89.837 E0.60457
G1 X95.931 Y90.106 E0.01203
G1 X82.145 Y76.320 E0.61660
G1 X81.607 Y76.320 E0.01701
G1 X95.662 Y90.375 E0.62863
G1 X95.430 Y90.607 E0.01041
G1 X95.430 Y90.680 E0.00230
G1 X81.069 Y76.320 E0.64229
G1 X80.532 Y76.320 E0.01701
G1 X95.430 Y91.219 E0.66638
G1 X95.431 Y91.757 E0.01704
G1 X79.994 Y76.320 E0.69048
G1 X79.456 Y76.320 E0.01701
G1 X95.432 Y92.296 E0.71457
G1 X95.433 Y92.835 E0.01704
G1 X78.918 Y76.320 E0.73867
G1 X78.380 Y76.320 E0.01701
G1 X95.434 Y93.374 E0.76276
G1 X95.435 Y93.912 E0.01704
G1 X77.838 Y76.316 E0.78702
G1 X77.291 Y76.307 E0.01730
G1 X95.438 Y94.453 E0.81163
G1 X95.478 Y95.031 E0.01833
G1 X76.713 Y76.266 E0.83931
G1 X76.599 Y76.253 E0.00362
G1 X76.655 Y76.746 E0.01571
G1 X95.004 Y95.095 E0.82069
G1 X94.456 Y95.086 E0.01731
G1 X76.669 Y77.298 E0.79558
G1 X76.669 Y77.836 E0.01701
G1 X93.913 Y95.080 E0.77128
M73 P4 R32
G1 X93.375 Y95.080 E0.01701
G1 X76.668 Y78.373 E0.74725
G1 X76.667 Y78.910 E0.01699
G1 X92.837 Y95.080 E0.72322
G1 X92.299 Y95.080 E0.01701
G1 X76.667 Y79.448 E0.69919
G1 X76.666 Y79.985 E0.01699
G1 X91.761 Y95.080 E0.67516
G1 X91.224 Y95.080 E0.01701
G1 X76.666 Y80.522 E0.65113
G1 X76.665 Y81.060 E0.01699
G1 X90.686 Y95.080 E0.62710
G1 X90.148 Y95.080 E0.01701
G1 X76.664 Y81.597 E0.60307
G1 X76.664 Y82.134 E0.01699
G1 X89.610 Y95.080 E0.57904
G1 X89.072 Y95.081 E0.01701
G1 X76.663 Y82.672 E0.55501
G1 X76.663 Y83.209 E0.01699
G1 X80.634 Y87.180 E0.17763
G1 X81.143 Y87.180 E0.01608
G1 X84.570 Y90.607 E0.15331
G1 X84.570 Y91.116 E0.01608
G1 X88.534 Y95.081 E0.17732
G1 X87.996 Y95.081 E0.01701
G1 X84.569 Y91.653 E0.15330
G1 X84.568 Y92.190 E0.01699
G1 X87.459 Y95.081 E0.12928
G1 X86.921 Y95.081 E0.01701
G1 X84.567 Y92.727 E0.10526
G1 X84.566 Y93.264 E0.01699
G1 X86.383 Y95.081 E0.08124
G1 X85.845 Y95.081 E0.01701
G1 X84.566 Y93.801 E0.05722
G1 X84.565 Y94.339 E0.01699
G1 X85.312 Y95.086 E0.03343
G1 X84.805 Y95.117 E0.01607
G1 X84.379 Y94.691 E0.01907
M204 S1250
G1 E-2.24000 F4200.000
;WIPE_START
G1 F7200.000
G1 X84.805 Y95.117 E-0.33410
G1 X85.312 Y95.086 E-0.28154
G1 X84.934 Y94.708 E-0.29636
;WIPE_END
G1 E-0.04800 F4200.000
G1 Z0.400 F9000.000
G1 X80.266 Y87.351
G1 Z0.200
G1 E3.20000 F2400.000
M204 S800
G1 F1200.000
G1 X76.662 Y83.746 E0.16121
G1 X76.661 Y84.284 E0.01699
G1 X79.560 Y87.182 E0.12964
G1 X79.023 Y87.183 E0.01699
G1 X76.661 Y84.821 E0.10564
G1 X76.660 Y85.358 E0.01699
G1 X78.486 Y87.184 E0.08165
G1 X77.949 Y87.184 E0.01699
G1 X76.660 Y85.895 E0.05765
G1 X76.659 Y86.433 E0.01699
G1 X77.411 Y87.185 E0.03365
G1 X76.899 Y87.210 E0.01624
G1 X76.480 Y86.791 E0.01874
M204 S1250
G1 E-2.24000 F4200.000
;WIPE_START
G1 F7200.000
G1 X76.899 Y87.210 E-0.32829
G1 X77.411 Y87.185 E-0.28452
G1 X77.030 Y86.803 E-0.29919
;WIPE_END
G1 E-0.04800 F4200.000
G1 Z0.400 F9000.000
G1 X69.665 Y87.356
G1 Z0.200
G1 E3.20000 F2400.000
M204 S800
;TYPE:External perimeter
;WIDTH:0.629331
G1 F1200.000
G1 X69.616 Y87.357 E0.00238
M204 S1250
M204 S800
;WIDTH:0.642611
G1 X67.600 Y87.347 E0.10055
M204 S1250
M204 S800
;WIDTH:0.669595
G1 X67.518 Y87.330 E0.00434
M204 S1250
M204 S800
;WIDTH:0.702989
G1 X67.437 Y87.313 E0.00457
M204 S1250
M204 S800
;WIDTH:0.736382
G1 X67.355 Y87.296 E0.00480
G1 X67.338 Y87.214 E0.00482
M204 S1250
M204 S800
;WIDTH:0.634252
G1 X67.304 Y87.050 E0.00823
G1 X67.304 Y76.450 E0.52120
M204 S1250
M204 S800
;WIDTH:0.668295
G1 X67.321 Y76.368 E0.00435
M204 S1250
M204 S800
;WIDTH:0.702338
G1 X67.338 Y76.286 E0.00459
M204 S1250
M204 S800
;WIDTH:0.736382
G1 X67.355 Y76.204 E0.00482
G1 X67.437 Y76.187 E0.00480
M204 S1250
M204 S800
;WIDTH:0.629329
G1 X67.600 Y76.153 E0.00812
G1 X69.665 Y76.144 E0.10070
M204 S1250
G1 E-2.24000 F4200.000
;WIPE_START
G1 F7200.000
G1 X68.019 Y76.151 E-0.91200
;WIPE_END
G1 E-0.04800 F4200.000
G1 Z0.400 F9000.000
G1 X110.335 Y87.356
G1 Z0.200
G1 E3.20000 F2400.000
M204 S800
;WIDTH:0.629331
G1 F1200.000
G1 X112.400 Y87.347 E0.10070
G1 X112.563 Y87.313 E0.00812
M204 S1250
M204 S800
;WIDTH:0.736382
G1 X112.645 Y87.296 E0.00480
G1 X112.662 Y87.214 E0.00482
M204 S1250
M204 S800
;WIDTH:0.70234
G1 X112.679 Y87.132 E0.00459
M204 S1250
M204 S800
;WIDTH:0.668296
G1 X112.696 Y87.050 E0.00435
M204 S1250
M204 S800
;WIDTH:0.634252
G1 X112.696 Y76.450 E0.52120
G1 X112.662 Y76.286 E0.00823
M204 S1250
M204 S800
;WIDTH:0.736382
G1 X112.645 Y76.204 E0.00482
G1 X112.563 Y76.187 E0.00480
M204 S1250
M204 S800
;WIDTH:0.702986
G1 X112.482 Y76.170 E0.00457
M204 S1250
M204 S800
;WIDTH:0.669592
G1 X112.400 Y76.153 E0.00434
M204 S1250
M204 S800
;WIDTH:0.642609
G1 X110.384 Y76.143 E0.10055
M204 S1250
M204 S800
;WIDTH:0.62933
G1 X110.335 Y76.144 E0.00238
M204 S1250
; stop printing object MirrorHolder02.stl id:0 copy 0
M106 S84.15
;LAYER_CHANGE
;Z:0.4
;HEIGHT:0.2
;BEFORE_LAYER_CHANGE
G92 E0.0
;0.4


G1 E-2.24000 F4200.000
;WIPE_START
G1 F7200.000
G1 X110.384 Y76.143 E-0.02700
;WIPE_END
G1 E-0.93300 F4200.000
G1 Z0.400 F9000.000
;AFTER_LAYER_CHANGE
;0.4
G1 Z0.600
G1 X113.568 Y73.542
G1 Z0.400
G1 E3.20000 F2400.000
;TYPE:Skirt
;WIDTH:0.42
G1 X114.047 Y73.716 E0.01597
G1 X114.478 Y73.988 E0.01597
G1 X114.840 Y74.346 E0.01597
G1 X115.119 Y74.772 E0.01597
G1 X115.309 Y75.285 E0.01716
G1 X115.377 Y75.825 E0.01704
G1 X115.377 Y87.669 E0.37137
G1 X115.269 Y88.359 E0.02190
G1 X115.035 Y88.879 E0.01787
G1 X114.684 Y89.328 E0.01787
G1 X97.567 Y106.444 E0.75898
G1 X97.171 Y106.759 E0.01585
G1 X96.718 Y106.982 E0.01585
G1 X95.927 Y107.127 E0.02520
G1 X84.070 Y107.127 E0.37179
G1 X83.468 Y107.041 E0.01906
G1 X82.907 Y106.806 E0.01906
G1 X82.425 Y106.437 E0.01906
