; generated by PrusaSlicer 2.3.0+win64 on 2021-04-21 at 17:56:10 UTC


;
;

;
;
; 

; external perimeters extrusion width = 0.45mm
; perimeters extrusion width = 0.45mm
; infill extrusion width = 0.45mm
; solid infill extrusion width = 0.45mm
; top infill extrusion width = 0.40mm
; first layer extrusion width = 0.42mm

M73 P0 R21
M201 X1250 Y1250 Z400 E5000 ; sets maximum accelerations, mm/sec^2
M203 X180 Y180 Z12 E80 ; sets maximum feedrates, mm/sec
M204 P1250 R1250 T1250 ; sets acceleration (P, T) and retract acceleration (R), mm/sec^2
M205 X8.00 Y8.00 Z2.00 E10.00 ; sets the jerk limits, mm/sec
M205 S0 T0 ; sets the minimum extruding and travel feed rate, mm/sec
M107
;TYPE:Custom
G90 ; use absolute coordinates
M83 ; extruder relative mode
M104 S170 ; set extruder temp for bed leveling
M140 S60 ; set bed temp
M109 R170 ; wait for bed leveling temp
M190 S60 ; wait for bed temp
G28 ; home all without mesh bed level
G29 ; mesh bed leveling 
M104 S215 ; set extruder temp
G92 E0.0
G1 Y-2.0 X179 F2400
G1 Z3 F720
M109 S215 ; wait for extruder temp

; intro line
G1 X170 F1000
G1 Z0.2 F720
G1 X110.0 E8.0 F900
G1 X40.0 E10.0 F700
G92 E0.0

M221 S95 ; set flow
G21 ; set units to millimeters
G90 ; use absolute coordinates
M83 ; use relative distances for extrusion
M900 K0.2 ; Filament gcode LA 1.5
; ; Filament gcode LA 1.0
;LAYER_CHANGE
;Z:0.2
;HEIGHT:0.2
;BEFORE_LAYER_CHANGE
G92 E0.0
;0.2


M73 P1 R21
G1 E-3.20000 F4200.000
G1 Z0.200 F9000.000
;AFTER_LAYER_CHANGE
;0.2
G1 Z0.400
G1 X73.731 Y77.577
M73 P1 R20
G1 Z0.200
G1 E3.20000 F2400.000
M204 S800
;TYPE:Skirt
;WIDTH:0.42
G1 F1200.000
G1 X74.293 Y77.176 E0.02167
G1 X74.914 Y76.933 E0.02090
G1 X75.571 Y76.846 E0.02078
G1 X104.404 Y76.846 E0.90405
G1 X105.352 Y77.015 E0.03018
G1 X106.183 Y77.501 E0.03018
G1 X106.798 Y78.246 E0.03031
G1 X107.118 Y79.154 E0.03018
G1 X107.154 Y92.408 E0.41557
G1 X107.066 Y93.090 E0.02154
G1 X106.805 Y93.742 E0.02205
G1 X106.386 Y94.308 E0.02205
G1 X98.330 Y102.365 E0.35725
G1 X97.709 Y102.823 E0.02422
G1 X97.092 Y103.066 E0.02078
G1 X96.431 Y103.154 E0.02090
G1 X83.563 Y103.154 E0.40347
G1 X82.641 Y102.982 E0.02942
G1 X82.124 Y102.725 E0.01809
G1 X81.672 Y102.366 E0.01809
G1 X73.635 Y94.330 E0.35635
G1 X73.177 Y93.709 E0.02422
G1 X72.937 Y93.104 E0.02039
G1 X72.847 Y92.464 E0.02026
G1 X72.852 Y79.416 E0.40912
G1 X72.986 Y78.733 E0.02180
G1 X73.284 Y78.110 E0.02167
G1 X73.692 Y77.623 E0.01991
M204 S1250
G1 X73.979 Y77.866 F9000.000
M204 S800
G1 F1200.000
G1 X74.493 Y77.496 E0.01986
G1 X75.018 Y77.295 E0.01763
G1 X75.580 Y77.223 E0.01775
G1 X104.404 Y77.223 E0.90375
G1 X105.235 Y77.374 E0.02649
G1 X105.958 Y77.805 E0.02637
G1 X106.486 Y78.460 E0.02637
G1 X106.753 Y79.261 E0.02649
G1 X106.777 Y92.411 E0.41232
G1 X106.693 Y93.025 E0.01941
G1 X106.466 Y93.576 E0.01870
G1 X106.108 Y94.053 E0.01870
G1 X98.067 Y102.094 E0.35654
G1 X97.506 Y102.504 E0.02178
G1 X96.977 Y102.706 E0.01775
M73 P2 R20
G1 X96.420 Y102.777 E0.01763
G1 X83.573 Y102.777 E0.40279
G1 X82.765 Y102.626 E0.02579
G1 X82.320 Y102.403 E0.01562
G1 X81.933 Y102.095 E0.01550
G1 X73.906 Y94.067 E0.35594
G1 X73.496 Y93.506 E0.02178
G1 X73.298 Y92.992 E0.01728
G1 X73.223 Y92.446 E0.01728
G1 X73.228 Y79.452 E0.40744
G1 X73.343 Y78.855 E0.01906
G1 X73.603 Y78.310 E0.01894
G1 X73.940 Y77.912 E0.01635
M204 S1250
; printing object MirrorHolder01.stl id:0 copy 0
G1 E-2.24000 F4200.000
;WIPE_START
G1 F7200.000
G1 X74.493 Y77.496 E-0.38328
G1 X75.018 Y77.295 E-0.31167
G1 X75.407 Y77.245 E-0.21705
;WIPE_END
G1 E-0.04800 F4200.000
G1 Z0.400 F9000.000
G1 X76.387 Y80.387
G1 Z0.200
G1 E3.20000 F2400.000
M204 S800
;TYPE:Perimeter
G1 F1200.000
G1 X103.613 Y80.387 E0.85365
G1 X103.613 Y91.613 E0.35199
G1 X97.244 Y91.617 E0.19970
G1 X96.937 Y91.671 E0.00977
G1 X96.644 Y91.778 E0.00978
G1 X96.374 Y91.934 E0.00978
G1 X96.135 Y92.135 E0.00978
G1 X95.934 Y92.374 E0.00978
G1 X95.778 Y92.644 E0.00978
G1 X95.671 Y92.937 E0.00978
G1 X95.617 Y93.244 E0.00977
G1 X95.613 Y99.613 E0.19970
G1 X84.387 Y99.613 E0.35200
G1 X84.383 Y93.244 E0.19970
G1 X84.329 Y92.937 E0.00977
G1 X84.222 Y92.644 E0.00978
G1 X84.066 Y92.374 E0.00978
G1 X83.865 Y92.135 E0.00978
G1 X83.626 Y91.934 E0.00978
G1 X83.356 Y91.778 E0.00978
G1 X83.063 Y91.671 E0.00978
G1 X82.756 Y91.617 E0.00977
G1 X76.387 Y91.613 E0.19970
G1 X76.387 Y80.447 E0.35011
M204 S1250
G1 X76.010 Y80.010 F9000.000
M204 S800
;TYPE:External perimeter
G1 F1200.000
G1 X103.990 Y80.010 E0.87729
G1 X103.990 Y91.990 E0.37563
G1 X97.277 Y91.994 E0.21048
G1 X97.035 Y92.037 E0.00771
G1 X96.804 Y92.121 E0.00771
G1 X96.591 Y92.244 E0.00771
G1 X96.402 Y92.402 E0.00771
G1 X96.244 Y92.591 E0.00771
G1 X96.121 Y92.804 E0.00771
G1 X96.037 Y93.035 E0.00771
G1 X95.994 Y93.277 E0.00771
G1 X95.990 Y99.990 E0.21048
G1 X84.010 Y99.990 E0.37563
G1 X84.006 Y93.277 E0.21048
G1 X83.963 Y93.035 E0.00771
G1 X83.879 Y92.804 E0.00771
G1 X83.756 Y92.591 E0.00771
G1 X83.598 Y92.402 E0.00771
G1 X83.409 Y92.244 E0.00771
G1 X83.196 Y92.121 E0.00771
G1 X82.965 Y92.037 E0.00771
G1 X82.723 Y91.994 E0.00771
G1 X76.010 Y91.990 E0.21048
G1 X76.010 Y80.070 E0.37375
M204 S1250
G1 X76.385 Y80.148 F9000.000
G1 E-2.24000 F4200.000
;WIPE_START
G1 F7200.000
G1 X77.656 Y80.066 E-0.91200
;WIPE_END
G1 E-0.04800 F4200.000
G1 Z0.400 F9000.000
G1 X102.733 Y80.500
M73 P3 R20
G1 Z0.200
G1 E3.20000 F2400.000
M204 S800
;TYPE:Solid infill
;WIDTH:0.422119
G1 F1200.000
G1 X103.330 Y81.097 E0.02662
G1 X103.330 Y81.634 E0.01691
G1 X102.366 Y80.670 E0.04297
G1 X101.830 Y80.670 E0.01691
G1 X103.330 Y82.170 E0.06688
G1 X103.330 Y82.706 E0.01691
G1 X101.294 Y80.670 E0.09080
G1 X100.758 Y80.670 E0.01691
G1 X103.330 Y83.242 E0.11471
G1 X103.330 Y83.779 E0.01691
G1 X100.221 Y80.670 E0.13862
G1 X99.685 Y80.670 E0.01691
G1 X103.330 Y84.315 E0.16253
G1 X103.330 Y84.851 E0.01691
G1 X99.149 Y80.670 E0.18645
G1 X98.613 Y80.670 E0.01691
G1 X103.330 Y85.387 E0.21036
G1 X103.330 Y85.924 E0.01691
G1 X98.076 Y80.670 E0.23427
G1 X97.540 Y80.670 E0.01691
G1 X103.330 Y86.460 E0.25818
G1 X103.330 Y86.996 E0.01691
G1 X97.004 Y80.670 E0.28210
G1 X96.468 Y80.670 E0.01691
G1 X103.330 Y87.532 E0.30601
G1 X103.330 Y88.069 E0.01691
G1 X95.931 Y80.670 E0.32992
G1 X95.395 Y80.670 E0.01691
G1 X103.330 Y88.605 E0.35384
G1 X103.330 Y89.141 E0.01691
G1 X94.859 Y80.670 E0.37775
G1 X94.322 Y80.670 E0.01691
G1 X103.330 Y89.678 E0.40166
G1 X103.330 Y90.214 E0.01691
G1 X93.786 Y80.670 E0.42557
G1 X93.250 Y80.670 E0.01691
G1 X103.330 Y90.750 E0.44949
G1 X103.330 Y91.286 E0.01691
G1 X92.714 Y80.670 E0.47340
G1 X92.177 Y80.670 E0.01691
G1 X102.838 Y91.331 E0.47539
G1 X102.303 Y91.331 E0.01690
G1 X91.641 Y80.670 E0.47540
G1 X91.105 Y80.670 E0.01691
G1 X101.767 Y91.332 E0.47542
G1 X101.231 Y91.332 E0.01690
G1 X90.569 Y80.670 E0.47543
G1 X90.032 Y80.670 E0.01691
G1 X100.695 Y91.332 E0.47545
M73 P4 R20
G1 X100.159 Y91.333 E0.01690
G1 X89.496 Y80.670 E0.47546
G1 X88.960 Y80.670 E0.01691
G1 X99.623 Y91.333 E0.47548
G1 X99.087 Y91.333 E0.01690
G1 X88.423 Y80.670 E0.47549
G1 X87.887 Y80.670 E0.01691
G1 X98.551 Y91.334 E0.47551
G1 X98.015 Y91.334 E0.01690
G1 X87.351 Y80.670 E0.47552
G1 X86.815 Y80.670 E0.01691
G1 X97.479 Y91.334 E0.47554
G1 X97.219 Y91.335 E0.00820
G1 X96.984 Y91.376 E0.00751
G1 X86.278 Y80.670 E0.47739
G1 X85.742 Y80.670 E0.01691
G1 X96.575 Y91.502 E0.48303
G1 X96.228 Y91.692 E0.01246
G1 X85.206 Y80.670 E0.49148
G1 X84.670 Y80.670 E0.01691
G1 X95.934 Y91.934 E0.50228
G1 X95.692 Y92.228 E0.01201
G1 X84.133 Y80.670 E0.51539
G1 X83.597 Y80.670 E0.01691
G1 X95.502 Y92.575 E0.53086
G1 X95.397 Y92.863 E0.00968
G1 X95.376 Y92.985 E0.00389
G1 X83.061 Y80.670 E0.54914
G1 X82.525 Y80.670 E0.01691
G1 X95.334 Y93.480 E0.57120
G1 X95.334 Y94.016 E0.01690
G1 X81.988 Y80.670 E0.59510
M73 P5 R20
G1 X81.452 Y80.670 E0.01691
G1 X95.334 Y94.552 E0.61900
G1 X95.333 Y95.088 E0.01690
G1 X80.916 Y80.670 E0.64290
G1 X80.379 Y80.670 E0.01691
G1 X95.333 Y95.623 E0.66679
G1 X95.333 Y96.159 E0.01690
G1 X79.843 Y80.670 E0.69069
G1 X79.307 Y80.670 E0.01691
G1 X95.332 Y96.695 E0.71459
G1 X95.332 Y97.231 E0.01690
G1 X78.771 Y80.670 E0.73849
G1 X78.234 Y80.670 E0.01691
G1 X95.332 Y97.767 E0.76238
G1 X95.331 Y98.303 E0.01690
G1 X77.698 Y80.670 E0.78628
G1 X77.162 Y80.670 E0.01691
G1 X95.331 Y98.839 E0.81018
G1 X95.331 Y99.330 E0.01548
G1 X95.286 Y99.330 E0.00141
G1 X76.670 Y80.714 E0.83010
G1 X76.670 Y81.250 E0.01691
G1 X94.750 Y99.330 E0.80619
M73 P6 R20
G1 X94.213 Y99.330 E0.01691
G1 X76.670 Y81.787 E0.78228
M73 P6 R19
G1 X76.670 Y82.323 E0.01691
G1 X93.677 Y99.330 E0.75836
G1 X93.141 Y99.330 E0.01691
G1 X76.670 Y82.859 E0.73445
G1 X76.670 Y83.396 E0.01691
G1 X92.604 Y99.330 E0.71054
G1 X92.068 Y99.330 E0.01691
G1 X76.670 Y83.932 E0.68663
G1 X76.670 Y84.468 E0.01691
G1 X91.532 Y99.330 E0.66271
G1 X90.996 Y99.330 E0.01691
G1 X84.619 Y92.953 E0.28436
G1 X84.603 Y92.863 E0.00287
G1 X84.479 Y92.524 E0.01140
G1 X84.298 Y92.211 E0.01140
G1 X84.066 Y91.934 E0.01140
G1 X83.789 Y91.702 E0.01140
G1 X83.476 Y91.521 E0.01140
G1 X83.137 Y91.397 E0.01140
G1 X83.047 Y91.381 E0.00287
G1 X76.670 Y85.004 E0.28436
G1 X76.670 Y85.541 E0.01691
G1 X82.464 Y91.334 E0.25835
G1 X81.927 Y91.334 E0.01692
G1 X76.670 Y86.077 E0.23442
G1 X76.670 Y86.613 E0.01691
G1 X81.390 Y91.334 E0.21049
G1 X80.854 Y91.333 E0.01692
G1 X76.670 Y87.149 E0.18657
G1 X76.670 Y87.686 E0.01691
G1 X80.317 Y91.333 E0.16264
G1 X79.781 Y91.333 E0.01692
G1 X76.670 Y88.222 E0.13871
G1 X76.670 Y88.758 E0.01691
G1 X79.244 Y91.332 E0.11478
G1 X78.707 Y91.332 E0.01692
G1 X76.670 Y89.294 E0.09085
G1 X76.670 Y89.831 E0.01691
G1 X78.171 Y91.332 E0.06693
G1 X77.634 Y91.331 E0.01692
G1 X76.670 Y90.367 E0.04300
G1 X76.670 Y90.903 E0.01691
G1 X77.267 Y91.501 E0.02664
M204 S1250
G1 E-2.24000 F4200.000
;WIPE_START
G1 F7200.000
G1 X76.670 Y90.903 E-0.46824
G1 X76.670 Y90.367 E-0.29718
G1 X76.857 Y90.554 E-0.14658
;WIPE_END
G1 E-0.04800 F4200.000
G1 Z0.400 F9000.000
G1 X84.496 Y93.367
M73 P7 R19
G1 Z0.200
G1 E3.20000 F2400.000
M204 S800
G1 F1200.000
G1 X90.459 Y99.330 E0.26592
G1 X89.923 Y99.330 E0.01691
G1 X84.666 Y94.073 E0.23442
G1 X84.666 Y94.610 E0.01692
G1 X89.387 Y99.330 E0.21049
G1 X88.851 Y99.330 E0.01691
G1 X84.667 Y95.146 E0.18657
G1 X84.667 Y95.683 E0.01692
G1 X88.314 Y99.330 E0.16264
G1 X87.778 Y99.330 E0.01691
G1 X84.667 Y96.219 E0.13871
G1 X84.668 Y96.756 E0.01692
G1 X87.242 Y99.330 E0.11478
G1 X86.706 Y99.330 E0.01691
G1 X84.668 Y97.293 E0.09085
G1 X84.668 Y97.829 E0.01692
G1 X86.169 Y99.330 E0.06693
G1 X85.633 Y99.330 E0.01691
G1 X84.669 Y98.366 E0.04300
G1 X84.669 Y98.902 E0.01692
G1 X85.266 Y99.500 E0.02664
M204 S1250
; stop printing object MirrorHolder01.stl id:0 copy 0
M106 S84.15
;LAYER_CHANGE
;Z:0.45
;HEIGHT:0.25
;BEFORE_LAYER_CHANGE
G92 E0.0
;0.45


G1 E-2.24000 F4200.000
;WIPE_START
G1 F7200.000
G1 X84.669 Y98.902 E-0.46815
G1 X84.669 Y98.366 E-0.29737
G1 X84.856 Y98.553 E-0.14648
;WIPE_END
G1 E-0.04800 F4200.000
G1 Z0.400 F9000.000
G1 Z0.450
;AFTER_LAYER_CHANGE
;0.45
G1 Z0.650
G1 X82.641 Y102.982
G1 Z0.450
G1 E3.20000 F2400.000
;TYPE:Skirt
;WIDTH:0.42
G1 X82.124 Y102.725 E0.02197
G1 X81.672 Y102.366 E0.02197
G1 X73.635 Y94.330 E0.43276
G1 X73.177 Y93.709 E0.02941
G1 X72.937 Y93.104 E0.02476
G1 X72.847 Y92.464 E0.02461
G1 X72.852 Y79.416 E0.49685
G1 X72.986 Y78.733 E0.02647
G1 X73.284 Y78.110 E0.02631
G1 X73.731 Y77.577 E0.02647
G1 X74.293 Y77.176 E0.02631
G1 X74.914 Y76.933 E0.02538
G1 X75.571 Y76.846 E0.02523
G1 X104.404 Y76.846 E1.09791
G1 X105.352 Y77.015 E0.03665
G1 X106.183 Y77.501 E0.03665
G1 X106.798 Y78.246 E0.03681
G1 X107.118 Y79.154 E0.03665
G1 X107.154 Y92.408 E0.50468
G1 X107.066 Y93.090 E0.02616
G1 X106.805 Y93.742 E0.02678
G1 X106.386 Y94.308 E0.02678
G1 X98.330 Y102.365 E0.43386
G1 X97.709 Y102.823 E0.02941
G1 X97.092 Y103.066 E0.02523
G1 X96.431 Y103.154 E0.02538
G1 X83.563 Y103.154 E0.48998
G1 X82.700 Y102.993 E0.03345
G1 X82.768 Y102.626 F9000.000
G1 F2400.000
G1 X82.320 Y102.403 E0.01909
G1 X81.933 Y102.095 E0.01882
G1 X73.906 Y94.067 E0.43227
G1 X73.496 Y93.506 E0.02645
G1 X73.298 Y92.992 E0.02098
G1 X73.223 Y92.446 E0.02098
G1 X73.228 Y79.452 E0.49481
G1 X73.343 Y78.855 E0.02314
G1 X73.603 Y78.310 E0.02300
G1 X73.996 Y77.846 E0.02314
G1 X74.493 Y77.496 E0.02314
G1 X75.018 Y77.295 E0.02142
G1 X75.580 Y77.223 E0.02156
G1 X104.404 Y77.223 E1.09755
G1 X105.235 Y77.374 E0.03217
G1 X105.958 Y77.805 E0.03203
G1 X106.486 Y78.460 E0.03203
G1 X106.753 Y79.261 E0.03217
G1 X106.777 Y92.411 E0.50073
G1 X106.693 Y93.025 E0.02357
G1 X106.466 Y93.576 E0.02271
G1 X106.108 Y94.053 E0.02271
G1 X98.067 Y102.094 E0.43300
G1 X97.506 Y102.504 E0.02645
G1 X96.977 Y102.706 E0.02156
G1 X96.420 Y102.777 E0.02142
G1 X83.573 Y102.777 E0.48915
G1 X82.827 Y102.637 E0.02890
; printing object MirrorHolder01.stl id:0 copy 0
G1 E-2.24000 F4200.000
;WIPE_START
G1 F7200.000
G1 X82.320 Y102.403 E-0.30989
G1 X81.933 Y102.095 E-0.27391
G1 X81.514 Y101.676 E-0.32820
;WIPE_END
G1 E-0.04800 F4200.000
G1 Z0.650 F9000.000
G1 X84.221 Y99.779
G1 Z0.450
G1 E3.20000 F2400.000
M204 S800
;TYPE:Perimeter
;WIDTH:0.45
G1 F3300.000
G1 X84.221 Y93.373 E0.26389
G1 X84.199 Y93.118 E0.01054
G1 X84.126 Y92.845 E0.01166
G1 X84.000 Y92.576 E0.01222
G1 X83.759 Y92.261 E0.01636
G1 X83.531 Y92.070 E0.01222
G1 X83.274 Y91.922 E0.01222
G1 X82.896 Y91.802 E0.01636
G1 X82.627 Y91.779 E0.01110
G1 X76.221 Y91.779 E0.26389
G1 X76.221 Y80.221 E0.47611
G1 X103.779 Y80.221 E1.13524
G1 X103.779 Y91.779 E0.47611
G1 X97.373 Y91.779 E0.26389
G1 X97.118 Y91.801 E0.01054
G1 X96.845 Y91.874 E0.01166
G1 X96.576 Y92.000 E0.01222
G1 X96.261 Y92.241 E0.01636
G1 X96.070 Y92.469 E0.01222
G1 X95.922 Y92.726 E0.01222
G1 X95.802 Y93.104 E0.01636
G1 X95.779 Y93.373 E0.01110
G1 X95.779 Y99.779 E0.26389
G1 X84.281 Y99.779 E0.47364
M204 S1250
G1 X83.825 Y100.175 F9000.000
M204 S800
;TYPE:External perimeter
G1 F2400.000
G1 X83.825 Y93.390 E0.27951
G1 X83.807 Y93.187 E0.00840
G1 X83.752 Y92.981 E0.00880
G1 X83.660 Y92.783 E0.00901
G1 X83.471 Y92.536 E0.01278
G1 X83.303 Y92.396 E0.00901
G1 X83.114 Y92.287 E0.00901
G1 X82.818 Y92.193 E0.01278
G1 X82.610 Y92.175 E0.00860
G1 X75.825 Y92.175 E0.27951
G1 X75.825 Y79.825 E0.50877
G1 X104.175 Y79.825 E1.16790
M73 P8 R19
G1 X104.175 Y92.175 E0.50877
G1 X97.390 Y92.175 E0.27951
G1 X97.187 Y92.193 E0.00840
G1 X96.981 Y92.248 E0.00880
G1 X96.783 Y92.340 E0.00901
G1 X96.536 Y92.529 E0.01278
G1 X96.396 Y92.697 E0.00901
G1 X96.287 Y92.886 E0.00901
G1 X96.193 Y93.182 E0.01278
G1 X96.175 Y93.390 E0.00860
G1 X96.175 Y100.175 E0.27951
G1 X83.885 Y100.175 E0.50630
M204 S1250
G1 X83.964 Y99.800 F9000.000
G1 E-2.24000 F4200.000
;WIPE_START
G1 F7200.000
G1 X83.870 Y98.529 E-0.91200
;WIPE_END
G1 E-0.04800 F4200.000
G1 Z0.650 F9000.000
G1 X85.169 Y95.420
G1 Z0.450
G1 E3.20000 F2400.000
M204 S1000
;TYPE:Solid infill
;WIDTH:0.463215
G1 F6000.000
G1 X84.519 Y96.071 E0.03918
G1 X84.519 Y96.650 E0.02466
G1 X85.570 Y95.598 E0.06331
G1 X86.149 Y95.598 E0.02466
G1 X84.519 Y97.229 E0.09818
G1 X84.519 Y97.808 E0.02466
G1 X86.729 Y95.598 E0.13305
G1 X87.308 Y95.598 E0.02466
G1 X84.519 Y98.387 E0.16792
G1 X84.519 Y98.967 E0.02466
G1 X87.887 Y95.598 E0.20279
G1 X88.466 Y95.598 E0.02466
G1 X84.583 Y99.481 E0.23378
G1 X85.162 Y99.481 E0.02466
G1 X89.045 Y95.598 E0.23378
G1 X89.625 Y95.598 E0.02466
G1 X85.741 Y99.481 E0.23378
G1 X86.321 Y99.481 E0.02466
G1 X90.204 Y95.598 E0.23378
G1 X90.783 Y95.598 E0.02466
G1 X86.900 Y99.481 E0.23378
G1 X87.479 Y99.481 E0.02466
G1 X91.362 Y95.598 E0.23378
G1 X91.942 Y95.598 E0.02466
G1 X88.058 Y99.481 E0.23378
G1 X88.638 Y99.481 E0.02466
G1 X92.521 Y95.598 E0.23378
G1 X93.100 Y95.598 E0.02466
G1 X89.217 Y99.481 E0.23378
G1 X89.796 Y99.481 E0.02466
G1 X93.679 Y95.598 E0.23378
G1 X94.258 Y95.598 E0.02466
G1 X90.375 Y99.481 E0.23378
G1 X90.954 Y99.481 E0.02466
G1 X94.838 Y95.598 E0.23378
G1 X95.417 Y95.598 E0.02466
G1 X91.534 Y99.481 E0.23378
G1 X92.113 Y99.481 E0.02466
G1 X95.481 Y96.113 E0.20280
G1 X95.481 Y96.692 E0.02466
G1 X92.692 Y99.481 E0.16793
G1 X93.271 Y99.481 E0.02466
G1 X95.481 Y97.271 E0.13306
G1 X95.481 Y97.850 E0.02466
G1 X93.850 Y99.481 E0.09819
G1 X94.430 Y99.481 E0.02466
G1 X95.481 Y98.430 E0.06332
G1 X95.481 Y99.009 E0.02466
