; generated by PrusaSlicer 2.3.0+win64 on 2021-06-26 at 16:25:08 UTC


;
;

;
;
; 

; external perimeters extrusion width = 0.45mm
; perimeters extrusion width = 0.45mm
; infill extrusion width = 0.45mm
; solid infill extrusion width = 0.45mm
; top infill extrusion width = 0.40mm
; first layer extrusion width = 0.42mm

M73 P0 R86
M201 X1250 Y1250 Z400 E5000 ; sets maximum accelerations, mm/sec^2
M203 X180 Y180 Z12 E80 ; sets maximum feedrates, mm/sec
M204 P1250 R1250 T1250 ; sets acceleration (P, T) and retract acceleration (R), mm/sec^2
M205 X8.00 Y8.00 Z2.00 E10.00 ; sets the jerk limits, mm/sec
M205 S0 T0 ; sets the minimum extruding and travel feed rate, mm/sec
M107
;TYPE:Custom
G90 ; use absolute coordinates
M83 ; extruder relative mode
M104 S170 ; set extruder temp for bed leveling
M140 S60 ; set bed temp
M109 R170 ; wait for bed leveling temp
M190 S60 ; wait for bed temp
G28 ; home all without mesh bed level
G29 ; mesh bed leveling 
M104 S215 ; set extruder temp
G92 E0.0
G1 Y-2.0 X179 F2400
M73 P0 R85
G1 Z3 F720
M109 S215 ; wait for extruder temp

; intro line
G1 X170 F1000
G1 Z0.2 F720
G1 X110.0 E8.0 F900
G1 X40.0 E10.0 F700
G92 E0.0

M221 S95 ; set flow
G21 ; set units to millimeters
G90 ; use absolute coordinates
M83 ; use relative distances for extrusion
M900 K0.2 ; Filament gcode LA 1.5
; ; Filament gcode LA 1.0
;LAYER_CHANGE
;Z:0.2
;HEIGHT:0.2
;BEFORE_LAYER_CHANGE
G92 E0.0
;0.2


G1 E-3.20000 F4200.000
G1 Z0.200 F9000.000
;AFTER_LAYER_CHANGE
;0.2
G1 Z0.400
G1 X45.319 Y60.223
G1 Z0.200
G1 E3.20000 F2400.000
M204 S800
;TYPE:Skirt
;WIDTH:0.42
G1 F1200.000
G1 X45.991 Y60.123 E0.02130
G1 X134.004 Y60.123 E2.75957
G1 X134.902 Y60.301 E0.02872
G1 X135.664 Y60.803 E0.02860
G1 X136.181 Y61.555 E0.02860
G1 X136.377 Y62.449 E0.02872
G1 X136.377 Y117.546 E1.72751
G1 X136.295 Y118.118 E0.01811
G1 X136.079 Y118.653 E0.01811
G1 X135.739 Y119.120 E0.01811
G1 X135.297 Y119.492 E0.01811
G1 X134.681 Y119.777 E0.02130
G1 X134.009 Y119.877 E0.02130
G1 X45.981 Y119.877 E2.76005
G1 X45.401 Y119.800 E0.01835
G1 X44.857 Y119.584 E0.01835
G1 X44.385 Y119.245 E0.01823
G1 X44.008 Y118.797 E0.01835
G1 X43.724 Y118.184 E0.02119
G1 X43.623 Y117.516 E0.02119
G1 X43.623 Y62.473 E1.72583
G1 X43.701 Y61.897 E0.01823
G1 X43.916 Y61.357 E0.01823
G1 X44.255 Y60.885 E0.01823
G1 X44.703 Y60.508 E0.01835
G1 X45.265 Y60.248 E0.01942
M204 S1250
; printing object MountingFrame03_top.stl id:0 copy 0
G1 E-2.24000 F4200.000
;WIPE_START
G1 F7200.000
G1 X45.991 Y60.123 E-0.40854
G1 X46.900 Y60.123 E-0.50346
;WIPE_END
G1 E-0.04800 F4200.000
G1 Z0.400 F9000.000
G1 X75.315 Y80.239
G1 Z0.200
G1 E3.20000 F2400.000
M204 S800
;TYPE:Perimeter
G1 F1200.000
G1 X75.533 Y79.912 E0.01231
G1 X76.215 Y78.998 E0.03575
G1 X76.711 Y78.404 E0.02426
G1 X77.229 Y77.835 E0.02415
G1 X78.045 Y77.033 E0.03586
G1 X78.622 Y76.523 E0.02414
G1 X79.219 Y76.042 E0.02404
G1 X79.836 Y75.586 E0.02404
G1 X80.472 Y75.158 E0.02404
G1 X81.129 Y74.756 E0.02414
G1 X82.136 Y74.213 E0.03586
G1 X82.832 Y73.885 E0.02414
G1 X83.539 Y73.589 E0.02404
G1 X84.259 Y73.323 E0.02404
G1 X84.992 Y73.089 E0.02414
G1 X86.099 Y72.800 E0.03586
G1 X86.857 Y72.645 E0.02424
G1 X87.988 Y72.478 E0.03586
G1 X88.755 Y72.407 E0.02414
G1 X89.521 Y72.369 E0.02404
G1 X90.291 Y72.365 E0.02414
G1 X91.433 Y72.421 E0.03586
G1 X92.199 Y72.500 E0.02414
G1 X92.958 Y72.613 E0.02404
G1 X93.711 Y72.758 E0.02404
G1 X94.460 Y72.936 E0.02414
G1 X95.556 Y73.261 E0.03586
G1 X96.282 Y73.519 E0.02414
G1 X96.992 Y73.808 E0.02404
G1 X97.692 Y74.129 E0.02414
G1 X98.705 Y74.661 E0.03586
G1 X99.366 Y75.055 E0.02414
G1 X100.010 Y75.478 E0.02414
G1 X100.930 Y76.158 E0.03586
G1 X101.524 Y76.648 E0.02414
G1 X102.093 Y77.161 E0.02404
G1 X102.640 Y77.699 E0.02404
G1 X103.165 Y78.263 E0.02414
G1 X103.898 Y79.141 E0.03586
G1 X104.358 Y79.758 E0.02414
G1 X104.790 Y80.391 E0.02404
G1 X105.195 Y81.046 E0.02414
G1 X105.744 Y82.050 E0.03586
G1 X106.076 Y82.745 E0.02414
G1 X106.376 Y83.450 E0.02404
G1 X106.646 Y84.171 E0.02414
G1 X106.989 Y85.263 E0.03586
G1 X107.180 Y86.012 E0.02424
G1 X107.403 Y87.134 E0.03586
G1 X107.511 Y87.896 E0.02414
G1 X107.586 Y88.659 E0.02404
G1 X107.628 Y89.425 E0.02404
G1 X107.636 Y90.192 E0.02406
G1 X107.611 Y90.961 E0.02413
G1 X107.512 Y92.101 E0.03586
G1 X107.403 Y92.866 E0.02424
G1 X107.180 Y93.988 E0.03586
G1 X106.990 Y94.734 E0.02414
G1 X106.768 Y95.468 E0.02404
G1 X106.515 Y96.192 E0.02404
G1 X106.230 Y96.904 E0.02404
G1 X105.913 Y97.606 E0.02414
G1 X105.387 Y98.621 E0.03586
G1 X104.995 Y99.285 E0.02414
G1 X104.578 Y99.928 E0.02404
G1 X104.132 Y100.552 E0.02404
G1 X103.658 Y101.159 E0.02414
G1 X102.904 Y102.023 E0.03596
G1 X102.095 Y102.836 E0.03596
G1 X101.524 Y103.352 E0.02414
G1 X100.932 Y103.840 E0.02404
G1 X100.320 Y104.303 E0.02404
G1 X99.686 Y104.739 E0.02414
G1 X98.711 Y105.336 E0.03586
G1 X98.036 Y105.700 E0.02403
G1 X97.343 Y106.036 E0.02416
G1 X96.636 Y106.341 E0.02415
G1 X95.560 Y106.738 E0.03596
G1 X94.460 Y107.064 E0.03596
G1 X93.711 Y107.242 E0.02414
G1 X92.955 Y107.388 E0.02414
G1 X91.825 Y107.543 E0.03575
G1 X91.054 Y107.606 E0.02426
G1 X90.288 Y107.635 E0.02405
G1 X89.521 Y107.631 E0.02404
G1 X88.752 Y107.593 E0.02414
G1 X87.618 Y107.476 E0.03575
G1 X86.853 Y107.354 E0.02426
G1 X86.099 Y107.200 E0.02414
G1 X84.996 Y106.912 E0.03575
G1 X84.259 Y106.677 E0.02426
G1 X83.539 Y106.411 E0.02405
G1 X82.832 Y106.115 E0.02404
G1 X82.136 Y105.787 E0.02414
G1 X81.129 Y105.244 E0.03586
G1 X80.472 Y104.842 E0.02414
G1 X79.833 Y104.412 E0.02414
G1 X78.923 Y103.725 E0.03575
G1 X78.332 Y103.226 E0.02426
G1 X77.768 Y102.706 E0.02405
G1 X77.227 Y102.163 E0.02404
G1 X76.711 Y101.596 E0.02404
G1 X76.217 Y101.005 E0.02414
G1 X75.531 Y100.086 E0.03596
G1 X74.906 Y99.124 E0.03596
G1 X74.522 Y98.456 E0.02414
G1 X74.169 Y97.776 E0.02404
G1 X73.846 Y97.080 E0.02404
G1 X73.554 Y96.371 E0.02404
G1 X73.291 Y95.647 E0.02414
G1 X72.961 Y94.556 E0.03575
G1 X72.778 Y93.804 E0.02426
G1 X72.629 Y93.052 E0.02405
G1 X72.513 Y92.294 E0.02404
G1 X72.429 Y91.529 E0.02414
G1 X72.367 Y90.387 E0.03586
G1 X72.367 Y89.617 E0.02414
G1 X72.400 Y88.847 E0.02414
G1 X72.512 Y87.709 E0.03586
G1 X72.629 Y86.948 E0.02414
G1 X72.778 Y86.196 E0.02404
G1 X72.960 Y85.448 E0.02414
G1 X73.290 Y84.356 E0.03575
G1 X73.554 Y83.629 E0.02426
G1 X73.846 Y82.920 E0.02405
G1 X74.169 Y82.224 E0.02404
G1 X74.524 Y81.541 E0.02414
G1 X75.105 Y80.555 E0.03586
G1 X75.282 Y80.289 E0.01005
M204 S1250
G1 X75.596 Y80.497 F9000.000
M204 S800
;TYPE:External perimeter
G1 F1200.000
G1 X75.841 Y80.129 E0.01387
G1 X76.511 Y79.232 E0.03511
G1 X76.995 Y78.652 E0.02368
G1 X77.501 Y78.097 E0.02357
G1 X78.302 Y77.309 E0.03522
G1 X78.866 Y76.812 E0.02357
G1 X79.449 Y76.340 E0.02353
G1 X80.053 Y75.894 E0.02353
G1 X80.676 Y75.475 E0.02353
G1 X81.317 Y75.083 E0.02357
G1 X82.305 Y74.550 E0.03522
G1 X82.985 Y74.230 E0.02357
G1 X83.678 Y73.940 E0.02353
G1 X84.382 Y73.680 E0.02353
G1 X85.097 Y73.451 E0.02357
G1 X86.184 Y73.167 E0.03522
G1 X86.922 Y73.017 E0.02360
G1 X88.033 Y72.852 E0.03522
G1 X88.781 Y72.783 E0.02357
G1 X89.531 Y72.746 E0.02353
G1 X90.283 Y72.742 E0.02356
G1 X91.405 Y72.797 E0.03522
G1 X92.152 Y72.875 E0.02357
G1 X92.894 Y72.984 E0.02353
G1 X93.631 Y73.126 E0.02353
G1 X94.363 Y73.300 E0.02357
G1 X95.440 Y73.619 E0.03522
G1 X96.147 Y73.872 E0.02357
G1 X96.843 Y74.154 E0.02353
G1 X97.526 Y74.467 E0.02357
G1 X98.520 Y74.990 E0.03522
G1 X99.166 Y75.375 E0.02357
G1 X99.794 Y75.788 E0.02357
G1 X100.698 Y76.455 E0.03522
G1 X101.277 Y76.933 E0.02356
G1 X101.834 Y77.436 E0.02353
G1 X102.369 Y77.962 E0.02353
G1 X102.882 Y78.512 E0.02357
G1 X103.602 Y79.374 E0.03522
G1 X104.051 Y79.977 E0.02357
G1 X104.474 Y80.597 E0.02353
G1 X104.869 Y81.236 E0.02357
G1 X105.408 Y82.222 E0.03522
G1 X105.732 Y82.900 E0.02357
G1 X106.026 Y83.590 E0.02353
G1 X106.290 Y84.294 E0.02357
G1 X106.626 Y85.366 E0.03522
G1 X106.813 Y86.095 E0.02360
G1 X107.031 Y87.197 E0.03522
G1 X107.137 Y87.941 E0.02356
G1 X107.210 Y88.688 E0.02353
G1 X107.251 Y89.437 E0.02353
G1 X107.259 Y90.188 E0.02355
G1 X107.235 Y90.939 E0.02355
G1 X107.137 Y92.058 E0.03522
G1 X107.031 Y92.803 E0.02360
G1 X106.813 Y93.905 E0.03522
G1 X106.627 Y94.633 E0.02357
G1 X106.409 Y95.351 E0.02353
G1 X106.161 Y96.060 E0.02353
G1 X105.883 Y96.757 E0.02353
G1 X105.573 Y97.442 E0.02357
G1 X105.056 Y98.439 E0.03522
G1 X104.675 Y99.086 E0.02357
G1 X104.266 Y99.716 E0.02353
G1 X103.830 Y100.326 E0.02353
G1 X103.368 Y100.919 E0.02356
G1 X102.628 Y101.766 E0.03526
G1 X101.835 Y102.563 E0.03526
G1 X101.277 Y103.067 E0.02357
G1 X100.698 Y103.544 E0.02353
G1 X100.100 Y103.997 E0.02353
G1 X99.481 Y104.423 E0.02357
G1 X98.522 Y105.009 E0.03522
G1 X97.864 Y105.364 E0.02345
G1 X97.186 Y105.693 E0.02364
G1 X96.496 Y105.991 E0.02357
G1 X95.441 Y106.380 E0.03526
G1 X94.363 Y106.700 E0.03526
G1 X93.631 Y106.874 E0.02357
G1 X92.893 Y107.016 E0.02357
G1 X91.784 Y107.168 E0.03511
G1 X91.031 Y107.229 E0.02368
G1 X90.281 Y107.258 E0.02353
G1 X89.531 Y107.254 E0.02353
G1 X88.780 Y107.217 E0.02357
G1 X87.667 Y107.102 E0.03511
G1 X86.921 Y106.983 E0.02368
G1 X86.184 Y106.833 E0.02357
G1 X85.101 Y106.550 E0.03511
G1 X84.382 Y106.320 E0.02368
G1 X83.678 Y106.060 E0.02353
G1 X82.985 Y105.770 E0.02353
G1 X82.305 Y105.450 E0.02357
G1 X81.317 Y104.917 E0.03522
G1 X80.676 Y104.525 E0.02357
G1 X80.052 Y104.105 E0.02357
G1 X79.159 Y103.430 E0.03511
G1 X78.582 Y102.943 E0.02368
G1 X78.030 Y102.435 E0.02353
G1 X77.500 Y101.903 E0.02353
G1 X76.995 Y101.348 E0.02353
G1 X76.513 Y100.771 E0.02357
G1 X75.840 Y99.870 E0.03526
G1 X75.228 Y98.927 E0.03526
G1 X74.853 Y98.276 E0.02357
G1 X74.508 Y97.609 E0.02353
G1 X74.192 Y96.929 E0.02353
G1 X73.905 Y96.235 E0.02353
G1 X73.649 Y95.528 E0.02357
G1 X73.325 Y94.457 E0.03511
G1 X73.146 Y93.723 E0.02368
G1 X73.000 Y92.987 E0.02353
G1 X72.887 Y92.245 E0.02353
G1 X72.805 Y91.498 E0.02357
G1 X72.744 Y90.376 E0.03522
G1 X72.744 Y89.625 E0.02357
G1 X72.777 Y88.874 E0.02357
G1 X72.886 Y87.756 E0.03522
G1 X73.000 Y87.013 E0.02357
G1 X73.146 Y86.277 E0.02353
G1 X73.324 Y85.547 E0.02357
G1 X73.648 Y84.475 E0.03511
G1 X73.905 Y83.765 E0.02368
G1 X74.192 Y83.071 E0.02353
G1 X74.508 Y82.391 E0.02353
G1 X74.854 Y81.723 E0.02357
G1 X75.563 Y80.547 E0.04306
M204 S1250
G1 X75.411 Y80.143 F9000.000
G1 E-2.24000 F4200.000
;WIPE_START
G1 F7200.000
G1 X75.841 Y80.129 E-0.27843
G1 X76.511 Y79.232 E-0.62047
G1 X76.526 Y79.214 E-0.01310
;WIPE_END
G1 E-0.04800 F4200.000
G1 Z0.400 F9000.000
G1 X123.709 Y70.500
G1 Z0.200
G1 E3.20000 F2400.000
M204 S800
;TYPE:Perimeter
G1 F1200.000
G1 X123.762 Y70.018 E0.01520
G1 X123.862 Y69.681 E0.01103
G1 X124.081 Y69.249 E0.01520
G1 X124.388 Y68.874 E0.01519
G1 X124.656 Y68.646 E0.01103
G1 X125.076 Y68.404 E0.01520
G1 X125.547 Y68.255 E0.01551
G1 X126.018 Y68.211 E0.01481
G1 X126.380 Y68.242 E0.01138
G1 X126.848 Y68.372 E0.01524
G1 X127.285 Y68.604 E0.01553
G1 X127.655 Y68.918 E0.01519
G1 X127.878 Y69.190 E0.01103
G1 X128.112 Y69.614 E0.01520
G1 X128.252 Y70.084 E0.01537
G1 X128.289 Y70.500 E0.01311
G1 X128.252 Y70.916 E0.01311
G1 X128.113 Y71.386 E0.01535
G1 X127.885 Y71.799 E0.01481
G1 X127.656 Y72.081 E0.01138
G1 X127.286 Y72.396 E0.01522
G1 X126.869 Y72.618 E0.01481
G1 X126.523 Y72.729 E0.01138
G1 X126.041 Y72.790 E0.01524
G1 X125.559 Y72.747 E0.01520
G1 X125.220 Y72.653 E0.01103
G1 X124.784 Y72.441 E0.01519
G1 X124.395 Y72.134 E0.01553
G1 X124.081 Y71.751 E0.01553
G1 X123.862 Y71.319 E0.01520
G1 X123.762 Y70.982 E0.01103
G1 X123.716 Y70.560 E0.01331
M204 S1250
G1 X124.091 Y70.519 F9000.000
M204 S800
;TYPE:External perimeter
G1 F1200.000
G1 X124.133 Y70.093 E0.01342
G1 X124.214 Y69.821 E0.00888
G1 X124.399 Y69.456 E0.01284
G1 X124.658 Y69.139 E0.01284
G1 X124.874 Y68.956 E0.00888
G1 X125.229 Y68.751 E0.01284
G1 X125.623 Y68.626 E0.01295
G1 X126.019 Y68.590 E0.01249
G1 X126.312 Y68.615 E0.00923
G1 X126.707 Y68.724 E0.01285
G1 X127.073 Y68.918 E0.01296
G1 X127.385 Y69.183 E0.01284
G1 X127.564 Y69.402 E0.00889
G1 X127.763 Y69.761 E0.01284
G1 X127.880 Y70.155 E0.01290
G1 X127.911 Y70.500 E0.01086
G1 X127.880 Y70.845 E0.01086
G1 X127.763 Y71.239 E0.01289
G1 X127.571 Y71.588 E0.01249
G1 X127.385 Y71.817 E0.00923
G1 X127.073 Y72.082 E0.01285
G1 X126.721 Y72.269 E0.01249
G1 X126.441 Y72.359 E0.00923
G1 X126.035 Y72.411 E0.01285
G1 X125.627 Y72.374 E0.01284
G1 X125.354 Y72.298 E0.00889
G1 X124.985 Y72.120 E0.01284
G1 X124.661 Y71.864 E0.01296
G1 X124.399 Y71.544 E0.01296
G1 X124.214 Y71.179 E0.01284
G1 X124.133 Y70.907 E0.00888
G1 X124.097 Y70.579 E0.01036
M204 S1250
G1 X123.745 Y70.317 F9000.000
G1 E-2.24000 F4200.000
;WIPE_START
G1 F7200.000
G1 X124.133 Y70.093 E-0.26984
G1 X124.214 Y69.821 E-0.15703
G1 X124.399 Y69.456 E-0.22692
G1 X124.658 Y69.139 E-0.22692
G1 X124.701 Y69.103 E-0.03128
;WIPE_END
G1 E-0.04800 F4200.000
G1 Z0.400 F9000.000
G1 X123.769 Y84.240
G1 Z0.200
G1 E3.20000 F2400.000
M204 S800
;TYPE:Perimeter
G1 F1200.000
G1 X124.230 Y84.305 E0.01461
G1 X124.685 Y84.406 E0.01461
G1 X125.335 Y84.620 E0.02145
G1 X125.955 Y84.910 E0.02145
G1 X126.355 Y85.148 E0.01461
G1 X126.736 Y85.418 E0.01461
G1 X127.241 Y85.857 E0.02101
G1 X127.567 Y86.202 E0.01487
G1 X127.855 Y86.561 E0.01444
G1 X128.117 Y86.947 E0.01461
G1 X128.440 Y87.543 E0.02127
G1 X128.623 Y87.978 E0.01480
G1 X128.824 Y88.632 E0.02145
G1 X128.946 Y89.305 E0.02145
G1 X128.983 Y89.770 E0.01461
G1 X128.983 Y90.236 E0.01461
G1 X128.915 Y90.917 E0.02145
G1 X128.767 Y91.585 E0.02145
G1 X128.619 Y92.033 E0.01479
G1 X128.348 Y92.646 E0.02101
G1 X128.111 Y93.063 E0.01504
G1 X127.724 Y93.610 E0.02102
G1 X127.409 Y93.973 E0.01505
G1 X126.915 Y94.438 E0.02128
G1 X126.546 Y94.723 E0.01461
G1 X126.155 Y94.977 E0.01461
G1 X125.547 Y95.291 E0.02145
G1 X124.906 Y95.531 E0.02145
G1 X124.450 Y95.651 E0.01479
G1 X123.789 Y95.758 E0.02101
G1 X123.310 Y95.787 E0.01504
G1 X122.640 Y95.760 E0.02102
G1 X122.164 Y95.694 E0.01505
G1 X121.505 Y95.534 E0.02128
G1 X121.060 Y95.378 E0.01480
G1 X120.445 Y95.090 E0.02127
G1 X120.045 Y94.852 E0.01461
G1 X119.664 Y94.582 E0.01461
G1 X119.159 Y94.143 E0.02101
G1 X118.833 Y93.798 E0.01487
G1 X118.545 Y93.439 E0.01444
G1 X118.283 Y93.053 E0.01461
G1 X117.960 Y92.457 E0.02127
G1 X117.777 Y92.022 E0.01480
G1 X117.578 Y91.374 E0.02127
G1 X117.484 Y90.911 E0.01480
G1 X117.417 Y90.236 E0.02127
G1 X117.417 Y89.764 E0.01480
G1 X117.485 Y89.083 E0.02145
G1 X117.633 Y88.415 E0.02145
G1 X117.781 Y87.967 E0.01479
G1 X118.052 Y87.354 E0.02101
G1 X118.289 Y86.937 E0.01504
G1 X118.676 Y86.390 E0.02102
G1 X118.991 Y86.027 E0.01505
G1 X119.485 Y85.562 E0.02128
G1 X119.859 Y85.274 E0.01479
G1 X120.428 Y84.920 E0.02101
G1 X120.858 Y84.707 E0.01504
G1 X121.486 Y84.472 E0.02102
G1 X121.949 Y84.349 E0.01504
G1 X122.611 Y84.242 E0.02102
G1 X123.090 Y84.213 E0.01505
G1 X123.709 Y84.238 E0.01940
M204 S1250
G1 X123.694 Y84.615 F9000.000
M204 S800
;TYPE:External perimeter
G1 F1200.000
G1 X124.163 Y84.676 E0.01484
G1 X124.585 Y84.770 E0.01355
G1 X125.196 Y84.971 E0.02016
G1 X125.778 Y85.243 E0.02016
G1 X126.150 Y85.465 E0.01355
G1 X126.502 Y85.714 E0.01355
G1 X126.980 Y86.129 E0.01984
G1 X127.282 Y86.450 E0.01380
G1 X127.552 Y86.785 E0.01349
G1 X127.794 Y87.143 E0.01355
G1 X128.100 Y87.706 E0.02009
G1 X128.268 Y88.107 E0.01362
G1 X128.457 Y88.721 E0.02016
G1 X128.572 Y89.354 E0.02016
G1 X128.606 Y89.785 E0.01355
G1 X128.606 Y90.217 E0.01355
G1 X128.542 Y90.857 E0.02016
G1 X128.403 Y91.485 E0.02016
G1 X128.267 Y91.897 E0.01362
G1 X128.010 Y92.476 E0.01984
G1 X127.792 Y92.861 E0.01387
G1 X127.427 Y93.377 E0.01985
G1 X127.137 Y93.711 E0.01387
G1 X126.670 Y94.151 E0.02010
G1 X126.328 Y94.415 E0.01355
G1 X125.965 Y94.650 E0.01355
G1 X125.394 Y94.946 E0.02016
G1 X124.792 Y95.171 E0.02016
G1 X124.372 Y95.282 E0.01362
G1 X123.747 Y95.382 E0.01984
G1 X123.306 Y95.409 E0.01387
G1 X122.673 Y95.384 E0.01985
G1 X122.235 Y95.324 E0.01387
G1 X121.612 Y95.172 E0.02010
G1 X121.202 Y95.028 E0.01362
G1 X120.622 Y94.757 E0.02009
G1 X120.250 Y94.535 E0.01355
G1 X119.898 Y94.286 E0.01355
G1 X119.420 Y93.871 E0.01984
G1 X119.118 Y93.550 E0.01380
G1 X118.848 Y93.215 E0.01349
G1 X118.606 Y92.857 E0.01355
G1 X118.300 Y92.294 E0.02009
G1 X118.132 Y91.893 E0.01362
G1 X117.943 Y91.281 E0.02009
