; generated by PrusaSlicer 2.3.0+win64 on 2021-06-20 at 14:11:56 UTC


;
;

;
;
; 

; external perimeters extrusion width = 0.45mm
; perimeters extrusion width = 0.45mm
; infill extrusion width = 0.45mm
; solid infill extrusion width = 0.45mm
; top infill extrusion width = 0.40mm
; first layer extrusion width = 0.42mm

M73 P0 R15
M201 X1250 Y1250 Z400 E5000 ; sets maximum accelerations, mm/sec^2
M203 X180 Y180 Z12 E80 ; sets maximum feedrates, mm/sec
M204 P1250 R1250 T1250 ; sets acceleration (P, T) and retract acceleration (R), mm/sec^2
M205 X8.00 Y8.00 Z2.00 E10.00 ; sets the jerk limits, mm/sec
M205 S0 T0 ; sets the minimum extruding and travel feed rate, mm/sec
M107
;TYPE:Custom
G90 ; use absolute coordinates
M83 ; extruder relative mode
M104 S170 ; set extruder temp for bed leveling
M140 S60 ; set bed temp
M109 R170 ; wait for bed leveling temp
M190 S60 ; wait for bed temp
G28 ; home all without mesh bed level
G29 ; mesh bed leveling 
M104 S215 ; set extruder temp
G92 E0.0
G1 Y-2.0 X179 F2400
G1 Z3 F720
M109 S215 ; wait for extruder temp

; intro line
G1 X170 F1000
G1 Z0.2 F720
G1 X110.0 E8.0 F900
M73 P1 R15
G1 X40.0 E10.0 F700
G92 E0.0

M221 S95 ; set flow
G21 ; set units to millimeters
G90 ; use absolute coordinates
M83 ; use relative distances for extrusion
M900 K0.2 ; Filament gcode LA 1.5
; ; Filament gcode LA 1.0
;LAYER_CHANGE
;Z:0.2
;HEIGHT:0.2
;BEFORE_LAYER_CHANGE
G92 E0.0
;0.2


G1 E-3.20000 F4200.000
G1 Z0.200 F9000.000
;AFTER_LAYER_CHANGE
;0.2
G1 Z0.400
G1 X45.221 Y73.671
M73 P1 R14
G1 Z0.200
G1 E3.20000 F2400.000
M204 S800
;TYPE:Skirt
;WIDTH:0.42
G1 F1200.000
G1 X45.995 Y73.540 E0.02461
G1 X134.004 Y73.540 E2.75945
M73 P2 R14
G1 X134.899 Y73.716 E0.02860
G1 X135.662 Y74.217 E0.02860
G1 X136.179 Y74.968 E0.02860
G1 X136.376 Y75.862 E0.02872
G1 X136.374 Y104.209 E0.88878
G1 X136.235 Y104.893 E0.02190
G1 X135.901 Y105.511 E0.02201
G1 X135.401 Y106.004 E0.02201
G1 X134.779 Y106.329 E0.02201
G1 X134.005 Y106.460 E0.02461
G1 X45.962 Y106.460 E2.76053
M73 P3 R14
G1 X45.251 Y106.339 E0.02260
G1 X44.606 Y106.009 E0.02272
G1 X44.091 Y105.499 E0.02272
G1 X43.754 Y104.862 E0.02260
G1 X43.623 Y104.092 E0.02449
G1 X43.625 Y75.806 E0.88687
G1 X43.763 Y75.114 E0.02213
G1 X44.095 Y74.495 E0.02201
G1 X44.596 Y73.999 E0.02213
G1 X45.168 Y73.699 E0.02025
M204 S1250
; printing object MountingFrame_TestPrint01.stl id:0 copy 0
G1 E-2.24000 F4200.000
;WIPE_START
G1 F7200.000
G1 X45.995 Y73.540 E-0.46667
G1 X46.799 Y73.540 E-0.44533
;WIPE_END
G1 E-0.04800 F4200.000
G1 Z0.400 F9000.000
G1 X83.193 Y87.128
G1 Z0.200
G1 E3.20000 F2400.000
M204 S800
;TYPE:Perimeter
G1 F1200.000
G1 X83.528 Y86.437 E0.02411
G1 X83.925 Y85.797 E0.02359
G1 X84.244 Y85.369 E0.01675
G1 X84.753 Y84.799 E0.02396
G1 X85.322 Y84.282 E0.02411
G1 X85.929 Y83.836 E0.02359
G1 X86.385 Y83.557 E0.01675
G1 X87.069 Y83.218 E0.02396
G1 X87.790 Y82.950 E0.02411
G1 X88.535 Y82.759 E0.02411
G1 X89.296 Y82.646 E0.02411
G1 X90.047 Y82.613 E0.02359
G1 X90.581 Y82.635 E0.01675
G1 X91.339 Y82.734 E0.02396
G1 X92.087 Y82.913 E0.02411
G1 X92.812 Y83.168 E0.02411
G1 X93.507 Y83.498 E0.02411
G1 X94.164 Y83.897 E0.02411
G1 X94.763 Y84.353 E0.02359
G1 X95.159 Y84.712 E0.01675
G1 X95.678 Y85.273 E0.02396
G1 X96.138 Y85.889 E0.02411
G1 X96.532 Y86.549 E0.02411
G1 X96.849 Y87.232 E0.02359
G1 X97.031 Y87.734 E0.01675
G1 X97.228 Y88.472 E0.02396
G1 X97.348 Y89.232 E0.02411
G1 X97.388 Y89.995 E0.02395
G1 X97.369 Y90.518 E0.01640
G1 X97.277 Y91.276 E0.02395
G1 X97.105 Y92.025 E0.02411
G1 X96.856 Y92.753 E0.02411
G1 X96.532 Y93.451 E0.02411
G1 X96.138 Y94.111 E0.02411
G1 X95.681 Y94.723 E0.02395
G1 X95.332 Y95.113 E0.01640
G1 X94.780 Y95.633 E0.02379
G1 X94.369 Y95.957 E0.01640
G1 X93.731 Y96.377 E0.02395
G1 X93.048 Y96.730 E0.02411
G1 X92.332 Y97.010 E0.02411
G1 X91.590 Y97.215 E0.02411
G1 X90.832 Y97.341 E0.02411
G1 X90.064 Y97.388 E0.02411
G1 X89.296 Y97.354 E0.02411
G1 X88.535 Y97.241 E0.02411
G1 X87.790 Y97.050 E0.02411
G1 X87.074 Y96.784 E0.02395
G1 X86.602 Y96.560 E0.01640
G1 X85.942 Y96.174 E0.02395
G1 X85.322 Y95.719 E0.02411
G1 X84.753 Y95.201 E0.02411
G1 X84.244 Y94.632 E0.02395
G1 X83.931 Y94.213 E0.01640
G1 X83.528 Y93.564 E0.02395
G1 X83.193 Y92.872 E0.02411
G1 X82.931 Y92.148 E0.02411
G1 X82.746 Y91.402 E0.02411
G1 X82.641 Y90.645 E0.02396
G1 X82.613 Y90.119 E0.01652
G1 X82.640 Y89.360 E0.02383
G1 X82.746 Y88.598 E0.02411
G1 X82.931 Y87.852 E0.02411
G1 X83.173 Y87.185 E0.02223
M204 S1250
G1 X83.527 Y87.313 F9000.000
M204 S800
;TYPE:External perimeter
G1 F1200.000
G1 X83.859 Y86.619 E0.02414
G1 X84.237 Y86.009 E0.02247
G1 X84.537 Y85.608 E0.01572
G1 X85.021 Y85.065 E0.02283
G1 X85.561 Y84.574 E0.02288
G1 X86.139 Y84.149 E0.02247
G1 X86.567 Y83.888 E0.01572
G1 X87.219 Y83.565 E0.02283
G1 X87.903 Y83.311 E0.02288
G1 X88.610 Y83.129 E0.02288
G1 X89.332 Y83.022 E0.02288
G1 X90.048 Y82.990 E0.02247
G1 X90.549 Y83.011 E0.01572
G1 X91.271 Y83.106 E0.02283
G1 X91.980 Y83.275 E0.02288
G1 X92.669 Y83.518 E0.02288
G1 X93.328 Y83.830 E0.02288
G1 X93.951 Y84.209 E0.02288
G1 X94.522 Y84.643 E0.02247
G1 X94.893 Y84.980 E0.01572
G1 X95.388 Y85.515 E0.02283
G1 X95.825 Y86.099 E0.02288
G1 X96.199 Y86.726 E0.02288
G1 X96.500 Y87.376 E0.02247
G1 X96.671 Y87.847 E0.01572
G1 X96.859 Y88.550 E0.02283
G1 X96.972 Y89.271 E0.02288
G1 X97.010 Y89.998 E0.02282
G1 X96.993 Y90.488 E0.01537
G1 X96.905 Y91.211 E0.02282
G1 X96.742 Y91.922 E0.02288
G1 X96.505 Y92.612 E0.02288
G1 X96.199 Y93.274 E0.02288
G1 X95.825 Y93.901 E0.02288
G1 X95.389 Y94.484 E0.02282
G1 X95.062 Y94.850 E0.01537
G1 X94.533 Y95.347 E0.02277
G1 X94.149 Y95.651 E0.01537
G1 X93.540 Y96.051 E0.02282
G1 X92.892 Y96.386 E0.02288
G1 X92.213 Y96.652 E0.02288
G1 X91.509 Y96.846 E0.02288
G1 X90.789 Y96.966 E0.02288
G1 X90.061 Y97.010 E0.02288
G1 X89.332 Y96.978 E0.02288
G1 X88.610 Y96.871 E0.02288
G1 X87.903 Y96.689 E0.02288
G1 X87.221 Y96.436 E0.02282
G1 X86.778 Y96.226 E0.01537
G1 X86.150 Y95.858 E0.02282
G1 X85.562 Y95.426 E0.02288
G1 X85.021 Y94.935 E0.02288
G1 X84.537 Y94.393 E0.02282
G1 X84.243 Y94.000 E0.01537
G1 X83.859 Y93.382 E0.02282
G1 X83.541 Y92.725 E0.02288
G1 X83.293 Y92.039 E0.02288
G1 X83.117 Y91.330 E0.02288
G1 X83.016 Y90.609 E0.02282
G1 X82.991 Y90.116 E0.01549
G1 X83.016 Y89.392 E0.02270
G1 X83.117 Y88.670 E0.02288
G1 X83.293 Y87.961 E0.02288
G1 X83.507 Y87.370 E0.01973
M204 S1250
G1 X83.284 Y86.995 F9000.000
G1 E-2.24000 F4200.000
;WIPE_START
G1 F7200.000
G1 X83.859 Y86.619 E-0.45971
G1 X84.237 Y86.009 E-0.39716
G1 X84.296 Y85.930 E-0.05513
;WIPE_END
G1 E-0.04800 F4200.000
G1 Z0.400 F9000.000
G1 X62.066 Y89.527
G1 Z0.200
G1 E3.20000 F2400.000
M204 S800
;TYPE:Perimeter
G1 F1200.000
G1 X62.088 Y89.999 E0.01481
G1 X62.069 Y90.449 E0.01411
G1 X61.973 Y91.099 E0.02063
G1 X61.796 Y91.733 E0.02063
G1 X61.628 Y92.156 E0.01427
G1 X61.326 Y92.734 E0.02044
G1 X61.078 Y93.108 E0.01408
G1 X60.803 Y93.455 E0.01389
G1 X60.500 Y93.778 E0.01389
G1 X60.170 Y94.074 E0.01389
G1 X59.813 Y94.346 E0.01408
G1 X59.255 Y94.683 E0.02044
G1 X58.843 Y94.877 E0.01427
G1 X58.228 Y95.091 E0.02044
G1 X57.791 Y95.194 E0.01408
G1 X57.353 Y95.259 E0.01389
G1 X56.911 Y95.286 E0.01389
G1 X56.462 Y95.277 E0.01408
G1 X55.815 Y95.195 E0.02044
G1 X55.373 Y95.092 E0.01426
G1 X54.779 Y94.886 E0.01968
G1 X54.351 Y94.686 E0.01481
G1 X53.961 Y94.461 E0.01411
G1 X53.434 Y94.078 E0.02044
G1 X53.100 Y93.778 E0.01408
G1 X52.793 Y93.451 E0.01408
G1 X52.399 Y92.931 E0.02044
G1 X52.163 Y92.542 E0.01427
G1 X51.886 Y91.952 E0.02044
G1 X51.736 Y91.522 E0.01427
G1 X51.587 Y90.888 E0.02044
G1 X51.531 Y90.442 E0.01408
G1 X51.512 Y90.000 E0.01389
M73 P4 R14
G1 X51.531 Y89.558 E0.01389
G1 X51.587 Y89.112 E0.01408
G1 X51.736 Y88.478 E0.02044
G1 X51.886 Y88.048 E0.01427
G1 X52.163 Y87.458 E0.02044
G1 X52.396 Y87.074 E0.01408
G1 X52.656 Y86.716 E0.01389
G1 X52.945 Y86.380 E0.01389
G1 X53.266 Y86.066 E0.01408
G1 X53.782 Y85.658 E0.02061
G1 X54.323 Y85.329 E0.01988
G1 X54.755 Y85.123 E0.01499
G1 X55.349 Y84.916 E0.01971
G1 X55.808 Y84.806 E0.01481
G1 X56.247 Y84.741 E0.01392
G1 X56.695 Y84.713 E0.01406
G1 X57.322 Y84.738 E0.01968
G1 X57.790 Y84.806 E0.01481
G1 X58.222 Y84.907 E0.01392
G1 X58.649 Y85.046 E0.01406
G1 X59.222 Y85.300 E0.01968
G1 X59.632 Y85.535 E0.01481
G1 X60.002 Y85.792 E0.01411
G1 X60.495 Y86.218 E0.02044
G1 X60.807 Y86.549 E0.01427
G1 X61.201 Y87.069 E0.02044
G1 X61.434 Y87.453 E0.01408
G1 X61.630 Y87.849 E0.01389
G1 X61.796 Y88.267 E0.01408
G1 X61.973 Y88.900 E0.02061
G1 X62.057 Y89.468 E0.01799
M204 S1250
G1 X61.684 Y89.523 F9000.000
M204 S800
;TYPE:External perimeter
G1 F1200.000
G1 X61.710 Y90.000 E0.01496
G1 X61.693 Y90.413 E0.01297
G1 X61.603 Y91.021 E0.01927
G1 X61.438 Y91.613 E0.01927
G1 X61.285 Y91.999 E0.01303
G1 X61.001 Y92.542 E0.01920
G1 X60.772 Y92.886 E0.01296
G1 X60.517 Y93.208 E0.01289
G1 X60.236 Y93.508 E0.01289
G1 X59.930 Y93.783 E0.01289
G1 X59.601 Y94.033 E0.01296
G1 X59.077 Y94.351 E0.01920
G1 X58.701 Y94.527 E0.01303
G1 X58.123 Y94.729 E0.01920
G1 X57.720 Y94.823 E0.01296
G1 X57.313 Y94.883 E0.01289
G1 X56.903 Y94.909 E0.01289
G1 X56.489 Y94.900 E0.01296
G1 X55.882 Y94.824 E0.01920
G1 X55.478 Y94.729 E0.01303
G1 X54.921 Y94.536 E0.01846
G1 X54.525 Y94.352 E0.01369
G1 X54.167 Y94.145 E0.01297
G1 X53.672 Y93.785 E0.01920
G1 X53.364 Y93.508 E0.01296
G1 X53.081 Y93.207 E0.01296
G1 X52.711 Y92.719 E0.01920
G1 X52.496 Y92.364 E0.01303
G1 X52.235 Y91.810 E0.01920
G1 X52.099 Y91.417 E0.01303
G1 X51.959 Y90.821 E0.01920
G1 X51.907 Y90.411 E0.01296
G1 X51.890 Y90.000 E0.01289
G1 X51.907 Y89.589 E0.01289
G1 X51.959 Y89.179 E0.01296
G1 X52.099 Y88.583 E0.01920
G1 X52.235 Y88.190 E0.01303
G1 X52.496 Y87.636 E0.01920
G1 X52.710 Y87.283 E0.01296
G1 X52.952 Y86.950 E0.01289
G1 X53.221 Y86.639 E0.01289
G1 X53.516 Y86.349 E0.01296
G1 X53.997 Y85.968 E0.01926
G1 X54.502 Y85.661 E0.01853
G1 X54.899 Y85.473 E0.01375
G1 X55.455 Y85.278 E0.01848
G1 X55.880 Y85.177 E0.01369
G1 X56.287 Y85.117 E0.01291
G1 X56.699 Y85.091 E0.01296
G1 X57.288 Y85.114 E0.01846
G1 X57.720 Y85.177 E0.01369
G1 X58.120 Y85.271 E0.01291
G1 X58.513 Y85.398 E0.01296
G1 X59.052 Y85.637 E0.01846
G1 X59.431 Y85.854 E0.01369
G1 X59.771 Y86.090 E0.01297
G1 X60.234 Y86.490 E0.01920
G1 X60.519 Y86.793 E0.01303
G1 X60.889 Y87.281 E0.01920
G1 X61.103 Y87.634 E0.01296
G1 X61.286 Y88.003 E0.01289
G1 X61.438 Y88.387 E0.01296
G1 X61.603 Y88.979 E0.01926
G1 X61.676 Y89.464 E0.01538
M204 S1250
G1 X62.050 Y89.685 F9000.000
G1 E-2.24000 F4200.000
;WIPE_START
G1 F7200.000
G1 X61.710 Y90.000 E-0.29745
G1 X61.693 Y90.413 E-0.22932
G1 X61.603 Y91.021 E-0.34051
G1 X61.581 Y91.099 E-0.04472
;WIPE_END
G1 E-0.04800 F4200.000
G1 Z0.400 F9000.000
G1 X117.912 Y90.001
G1 Z0.200
G1 E3.20000 F2400.000
M204 S800
;TYPE:Perimeter
G1 F1200.000
G1 X117.931 Y89.551 E0.01411
G1 X118.027 Y88.901 E0.02063
G1 X118.204 Y88.267 E0.02063
G1 X118.370 Y87.849 E0.01408
G1 X118.566 Y87.453 E0.01389
G1 X118.799 Y87.069 E0.01408
G1 X119.193 Y86.549 E0.02044
G1 X119.500 Y86.222 E0.01408
G1 X119.830 Y85.926 E0.01389
G1 X120.187 Y85.654 E0.01408
G1 X120.745 Y85.317 E0.02044
G1 X121.157 Y85.123 E0.01427
G1 X121.772 Y84.909 E0.02044
G1 X122.209 Y84.806 E0.01408
G1 X122.647 Y84.741 E0.01389
G1 X123.095 Y84.713 E0.01406
G1 X123.722 Y84.738 E0.01968
G1 X124.195 Y84.807 E0.01499
G1 X124.805 Y84.962 E0.01971
G1 X125.248 Y85.125 E0.01482
G1 X125.655 Y85.316 E0.01409
G1 X126.192 Y85.641 E0.01968
G1 X126.570 Y85.925 E0.01481
G1 X126.900 Y86.222 E0.01392
G1 X127.207 Y86.549 E0.01408
G1 X127.601 Y87.069 E0.02044
G1 X127.837 Y87.458 E0.01426
G1 X128.105 Y88.025 E0.01968
G1 X128.262 Y88.471 E0.01482
G1 X128.374 Y88.907 E0.01411
G1 X128.469 Y89.551 E0.02044
G1 X128.488 Y90.000 E0.01408
G1 X128.469 Y90.442 E0.01389
G1 X128.413 Y90.888 E0.01408
G1 X128.264 Y91.522 E0.02044
G1 X128.114 Y91.952 E0.01427
G1 X127.837 Y92.542 E0.02044
G1 X127.604 Y92.926 E0.01408
G1 X127.344 Y93.284 E0.01389
G1 X127.055 Y93.620 E0.01389
G1 X126.734 Y93.934 E0.01408
G1 X126.218 Y94.342 E0.02061
G1 X125.677 Y94.671 E0.01988
G1 X125.244 Y94.877 E0.01501
G1 X124.628 Y95.091 E0.02047
G1 X124.191 Y95.194 E0.01408
G1 X123.753 Y95.259 E0.01389
G1 X123.311 Y95.286 E0.01389
G1 X122.862 Y95.277 E0.01408
G1 X122.215 Y95.195 E0.02044
G1 X121.773 Y95.092 E0.01426
G1 X121.179 Y94.886 E0.01968
G1 X120.751 Y94.686 E0.01481
G1 X120.361 Y94.461 E0.01411
G1 X119.834 Y94.078 E0.02044
G1 X119.500 Y93.778 E0.01408
G1 X119.197 Y93.455 E0.01389
G1 X118.922 Y93.108 E0.01389
G1 X118.674 Y92.734 E0.01408
G1 X118.372 Y92.156 E0.02044
G1 X118.204 Y91.733 E0.01427
G1 X118.027 Y91.100 E0.02061
G1 X117.934 Y90.473 E0.01988
G1 X117.915 Y90.061 E0.01293
M204 S1250
G1 X118.292 Y90.044 F9000.000
M204 S800
;TYPE:External perimeter
G1 F1200.000
G1 X118.307 Y89.587 E0.01434
G1 X118.397 Y88.979 E0.01927
G1 X118.562 Y88.387 E0.01927
G1 X118.714 Y88.003 E0.01296
G1 X118.897 Y87.634 E0.01289
G1 X119.111 Y87.281 E0.01296
G1 X119.481 Y86.793 E0.01920
G1 X119.764 Y86.492 E0.01296
G1 X120.070 Y86.217 E0.01289
G1 X120.399 Y85.967 E0.01296
G1 X120.923 Y85.649 E0.01920
G1 X121.299 Y85.473 E0.01303
G1 X121.877 Y85.271 E0.01920
G1 X122.280 Y85.177 E0.01296
G1 X122.687 Y85.117 E0.01289
G1 X123.099 Y85.091 E0.01296
G1 X123.688 Y85.114 E0.01846
G1 X124.122 Y85.177 E0.01375
G1 X124.693 Y85.323 E0.01847
G1 X125.102 Y85.473 E0.01369
G1 X125.477 Y85.649 E0.01297
G1 X125.981 Y85.954 E0.01846
G1 X126.330 Y86.216 E0.01369
G1 X126.636 Y86.492 E0.01291
G1 X126.919 Y86.793 E0.01296
G1 X127.289 Y87.281 E0.01920
G1 X127.504 Y87.636 E0.01303
G1 X127.756 Y88.169 E0.01846
G1 X127.901 Y88.580 E0.01369
G1 X128.003 Y88.981 E0.01297
G1 X128.093 Y89.587 E0.01920
G1 X128.110 Y90.000 E0.01296
G1 X128.093 Y90.411 E0.01289
G1 X128.041 Y90.821 E0.01296
G1 X127.901 Y91.417 E0.01920
G1 X127.765 Y91.810 E0.01303
G1 X127.504 Y92.364 E0.01920
G1 X127.290 Y92.717 E0.01296
G1 X127.048 Y93.050 E0.01289
G1 X126.779 Y93.361 E0.01289
G1 X126.484 Y93.651 E0.01296
G1 X126.003 Y94.032 E0.01926
G1 X125.498 Y94.339 E0.01853
G1 X125.101 Y94.527 E0.01376
G1 X124.523 Y94.729 E0.01921
G1 X124.120 Y94.823 E0.01296
G1 X123.713 Y94.883 E0.01289
G1 X123.303 Y94.909 E0.01289
G1 X122.889 Y94.900 E0.01296
G1 X122.282 Y94.824 E0.01920
G1 X121.878 Y94.729 E0.01303
G1 X121.321 Y94.536 E0.01846
G1 X120.925 Y94.352 E0.01369
G1 X120.567 Y94.145 E0.01297
G1 X120.072 Y93.785 E0.01920
G1 X119.764 Y93.508 E0.01296
G1 X119.483 Y93.208 E0.01289
G1 X119.228 Y92.886 E0.01289
G1 X118.999 Y92.542 E0.01296
G1 X118.715 Y91.999 E0.01920
G1 X118.562 Y91.613 E0.01303
G1 X118.397 Y91.021 E0.01926
G1 X118.310 Y90.437 E0.01853
G1 X118.294 Y90.104 E0.01044
M204 S1250
G1 X117.943 Y89.848 F9000.000
G1 E-2.24000 F4200.000
;WIPE_START
G1 F7200.000
G1 X118.307 Y89.587 E-0.28652
G1 X118.397 Y88.979 E-0.34051
G1 X118.535 Y88.484 E-0.28497
;WIPE_END
G1 E-0.04800 F4200.000
G1 Z0.400 F9000.000
G1 X133.213 Y103.296
G1 Z0.200
G1 E3.20000 F2400.000
M204 S800
;TYPE:Perimeter
G1 F1200.000
G1 X46.787 Y103.296 E2.70982
M73 P5 R14
G1 X46.787 Y76.704 E0.83378
G1 X133.213 Y76.704 E2.70982
G1 X133.213 Y103.236 E0.83190
M204 S1250
M73 P6 R14
G1 X133.590 Y103.673 F9000.000
M204 S800
;TYPE:External perimeter
G1 F1200.000
G1 X46.410 Y103.673 E2.73347
G1 X46.410 Y76.327 E0.85743
G1 X133.590 Y76.327 E2.73347
M73 P7 R14
G1 X133.590 Y103.613 E0.85555
M204 S1250
G1 X133.192 Y103.633 F9000.000
G1 E-2.24000 F4200.000
;WIPE_START
G1 F7200.000
G1 X131.944 Y103.614 E-0.91200
;WIPE_END
G1 E-0.04800 F4200.000
G1 Z0.400 F9000.000
G1 X133.100 Y77.580
G1 Z0.200
G1 E3.20000 F2400.000
M204 S800
;TYPE:Solid infill
;WIDTH:0.420404
G1 F1200.000
G1 X132.506 Y76.987 E0.02634
G1 X131.973 Y76.987 E0.01676
G1 X132.930 Y77.944 E0.04251
G1 X132.930 Y78.478 E0.01676
G1 X131.439 Y76.987 E0.06620
G1 X130.905 Y76.987 E0.01676
G1 X132.930 Y79.012 E0.08990
G1 X132.930 Y79.546 E0.01676
G1 X130.371 Y76.987 E0.11360
G1 X129.837 Y76.987 E0.01676
G1 X132.930 Y80.080 E0.13729
G1 X132.930 Y80.613 E0.01676
G1 X129.303 Y76.987 E0.16099
G1 X128.769 Y76.987 E0.01676
G1 X132.930 Y81.147 E0.18469
G1 X132.930 Y81.681 E0.01676
G1 X128.236 Y76.987 E0.20839
G1 X127.702 Y76.987 E0.01676
G1 X132.930 Y82.215 E0.23208
G1 X132.930 Y82.749 E0.01676
