; generated by PrusaSlicer 2.3.0+win64 on 2021-06-26 at 13:32:39 UTC


;
;

;
;
; 

; external perimeters extrusion width = 0.45mm
; perimeters extrusion width = 0.45mm
; infill extrusion width = 0.45mm
; solid infill extrusion width = 0.45mm
; top infill extrusion width = 0.40mm
; first layer extrusion width = 0.42mm

M73 P0 R78
M201 X1250 Y1250 Z400 E5000 ; sets maximum accelerations, mm/sec^2
M203 X180 Y180 Z12 E80 ; sets maximum feedrates, mm/sec
M204 P1250 R1250 T1250 ; sets acceleration (P, T) and retract acceleration (R), mm/sec^2
M205 X8.00 Y8.00 Z2.00 E10.00 ; sets the jerk limits, mm/sec
M205 S0 T0 ; sets the minimum extruding and travel feed rate, mm/sec
M107
;TYPE:Custom
G90 ; use absolute coordinates
M83 ; extruder relative mode
M104 S170 ; set extruder temp for bed leveling
M140 S60 ; set bed temp
M109 R170 ; wait for bed leveling temp
M190 S60 ; wait for bed temp
G28 ; home all without mesh bed level
G29 ; mesh bed leveling 
M104 S215 ; set extruder temp
G92 E0.0
G1 Y-2.0 X179 F2400
G1 Z3 F720
M109 S215 ; wait for extruder temp

; intro line
G1 X170 F1000
G1 Z0.2 F720
G1 X110.0 E8.0 F900
G1 X40.0 E10.0 F700
G92 E0.0

M221 S95 ; set flow
G21 ; set units to millimeters
G90 ; use absolute coordinates
M83 ; use relative distances for extrusion
M900 K0.2 ; Filament gcode LA 1.5
; ; Filament gcode LA 1.0
;LAYER_CHANGE
;Z:0.2
;HEIGHT:0.2
;BEFORE_LAYER_CHANGE
G92 E0.0
;0.2


G1 E-3.20000 F4200.000
G1 Z0.200 F9000.000
;AFTER_LAYER_CHANGE
;0.2
G1 Z0.400
G1 X45.319 Y60.223
G1 Z0.200
G1 E3.20000 F2400.000
M204 S800
;TYPE:Skirt
;WIDTH:0.42
G1 F1200.000
G1 X45.991 Y60.123 E0.02130
G1 X134.004 Y60.123 E2.75957
G1 X134.902 Y60.301 E0.02872
G1 X135.664 Y60.803 E0.02860
G1 X136.181 Y61.555 E0.02860
G1 X136.377 Y62.449 E0.02872
G1 X136.377 Y117.546 E1.72751
G1 X136.295 Y118.118 E0.01811
G1 X136.079 Y118.653 E0.01811
G1 X135.739 Y119.120 E0.01811
G1 X135.297 Y119.492 E0.01811
G1 X134.681 Y119.777 E0.02130
G1 X134.009 Y119.877 E0.02130
G1 X45.981 Y119.877 E2.76005
G1 X45.401 Y119.800 E0.01835
G1 X44.857 Y119.584 E0.01835
G1 X44.385 Y119.245 E0.01823
G1 X44.008 Y118.797 E0.01835
G1 X43.724 Y118.184 E0.02119
G1 X43.623 Y117.516 E0.02119
G1 X43.623 Y62.473 E1.72583
G1 X43.701 Y61.897 E0.01823
G1 X43.916 Y61.357 E0.01823
G1 X44.255 Y60.885 E0.01823
G1 X44.703 Y60.508 E0.01835
G1 X45.265 Y60.248 E0.01942
M204 S1250
; printing object MountingFrame03_Base.stl id:0 copy 0
G1 E-2.24000 F4200.000
;WIPE_START
G1 F7200.000
G1 X45.991 Y60.123 E-0.40854
G1 X46.900 Y60.123 E-0.50346
;WIPE_END
G1 E-0.04800 F4200.000
G1 Z0.400 F9000.000
G1 X83.791 Y85.996
G1 Z0.200
G1 E3.20000 F2400.000
M204 S800
;TYPE:Perimeter
G1 F1200.000
G1 X84.241 Y85.372 E0.02411
G1 X84.753 Y84.799 E0.02411
G1 X85.319 Y84.285 E0.02395
G1 X85.735 Y83.968 E0.01640
G1 X86.380 Y83.560 E0.02395
G1 X87.069 Y83.218 E0.02411
G1 X87.790 Y82.950 E0.02411
G1 X88.535 Y82.759 E0.02411
G1 X89.291 Y82.646 E0.02395
G1 X89.813 Y82.615 E0.01640
G1 X90.576 Y82.635 E0.02395
G1 X91.334 Y82.734 E0.02395
G1 X91.845 Y82.846 E0.01640
G1 X92.574 Y83.075 E0.02395
G1 X93.278 Y83.379 E0.02405
G1 X93.950 Y83.757 E0.02417
G1 X94.578 Y84.201 E0.02411
G1 X95.156 Y84.708 E0.02411
G1 X95.674 Y85.269 E0.02395
G1 X95.995 Y85.683 E0.01640
G1 X96.408 Y86.323 E0.02389
G1 X96.756 Y87.011 E0.02417
G1 X97.030 Y87.729 E0.02411
G1 X97.227 Y88.467 E0.02395
G1 X97.317 Y88.983 E0.01640
G1 X97.383 Y89.744 E0.02395
G1 X97.370 Y90.513 E0.02411
G1 X97.277 Y91.276 E0.02411
G1 X97.105 Y92.025 E0.02411
G1 X96.856 Y92.753 E0.02411
G1 X96.535 Y93.446 E0.02395
G1 X96.274 Y93.900 E0.01640
G1 X95.840 Y94.525 E0.02389
G1 X95.336 Y95.109 E0.02417
G1 X94.776 Y95.636 E0.02411
G1 X94.170 Y96.098 E0.02389
G1 X93.726 Y96.379 E0.01646
G1 X93.048 Y96.730 E0.02395
G1 X92.332 Y97.010 E0.02411
G1 X91.590 Y97.215 E0.02411
G1 X90.832 Y97.341 E0.02411
G1 X90.064 Y97.388 E0.02411
G1 X89.296 Y97.354 E0.02411
G1 X88.540 Y97.242 E0.02395
G1 X88.031 Y97.121 E0.01640
G1 X87.307 Y96.879 E0.02395
G1 X86.606 Y96.562 E0.02411
G1 X85.942 Y96.174 E0.02411
G1 X85.327 Y95.722 E0.02395
G1 X84.933 Y95.377 E0.01640
G1 X84.405 Y94.825 E0.02395
G1 X83.937 Y94.221 E0.02395
G1 X83.654 Y93.782 E0.01640
G1 X83.297 Y93.106 E0.02395
G1 X83.010 Y92.392 E0.02411
G1 X82.800 Y91.655 E0.02405
G1 X82.667 Y90.897 E0.02411
G1 X82.613 Y90.129 E0.02415
G1 X82.640 Y89.360 E0.02414
G1 X82.746 Y88.598 E0.02411
G1 X82.930 Y87.857 E0.02395
G1 X83.100 Y87.362 E0.01640
G1 X83.409 Y86.663 E0.02395
G1 X83.761 Y86.048 E0.02223
M204 S1250
G1 X84.088 Y86.236 F9000.000
M204 S800
;TYPE:External perimeter
G1 F1200.000
G1 X84.535 Y85.609 E0.02414
G1 X85.021 Y85.065 E0.02288
G1 X85.560 Y84.575 E0.02282
G1 X85.950 Y84.278 E0.01537
G1 X86.565 Y83.889 E0.02282
G1 X87.219 Y83.565 E0.02288
G1 X87.903 Y83.311 E0.02288
G1 X88.610 Y83.129 E0.02288
G1 X89.330 Y83.022 E0.02282
G1 X89.819 Y82.992 E0.01537
G1 X90.547 Y83.011 E0.02282
G1 X91.269 Y83.106 E0.02282
G1 X91.747 Y83.211 E0.01537
G1 X92.442 Y83.429 E0.02282
G1 X93.110 Y83.717 E0.02282
G1 X93.748 Y84.076 E0.02294
G1 X94.344 Y84.498 E0.02288
G1 X94.892 Y84.979 E0.02288
G1 X95.386 Y85.513 E0.02282
G1 X95.687 Y85.901 E0.01537
G1 X96.080 Y86.511 E0.02276
G1 X96.411 Y87.163 E0.02294
G1 X96.671 Y87.845 E0.02288
G1 X96.858 Y88.549 E0.02282
G1 X96.943 Y89.032 E0.01537
G1 X97.006 Y89.757 E0.02282
G1 X96.993 Y90.486 E0.02288
G1 X96.905 Y91.211 E0.02288
G1 X96.742 Y91.922 E0.02288
G1 X96.505 Y92.612 E0.02288
G1 X96.199 Y93.273 E0.02282
G1 X95.955 Y93.698 E0.01537
G1 X95.541 Y94.294 E0.02276
G1 X95.063 Y94.848 E0.02294
G1 X94.532 Y95.348 E0.02288
G1 X93.955 Y95.788 E0.02276
G1 X93.539 Y96.052 E0.01543
G1 X92.892 Y96.386 E0.02282
G1 X92.213 Y96.652 E0.02288
G1 X91.509 Y96.846 E0.02288
G1 X90.789 Y96.966 E0.02288
G1 X90.061 Y97.010 E0.02288
G1 X89.332 Y96.978 E0.02288
G1 X88.612 Y96.871 E0.02282
G1 X88.135 Y96.758 E0.01537
G1 X87.444 Y96.528 E0.02282
G1 X86.779 Y96.227 E0.02288
G1 X86.150 Y95.858 E0.02288
G1 X85.563 Y95.427 E0.02282
G1 X85.195 Y95.104 E0.01537
G1 X84.691 Y94.578 E0.02282
G1 X84.245 Y94.003 E0.02282
G1 X83.979 Y93.591 E0.01537
G1 X83.639 Y92.947 E0.02282
G1 X83.367 Y92.270 E0.02288
G1 X83.168 Y91.570 E0.02282
G1 X83.042 Y90.852 E0.02288
G1 X82.991 Y90.123 E0.02291
G1 X83.016 Y89.392 E0.02291
G1 X83.117 Y88.670 E0.02288
G1 X83.292 Y87.963 E0.02282
G1 X83.451 Y87.499 E0.01537
G1 X83.745 Y86.834 E0.02282
G1 X84.059 Y86.288 E0.01973
M204 S1250
G1 X83.904 Y85.881 F9000.000
G1 E-2.24000 F4200.000
;WIPE_START
G1 F7200.000
G1 X84.535 Y85.609 E-0.45972
G1 X85.021 Y85.065 E-0.40439
G1 X85.085 Y85.006 E-0.04788
;WIPE_END
G1 E-0.04800 F4200.000
G1 Z0.400 F9000.000
G1 X56.113 Y71.386
G1 Z0.200
G1 E3.20000 F2400.000
M204 S800
;TYPE:Perimeter
G1 F1200.000
G1 X55.885 Y71.799 E0.01481
G1 X55.656 Y72.081 E0.01138
G1 X55.286 Y72.396 E0.01522
G1 X54.869 Y72.618 E0.01481
G1 X54.523 Y72.729 E0.01138
G1 X54.041 Y72.790 E0.01524
G1 X53.559 Y72.747 E0.01520
G1 X53.220 Y72.653 E0.01103
G1 X52.784 Y72.441 E0.01519
G1 X52.395 Y72.134 E0.01553
G1 X52.081 Y71.751 E0.01553
G1 X51.862 Y71.319 E0.01520
G1 X51.762 Y70.982 E0.01103
G1 X51.709 Y70.500 E0.01520
G1 X51.762 Y70.018 E0.01520
G1 X51.862 Y69.681 E0.01103
G1 X52.081 Y69.249 E0.01520
G1 X52.388 Y68.874 E0.01519
G1 X52.656 Y68.646 E0.01103
G1 X53.076 Y68.404 E0.01520
G1 X53.547 Y68.255 E0.01551
G1 X54.018 Y68.211 E0.01481
G1 X54.380 Y68.242 E0.01138
G1 X54.847 Y68.372 E0.01522
G1 X55.265 Y68.592 E0.01481
G1 X55.551 Y68.816 E0.01138
G1 X55.872 Y69.180 E0.01524
G1 X56.112 Y69.614 E0.01553
G1 X56.250 Y70.078 E0.01520
G1 X56.288 Y70.429 E0.01104
G1 X56.253 Y70.911 E0.01518
G1 X56.130 Y71.328 E0.01363
M204 S1250
G1 X55.768 Y71.221 F9000.000
M204 S800
;TYPE:External perimeter
G1 F1200.000
G1 X55.571 Y71.588 E0.01308
G1 X55.385 Y71.817 E0.00923
G1 X55.073 Y72.082 E0.01285
G1 X54.721 Y72.269 E0.01249
G1 X54.441 Y72.359 E0.00923
G1 X54.035 Y72.411 E0.01285
G1 X53.627 Y72.374 E0.01284
G1 X53.354 Y72.298 E0.00889
G1 X52.985 Y72.120 E0.01284
G1 X52.661 Y71.864 E0.01296
G1 X52.399 Y71.544 E0.01296
G1 X52.214 Y71.179 E0.01284
G1 X52.133 Y70.907 E0.00888
G1 X52.089 Y70.500 E0.01284
G1 X52.133 Y70.093 E0.01284
G1 X52.214 Y69.821 E0.00888
G1 X52.399 Y69.456 E0.01284
G1 X52.658 Y69.139 E0.01284
G1 X52.874 Y68.956 E0.00888
G1 X53.229 Y68.751 E0.01284
G1 X53.623 Y68.626 E0.01295
G1 X54.019 Y68.590 E0.01249
G1 X54.312 Y68.615 E0.00923
G1 X54.707 Y68.724 E0.01285
G1 X55.059 Y68.910 E0.01249
G1 X55.291 Y69.091 E0.00923
G1 X55.562 Y69.399 E0.01285
G1 X55.763 Y69.761 E0.01296
G1 X55.879 Y70.153 E0.01284
G1 X55.910 Y70.435 E0.00890
G1 X55.880 Y70.843 E0.01282
G1 X55.785 Y71.163 E0.01046
M204 S1250
G1 X56.013 Y71.537 F9000.000
G1 E-2.24000 F4200.000
;WIPE_START
G1 F7200.000
G1 X55.571 Y71.588 E-0.26383
G1 X55.385 Y71.817 E-0.16314
G1 X55.073 Y72.082 E-0.22706
G1 X54.721 Y72.269 E-0.22067
G1 X54.657 Y72.290 E-0.03731
;WIPE_END
G1 E-0.04800 F4200.000
G1 Z0.400 F9000.000
G1 X56.578 Y84.220
G1 Z0.200
G1 E3.20000 F2400.000
M204 S800
;TYPE:Perimeter
G1 F1200.000
G1 X57.369 Y84.240 E0.02478
G1 X57.830 Y84.305 E0.01461
G1 X58.285 Y84.406 E0.01461
G1 X58.935 Y84.620 E0.02145
G1 X59.555 Y84.910 E0.02145
G1 X59.955 Y85.148 E0.01461
G1 X60.336 Y85.418 E0.01461
G1 X60.852 Y85.867 E0.02145
G1 X61.306 Y86.368 E0.02122
G1 X61.591 Y86.753 E0.01502
G1 X61.935 Y87.330 E0.02104
G1 X62.138 Y87.764 E0.01503
G1 X62.363 Y88.404 E0.02128
G1 X62.474 Y88.857 E0.01461
G1 X62.546 Y89.311 E0.01443
G1 X62.583 Y89.770 E0.01443
G1 X62.583 Y90.236 E0.01461
G1 X62.515 Y90.917 E0.02145
G1 X62.367 Y91.585 E0.02145
G1 X62.219 Y92.033 E0.01480
G1 X61.944 Y92.653 E0.02127
G1 X61.711 Y93.063 E0.01479
G1 X61.323 Y93.611 E0.02103
G1 X61.009 Y93.973 E0.01503
G1 X60.515 Y94.438 E0.02128
G1 X60.146 Y94.723 E0.01461
G1 X59.755 Y94.977 E0.01461
G1 X59.152 Y95.288 E0.02127
G1 X58.714 Y95.462 E0.01480
G1 X58.062 Y95.649 E0.02127
G1 X57.597 Y95.733 E0.01480
G1 X56.915 Y95.787 E0.02145
G1 X56.231 Y95.760 E0.02145
G1 X55.764 Y95.694 E0.01480
G1 X55.105 Y95.534 E0.02127
G1 X54.660 Y95.378 E0.01480
G1 X54.045 Y95.090 E0.02127
G1 X53.640 Y94.849 E0.01480
G1 X53.094 Y94.446 E0.02127
G1 X52.748 Y94.133 E0.01461
G1 X52.433 Y93.798 E0.01443
G1 X52.141 Y93.434 E0.01461
G1 X51.771 Y92.866 E0.02127
G1 X51.557 Y92.452 E0.01461
G1 X51.377 Y92.022 E0.01461
G1 X51.176 Y91.368 E0.02145
G1 X51.054 Y90.695 E0.02145
G1 X51.017 Y90.230 E0.01461
G1 X51.017 Y89.764 E0.01461
G1 X51.085 Y89.083 E0.02145
G1 X51.233 Y88.415 E0.02145
G1 X51.381 Y87.967 E0.01480
G1 X51.656 Y87.347 E0.02127
G1 X51.889 Y86.937 E0.01479
G1 X52.277 Y86.389 E0.02103
G1 X52.587 Y86.032 E0.01484
G1 X52.920 Y85.705 E0.01462
G1 X53.454 Y85.277 E0.02145
G1 X54.035 Y84.915 E0.02145
G1 X54.458 Y84.707 E0.01479
G1 X55.086 Y84.472 E0.02103
G1 X55.549 Y84.349 E0.01502
G1 X56.212 Y84.242 E0.02104
G1 X56.519 Y84.224 E0.00963
M204 S1250
G1 X56.541 Y84.600 F9000.000
M204 S800
;TYPE:External perimeter
G1 F1200.000
G1 X57.335 Y84.616 E0.02488
G1 X57.763 Y84.676 E0.01355
G1 X58.185 Y84.770 E0.01355
G1 X58.796 Y84.971 E0.02016
G1 X59.378 Y85.243 E0.02016
G1 X59.750 Y85.465 E0.01355
G1 X60.102 Y85.714 E0.01355
G1 X60.587 Y86.136 E0.02016
G1 X61.014 Y86.607 E0.01993
G1 X61.277 Y86.962 E0.01385
G1 X61.601 Y87.507 E0.01987
G1 X61.789 Y87.907 E0.01385
G1 X62.001 Y88.511 E0.02010
G1 X62.104 Y88.931 E0.01355
G1 X62.172 Y89.356 E0.01349
G1 X62.206 Y89.785 E0.01349
G1 X62.206 Y90.217 E0.01355
G1 X62.142 Y90.857 E0.02016
G1 X62.003 Y91.485 E0.02016
G1 X61.867 Y91.897 E0.01362
G1 X61.607 Y92.483 E0.02009
G1 X61.392 Y92.861 E0.01362
G1 X61.026 Y93.378 E0.01986
G1 X60.737 Y93.711 E0.01385
G1 X60.270 Y94.151 E0.02010
G1 X59.928 Y94.415 E0.01355
G1 X59.565 Y94.650 E0.01355
G1 X58.996 Y94.945 E0.02009
G1 X58.592 Y95.105 E0.01362
G1 X57.976 Y95.281 E0.02009
G1 X57.549 Y95.358 E0.01362
G1 X56.908 Y95.409 E0.02016
G1 X56.265 Y95.384 E0.02016
G1 X55.835 Y95.324 E0.01362
G1 X55.212 Y95.172 E0.02009
G1 X54.802 Y95.028 E0.01362
G1 X54.222 Y94.757 E0.02009
G1 X53.849 Y94.534 E0.01362
G1 X53.333 Y94.154 E0.02009
G1 X53.013 Y93.863 E0.01355
G1 X52.718 Y93.550 E0.01349
G1 X52.447 Y93.213 E0.01355
G1 X52.098 Y92.676 E0.02009
G1 X51.899 Y92.292 E0.01355
G1 X51.732 Y91.893 E0.01355
G1 X51.543 Y91.279 E0.02016
G1 X51.428 Y90.646 E0.02016
G1 X51.394 Y90.215 E0.01355
G1 X51.394 Y89.783 E0.01355
G1 X51.458 Y89.143 E0.02016
G1 X51.597 Y88.515 E0.02016
G1 X51.733 Y88.103 E0.01362
G1 X51.993 Y87.517 E0.02009
G1 X52.208 Y87.139 E0.01362
G1 X52.574 Y86.622 E0.01986
G1 X52.862 Y86.290 E0.01378
G1 X53.171 Y85.988 E0.01356
G1 X53.672 Y85.585 E0.02016
G1 X54.218 Y85.245 E0.02016
G1 X54.608 Y85.054 E0.01362
G1 X55.201 Y84.832 E0.01986
G1 X55.628 Y84.718 E0.01385
G1 X56.254 Y84.618 E0.01987
G1 X56.482 Y84.604 E0.00716
M204 S1250
G1 X56.731 Y84.248 F9000.000
G1 E-2.24000 F4200.000
;WIPE_START
G1 F7200.000
G1 X57.335 Y84.616 E-0.47295
G1 X57.763 Y84.676 E-0.23955
G1 X58.114 Y84.754 E-0.19950
;WIPE_END
G1 E-0.04800 F4200.000
G1 Z0.400 F9000.000
G1 X54.308 Y106.979
G1 Z0.200
G1 E3.20000 F2400.000
M204 S800
;TYPE:Perimeter
G1 F1200.000
G1 X54.801 Y107.089 E0.01584
G1 X55.270 Y107.300 E0.01612
G1 X55.687 Y107.601 E0.01612
G1 X56.035 Y107.979 E0.01612
G1 X56.299 Y108.420 E0.01612
G1 X56.470 Y108.905 E0.01612
M73 P0 R77
G1 X56.537 Y109.404 E0.01580
G1 X56.525 Y109.767 E0.01137
G1 X56.424 Y110.260 E0.01580
G1 X56.221 Y110.733 E0.01612
G1 X55.927 Y111.155 E0.01612
G1 X55.555 Y111.509 E0.01612
G1 X55.119 Y111.781 E0.01612
G1 X54.637 Y111.959 E0.01612
G1 X54.129 Y112.037 E0.01612
G1 X53.625 Y112.011 E0.01580
G1 X53.271 Y111.932 E0.01137
G1 X52.805 Y111.742 E0.01580
G1 X52.378 Y111.455 E0.01612
G1 X52.018 Y111.089 E0.01612
G1 X51.739 Y110.657 E0.01612
G1 X51.552 Y110.178 E0.01612
G1 X51.466 Y109.671 E0.01612
G1 X51.483 Y109.158 E0.01612
G1 X51.603 Y108.658 E0.01612
G1 X51.822 Y108.193 E0.01612
G1 X52.130 Y107.781 E0.01612
G1 X52.514 Y107.440 E0.01612
G1 X52.959 Y107.183 E0.01612
G1 X53.446 Y107.021 E0.01610
G1 X53.935 Y106.962 E0.01543
G1 X54.248 Y106.977 E0.00984
M204 S1250
G1 X54.682 Y107.449 F9000.000
M204 S800
;TYPE:External perimeter
G1 F1200.000
G1 X55.081 Y107.628 E0.01371
G1 X55.435 Y107.884 E0.01371
G1 X55.731 Y108.206 E0.01371
G1 X55.956 Y108.581 E0.01371
G1 X56.101 Y108.994 E0.01371
G1 X56.159 Y109.423 E0.01360
G1 X56.149 Y109.722 E0.00937
G1 X56.062 Y110.147 E0.01360
G1 X55.890 Y110.549 E0.01371
G1 X55.640 Y110.908 E0.01371
G1 X55.323 Y111.209 E0.01371
G1 X54.952 Y111.440 E0.01371
G1 X54.542 Y111.592 E0.01371
G1 X54.109 Y111.658 E0.01371
G1 X53.676 Y111.636 E0.01360
G1 X53.385 Y111.571 E0.00937
G1 X52.983 Y111.407 E0.01360
G1 X52.620 Y111.163 E0.01371
G1 X52.314 Y110.852 E0.01371
G1 X52.076 Y110.484 E0.01371
G1 X51.917 Y110.077 E0.01371
G1 X51.844 Y109.646 E0.01371
G1 X51.859 Y109.209 E0.01371
G1 X51.961 Y108.784 E0.01371
G1 X52.147 Y108.388 E0.01371
G1 X52.409 Y108.038 E0.01371
G1 X52.736 Y107.747 E0.01371
G1 X53.114 Y107.529 E0.01371
G1 X53.529 Y107.391 E0.01370
G1 X53.949 Y107.340 E0.01325
G1 X54.258 Y107.355 E0.00971
G1 X54.623 Y107.436 E0.01173
M204 S1250
G1 X54.983 Y107.186 F9000.000
G1 E-2.24000 F4200.000
;WIPE_START
G1 F7200.000
G1 X55.081 Y107.628 E-0.27498
G1 X55.435 Y107.884 E-0.24233
G1 X55.731 Y108.206 E-0.24233
G1 X55.873 Y108.442 E-0.15235
;WIPE_END
G1 E-0.04800 F4200.000
G1 Z0.400 F9000.000
G1 X123.709 Y109.500
G1 Z0.200
G1 E3.20000 F2400.000
M204 S800
;TYPE:Perimeter
G1 F1200.000
G1 X123.762 Y109.018 E0.01520
G1 X123.862 Y108.681 E0.01103
G1 X124.081 Y108.249 E0.01520
G1 X124.388 Y107.874 E0.01519
G1 X124.656 Y107.646 E0.01103
G1 X125.076 Y107.404 E0.01520
G1 X125.547 Y107.255 E0.01551
G1 X126.018 Y107.211 E0.01481
G1 X126.380 Y107.242 E0.01138
G1 X126.847 Y107.372 E0.01522
G1 X127.265 Y107.592 E0.01481
G1 X127.551 Y107.816 E0.01138
G1 X127.872 Y108.180 E0.01524
G1 X128.112 Y108.614 E0.01553
G1 X128.250 Y109.078 E0.01520
G1 X128.288 Y109.429 E0.01104
G1 X128.253 Y109.911 E0.01518
G1 X128.113 Y110.386 E0.01551
G1 X127.885 Y110.799 E0.01481
G1 X127.656 Y111.081 E0.01138
G1 X127.285 Y111.396 E0.01524
G1 X126.848 Y111.628 E0.01551
G1 X126.393 Y111.755 E0.01481
G1 X126.032 Y111.789 E0.01138
G1 X125.559 Y111.747 E0.01490
G1 X125.220 Y111.653 E0.01103
