; generated by PrusaSlicer 2.3.0+win64 on 2021-06-26 at 11:41:18 UTC


;
;

;
;
; 

; external perimeters extrusion width = 0.45mm
; perimeters extrusion width = 0.45mm
; infill extrusion width = 0.45mm
; solid infill extrusion width = 0.45mm
; top infill extrusion width = 0.40mm
; first layer extrusion width = 0.42mm

M73 P0 R69
M201 X1250 Y1250 Z400 E5000 ; sets maximum accelerations, mm/sec^2
M203 X180 Y180 Z12 E80 ; sets maximum feedrates, mm/sec
M204 P1250 R1250 T1250 ; sets acceleration (P, T) and retract acceleration (R), mm/sec^2
M205 X8.00 Y8.00 Z2.00 E10.00 ; sets the jerk limits, mm/sec
M205 S0 T0 ; sets the minimum extruding and travel feed rate, mm/sec
M107
;TYPE:Custom
G90 ; use absolute coordinates
M83 ; extruder relative mode
M104 S170 ; set extruder temp for bed leveling
M140 S60 ; set bed temp
M109 R170 ; wait for bed leveling temp
M190 S60 ; wait for bed temp
G28 ; home all without mesh bed level
G29 ; mesh bed leveling 
M104 S215 ; set extruder temp
G92 E0.0
G1 Y-2.0 X179 F2400
G1 Z3 F720
M109 S215 ; wait for extruder temp

; intro line
G1 X170 F1000
G1 Z0.2 F720
G1 X110.0 E8.0 F900
G1 X40.0 E10.0 F700
G92 E0.0

M221 S95 ; set flow
G21 ; set units to millimeters
G90 ; use absolute coordinates
M83 ; use relative distances for extrusion
M900 K0.2 ; Filament gcode LA 1.5
; ; Filament gcode LA 1.0
;LAYER_CHANGE
;Z:0.2
;HEIGHT:0.2
;BEFORE_LAYER_CHANGE
G92 E0.0
;0.2


G1 E-3.20000 F4200.000
G1 Z0.200 F9000.000
;AFTER_LAYER_CHANGE
;0.2
G1 Z0.400
G1 X45.319 Y60.223
G1 Z0.200
G1 E3.20000 F2400.000
M204 S800
;TYPE:Skirt
;WIDTH:0.42
G1 F1200.000
G1 X45.991 Y60.123 E0.02130
G1 X134.004 Y60.123 E2.75957
G1 X134.902 Y60.301 E0.02872
G1 X135.664 Y60.803 E0.02860
G1 X136.181 Y61.555 E0.02860
G1 X136.377 Y62.449 E0.02872
G1 X136.377 Y117.546 E1.72751
G1 X136.295 Y118.118 E0.01811
G1 X136.079 Y118.653 E0.01811
G1 X135.739 Y119.120 E0.01811
G1 X135.297 Y119.492 E0.01811
G1 X134.681 Y119.777 E0.02130
G1 X134.009 Y119.877 E0.02130
G1 X45.981 Y119.877 E2.76005
G1 X45.401 Y119.800 E0.01835
G1 X44.857 Y119.584 E0.01835
G1 X44.385 Y119.245 E0.01823
G1 X44.008 Y118.797 E0.01835
G1 X43.724 Y118.184 E0.02119
G1 X43.623 Y117.516 E0.02119
G1 X43.623 Y62.473 E1.72583
G1 X43.701 Y61.897 E0.01823
G1 X43.916 Y61.357 E0.01823
G1 X44.255 Y60.885 E0.01823
G1 X44.703 Y60.508 E0.01835
G1 X45.265 Y60.248 E0.01942
M204 S1250
; printing object MountingFrame03_top.stl id:0 copy 0
G1 E-2.24000 F4200.000
;WIPE_START
G1 F7200.000
G1 X45.991 Y60.123 E-0.40854
G1 X46.900 Y60.123 E-0.50346
;WIPE_END
G1 E-0.04800 F4200.000
G1 Z0.400 F9000.000
G1 X75.274 Y80.211
G1 Z0.200
G1 E3.20000 F2400.000
M204 S800
;TYPE:Perimeter
G1 F1200.000
G1 X75.492 Y79.883 E0.01234
G1 X76.178 Y78.964 E0.03596
G1 X76.673 Y78.371 E0.02421
G1 X77.191 Y77.803 E0.02411
G1 X77.733 Y77.258 E0.02411
G1 X78.301 Y76.734 E0.02421
G1 X79.186 Y76.004 E0.03596
G1 X79.807 Y75.545 E0.02421
G1 X80.445 Y75.116 E0.02411
G1 X81.101 Y74.715 E0.02411
G1 X81.777 Y74.341 E0.02421
G1 X82.809 Y73.841 E0.03596
G1 X83.521 Y73.542 E0.02421
G1 X84.243 Y73.276 E0.02411
G1 X84.978 Y73.041 E0.02421
G1 X86.088 Y72.751 E0.03596
G1 X86.848 Y72.596 E0.02431
G1 X87.982 Y72.428 E0.03596
G1 X88.751 Y72.357 E0.02421
G1 X89.519 Y72.319 E0.02411
G1 X90.288 Y72.315 E0.02411
G1 X91.057 Y72.344 E0.02411
G1 X91.827 Y72.407 E0.02421
G1 X92.963 Y72.563 E0.03596
G1 X93.721 Y72.709 E0.02421
G1 X94.472 Y72.888 E0.02421
G1 X95.572 Y73.213 E0.03596
G1 X96.300 Y73.473 E0.02421
G1 X97.015 Y73.763 E0.02421
G1 X98.053 Y74.252 E0.03596
G1 X98.732 Y74.619 E0.02421
G1 X99.395 Y75.014 E0.02421
G1 X100.347 Y75.655 E0.03596
G1 X100.963 Y76.120 E0.02421
G1 X101.556 Y76.610 E0.02411
G1 X102.127 Y77.125 E0.02411
G1 X102.676 Y77.664 E0.02411
G1 X103.202 Y78.229 E0.02421
G1 X103.937 Y79.110 E0.03596
G1 X104.401 Y79.731 E0.02431
G1 X105.036 Y80.686 E0.03596
G1 X105.429 Y81.351 E0.02421
G1 X105.790 Y82.030 E0.02411
G1 X106.121 Y82.724 E0.02411
G1 X106.422 Y83.432 E0.02411
G1 X106.692 Y84.152 E0.02411
G1 X106.932 Y84.886 E0.02421
G1 X107.227 Y85.990 E0.03584
G1 X107.386 Y86.750 E0.02433
G1 X107.511 Y87.512 E0.02421
G1 X107.636 Y88.652 E0.03596
G1 X107.678 Y89.423 E0.02421
G1 X107.686 Y90.196 E0.02423
G1 X107.636 Y91.341 E0.03595
G1 X107.561 Y92.110 E0.02421
G1 X107.452 Y92.874 E0.02421
G1 X107.229 Y94.000 E0.03596
G1 X107.038 Y94.748 E0.02421
G1 X106.816 Y95.484 E0.02411
G1 X106.560 Y96.213 E0.02421
G1 X106.123 Y97.273 E0.03596
G1 X105.790 Y97.970 E0.02421
G1 X105.429 Y98.649 E0.02411
G1 X105.038 Y99.311 E0.02411
G1 X104.617 Y99.959 E0.02421
G1 X103.943 Y100.882 E0.03584
G1 X103.453 Y101.483 E0.02433
G1 X102.941 Y102.057 E0.02411
G1 X102.404 Y102.608 E0.02411
G1 X101.842 Y103.138 E0.02421
G1 X100.966 Y103.878 E0.03596
G1 X100.350 Y104.343 E0.02421
G1 X99.716 Y104.779 E0.02411
G1 X99.062 Y105.190 E0.02421
G1 X98.058 Y105.745 E0.03596
G1 X97.363 Y106.082 E0.02421
G1 X96.657 Y106.386 E0.02411
G1 X95.936 Y106.662 E0.02421
G1 X94.843 Y107.011 E0.03596
G1 X94.096 Y107.206 E0.02421
G1 X93.344 Y107.368 E0.02411
G1 X92.583 Y107.498 E0.02421
G1 X91.444 Y107.628 E0.03596
G1 X90.673 Y107.674 E0.02421
G1 X89.904 Y107.687 E0.02411
G1 X89.135 Y107.666 E0.02411
G1 X88.365 Y107.612 E0.02421
G1 X87.231 Y107.469 E0.03584
G1 X86.467 Y107.331 E0.02433
G1 X85.714 Y107.160 E0.02421
G1 X84.611 Y106.846 E0.03596
G1 X83.880 Y106.595 E0.02421
G1 X83.162 Y106.312 E0.02421
G1 X82.119 Y105.834 E0.03596
G1 X81.435 Y105.475 E0.02421
G1 X80.771 Y105.088 E0.02411
G1 X80.124 Y104.673 E0.02411
G1 X79.493 Y104.228 E0.02421
G1 X78.592 Y103.517 E0.03596
G1 X78.013 Y103.006 E0.02421
G1 X77.459 Y102.473 E0.02411
G1 X76.927 Y101.914 E0.02421
G1 X76.185 Y101.044 E0.03584
G1 X75.713 Y100.427 E0.02433
G1 X75.272 Y99.794 E0.02421
G1 X74.668 Y98.819 E0.03596
G1 X74.298 Y98.141 E0.02421
G1 X73.957 Y97.448 E0.02421
G1 X73.508 Y96.392 E0.03596
G1 X73.244 Y95.663 E0.02431
G1 X72.912 Y94.565 E0.03596
G1 X72.728 Y93.812 E0.02431
G1 X72.518 Y92.685 E0.03596
G1 X72.417 Y91.919 E0.02421
G1 X72.350 Y91.153 E0.02411
G1 X72.317 Y90.385 E0.02411
G1 X72.317 Y89.615 E0.02411
G1 X72.351 Y88.844 E0.02421
G1 X72.462 Y87.706 E0.03584
G1 X72.580 Y86.939 E0.02433
G1 X72.729 Y86.185 E0.02411
G1 X72.911 Y85.438 E0.02411
G1 X73.127 Y84.696 E0.02421
G1 X73.506 Y83.614 E0.03596
G1 X73.802 Y82.897 E0.02431
G1 X74.294 Y81.865 E0.03584
G1 X74.666 Y81.184 E0.02433
G1 X75.241 Y80.261 E0.03409
M204 S1250
G1 X75.554 Y80.470 F9000.000
M204 S800
;TYPE:External perimeter
G1 F1200.000
G1 X75.800 Y80.100 E0.01390
G1 X76.474 Y79.198 E0.03532
G1 X76.957 Y78.619 E0.02363
G1 X77.464 Y78.063 E0.02360
G1 X77.995 Y77.529 E0.02360
G1 X78.549 Y77.018 E0.02363
G1 X79.418 Y76.301 E0.03532
G1 X80.024 Y75.853 E0.02363
G1 X80.649 Y75.433 E0.02360
G1 X81.291 Y75.041 E0.02360
G1 X81.950 Y74.676 E0.02363
G1 X82.964 Y74.184 E0.03532
G1 X83.659 Y73.893 E0.02363
G1 X84.365 Y73.633 E0.02360
G1 X85.083 Y73.403 E0.02363
G1 X86.173 Y73.118 E0.03532
G1 X86.913 Y72.967 E0.02367
G1 X88.027 Y72.803 E0.03532
G1 X88.778 Y72.733 E0.02363
G1 X89.530 Y72.696 E0.02360
G1 X90.282 Y72.692 E0.02360
G1 X91.034 Y72.721 E0.02360
G1 X91.786 Y72.782 E0.02363
G1 X92.902 Y72.935 E0.03532
G1 X93.642 Y73.077 E0.02363
G1 X94.375 Y73.252 E0.02363
G1 X95.455 Y73.572 E0.03532
G1 X96.165 Y73.825 E0.02363
G1 X96.864 Y74.109 E0.02363
G1 X97.883 Y74.589 E0.03532
G1 X98.546 Y74.947 E0.02363
G1 X99.193 Y75.333 E0.02363
G1 X100.128 Y75.962 E0.03532
G1 X100.729 Y76.416 E0.02363
G1 X101.310 Y76.896 E0.02360
G1 X101.869 Y77.400 E0.02360
G1 X102.405 Y77.927 E0.02360
G1 X102.919 Y78.479 E0.02363
G1 X103.641 Y79.344 E0.03532
G1 X104.093 Y79.948 E0.02367
G1 X104.717 Y80.886 E0.03532
G1 X105.100 Y81.536 E0.02363
G1 X105.453 Y82.200 E0.02360
G1 X105.778 Y82.879 E0.02360
G1 X106.072 Y83.572 E0.02360
G1 X106.336 Y84.277 E0.02360
G1 X106.570 Y84.993 E0.02363
G1 X106.860 Y86.078 E0.03520
G1 X107.015 Y86.819 E0.02375
G1 X107.138 Y87.563 E0.02363
G1 X107.260 Y88.683 E0.03532
G1 X107.301 Y89.436 E0.02363
G1 X107.309 Y90.190 E0.02365
G1 X107.260 Y91.315 E0.03530
G1 X107.186 Y92.065 E0.02363
G1 X107.080 Y92.811 E0.02363
G1 X106.861 Y93.916 E0.03532
G1 X106.675 Y94.647 E0.02363
G1 X106.457 Y95.367 E0.02360
G1 X106.208 Y96.078 E0.02363
G1 X105.778 Y97.120 E0.03532
G1 X105.453 Y97.800 E0.02363
G1 X105.100 Y98.464 E0.02360
G1 X104.717 Y99.113 E0.02360
G1 X104.307 Y99.745 E0.02363
G1 X103.645 Y100.652 E0.03520
G1 X103.166 Y101.238 E0.02375
G1 X102.665 Y101.800 E0.02360
G1 X102.140 Y102.339 E0.02360
G1 X101.591 Y102.856 E0.02363
G1 X100.730 Y103.583 E0.03532
G1 X100.129 Y104.037 E0.02363
G1 X99.509 Y104.464 E0.02360
G1 X98.870 Y104.865 E0.02363
G1 X97.885 Y105.410 E0.03532
G1 X97.206 Y105.739 E0.02363
G1 X96.515 Y106.037 E0.02360
G1 X95.811 Y106.306 E0.02363
G1 X94.738 Y106.649 E0.03532
G1 X94.009 Y106.839 E0.02363
G1 X93.273 Y106.998 E0.02360
G1 X92.530 Y107.124 E0.02363
G1 X91.411 Y107.252 E0.03532
G1 X90.658 Y107.298 E0.02363
G1 X89.906 Y107.310 E0.02360
G1 X89.154 Y107.289 E0.02360
G1 X88.402 Y107.236 E0.02363
G1 X87.288 Y107.096 E0.03520
G1 X86.542 Y106.961 E0.02375
G1 X85.807 Y106.795 E0.02363
G1 X84.724 Y106.486 E0.03532
G1 X84.011 Y106.241 E0.02363
G1 X83.310 Y105.965 E0.02363
G1 X82.285 Y105.496 E0.03532
G1 X81.618 Y105.145 E0.02363
G1 X80.968 Y104.767 E0.02360
M73 P1 R69
G1 X80.334 Y104.360 E0.02360
G1 X79.718 Y103.926 E0.02363
G1 X78.834 Y103.227 E0.03532
G1 X78.269 Y102.729 E0.02363
G1 X77.727 Y102.207 E0.02360
G1 X77.207 Y101.661 E0.02363
G1 X76.478 Y100.807 E0.03520
G1 X76.018 Y100.205 E0.02375
G1 X75.587 Y99.587 E0.02363
G1 X74.994 Y98.629 E0.03532
G1 X74.633 Y97.967 E0.02363
G1 X74.300 Y97.291 E0.02363
G1 X73.859 Y96.254 E0.03532
G1 X73.602 Y95.544 E0.02367
G1 X73.276 Y94.466 E0.03532
G1 X73.097 Y93.733 E0.02367
G1 X72.890 Y92.625 E0.03532
G1 X72.792 Y91.878 E0.02363
G1 X72.727 Y91.128 E0.02360
G1 X72.694 Y90.376 E0.02360
G1 X72.694 Y89.624 E0.02360
G1 X72.727 Y88.871 E0.02363
G1 X72.836 Y87.753 E0.03520
G1 X72.951 Y87.004 E0.02375
G1 X73.097 Y86.266 E0.02360
G1 X73.276 Y85.535 E0.02360
G1 X73.486 Y84.811 E0.02363
G1 X73.858 Y83.748 E0.03532
G1 X74.146 Y83.050 E0.02367
G1 X74.630 Y82.037 E0.03520
G1 X74.993 Y81.372 E0.02375
G1 X75.521 Y80.520 E0.03144
M204 S1250
G1 X75.370 Y80.114 F9000.000
G1 E-2.24000 F4200.000
;WIPE_START
G1 F7200.000
G1 X75.800 Y80.100 E-0.27899
G1 X76.474 Y79.198 E-0.62429
G1 X76.484 Y79.186 E-0.00872
;WIPE_END
G1 E-0.04800 F4200.000
G1 Z0.400 F9000.000
G1 X123.709 Y70.500
G1 Z0.200
G1 E3.20000 F2400.000
M204 S800
;TYPE:Perimeter
G1 F1200.000
G1 X123.762 Y70.018 E0.01520
G1 X123.862 Y69.681 E0.01103
G1 X124.081 Y69.249 E0.01520
G1 X124.388 Y68.874 E0.01519
G1 X124.656 Y68.646 E0.01103
G1 X125.076 Y68.404 E0.01520
G1 X125.547 Y68.255 E0.01551
G1 X126.018 Y68.211 E0.01481
G1 X126.380 Y68.242 E0.01138
G1 X126.848 Y68.372 E0.01524
G1 X127.285 Y68.604 E0.01553
G1 X127.655 Y68.918 E0.01519
G1 X127.878 Y69.190 E0.01103
G1 X128.112 Y69.614 E0.01520
G1 X128.252 Y70.084 E0.01537
G1 X128.289 Y70.500 E0.01311
G1 X128.252 Y70.916 E0.01311
G1 X128.113 Y71.386 E0.01535
G1 X127.885 Y71.799 E0.01481
G1 X127.656 Y72.081 E0.01138
G1 X127.286 Y72.396 E0.01522
G1 X126.869 Y72.618 E0.01481
G1 X126.523 Y72.729 E0.01138
G1 X126.041 Y72.790 E0.01524
G1 X125.559 Y72.747 E0.01520
G1 X125.220 Y72.653 E0.01103
G1 X124.784 Y72.441 E0.01519
G1 X124.395 Y72.134 E0.01553
G1 X124.081 Y71.751 E0.01553
G1 X123.862 Y71.319 E0.01520
G1 X123.762 Y70.982 E0.01103
G1 X123.716 Y70.560 E0.01331
M204 S1250
G1 X124.091 Y70.519 F9000.000
M204 S800
;TYPE:External perimeter
G1 F1200.000
G1 X124.133 Y70.093 E0.01342
G1 X124.214 Y69.821 E0.00888
G1 X124.399 Y69.456 E0.01284
G1 X124.658 Y69.139 E0.01284
G1 X124.874 Y68.956 E0.00888
G1 X125.229 Y68.751 E0.01284
G1 X125.623 Y68.626 E0.01295
G1 X126.019 Y68.590 E0.01249
G1 X126.312 Y68.615 E0.00923
G1 X126.707 Y68.724 E0.01285
G1 X127.073 Y68.918 E0.01296
G1 X127.385 Y69.183 E0.01284
G1 X127.564 Y69.402 E0.00889
G1 X127.763 Y69.761 E0.01284
G1 X127.880 Y70.155 E0.01290
G1 X127.911 Y70.500 E0.01086
G1 X127.880 Y70.845 E0.01086
G1 X127.763 Y71.239 E0.01289
G1 X127.571 Y71.588 E0.01249
G1 X127.385 Y71.817 E0.00923
G1 X127.073 Y72.082 E0.01285
G1 X126.721 Y72.269 E0.01249
G1 X126.441 Y72.359 E0.00923
G1 X126.035 Y72.411 E0.01285
G1 X125.627 Y72.374 E0.01284
G1 X125.354 Y72.298 E0.00889
G1 X124.985 Y72.120 E0.01284
G1 X124.661 Y71.864 E0.01296
G1 X124.399 Y71.544 E0.01296
G1 X124.214 Y71.179 E0.01284
G1 X124.133 Y70.907 E0.00888
G1 X124.097 Y70.579 E0.01036
M204 S1250
G1 X123.745 Y70.317 F9000.000
G1 E-2.24000 F4200.000
;WIPE_START
G1 F7200.000
G1 X124.133 Y70.093 E-0.26984
G1 X124.214 Y69.821 E-0.15703
G1 X124.399 Y69.456 E-0.22692
G1 X124.658 Y69.139 E-0.22692
G1 X124.701 Y69.103 E-0.03128
;WIPE_END
G1 E-0.04800 F4200.000
G1 Z0.400 F9000.000
G1 X123.769 Y84.240
G1 Z0.200
G1 E3.20000 F2400.000
M204 S800
;TYPE:Perimeter
G1 F1200.000
G1 X124.230 Y84.305 E0.01461
G1 X124.685 Y84.406 E0.01461
G1 X125.335 Y84.620 E0.02145
G1 X125.955 Y84.910 E0.02145
G1 X126.355 Y85.148 E0.01461
G1 X126.736 Y85.418 E0.01461
G1 X127.241 Y85.857 E0.02101
G1 X127.567 Y86.202 E0.01487
G1 X127.855 Y86.561 E0.01444
G1 X128.117 Y86.947 E0.01461
G1 X128.440 Y87.543 E0.02127
G1 X128.623 Y87.978 E0.01480
G1 X128.824 Y88.632 E0.02145
G1 X128.946 Y89.305 E0.02145
G1 X128.983 Y89.770 E0.01461
G1 X128.983 Y90.236 E0.01461
G1 X128.915 Y90.917 E0.02145
G1 X128.767 Y91.585 E0.02145
G1 X128.619 Y92.033 E0.01479
G1 X128.348 Y92.646 E0.02101
G1 X128.111 Y93.063 E0.01504
G1 X127.724 Y93.610 E0.02102
G1 X127.409 Y93.973 E0.01505
G1 X126.915 Y94.438 E0.02128
G1 X126.546 Y94.723 E0.01461
G1 X126.155 Y94.977 E0.01461
G1 X125.547 Y95.291 E0.02145
G1 X124.906 Y95.531 E0.02145
G1 X124.450 Y95.651 E0.01479
G1 X123.789 Y95.758 E0.02101
G1 X123.310 Y95.787 E0.01504
G1 X122.640 Y95.760 E0.02102
G1 X122.164 Y95.694 E0.01505
G1 X121.505 Y95.534 E0.02128
G1 X121.060 Y95.378 E0.01480
G1 X120.445 Y95.090 E0.02127
G1 X120.045 Y94.852 E0.01461
G1 X119.664 Y94.582 E0.01461
G1 X119.159 Y94.143 E0.02101
G1 X118.833 Y93.798 E0.01487
G1 X118.545 Y93.439 E0.01444
G1 X118.283 Y93.053 E0.01461
G1 X117.960 Y92.457 E0.02127
G1 X117.777 Y92.022 E0.01480
G1 X117.578 Y91.374 E0.02127
G1 X117.484 Y90.911 E0.01480
G1 X117.417 Y90.236 E0.02127
G1 X117.417 Y89.764 E0.01480
G1 X117.485 Y89.083 E0.02145
G1 X117.633 Y88.415 E0.02145
G1 X117.781 Y87.967 E0.01479
G1 X118.052 Y87.354 E0.02101
G1 X118.289 Y86.937 E0.01504
G1 X118.676 Y86.390 E0.02102
G1 X118.991 Y86.027 E0.01505
G1 X119.485 Y85.562 E0.02128
G1 X119.859 Y85.274 E0.01479
G1 X120.428 Y84.920 E0.02101
G1 X120.858 Y84.707 E0.01504
G1 X121.486 Y84.472 E0.02102
G1 X121.949 Y84.349 E0.01504
G1 X122.611 Y84.242 E0.02102
G1 X123.090 Y84.213 E0.01505
G1 X123.709 Y84.238 E0.01940
M204 S1250
G1 X123.694 Y84.615 F9000.000
M204 S800
;TYPE:External perimeter
G1 F1200.000
G1 X124.163 Y84.676 E0.01484
G1 X124.585 Y84.770 E0.01355
G1 X125.196 Y84.971 E0.02016
G1 X125.778 Y85.243 E0.02016
G1 X126.150 Y85.465 E0.01355
G1 X126.502 Y85.714 E0.01355
G1 X126.980 Y86.129 E0.01984
G1 X127.282 Y86.450 E0.01380
G1 X127.552 Y86.785 E0.01349
G1 X127.794 Y87.143 E0.01355
G1 X128.100 Y87.706 E0.02009
G1 X128.268 Y88.107 E0.01362
G1 X128.457 Y88.721 E0.02016
G1 X128.572 Y89.354 E0.02016
G1 X128.606 Y89.785 E0.01355
G1 X128.606 Y90.217 E0.01355
G1 X128.542 Y90.857 E0.02016
G1 X128.403 Y91.485 E0.02016
G1 X128.267 Y91.897 E0.01362
G1 X128.010 Y92.476 E0.01984
G1 X127.792 Y92.861 E0.01387
G1 X127.427 Y93.377 E0.01985
G1 X127.137 Y93.711 E0.01387
G1 X126.670 Y94.151 E0.02010
G1 X126.328 Y94.415 E0.01355
G1 X125.965 Y94.650 E0.01355
G1 X125.394 Y94.946 E0.02016
G1 X124.792 Y95.171 E0.02016
G1 X124.372 Y95.282 E0.01362
G1 X123.747 Y95.382 E0.01984
G1 X123.306 Y95.409 E0.01387
G1 X122.673 Y95.384 E0.01985
G1 X122.235 Y95.324 E0.01387
G1 X121.612 Y95.172 E0.02010
G1 X121.202 Y95.028 E0.01362
G1 X120.622 Y94.757 E0.02009
G1 X120.250 Y94.535 E0.01355
G1 X119.898 Y94.286 E0.01355
G1 X119.420 Y93.871 E0.01984
G1 X119.118 Y93.550 E0.01380
G1 X118.848 Y93.215 E0.01349
G1 X118.606 Y92.857 E0.01355
G1 X118.300 Y92.294 E0.02009
G1 X118.132 Y91.893 E0.01362
G1 X117.943 Y91.281 E0.02009
G1 X117.858 Y90.855 E0.01362
