; generated by PrusaSlicer 2.2.0+win64 on 2020-10-17 at 06:18:07 UTC


;
;

;
;
; 

; external perimeters extrusion width = 0.45mm
; perimeters extrusion width = 0.45mm
; infill extrusion width = 0.45mm
; solid infill extrusion width = 0.45mm
; top infill extrusion width = 0.40mm
; first layer extrusion width = 0.42mm

M73 P0 R136
M201 X1250 Y1250 Z400 E5000 ; sets maximum accelerations, mm/sec^2
M203 X180 Y180 Z12 E80 ; sets maximum feedrates, mm/sec
M204 P1250 R1250 T1250 ; sets acceleration (P, T) and retract acceleration (R), mm/sec^2
M205 X8.00 Y8.00 Z2.00 E10.00 ; sets the jerk limits, mm/sec
M205 S0 T0 ; sets the minimum extruding and travel feed rate, mm/sec
M107
G90 ; use absolute coordinates
M83 ; extruder relative mode
M104 S170 ; set extruder temp for bed leveling
M140 S60 ; set bed temp
M109 R170 ; wait for bed leveling temp
M190 S60 ; wait for bed temp
G28 ; home all without mesh bed level
G29 ; mesh bed leveling 
M104 S215 ; set extruder temp
G92 E0.0
G1 Y-2.0 X179 F2400
G1 Z3 F720
M109 S215 ; wait for extruder temp

; intro line
G1 X170 F1000
G1 Z0.2 F720
G1 X110.0 E8.0 F900
M73 P0 R136
G1 X40.0 E10.0 F700
G92 E0.0

M221 S95 ; set flow
G21 ; set units to millimeters
G90 ; use absolute coordinates
M83 ; use relative distances for extrusion
M900 K0.2 ; Filament gcode LA 1.5
; ; Filament gcode LA 1.0
;BEFORE_LAYER_CHANGE
G92 E0.0
;0.2


G1 Z0.200 F9000.000
;AFTER_LAYER_CHANGE
;0.2
G1 E-3.20000 F4200.00000
G1 Z0.400 F9000.000
G1 X67.991 Y64.518
G1 Z0.200
G1 E3.20000 F2400.00000
M204 S800
G1 F1200.000
G1 X68.520 Y63.858 E0.02649
G1 X75.007 Y59.366 E0.24741
G1 X76.020 Y58.757 E0.03705
G1 X76.918 Y58.356 E0.03085
G1 X78.064 Y58.006 E0.03755
G1 X79.024 Y57.837 E0.03056
G1 X80.186 Y57.774 E0.03650
G1 X81.458 Y57.881 E0.04002
G1 X82.695 Y58.167 E0.03980
G1 X84.071 Y58.721 E0.04651
G1 X85.167 Y59.375 E0.04003
G1 X111.218 Y79.053 E1.02366
G1 X111.671 Y79.513 E0.02024
G1 X111.985 Y80.082 E0.02036
G1 X112.122 Y80.611 E0.01716
G1 X112.149 Y81.272 E0.02074
G1 X111.947 Y109.983 E0.90023
G1 X111.834 Y111.257 E0.04009
G1 X111.354 Y113.032 E0.05766
G1 X110.521 Y114.666 E0.05751
G1 X105.966 Y121.275 E0.25167
G1 X105.501 Y121.739 E0.02060
G1 X104.926 Y122.057 E0.02060
G1 X104.192 Y122.213 E0.02355
G1 X101.912 Y122.211 E0.07149
G1 X101.269 Y122.077 E0.02060
G1 X100.690 Y121.774 E0.02048
G1 X91.117 Y112.193 E0.42464
G1 X78.089 Y88.842 E0.83841
G1 X67.863 Y68.503 E0.71377
G1 X67.706 Y67.750 E0.02414
G1 X67.728 Y65.316 E0.07630
G1 X67.973 Y64.574 E0.02449
M204 S1250
G1 E-2.24000 F4200.00000
G1 F7200.000
G1 X68.520 Y63.858 E-0.49951
G1 X69.132 Y63.434 E-0.41249
G1 E-0.04800 F4200.00000
G1 Z0.400 F9000.000
G1 X93.858 Y109.626
G1 Z0.200
G1 E3.20000 F2400.00000
M204 S800
G1 F1200.000
G1 X97.186 Y109.626 E0.10433
G1 X97.190 Y110.052 E0.01335
G1 X93.858 Y110.052 E0.10447
G1 X93.858 Y109.686 E0.01147
M204 S1250
G1 E-2.24000 F4200.00000
G1 F7200.000
G1 X95.504 Y109.657 E-0.91200
G1 E-0.04800 F4200.00000
G1 Z0.400 F9000.000
G1 X97.564 Y109.674
G1 Z0.200
G1 E3.20000 F2400.00000
M204 S800
G1 F1200.000
G1 X97.621 Y109.028 E0.02032
G1 X97.703 Y108.596 E0.01378
G1 X97.887 Y107.974 E0.02034
G1 X98.052 Y107.566 E0.01378
G1 X98.353 Y106.993 E0.02030
G1 X98.596 Y106.625 E0.01382
G1 X99.004 Y106.122 E0.02034
G1 X99.314 Y105.809 E0.01378
G1 X99.813 Y105.396 E0.02034
G1 X100.178 Y105.150 E0.01378
G1 X100.749 Y104.842 E0.02034
G1 X101.155 Y104.673 E0.01378
G1 X101.777 Y104.483 E0.02040
G1 X102.418 Y104.368 E0.02041
G1 X102.856 Y104.333 E0.01378
G1 X103.504 Y104.346 E0.02034
G1 X103.939 Y104.398 E0.01372
G1 X104.368 Y104.484 E0.01372
G1 X104.988 Y104.673 E0.02034
G1 X105.394 Y104.842 E0.01378
G1 X105.967 Y105.151 E0.02041
G1 X106.498 Y105.524 E0.02036
G1 X106.831 Y105.811 E0.01376
G1 X107.137 Y106.120 E0.01365
G1 X107.419 Y106.454 E0.01372
G1 X107.787 Y106.989 E0.02034
G1 X107.998 Y107.372 E0.01372
G1 X108.178 Y107.770 E0.01372
G1 X108.386 Y108.385 E0.02034
G1 X108.485 Y108.813 E0.01378
G1 X108.569 Y109.459 E0.02041
G1 X108.575 Y110.108 E0.02036
G1 X108.536 Y110.547 E0.01382
G1 X108.415 Y111.185 E0.02034
G1 X108.291 Y111.604 E0.01372
G1 X108.135 Y112.013 E0.01372
G1 X107.845 Y112.591 E0.02030
G1 X107.610 Y112.964 E0.01382
G1 X107.211 Y113.476 E0.02034
G1 X106.908 Y113.794 E0.01378
G1 X106.418 Y114.217 E0.02030
G1 X106.057 Y114.471 E0.01382
G1 X105.490 Y114.791 E0.02041
G1 X104.890 Y115.041 E0.02041
G1 X104.471 Y115.169 E0.01372
G1 X104.044 Y115.263 E0.01372
G1 X103.398 Y115.340 E0.02041
G1 X102.747 Y115.340 E0.02041
G1 X102.312 Y115.297 E0.01372
G1 X101.881 Y115.220 E0.01372
G1 X101.255 Y115.042 E0.02041
G1 X100.654 Y114.791 E0.02041
G1 X100.269 Y114.584 E0.01372
G1 X99.902 Y114.347 E0.01372
G1 X99.392 Y113.942 E0.02040
G1 X98.934 Y113.479 E0.02041
G1 X98.657 Y113.138 E0.01378
G1 X98.300 Y112.596 E0.02034
G1 X98.097 Y112.209 E0.01372
G1 X97.924 Y111.807 E0.01372
G1 X97.729 Y111.190 E0.02030
G1 X97.638 Y110.758 E0.01382
G1 X97.568 Y110.114 E0.02034
G1 X97.564 Y109.734 E0.01192
M204 S1250
G1 X97.225 Y109.461 F9000.000
G1 E-2.24000 F4200.00000
G1 F7200.000
G1 X97.621 Y109.028 E-0.39232
G1 X97.703 Y108.596 E-0.24357
G1 X97.844 Y108.118 E-0.27610
G1 E-0.04800 F4200.00000
G1 Z0.400 F9000.000
G1 X102.858 Y115.717
G1 Z0.200
G1 E3.20000 F2400.00000
M204 S800
G1 F1200.000
G1 X103.284 Y115.717 E0.01335
G1 X103.284 Y119.052 E0.10457
G1 X102.858 Y119.052 E0.01335
G1 X102.858 Y115.777 E0.10269
M204 S1250
G1 X102.481 Y115.919 F9000.000
M204 S800
G1 F1200.000
G1 X101.715 Y115.776 E0.02445
G1 X101.305 Y115.667 E0.01331
G1 X100.699 Y115.448 E0.02018
G1 X100.314 Y115.269 E0.01333
G1 X99.942 Y115.063 E0.01333
G1 X99.409 Y114.705 E0.02014
G1 X99.077 Y114.437 E0.01337
G1 X98.765 Y114.146 E0.01338
G1 X98.475 Y113.835 E0.01333
G1 X98.080 Y113.328 E0.02014
G1 X97.848 Y112.971 E0.01337
G1 X97.642 Y112.597 E0.01338
G1 X97.463 Y112.212 E0.01333
G1 X97.244 Y111.606 E0.02018
G1 X97.135 Y111.197 E0.01326
G1 X96.991 Y110.429 E0.02450
G1 X93.481 Y110.429 E0.11005
G1 X93.481 Y109.249 E0.03700
G1 X96.991 Y109.249 E0.11006
G1 X97.134 Y108.486 E0.02435
G1 X97.309 Y107.871 E0.02005
G1 X97.546 Y107.278 E0.02002
G1 X97.738 Y106.900 E0.01327
G1 X98.076 Y106.357 E0.02007
G1 X98.468 Y105.853 E0.02002
G1 X98.756 Y105.543 E0.01327
G1 X99.232 Y105.112 E0.02012
G1 X99.569 Y104.858 E0.01323
G1 X100.111 Y104.518 E0.02007
G1 X100.686 Y104.236 E0.02007
G1 X101.079 Y104.085 E0.01323
G1 X101.695 Y103.907 E0.02008
G1 X102.110 Y103.826 E0.01327
G1 X102.747 Y103.758 E0.02007
G1 X103.385 Y103.758 E0.02002
G1 X103.807 Y103.794 E0.01327
G1 X104.437 Y103.905 E0.02007
G1 X105.051 Y104.080 E0.02001
G1 X105.643 Y104.319 E0.02001
G1 X106.206 Y104.619 E0.02001
G1 X106.735 Y104.975 E0.02001
G1 X107.226 Y105.387 E0.02007
G1 X107.525 Y105.686 E0.01329
G1 X107.803 Y106.006 E0.01329
G1 X108.179 Y106.524 E0.02007
G1 X108.498 Y107.077 E0.02001
G1 X108.758 Y107.660 E0.02001
G1 X108.955 Y108.267 E0.02001
G1 X109.087 Y108.891 E0.02001
G1 X109.153 Y109.526 E0.02001
G1 X109.152 Y110.166 E0.02007
G1 X109.115 Y110.586 E0.01323
G1 X109.003 Y111.217 E0.02008
G1 X108.893 Y111.626 E0.01327
G1 X108.673 Y112.228 E0.02012
G1 X108.494 Y112.611 E0.01323
G1 X108.172 Y113.166 E0.02012
G1 X107.930 Y113.511 E0.01323
G1 X107.517 Y114.001 E0.02007
G1 X107.056 Y114.444 E0.02007
G1 X106.726 Y114.710 E0.01329
G1 X106.379 Y114.953 E0.01329
G1 X105.824 Y115.272 E0.02008
G1 X105.439 Y115.450 E0.01327
G1 X104.836 Y115.668 E0.02012
G1 X104.427 Y115.776 E0.01327
G1 X103.661 Y115.919 E0.02441
G1 X103.661 Y119.429 E0.11005
G1 X102.481 Y119.429 E0.03700
G1 X102.481 Y115.979 E0.10817
M204 S1250
G1 X102.487 Y115.519 F9000.000
G1 X102.670 Y115.642
M204 S800
G1 F1200.000
G1 X102.276 Y115.585 E0.00756
M204 S1250
M204 S800
G1 X101.779 Y115.493 E0.00857
G1 X101.166 Y115.313 E0.01082
M204 S1250
M204 S800
G1 X100.446 Y115.009 E0.01262
G1 X100.093 Y114.816 E0.00649
G1 X99.731 Y114.577 E0.00701
G1 X99.269 Y114.216 E0.00945
G1 X98.974 Y113.937 E0.00656
G1 X98.696 Y113.646 E0.00649
G1 X98.429 Y113.311 E0.00691
G1 X98.050 Y112.739 E0.01108
G1 X97.838 Y112.337 E0.00733
G1 X97.658 Y111.911 E0.00746
G1 X97.419 Y111.133 E0.01313
G1 X97.271 Y110.241 E0.01460
M204 S1250
G1 X97.273 Y109.438 F9000.000
M204 S800
G1 F1200.000
G1 X97.416 Y108.552 E0.01476
G1 X97.613 Y107.884 E0.01146
G1 X97.792 Y107.440 E0.00786
G1 X97.994 Y107.045 E0.00731
G1 X98.361 Y106.459 E0.01136
G1 X98.691 Y106.043 E0.00874
G1 X98.961 Y105.751 E0.00654
G1 X99.637 Y105.168 E0.01467
G1 X100.254 Y104.775 E0.01203
G1 X100.630 Y104.582 E0.00695
G1 X101.052 Y104.404 E0.00753
G1 X101.763 Y104.190 E0.01220
G1 X102.376 Y104.085 E0.01023
G1 X102.762 Y104.049 E0.00637
G1 X103.529 Y104.059 E0.01261
G1 X103.980 Y104.115 E0.00747
G1 X104.372 Y104.188 E0.00656
G1 X104.956 Y104.357 E0.00999
G1 X105.523 Y104.583 E0.01004
G1 X106.123 Y104.909 E0.01123
G1 X106.559 Y105.209 E0.00871
G1 X107.030 Y105.600 E0.01006
G1 X107.313 Y105.885 E0.00659
G1 X107.575 Y106.188 E0.00659
G1 X108.028 Y106.834 E0.01298
G1 X108.239 Y107.209 E0.00707
G1 X108.444 Y107.661 E0.00816
G1 X108.674 Y108.342 E0.01183
G1 X108.797 Y108.937 E0.00999
G1 X108.855 Y109.433 E0.00821
G1 X108.864 Y110.114 E0.01121
G1 X108.821 Y110.592 E0.00788
G1 X108.718 Y111.153 E0.00939
G1 X108.615 Y111.538 E0.00654
G1 X108.398 Y112.134 E0.01044
G1 X108.233 Y112.474 E0.00622
G1 X107.926 Y113.009 E0.01013
G1 X107.697 Y113.332 E0.00652
G1 X107.425 Y113.667 E0.00709
G1 X107.108 Y113.998 E0.00753
G1 X106.861 Y114.223 E0.00550
G1 X106.592 Y114.448 E0.00578
G1 X106.224 Y114.708 E0.00741
G1 X105.622 Y115.047 E0.01135
G1 X105.327 Y115.177 E0.00530
G1 X104.749 Y115.389 E0.01013
G1 X104.087 Y115.547 E0.01118
M204 S1250
M204 S800
G1 X103.473 Y115.641 E0.01194
M204 S1250
G1 E-2.24000 F4200.00000
G1 F7200.000
G1 X104.087 Y115.547 E-0.34446
G1 E-0.61554 F4200.00000
G1 Z0.400 F9000.000
G1 X95.340 Y88.239
G1 Z0.200
G1 E3.20000 F2400.00000
M204 S800
G1 F1200.000
G1 X95.340 Y88.412 E0.00657
M204 S1250
M204 S800
G1 X95.340 Y88.585 E0.00593
M204 S1250
M204 S800
G1 X95.340 Y88.757 E0.00530
M204 S1250
M204 S800
G1 X95.340 Y88.930 E0.00467
M204 S1250
M204 S800
G1 X95.340 Y89.103 E0.00403
M204 S1250
M204 S800
G1 X95.340 Y89.276 E0.00340
M204 S1250
M204 S800
G1 X95.340 Y89.449 E0.00277
M204 S1250
G1 X94.799 Y90.820 F9000.000
M204 S800
G1 F1200.000
G1 X96.617 Y97.787 E0.22575
G1 X95.945 Y97.962 E0.02179
G1 X95.503 Y98.054 E0.01414
G1 X95.061 Y98.118 E0.01402
G1 X94.620 Y98.153 E0.01387
G1 X93.940 Y98.154 E0.02131
G1 X93.499 Y98.120 E0.01387
G1 X93.056 Y98.057 E0.01402
G1 X92.619 Y97.966 E0.01402
G1 X92.192 Y97.849 E0.01387
G1 X91.557 Y97.620 E0.02117
G1 X90.950 Y97.335 E0.02102
G1 X90.374 Y96.993 E0.02103
G1 X89.857 Y96.617 E0.02003
G1 X89.402 Y96.152 E0.02039
G1 X94.547 Y91.115 E0.22575
G1 X93.239 Y89.779 E0.05862
G1 X93.347 Y89.625 E0.00589
G1 X94.039 Y89.939 E0.02383
G1 X94.552 Y90.101 E0.01687
G1 X94.787 Y90.103 E0.00738
G1 X95.106 Y90.179 E0.01028
G1 X95.225 Y90.130 E0.00405
G1 X95.317 Y90.213 E0.00386
G1 X95.642 Y90.246 E0.01026
G1 X95.854 Y90.314 E0.00697
G1 X95.959 Y90.318 E0.00331
G1 X95.980 Y90.512 E0.00612
G1 X94.857 Y90.805 E0.03641
M204 S1250
G1 X95.259 Y91.090 F9000.000
M204 S800
G1 F1200.000
G1 X96.906 Y97.399 E0.20443
G1 X104.999 Y95.280 E0.26230
G1 X105.486 Y95.120 E0.01608
G1 X105.928 Y94.933 E0.01506
G1 X106.329 Y94.889 E0.01264
G1 X106.217 Y95.159 E0.00919
G1 X106.081 Y95.357 E0.00752
G1 X106.059 Y95.421 E0.00213
G1 X105.838 Y95.622 E0.00936
G1 X105.677 Y95.729 E0.00606
G1 X105.500 Y95.828 E0.00637
G1 X105.203 Y95.935 E0.00990
G1 X96.031 Y98.330 E0.29720
G1 X95.569 Y98.426 E0.01480
G1 X95.103 Y98.493 E0.01476
G1 X94.635 Y98.530 E0.01471
G1 X93.926 Y98.531 E0.02224
G1 X93.458 Y98.495 E0.01471
G1 X92.992 Y98.428 E0.01476
G1 X92.531 Y98.333 E0.01476
G1 X92.078 Y98.209 E0.01471
G1 X91.412 Y97.969 E0.02219
G1 X90.773 Y97.668 E0.02214
G1 X90.166 Y97.308 E0.02214
G1 X89.610 Y96.903 E0.02158
G1 X80.851 Y87.957 E0.39255
G1 X80.655 Y87.715 E0.00977
G1 X80.467 Y87.357 E0.01268
G1 X80.382 Y87.075 E0.00922
G1 X80.396 Y87.009 E0.00213
G1 X80.381 Y86.769 E0.00752
G1 X80.424 Y86.481 E0.00914
G1 X80.748 Y86.729 E0.01280
G1 X81.036 Y87.122 E0.01525
G1 X81.720 Y87.872 E0.03184
G1 X89.355 Y95.670 E0.34219
G1 X94.014 Y91.109 E0.20443
G1 X88.113 Y85.082 E0.26445
G1 X88.599 Y84.607 E0.02132
G1 X92.210 Y88.295 E0.16181
G1 X92.519 Y88.587 E0.01334
G1 X92.855 Y88.858 E0.01353
G1 X93.210 Y89.102 E0.01353
G1 X93.586 Y89.320 E0.01360
G1 X94.174 Y89.586 E0.02024
G1 X94.612 Y89.725 E0.01439
G1 X94.833 Y89.727 E0.00694
G1 X95.075 Y89.784 E0.00781
G1 X95.302 Y89.691 E0.00770
G1 X95.478 Y89.850 E0.00743
G1 X95.720 Y89.875 E0.00762
G1 X95.920 Y89.939 E0.00659
G1 X96.356 Y89.956 E0.01367
G1 X96.771 Y89.929 E0.01305
G1 X97.182 Y89.870 E0.01304
G1 X98.139 Y89.633 E0.03089
G1 X98.311 Y90.293 E0.02140
G1 X95.317 Y91.075 E0.09703
M204 S1250
G1 X94.880 Y91.218 F9000.000
G1 E-2.24000 F4200.00000
G1 F7200.000
G1 X95.718 Y92.671 E-0.91200
G1 E-0.04800 F4200.00000
G1 Z0.400 F9000.000
G1 X95.317 Y88.029
G1 Z0.200
G1 E3.20000 F2400.00000
M204 S800
G1 F1200.000
G1 X95.245 Y88.029 E0.00227
G1 X95.171 Y87.608 E0.01340
G1 X95.093 Y86.717 E0.02805
G1 X95.170 Y85.834 E0.02779
G1 X95.245 Y85.405 E0.01365
G1 X95.435 Y85.405 E0.00597
G1 X95.511 Y85.845 E0.01402
G1 X95.586 Y86.717 E0.02743
G1 X95.507 Y87.614 E0.02825
G1 X95.435 Y88.029 E0.01320
G1 X95.377 Y88.029 E0.00182
M204 S1250
G1 X95.260 Y87.984 F9000.000
G1 E-2.24000 F4200.00000
G1 F7200.000
G1 X95.245 Y88.029 E-0.07335
G1 X95.171 Y87.608 E-0.23676
G1 X95.093 Y86.717 E-0.49578
G1 X95.110 Y86.526 E-0.10611
G1 E-0.04800 F4200.00000
G1 Z0.400 F9000.000
G1 X95.340 Y85.195
G1 Z0.200
G1 E3.20000 F2400.00000
M204 S800
G1 F1200.000
G1 X95.340 Y85.025 E0.00647
M204 S1250
M204 S800
G1 X95.340 Y84.854 E0.00586
M204 S1250
M204 S800
G1 X95.340 Y84.684 E0.00525
M204 S1250
M204 S800
G1 X95.340 Y84.514 E0.00464
M204 S1250
M204 S800
G1 X95.340 Y84.343 E0.00402
M204 S1250
M204 S800
G1 X95.340 Y84.173 E0.00341
M204 S1250
M204 S800
G1 X95.340 Y84.003 E0.00280
M204 S1250
G1 X95.492 Y83.436 F9000.000
M204 S800
G1 F1200.000
G1 X95.456 Y83.426 E0.00116
G1 X95.486 Y83.226 E0.00633
G1 X96.119 Y83.249 E0.01983
G1 X96.624 Y83.240 E0.01584
G1 X97.728 Y83.156 E0.03472
G1 X98.092 Y83.421 E0.01411
G1 X98.538 Y83.710 E0.01667
G1 X98.978 Y83.963 E0.01592
G1 X98.902 Y84.147 E0.00622
G1 X97.408 Y83.748 E0.04849
G1 X96.910 Y83.638 E0.01598
G1 X96.387 Y83.573 E0.01653
G1 X95.947 Y83.558 E0.01380
G1 X95.550 Y83.451 E0.01290
M204 S1250
G1 E-2.24000 F4200.00000
G1 F7200.000
G1 X95.456 Y83.426 E-0.05376
G1 X95.486 Y83.226 E-0.11191
G1 X96.119 Y83.249 E-0.35055
G1 X96.624 Y83.240 E-0.28000
G1 X96.832 Y83.224 E-0.11578
G1 E-0.04800 F4200.00000
G1 Z0.400 F9000.000
G1 X97.923 Y80.883
G1 Z0.200
G1 E3.20000 F2400.00000
M204 S800
G1 F1200.000
G1 X98.111 Y76.132 E0.14909
G1 X98.901 Y76.215 E0.02493
G1 X99.368 Y76.304 E0.01490
G1 X99.828 Y76.421 E0.01490
G1 X100.277 Y76.565 E0.01476
G1 X100.527 Y76.666 E0.00846
G1 X98.093 Y80.932 E0.15399
G1 X97.980 Y80.900 E0.00369
M204 S1250
G1 E-2.24000 F4200.00000
G1 F7200.000
G1 X98.025 Y79.255 E-0.91200
G1 E-0.04800 F4200.00000
G1 Z0.400 F9000.000
G1 X100.750 Y77.035
G1 Z0.200
G1 E3.20000 F2400.00000
M204 S800
G1 F1200.000
G1 X98.191 Y81.523 E0.16198
G1 X97.973 Y81.959 E0.01529
G1 X97.676 Y82.652 E0.02364
G1 X98.305 Y83.110 E0.02441
G1 X98.735 Y83.388 E0.01605
G1 X99.684 Y83.936 E0.03437
G1 X99.283 Y84.639 E0.02538
G1 X97.319 Y84.114 E0.06373
G1 X96.846 Y84.010 E0.01517
G1 X96.357 Y83.949 E0.01545
G1 X95.891 Y83.934 E0.01463
G1 X94.614 Y83.563 E0.04170
G1 X94.645 Y83.284 E0.00882
G1 X94.652 Y82.819 E0.01456
G1 X96.122 Y82.872 E0.04611
G1 X96.606 Y82.863 E0.01518
G1 X97.360 Y82.806 E0.02370
G1 X97.505 Y81.581 E0.03866
G1 X97.537 Y81.099 E0.01516
G1 X97.722 Y76.415 E0.14699
G1 X92.630 Y76.216 E0.15978
G1 X92.656 Y75.537 E0.02132
G1 X97.966 Y75.744 E0.16661
G1 X98.467 Y75.778 E0.01575
G1 X98.961 Y75.842 E0.01561
G1 X99.450 Y75.936 E0.01561
G1 X99.932 Y76.059 E0.01561
G1 X100.405 Y76.210 E0.01556
G1 X101.099 Y76.490 E0.02346
G1 X101.768 Y76.834 E0.02360
G1 X109.359 Y81.175 E0.27418
G1 X109.326 Y81.682 E0.01593
G1 X109.275 Y81.910 E0.00733
G1 X100.802 Y77.065 E0.30603
