; generated by PrusaSlicer 2.2.0+win64 on 2020-10-16 at 12:58:18 UTC


;
;

;
;
; 

; external perimeters extrusion width = 0.45mm
; perimeters extrusion width = 0.45mm
; infill extrusion width = 0.45mm
; solid infill extrusion width = 0.45mm
; top infill extrusion width = 0.40mm
; first layer extrusion width = 0.42mm

M73 P0 R115
M201 X1250 Y1250 Z400 E5000 ; sets maximum accelerations, mm/sec^2
M203 X180 Y180 Z12 E80 ; sets maximum feedrates, mm/sec
M204 P1250 R1250 T1250 ; sets acceleration (P, T) and retract acceleration (R), mm/sec^2
M205 X8.00 Y8.00 Z2.00 E10.00 ; sets the jerk limits, mm/sec
M205 S0 T0 ; sets the minimum extruding and travel feed rate, mm/sec
M107
G90 ; use absolute coordinates
M83 ; extruder relative mode
M104 S170 ; set extruder temp for bed leveling
M140 S60 ; set bed temp
M109 R170 ; wait for bed leveling temp
M190 S60 ; wait for bed temp
G28 ; home all without mesh bed level
G29 ; mesh bed leveling 
M104 S215 ; set extruder temp
G92 E0.0
G1 Y-2.0 X179 F2400
G1 Z3 F720
M109 S215 ; wait for extruder temp

; intro line
G1 X170 F1000
G1 Z0.2 F720
G1 X110.0 E8.0 F900
M73 P0 R114
G1 X40.0 E10.0 F700
G92 E0.0

M221 S95 ; set flow
G21 ; set units to millimeters
G90 ; use absolute coordinates
M83 ; use relative distances for extrusion
M900 K0.2 ; Filament gcode LA 1.5
; ; Filament gcode LA 1.0
;BEFORE_LAYER_CHANGE
G92 E0.0
;0.2


G1 Z0.200 F9000.000
;AFTER_LAYER_CHANGE
;0.2
G1 E-3.20000 F4200.00000
G1 Z0.400 F9000.000
G1 X73.298 Y86.981
G1 Z0.200
G1 E3.20000 F2400.00000
M204 S800
G1 F1200.000
G1 X85.632 Y75.958 E0.51865
G1 X86.454 Y75.490 E0.02968
G1 X87.391 Y75.327 E0.02980
G1 X93.890 Y75.598 E0.20394
G1 X95.260 Y75.817 E0.04350
G1 X96.606 Y76.205 E0.04392
G1 X98.189 Y76.906 E0.05428
G1 X106.297 Y81.538 E0.29280
G1 X106.857 Y81.977 E0.02231
G1 X107.285 Y82.545 E0.02231
G1 X107.519 Y83.082 E0.01835
G1 X107.634 Y83.655 E0.01835
G1 X107.640 Y84.538 E0.02767
G1 X107.543 Y85.341 E0.02537
G1 X104.539 Y98.559 E0.42499
G1 X104.232 Y99.403 E0.02817
G1 X103.741 Y100.215 E0.02973
G1 X103.035 Y100.970 E0.03243
G1 X102.269 Y101.507 E0.02931
G1 X101.167 Y101.956 E0.03731
G1 X91.222 Y104.516 E0.32198
G1 X89.915 Y104.661 E0.04125
G1 X88.610 Y104.644 E0.04090
G1 X87.531 Y104.508 E0.03411
G1 X86.245 Y104.196 E0.04150
G1 X84.392 Y103.422 E0.06296
G1 X83.525 Y102.904 E0.03166
G1 X82.612 Y102.222 E0.03574
G1 X73.685 Y93.111 E0.39994
G1 X72.976 Y92.166 E0.03703
G1 X72.693 Y91.583 E0.02034
G1 X72.467 Y90.861 E0.02372
G1 X72.355 Y89.553 E0.04115
G1 X72.458 Y88.795 E0.02399
G1 X72.642 Y88.162 E0.02066
G1 X72.921 Y87.544 E0.02126
G1 X73.265 Y87.031 E0.01936
M204 S1250
G1 E-2.24000 F4200.00000
G1 F7200.000
G1 X74.491 Y85.933 E-0.91200
G1 E-0.04800 F4200.00000
G1 Z0.400 F9000.000
G1 X72.731 Y89.586
G1 Z0.200
G1 E3.20000 F2400.00000
M204 S800
G1 F1200.000
G1 X72.993 Y88.298 E0.04122
G1 X73.249 Y87.731 E0.01948
G1 X73.590 Y87.219 E0.01930
G1 X85.863 Y76.257 E0.51596
G1 X86.579 Y75.845 E0.02590
G1 X87.389 Y75.704 E0.02579
G1 X93.852 Y75.974 E0.20281
G1 X95.177 Y76.185 E0.04205
G1 X96.471 Y76.557 E0.04221
G1 X98.008 Y77.237 E0.05271
G1 X106.097 Y81.858 E0.29210
G1 X106.580 Y82.233 E0.01917
G1 X106.949 Y82.716 E0.01906
G1 X107.159 Y83.193 E0.01633
G1 X107.260 Y83.704 E0.01633
G1 X107.170 Y85.286 E0.04967
G1 X104.174 Y98.461 E0.42365
G1 X103.893 Y99.237 E0.02586
G1 X103.446 Y99.980 E0.02722
G1 X102.791 Y100.682 E0.03010
G1 X102.096 Y101.172 E0.02664
G1 X101.064 Y101.593 E0.03494
G1 X91.163 Y104.144 E0.32058
G1 X89.897 Y104.285 E0.03993
G1 X88.634 Y104.268 E0.03961
G1 X87.602 Y104.138 E0.03262
G1 X86.359 Y103.836 E0.04011
G1 X84.575 Y103.092 E0.06061
G1 X83.738 Y102.593 E0.03054
G1 X82.866 Y101.944 E0.03408
G1 X73.959 Y92.851 E0.39910
G1 X73.312 Y91.994 E0.03367
G1 X72.836 Y90.779 E0.04091
G1 X72.736 Y89.646 E0.03568
M204 S1250
G1 E-2.24000 F4200.00000
G1 F7200.000
G1 X72.993 Y88.298 E-0.76051
G1 X73.106 Y88.048 E-0.15149
G1 E-0.04800 F4200.00000
G1 Z0.400 F9000.000
G1 X90.464 Y91.209
G1 Z0.200
G1 E3.20000 F2400.00000
M204 S800
G1 F1200.000
G1 X90.464 Y91.382 E0.00657
M204 S1250
M204 S800
G1 X90.464 Y91.555 E0.00593
M204 S1250
M204 S800
G1 X90.464 Y91.728 E0.00530
M204 S1250
M204 S800
G1 X90.464 Y91.901 E0.00467
M204 S1250
M204 S800
G1 X90.464 Y92.073 E0.00403
M204 S1250
M204 S800
G1 X90.464 Y92.246 E0.00340
M204 S1250
M204 S800
G1 X90.464 Y92.419 E0.00277
M204 S1250
G1 X89.923 Y93.791 F9000.000
M204 S800
G1 F1200.000
G1 X91.741 Y100.757 E0.22575
G1 X91.069 Y100.933 E0.02179
G1 X90.627 Y101.025 E0.01414
G1 X90.185 Y101.088 E0.01402
G1 X89.744 Y101.124 E0.01387
G1 X89.064 Y101.124 E0.02131
G1 X88.623 Y101.090 E0.01387
G1 X88.180 Y101.027 E0.01402
G1 X87.743 Y100.936 E0.01402
G1 X87.316 Y100.820 E0.01387
G1 X86.681 Y100.591 E0.02117
G1 X86.074 Y100.305 E0.02102
G1 X85.498 Y99.963 E0.02103
G1 X84.981 Y99.587 E0.02003
G1 X84.526 Y99.122 E0.02039
G1 X89.671 Y94.085 E0.22575
G1 X88.363 Y92.749 E0.05862
G1 X88.471 Y92.595 E0.00589
G1 X89.163 Y92.909 E0.02383
G1 X89.676 Y93.071 E0.01687
G1 X89.911 Y93.073 E0.00737
G1 X90.230 Y93.149 E0.01028
G1 X90.349 Y93.100 E0.00405
G1 X90.441 Y93.183 E0.00386
G1 X90.766 Y93.216 E0.01026
G1 X90.978 Y93.284 E0.00697
G1 X91.083 Y93.288 E0.00332
G1 X91.105 Y93.482 E0.00612
G1 X89.981 Y93.775 E0.03641
M204 S1250
G1 X90.383 Y94.060 F9000.000
M204 S800
G1 F1200.000
G1 X92.030 Y100.369 E0.20443
G1 X100.123 Y98.250 E0.26230
G1 X100.610 Y98.091 E0.01608
G1 X101.052 Y97.903 E0.01506
G1 X101.453 Y97.859 E0.01264
G1 X101.341 Y98.130 E0.00919
G1 X101.205 Y98.327 E0.00752
G1 X101.183 Y98.391 E0.00213
G1 X100.962 Y98.592 E0.00936
G1 X100.801 Y98.699 E0.00606
G1 X100.624 Y98.798 E0.00637
G1 X100.327 Y98.906 E0.00990
G1 X91.155 Y101.300 E0.29720
G1 X90.693 Y101.396 E0.01480
G1 X90.227 Y101.463 E0.01476
G1 X89.759 Y101.501 E0.01471
G1 X89.050 Y101.501 E0.02224
G1 X88.582 Y101.465 E0.01471
G1 X88.116 Y101.399 E0.01476
G1 X87.655 Y101.303 E0.01476
G1 X87.202 Y101.179 E0.01471
G1 X86.536 Y100.939 E0.02219
G1 X85.897 Y100.638 E0.02214
G1 X85.290 Y100.278 E0.02214
G1 X84.734 Y99.873 E0.02158
G1 X75.975 Y90.927 E0.39255
G1 X75.779 Y90.685 E0.00977
G1 X75.591 Y90.327 E0.01268
G1 X75.506 Y90.045 E0.00922
G1 X75.520 Y89.979 E0.00213
G1 X75.505 Y89.740 E0.00752
G1 X75.548 Y89.451 E0.00914
G1 X75.872 Y89.700 E0.01280
G1 X76.160 Y90.092 E0.01525
G1 X76.844 Y90.842 E0.03184
G1 X84.479 Y98.641 E0.34219
G1 X89.138 Y94.080 E0.20443
G1 X83.237 Y88.053 E0.26445
G1 X83.723 Y87.577 E0.02132
G1 X87.334 Y91.265 E0.16181
G1 X87.643 Y91.557 E0.01334
G1 X87.979 Y91.828 E0.01353
G1 X88.334 Y92.073 E0.01353
G1 X88.710 Y92.290 E0.01360
G1 X89.298 Y92.557 E0.02024
G1 X89.736 Y92.695 E0.01439
G1 X89.957 Y92.697 E0.00694
G1 X90.199 Y92.754 E0.00781
G1 X90.426 Y92.661 E0.00770
G1 X90.602 Y92.820 E0.00743
G1 X90.844 Y92.845 E0.00762
G1 X91.044 Y92.909 E0.00659
G1 X91.480 Y92.926 E0.01367
G1 X91.895 Y92.899 E0.01305
G1 X92.306 Y92.840 E0.01304
G1 X93.263 Y92.603 E0.03089
G1 X93.435 Y93.263 E0.02140
G1 X90.441 Y94.045 E0.09703
M204 S1250
G1 X90.004 Y94.188 F9000.000
G1 E-2.24000 F4200.00000
G1 F7200.000
G1 X90.842 Y95.641 E-0.91200
G1 E-0.04800 F4200.00000
G1 Z0.400 F9000.000
G1 X90.441 Y90.999
G1 Z0.200
G1 E3.20000 F2400.00000
M204 S800
G1 F1200.000
G1 X90.369 Y90.999 E0.00227
G1 X90.295 Y90.578 E0.01340
G1 X90.217 Y89.687 E0.02805
G1 X90.294 Y88.804 E0.02779
G1 X90.369 Y88.375 E0.01365
G1 X90.559 Y88.375 E0.00597
G1 X90.635 Y88.816 E0.01402
G1 X90.710 Y89.687 E0.02743
G1 X90.631 Y90.584 E0.02825
G1 X90.559 Y90.999 E0.01320
G1 X90.501 Y90.999 E0.00182
M204 S1250
G1 X90.384 Y90.955 F9000.000
G1 E-2.24000 F4200.00000
G1 F7200.000
G1 X90.369 Y90.999 E-0.07336
G1 X90.295 Y90.578 E-0.23679
G1 X90.217 Y89.687 E-0.49578
G1 X90.233 Y89.496 E-0.10608
G1 E-0.04800 F4200.00000
G1 Z0.400 F9000.000
G1 X90.464 Y88.165
G1 Z0.200
G1 E3.20000 F2400.00000
M204 S800
G1 F1200.000
G1 X90.464 Y87.995 E0.00647
M204 S1250
M204 S800
G1 X90.464 Y87.825 E0.00586
M204 S1250
M204 S800
G1 X90.464 Y87.654 E0.00525
M204 S1250
M204 S800
G1 X90.464 Y87.484 E0.00464
M204 S1250
M204 S800
G1 X90.464 Y87.314 E0.00402
M204 S1250
M204 S800
G1 X90.464 Y87.143 E0.00341
M204 S1250
M204 S800
G1 X90.464 Y86.973 E0.00280
M204 S1250
G1 X90.616 Y86.406 F9000.000
M204 S800
G1 F1200.000
G1 X90.580 Y86.396 E0.00116
G1 X90.610 Y86.197 E0.00633
G1 X91.243 Y86.219 E0.01984
G1 X91.748 Y86.210 E0.01584
G1 X92.852 Y86.126 E0.03472
G1 X93.216 Y86.391 E0.01411
G1 X93.662 Y86.680 E0.01667
G1 X94.102 Y86.934 E0.01592
G1 X94.026 Y87.117 E0.00622
G1 X92.532 Y86.718 E0.04850
G1 X92.034 Y86.608 E0.01598
G1 X91.511 Y86.543 E0.01653
G1 X91.071 Y86.528 E0.01380
G1 X90.674 Y86.422 E0.01290
M204 S1250
G1 E-2.24000 F4200.00000
G1 F7200.000
G1 X90.580 Y86.396 E-0.05381
G1 X90.610 Y86.197 E-0.11191
G1 X91.243 Y86.219 E-0.35060
G1 X91.748 Y86.210 E-0.28000
G1 X91.956 Y86.194 E-0.11568
G1 E-0.04800 F4200.00000
G1 Z0.400 F9000.000
G1 X93.047 Y83.853
G1 Z0.200
G1 E3.20000 F2400.00000
M204 S800
G1 F1200.000
G1 X93.235 Y79.102 E0.14910
G1 X94.025 Y79.185 E0.02493
G1 X94.492 Y79.275 E0.01490
G1 X94.952 Y79.392 E0.01490
G1 X95.401 Y79.535 E0.01476
G1 X95.651 Y79.636 E0.00846
G1 X93.217 Y83.902 E0.15400
G1 X93.104 Y83.870 E0.00369
M204 S1250
G1 E-2.24000 F4200.00000
G1 F7200.000
G1 X93.149 Y82.225 E-0.91200
G1 E-0.04800 F4200.00000
G1 Z0.400 F9000.000
G1 X95.874 Y80.006
G1 Z0.200
G1 E3.20000 F2400.00000
M204 S800
G1 F1200.000
G1 X93.315 Y84.493 E0.16198
G1 X93.097 Y84.930 E0.01529
G1 X92.800 Y85.622 E0.02364
G1 X93.429 Y86.080 E0.02441
G1 X93.859 Y86.358 E0.01605
G1 X94.808 Y86.906 E0.03437
G1 X94.407 Y87.609 E0.02538
G1 X92.443 Y87.084 E0.06373
G1 X91.970 Y86.980 E0.01517
G1 X91.481 Y86.920 E0.01545
G1 X91.015 Y86.904 E0.01463
G1 X89.738 Y86.533 E0.04170
G1 X89.769 Y86.254 E0.00882
G1 X89.776 Y85.790 E0.01456
G1 X91.246 Y85.842 E0.04611
G1 X91.730 Y85.833 E0.01518
G1 X92.484 Y85.776 E0.02370
G1 X92.629 Y84.552 E0.03866
G1 X92.661 Y84.069 E0.01516
G1 X92.846 Y79.385 E0.14699
G1 X87.754 Y79.186 E0.15978
G1 X87.780 Y78.507 E0.02132
G1 X93.090 Y78.714 E0.16661
G1 X93.591 Y78.749 E0.01575
G1 X94.085 Y78.813 E0.01561
G1 X94.574 Y78.906 E0.01561
G1 X95.056 Y79.029 E0.01561
G1 X95.529 Y79.180 E0.01556
G1 X96.223 Y79.461 E0.02346
G1 X96.892 Y79.804 E0.02360
G1 X104.483 Y84.145 E0.27418
G1 X104.450 Y84.652 E0.01593
G1 X104.399 Y84.880 E0.00733
G1 X95.926 Y80.035 E0.30603
M204 S1250
G1 X95.525 Y79.810 F9000.000
G1 X96.088 Y79.755
M204 S800
G1 F1200.000
G1 X96.730 Y80.103 E0.01840
G1 X104.140 Y84.341 E0.21490
G1 X104.269 Y84.567 E0.00655
M204 S1250
G1 E-2.24000 F4200.00000
G1 F7200.000
G1 X104.140 Y84.341 E-0.14429
G1 X102.938 Y83.653 E-0.76771
G1 E-0.04800 F4200.00000
G1 Z0.400 F9000.000
G1 X94.446 Y86.915
G1 Z0.200
G1 E3.20000 F2400.00000
M204 S800
G1 F1200.000
G1 X94.225 Y87.365 E0.00956
M204 S1250
G1 X93.328 Y86.713 F9000.000
M204 S800
G1 F1200.000
G1 X92.967 Y86.550 E0.00295
M204 S1250
M204 S800
G1 X92.760 Y86.451 E0.00409
G1 X92.603 Y86.436 E0.00281
M204 S1250
M204 S800
G1 X92.462 Y86.426 E0.00239
M204 S1250
M204 S800
G1 X92.326 Y86.417 E0.00186
M204 S1250
M204 S800
G1 X92.190 Y86.407 E0.00143
M204 S1250
M204 S800
G1 X92.054 Y86.397 E0.00100
M204 S1250
G1 X92.768 Y85.165 F9000.000
M204 S800
G1 F1200.000
G1 X92.814 Y84.993 E0.00144
M204 S1250
M204 S800
G1 X92.861 Y84.818 E0.00221
M204 S1250
M204 S800
G1 X92.896 Y84.700 E0.00192
M204 S1250
M204 S800
G1 X93.080 Y84.059 E0.01290
M204 S1250
G1 X93.206 Y82.683 F9000.000
M204 S800
G1 F1200.000
G1 X93.449 Y82.926 E0.01128
G1 X93.652 Y82.570 E0.01346
G1 X93.391 Y82.309 E0.01214
G1 X93.412 Y81.771 E0.01768
G1 X93.855 Y82.214 E0.02058
G1 X94.058 Y81.858 E0.01346
G1 X93.433 Y81.234 E0.02903
G1 X93.455 Y80.696 E0.01768
G1 X94.261 Y81.502 E0.03747
G1 X94.464 Y81.146 E0.01346
G1 X93.476 Y80.158 E0.04592
G1 X93.497 Y79.621 E0.01768
G1 X94.667 Y80.791 E0.05436
G1 X94.870 Y80.435 E0.01346
G1 X93.888 Y79.453 E0.04564
G1 X94.584 Y79.590 E0.02331
G1 X95.197 Y80.203 E0.02851
M204 S1250
G1 X95.862 Y79.646 F9000.000
M204 S800
G1 F1200.000
G1 X96.088 Y79.755 E0.00562
M204 S1250
G1 E-2.24000 F4200.00000
G1 F7200.000
G1 X95.862 Y79.646 E-0.13878
G1 E-0.82122 F4200.00000
G1 Z0.400 F9000.000
G1 X93.048 Y79.053
G1 Z0.200
G1 E3.20000 F2400.00000
M204 S800
G1 F1200.000
G1 X87.955 Y78.854 E0.12837
M204 S1250
G1 E-2.24000 F4200.00000
G1 F7200.000
G1 X89.600 Y78.918 E-0.91200
G1 E-0.04800 F4200.00000
G1 Z0.400 F9000.000
G1 X83.612 Y87.950
G1 Z0.200
G1 E3.20000 F2400.00000
M204 S800
G1 F1200.000
G1 X87.097 Y91.509 E0.12554
M204 S1250
M204 S800
G1 X87.418 Y91.824 E0.01199
M204 S1250
M204 S800
G1 X87.583 Y91.974 E0.00645
M204 S1250
M204 S800
G1 X87.760 Y92.134 E0.00743
M204 S1250
M204 S800
G1 X88.089 Y92.411 E0.01518
G1 X88.415 Y92.347 E0.01169
M204 S1250
G1 E-2.24000 F4200.00000
G1 F7200.000
G1 X88.089 Y92.411 E-0.18390
G1 X87.760 Y92.134 E-0.23865
G1 E-0.53745 F4200.00000
G1 Z0.400 F9000.000
G1 X90.464 Y90.077
G1 Z0.200
G1 E3.20000 F2400.00000
M204 S800
G1 F1200.000
G1 X90.464 Y89.290 E0.00540
M204 S1250
G1 E-2.24000 F4200.00000
G1 F7200.000
G1 X90.464 Y90.077 E-0.43624
G1 E-0.52376 F4200.00000
G1 Z0.400 F9000.000
G1 X93.166 Y92.980
G1 Z0.200
G1 E3.20000 F2400.00000
M204 S800
G1 F1200.000
G1 X92.366 Y93.183 E0.02184
G1 X91.716 Y93.305 E0.01748
M204 S1250
M204 S800
G1 X91.496 Y93.331 E0.00831
M204 S1250
M204 S800
G1 X91.255 Y93.118 E0.01161
M204 S1250
G1 X90.161 Y93.611 F9000.000
M204 S800
G1 F1200.000
G1 X89.915 Y93.365 E0.01133
G1 X89.631 Y93.354 E0.00926
G1 X89.225 Y93.226 E0.01386
G1 X89.813 Y93.816 E0.02711
M204 S1250
G1 X90.145 Y95.089 F9000.000
M204 S800
G1 F1200.000
G1 X89.603 Y94.547 E0.02452
G1 X89.328 Y94.817 E0.01233
G1 X90.100 Y95.588 E0.03494
G1 X90.292 Y96.325 E0.02438
G1 X89.053 Y95.086 E0.05610
G1 X88.778 Y95.355 E0.01233
G1 X90.484 Y97.062 E0.07727
G1 X90.677 Y97.799 E0.02438
G1 X88.503 Y95.625 E0.09843
G1 X88.228 Y95.894 E0.01233
G1 X90.869 Y98.536 E0.11960
G1 X91.062 Y99.272 E0.02438
G1 X87.952 Y96.163 E0.14076
G1 X87.677 Y96.433 E0.01233
G1 X91.254 Y100.009 E0.16192
G1 X91.396 Y100.555 E0.01805
G1 X91.284 Y100.584 E0.00371
G1 X87.402 Y96.702 E0.17575
G1 X87.127 Y96.971 E0.01233
G1 X90.846 Y100.690 E0.16837
G1 X90.385 Y100.774 E0.01499
G1 X86.852 Y97.241 E0.15996
G1 X86.577 Y97.510 E0.01233
G1 X89.895 Y100.828 E0.15021
G1 X89.363 Y100.841 E0.01701
G1 X86.302 Y97.780 E0.13861
G1 X86.027 Y98.049 E0.01233
G1 X88.797 Y100.820 E0.12545
G1 X88.169 Y100.736 E0.02030
G1 X85.751 Y98.318 E0.10946
G1 X85.476 Y98.588 E0.01233
G1 X87.453 Y100.564 E0.08947
G1 X86.789 Y100.329 E0.02252
G1 X86.570 Y100.226 E0.00776
G1 X85.201 Y98.857 E0.06198
G1 X84.926 Y99.126 E0.01233
G1 X85.826 Y100.026 E0.04073
M204 S1250
G1 E-2.24000 F4200.00000
G1 F7200.000
G1 X84.926 Y99.126 E-0.70503
G1 X85.193 Y98.865 E-0.20697
G1 E-0.04800 F4200.00000
G1 Z0.400 F9000.000
G1 X84.368 Y99.013
G1 Z0.200
G1 E3.20000 F2400.00000
M204 S800
G1 F1200.000
G1 X76.599 Y91.078 E0.28002
G1 X76.236 Y90.694 E0.01331
G1 X75.995 Y90.395 E0.00969
M204 S1250
M204 S800
G1 X75.924 Y90.293 E0.00283
M204 S1250
M204 S800
G1 X75.877 Y90.218 E0.00179
M204 S1250
M204 S800
G1 X75.829 Y90.117 E0.00213
M204 S1250
M204 S800
G1 X75.781 Y90.016 E0.00173
M204 S1250
M204 S800
G1 X75.778 Y90.010 E0.00008
M204 S1250
G1 E-2.24000 F4200.00000
G1 F7200.000
G1 X75.781 Y90.016 E-0.00388
G1 E-0.95612 F4200.00000
G1 Z0.400 F9000.000
G1 X91.933 Y100.745
G1 Z0.200
G1 E3.20000 F2400.00000
M204 S800
G1 F1200.000
G1 X100.215 Y98.580 E0.17223
G1 X100.482 Y98.489 E0.00569
G1 X100.767 Y98.355 E0.00634
M204 S1250
M204 S800
G1 X100.967 Y98.221 E0.00287
M204 S1250
M106 S255
;BEFORE_LAYER_CHANGE
G92 E0.0
;0.45


G1 Z0.450 F9000.000
;AFTER_LAYER_CHANGE
;0.45
G1 E-3.20000 F4200.00000
G1 Z0.650 F9000.000
G1 X86.454 Y75.490
G1 Z0.450
G1 E3.20000 F2400.00000
G1 F2194
G1 X87.391 Y75.327 E0.03619
G1 X93.890 Y75.598 E0.24768
G1 X95.260 Y75.817 E0.05282
G1 X96.606 Y76.205 E0.05334
G1 X98.189 Y76.906 E0.06591
G1 X106.297 Y81.538 E0.35559
G1 X106.857 Y81.977 E0.02709
G1 X107.285 Y82.545 E0.02709
G1 X107.519 Y83.082 E0.02228
G1 X107.634 Y83.655 E0.02228
G1 X107.640 Y84.538 E0.03360
G1 X107.543 Y85.341 E0.03081
G1 X104.539 Y98.559 E0.51612
G1 X104.232 Y99.403 E0.03421
