; generated by PrusaSlicer 2.2.0+win64 on 2020-10-27 at 12:55:48 UTC


;
;

;
;
; 

; external perimeters extrusion width = 0.45mm
; perimeters extrusion width = 0.45mm
; infill extrusion width = 0.45mm
; solid infill extrusion width = 0.45mm
; top infill extrusion width = 0.40mm
; first layer extrusion width = 0.42mm

M73 P0 R5
M201 X1250 Y1250 Z400 E5000 ; sets maximum accelerations, mm/sec^2
M203 X180 Y180 Z12 E80 ; sets maximum feedrates, mm/sec
M204 P1250 R1250 T1250 ; sets acceleration (P, T) and retract acceleration (R), mm/sec^2
M205 X8.00 Y8.00 Z2.00 E10.00 ; sets the jerk limits, mm/sec
M205 S0 T0 ; sets the minimum extruding and travel feed rate, mm/sec
M107
G90 ; use absolute coordinates
M83 ; extruder relative mode
M104 S170 ; set extruder temp for bed leveling
M140 S60 ; set bed temp
M109 R170 ; wait for bed leveling temp
M190 S60 ; wait for bed temp
G28 ; home all without mesh bed level
G29 ; mesh bed leveling 
M104 S215 ; set extruder temp
G92 E0.0
G1 Y-2.0 X179 F2400
G1 Z3 F720
M109 S215 ; wait for extruder temp

; intro line
G1 X170 F1000
G1 Z0.2 F720
G1 X110.0 E8.0 F900
M73 P3 R5
G1 X40.0 E10.0 F700
G92 E0.0

M221 S95 ; set flow
G21 ; set units to millimeters
G90 ; use absolute coordinates
M83 ; use relative distances for extrusion
M900 K0.2 ; Filament gcode LA 1.5
; ; Filament gcode LA 1.0
;BEFORE_LAYER_CHANGE
G92 E0.0
;0.2


G1 Z0.200 F9000.000
;AFTER_LAYER_CHANGE
;0.2
G1 E-3.20000 F4200.00000
G1 Z0.400 F9000.000
G1 X59.793 Y74.396
G1 Z0.200
G1 E3.20000 F2400.00000
M204 S800
G1 F1200.000
G1 X60.296 Y73.604 E0.02942
G1 X61.448 Y72.669 E0.04654
G1 X67.939 Y68.656 E0.23926
G1 X70.387 Y67.384 E0.08650
G1 X73.057 Y66.330 E0.09002
G1 X75.752 Y65.612 E0.08743
G1 X78.592 Y65.261 E0.08972
G1 X81.591 Y65.248 E0.09404
G1 X83.572 Y65.390 E0.06226
G1 X85.587 Y65.669 E0.06379
G1 X88.514 Y66.309 E0.09394
G1 X91.209 Y67.041 E0.08755
G1 X93.818 Y68.030 E0.08748
G1 X95.254 Y68.650 E0.04905
G1 X97.282 Y69.852 E0.07391
G1 X99.411 Y71.538 E0.08517
G1 X101.017 Y73.338 E0.07562
G1 X111.282 Y88.462 E0.57311
G1 X120.294 Y110.742 E0.75357
G1 X120.414 Y111.457 E0.02272
G1 X120.313 Y112.175 E0.02272
G1 X120.000 Y112.828 E0.02272
G1 X119.507 Y113.355 E0.02260
G1 X118.851 Y113.720 E0.02355
G1 X118.110 Y113.863 E0.02367
G1 X74.641 Y114.748 E1.36324
G1 X73.865 Y114.569 E0.02496
G1 X65.251 Y110.845 E0.29424
G1 X64.763 Y110.551 E0.01787
G1 X64.356 Y110.146 E0.01799
G1 X63.814 Y109.353 E0.03014
G1 X63.584 Y108.594 E0.02484
G1 X59.600 Y75.833 E1.03477
G1 X59.607 Y75.256 E0.01811
G1 X59.781 Y74.455 E0.02569
M204 S1250
G1 E-2.24000 F4200.00000
G1 F7200.000
G1 X60.296 Y73.604 E-0.55138
G1 X60.801 Y73.194 E-0.36062
G1 E-0.04800 F4200.00000
G1 Z0.400 F9000.000
G1 X90.400 Y101.662
G1 Z0.200
G1 E3.20000 F2400.00000
M204 S800
G1 F1200.000
G1 X90.469 Y102.012 E0.01117
G1 X90.213 Y102.109 E0.00859
G1 X90.376 Y101.718 E0.01331
M204 S1250
G1 X90.069 Y102.027 F9000.000
M204 S800
G1 F1200.000
G1 X90.170 Y102.127 E0.00444
G1 X89.552 Y102.441 E0.02172
G1 X89.102 Y103.609 E0.03923
G1 X89.281 Y104.628 E0.03243
G1 X90.227 Y104.907 E0.03093
G1 X90.112 Y105.154 E0.00855
G1 X90.505 Y106.035 E0.03024
G1 X91.398 Y106.193 E0.02844
G1 X92.460 Y105.894 E0.03458
G1 X92.973 Y105.252 E0.02578
G1 X93.069 Y104.255 E0.03139
G1 X93.152 Y104.137 E0.00452
G1 X93.409 Y103.298 E0.02752
G1 X93.255 Y102.773 E0.01715
G1 X93.095 Y102.450 E0.01130
G1 X93.701 Y101.595 E0.03287
G1 X93.575 Y101.062 E0.01716
G1 X94.259 Y101.480 E0.02512
G1 X94.302 Y101.317 E0.00527
G1 X95.421 Y100.948 E0.03696
G1 X95.724 Y100.385 E0.02007
G1 X95.904 Y99.974 E0.01404
G1 X96.268 Y98.076 E0.06060
G1 X96.575 Y96.640 E0.04605
G1 X96.644 Y95.452 E0.03731
G1 X95.946 Y94.917 E0.02757
G1 X95.259 Y94.837 E0.02169
G1 X94.169 Y95.035 E0.03473
G1 X92.190 Y95.460 E0.06350
G1 X91.066 Y95.809 E0.03689
G1 X90.715 Y95.875 E0.01118
G1 X90.299 Y95.737 E0.01376
G1 X89.814 Y95.385 E0.01877
G1 X89.721 Y95.288 E0.00421
G1 X89.550 Y94.902 E0.01324
G1 X89.304 Y93.750 E0.03694
G1 X89.723 Y91.679 E0.06625
G1 X89.991 Y91.011 E0.02256
G1 X90.527 Y89.941 E0.03750
G1 X91.024 Y89.204 E0.02788
G1 X91.226 Y88.938 E0.01048
G1 X92.434 Y87.567 E0.05728
G1 X93.521 Y86.600 E0.04563
G1 X94.411 Y86.008 E0.03353
G1 X94.525 Y85.896 E0.00500
G1 X95.089 Y85.563 E0.02054
G1 X95.927 Y85.232 E0.02826
G1 X96.365 Y85.104 E0.01429
G1 X97.774 Y85.078 E0.04418
G1 X99.747 Y85.224 E0.06205
G1 X102.375 Y85.968 E0.08563
G1 X102.941 Y86.171 E0.01885
G1 X105.984 Y87.603 E0.10545
G1 X106.758 Y88.134 E0.02944
G1 X107.930 Y89.164 E0.04893
G1 X108.431 Y89.844 E0.02648
G1 X108.737 Y90.607 E0.02578
G1 X108.828 Y91.319 E0.02250
G1 X108.704 Y91.898 E0.01857
G1 X108.228 Y92.802 E0.03204
G1 X107.862 Y93.076 E0.01430
G1 X106.665 Y93.598 E0.04096
G1 X103.655 Y94.340 E0.09721
G1 X102.739 Y94.495 E0.02911
G1 X102.064 Y94.574 E0.02132
G1 X101.373 Y94.957 E0.02476
G1 X100.971 Y95.637 E0.02475
G1 X100.850 Y96.423 E0.02494
G1 X101.223 Y100.875 E0.14010
G1 X101.701 Y101.747 E0.03117
G1 X102.804 Y101.509 E0.03540
G1 X102.936 Y101.142 E0.01223
G1 X103.221 Y101.830 E0.02335
G1 X103.435 Y101.656 E0.00867
G1 X103.429 Y102.248 E0.01857
G1 X104.066 Y102.549 E0.02209
G1 X104.015 Y102.581 E0.00188
G1 X103.483 Y103.232 E0.02635
G1 X103.581 Y104.271 E0.03275
G1 X105.002 Y104.819 E0.04775
G1 X108.344 Y105.850 E0.10964
G1 X108.765 Y106.059 E0.01474
G1 X110.403 Y106.752 E0.05576
G1 X111.004 Y107.042 E0.02092
G1 X111.528 Y107.401 E0.01991
G1 X112.129 Y107.776 E0.02223
G1 X111.595 Y108.506 E0.02837
G1 X112.102 Y109.627 E0.03856
G1 X113.888 Y110.502 E0.06235
G1 X114.626 Y110.773 E0.02468
G1 X77.735 Y111.527 E1.15693
G1 X76.634 Y111.597 E0.03461
G1 X76.958 Y110.920 E0.02351
G1 X76.614 Y110.039 E0.02966
G1 X75.939 Y109.539 E0.02634
G1 X75.138 Y109.126 E0.02826
G1 X73.011 Y108.591 E0.06876
G1 X67.123 Y108.159 E0.18511
G1 X67.191 Y108.112 E0.00260
G1 X68.489 Y107.631 E0.04339
G1 X69.687 Y107.334 E0.03870
G1 X70.597 Y107.164 E0.02903
G1 X74.076 Y106.637 E0.11034
G1 X76.137 Y106.288 E0.06553
G1 X77.374 Y106.183 E0.03894
G1 X77.953 Y105.203 E0.03567
G1 X77.633 Y104.456 E0.02547
G1 X78.535 Y104.347 E0.02850
G1 X78.510 Y103.385 E0.03017
G1 X78.326 Y102.471 E0.02925
G1 X77.920 Y101.103 E0.04474
G1 X77.870 Y101.003 E0.00349
G1 X79.109 Y101.392 E0.04073
G1 X79.095 Y101.330 E0.00199
G1 X80.058 Y101.324 E0.03018
G1 X80.338 Y100.556 E0.02563
G1 X80.384 Y99.989 E0.01782
G1 X80.702 Y94.361 E0.17674
G1 X80.766 Y90.120 E0.13298
G1 X80.521 Y87.364 E0.08676
G1 X80.029 Y86.913 E0.02094
G1 X79.731 Y86.676 E0.01194
G1 X79.327 Y86.403 E0.01530
G1 X78.586 Y86.323 E0.02338
G1 X78.452 Y86.221 E0.00528
G1 X79.733 Y84.708 E0.06217
G1 X80.026 Y83.824 E0.02920
G1 X79.794 Y82.880 E0.03048
G1 X79.608 Y82.254 E0.02047
G1 X79.483 Y81.882 E0.01230
G1 X79.291 Y81.446 E0.01493
G1 X78.859 Y80.271 E0.03925
G1 X78.458 Y79.657 E0.02302
G1 X77.871 Y78.978 E0.02814
G1 X74.125 Y78.899 E0.11748
G1 X69.791 Y78.649 E0.13610
G1 X69.443 Y78.534 E0.01148
G1 X69.415 Y78.122 E0.01296
G1 X68.658 Y77.608 E0.02866
G1 X68.281 Y77.777 E0.01294
G1 X68.289 Y77.181 E0.01870
G1 X67.467 Y76.888 E0.02734
G1 X66.939 Y76.959 E0.01672
G1 X66.029 Y77.229 E0.02974
G1 X65.272 Y77.286 E0.02381
G1 X64.582 Y77.231 E0.02171
G1 X64.235 Y77.097 E0.01165
G1 X64.115 Y77.015 E0.00456
G1 X63.466 Y76.418 E0.02765
G1 X62.824 Y75.607 E0.03242
G1 X63.202 Y75.305 E0.01516
G1 X64.738 Y74.427 E0.05547
G1 X69.258 Y71.593 E0.16727
G1 X69.541 Y71.390 E0.01091
G1 X70.118 Y71.134 E0.01980
G1 X71.644 Y70.289 E0.05471
G1 X74.051 Y69.335 E0.08118
G1 X76.346 Y68.722 E0.07447
G1 X78.789 Y68.420 E0.07717
G1 X81.558 Y68.413 E0.08685
G1 X83.241 Y68.537 E0.05290
G1 X85.087 Y68.794 E0.05843
G1 X87.800 Y69.392 E0.08712
G1 X90.217 Y70.048 E0.07852
G1 X91.841 Y70.745 E0.05542
G1 X92.346 Y70.869 E0.01631
G1 X92.626 Y70.961 E0.00924
G1 X93.791 Y71.457 E0.03969
G1 X95.428 Y72.418 E0.05951
G1 X97.248 Y73.852 E0.07265
G1 X98.530 Y75.296 E0.06056
G1 X98.888 Y75.818 E0.01984
G1 X99.346 Y76.615 E0.02882
G1 X99.541 Y77.213 E0.01973
G1 X99.421 Y77.308 E0.00478
G1 X98.928 Y77.480 E0.01638
G1 X98.082 Y77.603 E0.02680
G1 X96.105 Y77.820 E0.06238
G1 X94.371 Y78.175 E0.05549
G1 X93.372 Y77.750 E0.03404
G1 X92.613 Y77.960 E0.02468
G1 X92.383 Y78.333 E0.01373
G1 X90.804 Y78.492 E0.04977
G1 X87.711 Y78.611 E0.09705
G1 X86.856 Y78.559 E0.02686
G1 X86.572 Y78.476 E0.00928
G1 X86.044 Y78.137 E0.01966
G1 X85.191 Y78.657 E0.03133
G1 X84.848 Y79.845 E0.03877
G1 X84.636 Y81.449 E0.05074
G1 X84.541 Y83.015 E0.04919
G1 X84.684 Y83.967 E0.03015
G1 X85.652 Y85.097 E0.04667
G1 X86.341 Y85.559 E0.02602
G1 X85.959 Y85.991 E0.01809
G1 X85.181 Y86.711 E0.03323
G1 X85.068 Y87.683 E0.03070
G1 X85.671 Y90.051 E0.07661
G1 X85.918 Y91.101 E0.03381
G1 X86.098 Y91.674 E0.01884
G1 X86.456 Y92.970 E0.04215
G1 X87.392 Y95.957 E0.09813
G1 X87.558 Y96.584 E0.02034
G1 X88.215 Y98.558 E0.06523
G1 X88.391 Y99.249 E0.02237
G1 X88.694 Y100.061 E0.02717
G1 X88.949 Y100.914 E0.02792
G1 X90.026 Y101.985 E0.04763
M204 S1250
G1 X90.063 Y101.490 F9000.000
M204 S800
G1 F1200.000
G1 X90.436 Y100.599 E0.03027
G1 X90.646 Y99.838 E0.02476
G1 X90.811 Y99.325 E0.01689
G1 X91.277 Y98.436 E0.03148
G1 X91.458 Y98.166 E0.01018
G1 X91.240 Y98.806 E0.02120
G1 X91.057 Y99.727 E0.02945
G1 X90.683 Y101.150 E0.04613
G1 X90.817 Y101.830 E0.02173
G1 X91.140 Y101.937 E0.01067
G1 X91.470 Y101.517 E0.01676
G1 X91.826 Y101.161 E0.01579
G1 X91.890 Y101.565 E0.01283
G1 X91.930 Y101.589 E0.00143
G1 X91.639 Y101.759 E0.01055
G1 X91.388 Y102.557 E0.02624
G1 X91.290 Y102.406 E0.00563
G1 X90.786 Y102.294 E0.01621
G1 X90.334 Y102.467 E0.01517
G1 X89.852 Y102.712 E0.01693
G1 X89.492 Y103.647 E0.03142
G1 X89.612 Y104.332 E0.02182
G1 X90.219 Y104.511 E0.01984
G1 X90.724 Y104.268 E0.01759
G1 X90.937 Y103.610 E0.02167
G1 X91.020 Y103.589 E0.00269
G1 X91.327 Y104.341 E0.02545
G1 X91.313 Y104.465 E0.00390
G1 X91.105 Y104.527 E0.00681
G1 X90.750 Y104.677 E0.01208
G1 X90.526 Y105.157 E0.01663
G1 X90.768 Y105.699 E0.01858
G1 X91.379 Y105.807 E0.01946
G1 X92.241 Y105.564 E0.02807
G1 X92.608 Y105.104 E0.01847
G1 X92.703 Y104.120 E0.03099
G1 X92.809 Y103.969 E0.00577
G1 X93.016 Y103.296 E0.02210
G1 X92.902 Y102.911 E0.01257
G1 X92.758 Y102.621 E0.01016
G1 X92.510 Y102.268 E0.01352
G1 X92.270 Y101.792 E0.01672
G1 X92.852 Y102.140 E0.02126
G1 X93.295 Y101.515 E0.02400
G1 X93.184 Y101.045 E0.01515
G1 X93.049 Y100.721 E0.01101
G1 X92.816 Y99.808 E0.02955
G1 X92.789 Y99.026 E0.02452
G1 X92.945 Y99.411 E0.01301
G1 X93.122 Y99.945 E0.01765
G1 X93.344 Y100.479 E0.01813
G1 X94.022 Y100.893 E0.02491
G1 X94.230 Y100.095 E0.02586
G1 X94.473 Y100.863 E0.02527
G1 X95.160 Y100.637 E0.02268
G1 X95.385 Y100.219 E0.01487
G1 X95.542 Y99.862 E0.01224
G1 X95.899 Y98.002 E0.05939
G1 X96.200 Y96.589 E0.04527
G1 X96.256 Y95.630 E0.03014
G1 X95.799 Y95.280 E0.01804
G1 X95.271 Y95.218 E0.01667
G1 X94.243 Y95.405 E0.03277
G1 X92.285 Y95.825 E0.06277
G1 X91.157 Y96.176 E0.03705
G1 X90.689 Y96.263 E0.01492
G1 X90.125 Y96.076 E0.01865
G1 X89.566 Y95.671 E0.02163
G1 X89.403 Y95.503 E0.00735
G1 X89.189 Y95.019 E0.01658
G1 X88.919 Y93.752 E0.04062
G1 X89.360 Y91.570 E0.06979
G1 X89.647 Y90.856 E0.02413
G1 X90.200 Y89.751 E0.03875
G1 X90.717 Y88.984 E0.02900
G1 X90.935 Y88.699 E0.01124
G1 X92.166 Y87.301 E0.05842
G1 X93.290 Y86.301 E0.04718
G1 X94.172 Y85.714 E0.03320
G1 X94.287 Y85.601 E0.00507
G1 X94.923 Y85.223 E0.02320
G1 X95.808 Y84.874 E0.02982
G1 X96.307 Y84.728 E0.01633
G1 X97.784 Y84.701 E0.04631
G1 X99.816 Y84.851 E0.06388
G1 X102.489 Y85.608 E0.08711
G1 X103.085 Y85.822 E0.01986
G1 X106.172 Y87.275 E0.10697
G1 X106.990 Y87.836 E0.03110
G1 X108.210 Y88.908 E0.05091
G1 X108.763 Y89.659 E0.02926
G1 X109.105 Y90.512 E0.02880
G1 X109.210 Y91.335 E0.02603
G1 X109.062 Y92.028 E0.02222
G1 X108.521 Y93.053 E0.03633
G1 X108.053 Y93.404 E0.01834
G1 X106.786 Y93.956 E0.04334
G1 X103.731 Y94.710 E0.09866
G1 X102.793 Y94.868 E0.02984
G1 X102.182 Y94.940 E0.01929
G1 X101.646 Y95.238 E0.01923
G1 X101.332 Y95.766 E0.01925
G1 X101.230 Y96.436 E0.02125
G1 X101.592 Y100.764 E0.13619
G1 X101.896 Y101.319 E0.01985
G1 X102.520 Y101.185 E0.02002
G1 X102.691 Y100.710 E0.01581
G1 X102.842 Y100.434 E0.00986
G1 X103.340 Y99.655 E0.02901
G1 X103.102 Y100.556 E0.02922
G1 X103.376 Y101.218 E0.02246
G1 X104.429 Y100.360 E0.04261
G1 X105.868 Y99.010 E0.06185
G1 X105.435 Y99.677 E0.02492
G1 X104.545 Y100.729 E0.04323
G1 X104.290 Y100.973 E0.01104
G1 X103.814 Y101.510 E0.02251
G1 X103.809 Y102.010 E0.01570
G1 X104.450 Y102.314 E0.02226
G1 X104.782 Y102.086 E0.01261
G1 X105.187 Y101.865 E0.01448
G1 X106.047 Y101.476 E0.02960
G1 X106.997 Y101.291 E0.03033
G1 X106.640 Y101.432 E0.01205
G1 X106.380 Y101.568 E0.00917
G1 X106.069 Y101.809 E0.01233
G1 X105.665 Y102.047 E0.01471
G1 X105.224 Y102.271 E0.01551
G1 X104.268 Y102.868 E0.03535
G1 X103.873 Y103.350 E0.01954
G1 X103.935 Y104.004 E0.02057
G1 X105.126 Y104.463 E0.04002
G1 X108.484 Y105.499 E0.11019
G1 X108.922 Y105.716 E0.01534
G1 X110.558 Y106.409 E0.05570
G1 X111.193 Y106.715 E0.02210
G1 X111.734 Y107.085 E0.02053
G1 X112.366 Y107.477 E0.02332
G1 X112.618 Y107.750 E0.01165
G1 X112.624 Y107.788 E0.00121
G1 X112.471 Y107.947 E0.00691
G1 X112.029 Y108.551 E0.02348
G1 X112.390 Y109.348 E0.02741
G1 X114.036 Y110.155 E0.05749
G1 X115.361 Y110.628 E0.04412
G1 X115.817 Y110.752 E0.01483
G1 X116.717 Y110.934 E0.02878
G1 X117.105 Y111.078 E0.01297
G1 X117.399 Y111.289 E0.01136
G1 X116.558 Y111.298 E0.02638
G1 X115.563 Y111.165 E0.03147
G1 X114.552 Y111.149 E0.03171
G1 X77.750 Y111.904 E1.15414
G1 X76.739 Y111.961 E0.03175
G1 X75.751 Y112.145 E0.03149
G1 X75.286 Y112.154 E0.01460
G1 X75.243 Y112.149 E0.00136
G1 X75.695 Y111.817 E0.01760
G1 X76.262 Y111.500 E0.02035
G1 X76.547 Y110.905 E0.02070
G1 X76.303 Y110.277 E0.02112
G1 X75.739 Y109.860 E0.02197
G1 X75.004 Y109.481 E0.02594
G1 X72.951 Y108.965 E0.06637
G1 X67.020 Y108.529 E0.18645
G1 X66.479 Y108.332 E0.01805
G1 X66.421 Y108.252 E0.00311
G1 X66.473 Y108.148 E0.00366
G1 X67.017 Y107.775 E0.02068
G1 X68.378 Y107.270 E0.04551
G1 X69.607 Y106.965 E0.03971
G1 X70.534 Y106.793 E0.02957
G1 X74.017 Y106.265 E0.11043
G1 X76.089 Y105.913 E0.06592
G1 X77.149 Y105.823 E0.03333
G1 X77.531 Y105.176 E0.02358
G1 X77.262 Y104.548 E0.02141
G1 X75.906 Y103.249 E0.05889
G1 X75.099 Y102.851 E0.02820
G1 X74.853 Y102.707 E0.00895
G1 X74.820 Y102.650 E0.00207
G1 X74.943 Y102.636 E0.00387
G1 X75.776 Y102.880 E0.02720
G1 X76.442 Y103.219 E0.02345
G1 X77.000 Y103.784 E0.02489
G1 X77.461 Y104.097 E0.01750
G1 X78.149 Y104.014 E0.02173
G1 X78.134 Y103.428 E0.01839
G1 X77.959 Y102.562 E0.02769
G1 X77.568 Y101.242 E0.04316
G1 X77.311 Y100.731 E0.01795
G1 X77.003 Y100.191 E0.01947
G1 X76.797 Y99.853 E0.01242
G1 X76.686 Y99.717 E0.00549
G1 X76.502 Y99.388 E0.01183
G1 X74.884 Y97.823 E0.07057
G1 X74.706 Y97.673 E0.00732
G1 X75.675 Y98.233 E0.03511
G1 X76.704 Y99.062 E0.04141
G1 X77.028 Y99.512 E0.01742
G1 X77.672 Y100.546 E0.03818
G1 X78.594 Y100.835 E0.03030
G1 X78.232 Y99.260 E0.05069
G1 X77.758 Y97.742 E0.04985
G1 X77.461 Y96.912 E0.02763
G1 X77.990 Y97.859 E0.03399
G1 X78.665 Y99.493 E0.05545
G1 X78.924 Y100.322 E0.02723
G1 X79.167 Y100.953 E0.02119
G1 X79.793 Y100.948 E0.01963
G1 X79.966 Y100.474 E0.01582
G1 X80.007 Y99.963 E0.01608
G1 X80.325 Y94.348 E0.17635
G1 X80.388 Y90.134 E0.13213
G1 X80.159 Y87.543 E0.08156
G1 X79.784 Y87.200 E0.01593
G1 X79.508 Y86.980 E0.01107
G1 X79.194 Y86.768 E0.01189
G1 X78.441 Y86.687 E0.02375
G1 X78.150 Y86.465 E0.01147
G1 X77.966 Y86.239 E0.00914
G1 X78.283 Y85.819 E0.01647
G1 X79.399 Y84.519 E0.05374
G1 X79.634 Y83.808 E0.02346
G1 X79.430 Y82.979 E0.02679
G1 X79.248 Y82.368 E0.01998
G1 X79.131 Y82.018 E0.01155
G1 X78.941 Y81.587 E0.01477
G1 X78.520 Y80.442 E0.03827
G1 X78.156 Y79.884 E0.02088
G1 X77.695 Y79.351 E0.02209
G1 X74.110 Y79.276 E0.11244
G1 X69.720 Y79.022 E0.13787
G1 X69.084 Y78.813 E0.02098
G1 X69.051 Y78.331 E0.01516
G1 X68.620 Y78.038 E0.01632
G1 X68.178 Y78.236 E0.01518
G1 X68.001 Y78.381 E0.00718
G1 X67.696 Y78.434 E0.00969
G1 X67.711 Y78.323 E0.00352
G1 X67.903 Y77.907 E0.01435
G1 X67.908 Y77.446 E0.01447
G1 X67.427 Y77.274 E0.01602
G1 X67.018 Y77.329 E0.01294
G1 X66.098 Y77.602 E0.03009
