; generated by PrusaSlicer 2.3.0+win64 on 2021-07-17 at 12:57:03 UTC


;
;

;
;
; 

; external perimeters extrusion width = 0.45mm
; perimeters extrusion width = 0.45mm
; infill extrusion width = 0.45mm
; solid infill extrusion width = 0.45mm
; top infill extrusion width = 0.40mm
; first layer extrusion width = 0.42mm

M73 P0 R11
M201 X1250 Y1250 Z400 E5000 ; sets maximum accelerations, mm/sec^2
M203 X180 Y180 Z12 E80 ; sets maximum feedrates, mm/sec
M204 P1250 R1250 T1250 ; sets acceleration (P, T) and retract acceleration (R), mm/sec^2
M205 X8.00 Y8.00 Z2.00 E10.00 ; sets the jerk limits, mm/sec
M205 S0 T0 ; sets the minimum extruding and travel feed rate, mm/sec
M107
;TYPE:Custom
G90 ; use absolute coordinates
M83 ; extruder relative mode
M104 S170 ; set extruder temp for bed leveling
M140 S60 ; set bed temp
M109 R170 ; wait for bed leveling temp
M190 S60 ; wait for bed temp
G28 ; home all without mesh bed level
G29 ; mesh bed leveling 
M104 S215 ; set extruder temp
G92 E0.0
G1 Y-2.0 X179 F2400
G1 Z3 F720
M109 S215 ; wait for extruder temp

; intro line
G1 X170 F1000
G1 Z0.2 F720
G1 X110.0 E8.0 F900
M73 P1 R11
G1 X40.0 E10.0 F700
G92 E0.0

M221 S95 ; set flow
G21 ; set units to millimeters
G90 ; use absolute coordinates
M83 ; use relative distances for extrusion
M900 K0.2 ; Filament gcode LA 1.5
; ; Filament gcode LA 1.0
;LAYER_CHANGE
;Z:0.2
;HEIGHT:0.2
;BEFORE_LAYER_CHANGE
G92 E0.0
;0.2


M73 P2 R11
G1 E-3.20000 F4200.000
G1 Z0.200 F9000.000
;AFTER_LAYER_CHANGE
;0.2
G1 Z0.400
G1 X80.191 Y72.363
G1 Z0.200
G1 E3.20000 F2400.000
M204 S800
;TYPE:Skirt
;WIDTH:0.42
G1 F1200.000
G1 X80.967 Y72.246 E0.02460
G1 X99.018 Y72.246 E0.56597
G1 X99.580 Y72.305 E0.01771
G1 X100.118 Y72.477 E0.01771
G1 X101.526 Y73.345 E0.05188
G1 X103.518 Y74.917 E0.07956
G1 X105.073 Y76.471 E0.06892
G1 X106.412 Y78.131 E0.06687
G1 X107.575 Y79.933 E0.06725
G1 X108.543 Y81.852 E0.06738
G1 X109.301 Y83.858 E0.06725
G1 X109.838 Y85.914 E0.06661
G1 X110.119 Y87.669 E0.05575
G1 X110.253 Y89.789 E0.06658
G1 X110.162 Y91.932 E0.06725
G1 X109.844 Y94.057 E0.06738
G1 X109.311 Y96.109 E0.06648
G1 X108.701 Y97.779 E0.05575
G1 X107.779 Y99.702 E0.06684
G1 X106.915 Y101.140 E0.05263
G1 X106.154 Y102.217 E0.04134
G1 X105.324 Y103.243 E0.04137
G1 X104.176 Y104.466 E0.05260
G1 X103.195 Y105.366 E0.04176
G1 X101.861 Y106.418 E0.05324
G1 X100.405 Y107.377 E0.05469
G1 X99.742 Y107.656 E0.02256
G1 X99.029 Y107.754 E0.02256
G1 X80.953 Y107.754 E0.56674
M73 P3 R11
G1 X80.285 Y107.663 E0.02116
G1 X79.658 Y107.413 E0.02116
G1 X78.116 Y106.401 E0.05781
G1 X76.467 Y105.069 E0.06648
G1 X75.211 Y103.839 E0.05510
G1 X73.851 Y102.225 E0.06619
G1 X72.852 Y100.779 E0.05510
G1 X71.820 Y98.928 E0.06645
G1 X71.117 Y97.326 E0.05485
G1 X70.456 Y95.317 E0.06632
G1 X70.070 Y93.607 E0.05498
G1 X69.802 Y91.504 E0.06645
G1 X69.747 Y89.756 E0.05485
G1 X69.884 Y87.641 E0.06645
G1 X70.162 Y85.914 E0.05485
G1 X70.698 Y83.863 E0.06645
G1 X71.445 Y81.879 E0.06648
G1 X72.221 Y80.298 E0.05520
G1 X73.085 Y78.860 E0.05263
G1 X73.846 Y77.783 E0.04134
G1 X74.676 Y76.757 E0.04137
G1 X75.815 Y75.543 E0.05221
G1 X76.805 Y74.634 E0.04215
G1 X78.129 Y73.589 E0.05285
G1 X79.578 Y72.633 E0.05443
G1 X80.137 Y72.387 E0.01915
M204 S1250
G1 X80.288 Y72.731 F9000.000
M204 S800
G1 F1200.000
G1 X80.974 Y72.623 E0.02176
G1 X99.018 Y72.623 E0.56576
G1 X99.546 Y72.683 E0.01668
G1 X100.048 Y72.860 E0.01669
G1 X101.654 Y73.898 E0.05994
G1 X103.306 Y75.234 E0.06663
G1 X105.046 Y77.012 E0.07800
G1 X106.334 Y78.673 E0.06589
G1 X107.261 Y80.143 E0.05449
G1 X108.198 Y82.005 E0.06538
G1 X108.945 Y83.986 E0.06637
G1 X109.474 Y86.016 E0.06577
G1 X109.784 Y88.079 E0.06541
G1 X109.876 Y89.814 E0.05449
G1 X109.786 Y91.898 E0.06538
G1 X109.475 Y93.980 E0.06601
G1 X108.950 Y95.999 E0.06541
G1 X108.354 Y97.631 E0.05449
G1 X107.444 Y99.529 E0.06598
G1 X106.598 Y100.936 E0.05148
G1 X105.852 Y101.992 E0.04052
G1 X105.041 Y102.994 E0.04043
G1 X103.918 Y104.191 E0.05145
G1 X102.952 Y105.078 E0.04115
G1 X101.648 Y106.106 E0.05205
G1 X100.224 Y107.046 E0.05351
G1 X99.640 Y107.293 E0.01989
G1 X99.026 Y107.377 E0.01941
G1 X80.959 Y107.377 E0.56648
G1 X80.376 Y107.297 E0.01846
G1 X79.830 Y107.077 E0.01846
G1 X78.337 Y106.096 E0.05602
G1 X76.717 Y104.787 E0.06529
G1 X75.489 Y103.584 E0.05390
M73 P4 R11
G1 X74.150 Y101.995 E0.06514
G1 X73.173 Y100.581 E0.05389
G1 X72.157 Y98.760 E0.06538
G1 X71.470 Y97.193 E0.05366
G1 X70.819 Y95.216 E0.06526
G1 X70.441 Y93.543 E0.05378
G1 X70.178 Y91.474 E0.06538
G1 X70.132 Y89.392 E0.06529
G1 X70.258 Y87.683 E0.05375
G1 X70.609 Y85.630 E0.06529
G1 X71.058 Y83.976 E0.05375
G1 X71.792 Y82.027 E0.06529
G1 X72.556 Y80.471 E0.05434
G1 X73.402 Y79.064 E0.05148
G1 X74.148 Y78.008 E0.04052
G1 X74.959 Y77.006 E0.04043
G1 X76.079 Y75.812 E0.05133
G1 X77.048 Y74.922 E0.04127
G1 X78.345 Y73.898 E0.05181
G1 X79.763 Y72.962 E0.05327
G1 X80.233 Y72.755 E0.01610
M204 S1250
; printing object My_mount_01.stl id:0 copy 0
G1 E-2.24000 F4200.000
;WIPE_START
G1 F7200.000
G1 X80.974 Y72.623 E-0.41689
G1 X81.867 Y72.623 E-0.49511
;WIPE_END
G1 E-0.04800 F4200.000
G1 Z0.400 F9000.000
G1 X81.216 Y75.787
G1 Z0.200
G1 E3.20000 F2400.000
M204 S800
;TYPE:Perimeter
G1 F1200.000
G1 X98.791 Y75.787 E0.55105
G1 X99.503 Y76.252 E0.02667
G1 X100.075 Y76.666 E0.02213
G1 X100.908 Y77.338 E0.03357
G1 X101.434 Y77.810 E0.02215
G1 X101.941 Y78.307 E0.02225
G1 X102.426 Y78.824 E0.02225
G1 X102.888 Y79.359 E0.02215
G1 X103.541 Y80.204 E0.03348
G1 X104.100 Y81.028 E0.03123
G1 X104.503 Y81.694 E0.02440
G1 X104.842 Y82.317 E0.02222
G1 X105.153 Y82.951 E0.02215
G1 X105.574 Y83.935 E0.03357
G1 X105.815 Y84.596 E0.02205
G1 X106.128 Y85.620 E0.03357
G1 X106.299 Y86.305 E0.02215
G1 X106.441 Y87.000 E0.02225
G1 X106.553 Y87.698 E0.02215
G1 X106.667 Y88.762 E0.03357
G1 X106.704 Y89.468 E0.02215
G1 X106.712 Y90.175 E0.02217
G1 X106.671 Y91.173 E0.03133
G1 X106.599 Y91.948 E0.02440
G1 X106.502 Y92.647 E0.02214
G1 X106.313 Y93.629 E0.03133
G1 X106.128 Y94.381 E0.02430
G1 X105.815 Y95.404 E0.03354
G1 X105.572 Y96.068 E0.02215
G1 X105.302 Y96.720 E0.02215
G1 X104.840 Y97.686 E0.03357
G1 X104.502 Y98.307 E0.02215
G1 X104.138 Y98.912 E0.02215
G1 X103.540 Y99.796 E0.03347
G1 X102.890 Y100.638 E0.03337
G1 X102.184 Y101.439 E0.03347
G1 X101.690 Y101.944 E0.02215
G1 X101.175 Y102.428 E0.02215
G1 X100.358 Y103.115 E0.03347
G1 X99.502 Y103.748 E0.03338
G1 X98.784 Y104.213 E0.02683
G1 X81.209 Y104.213 E0.55105
G1 X80.263 Y103.582 E0.03564
G1 X79.641 Y103.115 E0.02440
G1 X79.094 Y102.664 E0.02222
G1 X78.566 Y102.190 E0.02225
G1 X78.059 Y101.693 E0.02225
G1 X77.574 Y101.176 E0.02225
G1 X77.112 Y100.641 E0.02215
G1 X76.459 Y99.796 E0.03348
G1 X75.900 Y98.972 E0.03123
G1 X75.497 Y98.306 E0.02440
G1 X75.160 Y97.686 E0.02212
G1 X74.698 Y96.720 E0.03357
G1 X74.428 Y96.068 E0.02215
G1 X74.185 Y95.404 E0.02215
G1 X73.872 Y94.380 E0.03357
G1 X73.701 Y93.695 E0.02215
G1 X73.559 Y93.000 E0.02225
G1 X73.447 Y92.302 E0.02215
G1 X73.333 Y91.238 E0.03357
G1 X73.296 Y90.532 E0.02215
G1 X73.288 Y89.825 E0.02217
G1 X73.329 Y88.827 E0.03133
G1 X73.401 Y88.052 E0.02440
G1 X73.498 Y87.353 E0.02214
G1 X73.687 Y86.371 E0.03133
G1 X73.872 Y85.618 E0.02432
M73 P5 R11
G1 X74.163 Y84.663 E0.03130
G1 X74.428 Y83.932 E0.02440
G1 X74.698 Y83.279 E0.02214
G1 X75.128 Y82.377 E0.03133
G1 X75.498 Y81.693 E0.02440
G1 X75.862 Y81.088 E0.02213
G1 X76.460 Y80.204 E0.03347
G1 X77.110 Y79.362 E0.03337
G1 X77.816 Y78.561 E0.03347
G1 X78.310 Y78.056 E0.02215
G1 X78.825 Y77.572 E0.02215
G1 X79.642 Y76.885 E0.03347
G1 X80.498 Y76.252 E0.03338
G1 X81.166 Y75.820 E0.02494
M204 S1250
G1 X80.961 Y75.503 F9000.000
M204 S800
;TYPE:External perimeter
G1 F1200.000
G1 X81.105 Y75.410 E0.00537
G1 X98.898 Y75.410 E0.55789
G1 X99.717 Y75.942 E0.03063
G1 X100.304 Y76.366 E0.02271
G1 X101.153 Y77.051 E0.03419
G1 X101.692 Y77.535 E0.02272
G1 X102.210 Y78.043 E0.02275
G1 X102.707 Y78.572 E0.02275
G1 X103.180 Y79.121 E0.02272
G1 X103.846 Y79.983 E0.03416
G1 X104.417 Y80.825 E0.03191
G1 X104.830 Y81.506 E0.02497
G1 X105.177 Y82.143 E0.02274
G1 X105.496 Y82.794 E0.02272
G1 X105.924 Y83.797 E0.03419
G1 X106.173 Y84.476 E0.02268
G1 X106.492 Y85.519 E0.03419
G1 X106.667 Y86.222 E0.02272
G1 X106.812 Y86.933 E0.02275
G1 X106.927 Y87.648 E0.02272
G1 X107.043 Y88.732 E0.03419
G1 X107.081 Y89.456 E0.02272
G1 X107.089 Y90.180 E0.02272
G1 X107.047 Y91.198 E0.03194
G1 X106.974 Y91.991 E0.02497
G1 X106.874 Y92.709 E0.02271
G1 X106.682 Y93.709 E0.03194
G1 X106.492 Y94.482 E0.02494
G1 X106.173 Y95.524 E0.03418
G1 X105.924 Y96.205 E0.02272
G1 X105.647 Y96.874 E0.02272
G1 X105.176 Y97.858 E0.03419
G1 X104.830 Y98.494 E0.02272
G1 X104.456 Y99.115 E0.02272
G1 X103.846 Y100.017 E0.03416
G1 X103.180 Y100.878 E0.03412
G1 X102.461 Y101.696 E0.03416
G1 X101.954 Y102.214 E0.02272
G1 X101.425 Y102.709 E0.02272
G1 X100.592 Y103.411 E0.03416
G1 X99.717 Y104.059 E0.03413
G1 X98.895 Y104.590 E0.03069
G1 X81.102 Y104.590 E0.55789
G1 X80.044 Y103.890 E0.03978
G1 X79.407 Y103.411 E0.02497
G1 X78.848 Y102.950 E0.02274
G1 X78.308 Y102.465 E0.02275
G1 X77.790 Y101.957 E0.02275
G1 X77.293 Y101.428 E0.02275
G1 X76.820 Y100.879 E0.02272
G1 X76.154 Y100.017 E0.03416
G1 X75.583 Y99.175 E0.03191
G1 X75.170 Y98.494 E0.02497
G1 X74.824 Y97.858 E0.02271
G1 X74.353 Y96.874 E0.03419
G1 X74.076 Y96.205 E0.02272
G1 X73.827 Y95.524 E0.02272
G1 X73.508 Y94.481 E0.03419
G1 X73.333 Y93.778 E0.02272
G1 X73.188 Y93.067 E0.02275
G1 X73.073 Y92.352 E0.02272
G1 X72.957 Y91.268 E0.03419
G1 X72.919 Y90.544 E0.02272
G1 X72.911 Y89.820 E0.02272
G1 X72.953 Y88.802 E0.03194
G1 X73.026 Y88.009 E0.02497
G1 X73.126 Y87.291 E0.02271
G1 X73.318 Y86.291 E0.03194
G1 X73.508 Y85.518 E0.02494
G1 X73.805 Y84.544 E0.03193
G1 X74.076 Y83.795 E0.02497
G1 X74.353 Y83.126 E0.02271
G1 X74.791 Y82.206 E0.03194
G1 X75.171 Y81.506 E0.02497
G1 X75.544 Y80.885 E0.02271
G1 X76.154 Y79.983 E0.03416
G1 X76.820 Y79.122 E0.03412
G1 X77.539 Y78.304 E0.03416
G1 X78.046 Y77.786 E0.02272
G1 X78.575 Y77.291 E0.02272
G1 X79.408 Y76.589 E0.03416
G1 X80.283 Y75.941 E0.03413
G1 X80.910 Y75.536 E0.02343
M204 S1250
G1 X81.114 Y75.579 F9000.000
G1 E-2.24000 F4200.000
;WIPE_START
G1 F7200.000
G1 X81.105 Y75.410 E-0.12818
G1 X82.519 Y75.410 E-0.78382
;WIPE_END
G1 E-0.04800 F4200.000
G1 Z0.400 F9000.000
G1 X99.944 Y76.711
G1 Z0.200
G1 E3.20000 F2400.000
M204 S800
;TYPE:Solid infill
;WIDTH:0.420592
G1 F1200.000
G1 X101.746 Y78.512 E0.08000
G1 X102.216 Y79.013 E0.02159
G1 X102.668 Y79.538 E0.02176
G1 X103.312 Y80.370 E0.03302
G1 X103.822 Y81.122 E0.02853
M73 P6 R11
G1 X98.883 Y76.183 E0.21934
G1 X98.710 Y76.070 E0.00649
G1 X98.235 Y76.070 E0.01491
G1 X104.565 Y82.400 E0.28111
G1 X104.896 Y83.069 E0.02344
G1 X105.042 Y83.411 E0.01168
G1 X97.701 Y76.070 E0.32602
G1 X97.167 Y76.070 E0.01677
G1 X105.411 Y84.313 E0.36610
G1 X105.678 Y85.115 E0.02654
G1 X96.633 Y76.070 E0.40170
G1 X96.099 Y76.070 E0.01677
G1 X105.900 Y85.870 E0.43526
G1 X106.065 Y86.570 E0.02256
G1 X95.565 Y76.070 E0.46631
G1 X95.031 Y76.070 E0.01677
G1 X106.192 Y87.231 E0.49569
G1 X106.286 Y87.860 E0.01995
G1 X94.497 Y76.070 E0.52359
G1 X93.962 Y76.070 E0.01677
G1 X106.350 Y88.457 E0.55014
M73 P7 R10
G1 X106.398 Y89.040 E0.01836
G1 X93.428 Y76.070 E0.57602
G1 X92.894 Y76.070 E0.01677
G1 X106.423 Y89.598 E0.60082
G1 X106.429 Y90.138 E0.01695
G1 X92.360 Y76.070 E0.62480
G1 X91.826 Y76.070 E0.01677
G1 X106.409 Y90.653 E0.64766
G1 X106.388 Y91.166 E0.01611
G1 X91.292 Y76.070 E0.67042
G1 X90.758 Y76.070 E0.01677
G1 X106.342 Y91.654 E0.69212
G1 X106.288 Y92.134 E0.01516
G1 X90.224 Y76.070 E0.71342
M73 P8 R10
G1 X89.690 Y76.070 E0.01677
G1 X106.222 Y92.603 E0.73424
G1 X106.136 Y93.051 E0.01433
G1 X89.155 Y76.070 E0.75414
G1 X88.621 Y76.070 E0.01677
G1 X106.050 Y93.499 E0.77404
G1 X105.948 Y93.930 E0.01393
G1 X88.087 Y76.070 E0.79321
G1 X87.553 Y76.070 E0.01677
G1 X105.840 Y94.357 E0.81214
M73 P9 R10
G1 X105.715 Y94.766 E0.01343
G1 X87.019 Y76.070 E0.83030
G1 X86.485 Y76.070 E0.01677
G1 X105.589 Y95.174 E0.84846
G1 X105.453 Y95.572 E0.01319
G1 X85.951 Y76.070 E0.86610
G1 X85.417 Y76.070 E0.01677
G1 X105.310 Y95.963 E0.88347
G1 X105.153 Y96.341 E0.01284
G1 X84.883 Y76.070 E0.90025
M73 P10 R10
G1 X84.349 Y76.070 E0.01677
G1 X104.992 Y96.713 E0.91680
G1 X104.819 Y97.075 E0.01258
G1 X83.814 Y76.070 E0.93285
G1 X83.280 Y76.070 E0.01677
G1 X104.646 Y97.436 E0.94890
G1 X104.463 Y97.787 E0.01243
G1 X82.746 Y76.070 E0.96449
M73 P11 R10
G1 X82.212 Y76.070 E0.01677
G1 X104.275 Y98.133 E0.97984
G1 X104.076 Y98.467 E0.01223
G1 X81.678 Y76.070 E0.99471
G1 X81.300 Y76.070 E0.01189
G1 X81.205 Y76.131 E0.00353
G1 X103.873 Y98.799 E1.00672
G1 X103.658 Y99.118 E0.01208
G1 X80.881 Y76.341 E1.01156
G1 X80.562 Y76.556 E0.01208
G1 X103.442 Y99.437 E1.01616
M73 P12 R10
G1 X103.220 Y99.748 E0.01203
G1 X80.255 Y76.783 E1.01992
G1 X79.948 Y77.010 E0.01199
G1 X102.987 Y100.050 E1.02322
G1 X102.754 Y100.351 E0.01196
G1 X79.650 Y77.247 E1.02607
G1 X79.361 Y77.491 E0.01190
G1 X102.510 Y100.641 E1.02811
M73 P13 R10
G1 X102.260 Y100.925 E0.01188
G1 X79.071 Y77.736 E1.02988
G1 X78.792 Y77.991 E0.01187
G1 X102.010 Y101.209 E1.03114
G1 X101.748 Y101.481 E0.01186
G1 X78.517 Y78.250 E1.03172
G1 X78.252 Y78.519 E0.01186
G1 X101.483 Y101.750 E1.03172
M73 P14 R10
G1 X101.208 Y102.009 E0.01187
G1 X77.990 Y78.791 E1.03114
G1 X77.740 Y79.075 E0.01188
G1 X100.929 Y102.265 E1.02988
G1 X100.639 Y102.509 E0.01190
G1 X77.490 Y79.359 E1.02811
G1 X77.246 Y79.649 E0.01190
G1 X100.350 Y102.753 E1.02607
M73 P15 R10
G1 X100.052 Y102.990 E0.01194
G1 X77.013 Y79.950 E1.02322
G1 X76.780 Y80.252 E0.01196
G1 X99.745 Y103.217 E1.01992
G1 X99.438 Y103.444 E0.01199
G1 X76.558 Y80.564 E1.01616
M73 P15 R9
G1 X76.342 Y80.882 E0.01208
G1 X99.119 Y103.659 E1.01156
M73 P16 R9
G1 X98.795 Y103.869 E0.01213
G1 X76.127 Y81.201 E1.00672
G1 X75.924 Y81.533 E0.01220
G1 X98.322 Y103.930 E0.99471
G1 X97.788 Y103.930 E0.01677
G1 X75.725 Y81.867 E0.97983
G1 X75.538 Y82.214 E0.01237
G1 X97.254 Y103.930 E0.96444
M73 P17 R9
G1 X96.720 Y103.930 E0.01677
G1 X75.352 Y82.563 E0.94895
G1 X75.180 Y82.925 E0.01259
G1 X96.185 Y103.930 E0.93288
G1 X95.651 Y103.930 E0.01677
G1 X75.008 Y83.287 E0.91681
G1 X74.847 Y83.660 E0.01276
G1 X95.117 Y103.930 E0.90024
G1 X94.583 Y103.930 E0.01677
G1 X74.690 Y84.037 E0.88347
M73 P18 R9
G1 X74.548 Y84.429 E0.01310
G1 X94.049 Y103.930 E0.86605
G1 X93.515 Y103.930 E0.01677
G1 X74.409 Y84.825 E0.84850
G1 X74.285 Y85.234 E0.01344
G1 X92.981 Y103.930 E0.83032
G1 X92.447 Y103.930 E0.01677
G1 X74.160 Y85.643 E0.81214
M73 P19 R9
G1 X74.052 Y86.070 E0.01381
G1 X91.913 Y103.930 E0.79321
G1 X91.379 Y103.930 E0.01677
G1 X73.950 Y86.501 E0.77404
G1 X73.864 Y86.949 E0.01433
G1 X90.844 Y103.930 E0.75414
G1 X90.310 Y103.930 E0.01677
G1 X73.778 Y87.397 E0.73424
G1 X73.712 Y87.866 E0.01487
G1 X89.776 Y103.930 E0.71341
G1 X89.242 Y103.930 E0.01677
G1 X73.658 Y88.346 E0.69212
M73 P20 R9
G1 X73.612 Y88.835 E0.01541
G1 X88.708 Y103.930 E0.67041
G1 X88.174 Y103.930 E0.01677
G1 X73.591 Y89.347 E0.64765
G1 X73.571 Y89.862 E0.01617
G1 X87.640 Y103.930 E0.62479
G1 X87.106 Y103.930 E0.01677
G1 X73.577 Y90.402 E0.60082
G1 X73.602 Y90.960 E0.01756
G1 X86.572 Y103.930 E0.57601
G1 X86.037 Y103.930 E0.01677
G1 X73.650 Y91.543 E0.55014
G1 X73.714 Y92.141 E0.01888
G1 X85.503 Y103.930 E0.52359
M73 P21 R9
G1 X84.969 Y103.930 E0.01677
G1 X73.808 Y92.769 E0.49569
G1 X73.935 Y93.430 E0.02115
G1 X84.435 Y103.930 E0.46631
G1 X83.901 Y103.930 E0.01677
G1 X74.101 Y94.130 E0.43525
G1 X74.322 Y94.885 E0.02472
G1 X83.367 Y103.930 E0.40170
G1 X82.833 Y103.930 E0.01677
G1 X74.590 Y95.687 E0.36609
G1 X74.944 Y96.576 E0.03005
G1 X82.299 Y103.930 E0.32663
G1 X81.765 Y103.930 E0.01677
G1 X75.435 Y97.601 E0.28110
G1 X75.742 Y98.165 E0.02018
G1 X76.179 Y98.878 E0.02626
G1 X81.117 Y103.817 E0.21933
G1 X80.427 Y103.352 E0.02613
G1 X79.816 Y102.893 E0.02401
G1 X79.279 Y102.450 E0.02187
G1 X78.760 Y101.983 E0.02191
G1 X76.739 Y99.973 E0.08953
M204 S1250
; stop printing object My_mount_01.stl id:0 copy 0
M106 S84.15
;LAYER_CHANGE
;Z:0.4
;HEIGHT:0.2
;BEFORE_LAYER_CHANGE
G92 E0.0
;0.4


G1 E-2.24000 F4200.000
;WIPE_START
G1 F7200.000
G1 X77.906 Y101.133 E-0.91200
;WIPE_END
