; generated by PrusaSlicer 2.3.0+win64 on 2021-03-03 at 10:37:15 UTC


;
;

;
;
; 

; external perimeters extrusion width = 0.45mm
; perimeters extrusion width = 0.45mm
; infill extrusion width = 0.45mm
; solid infill extrusion width = 0.45mm
; top infill extrusion width = 0.40mm
; first layer extrusion width = 0.42mm

M73 P0 R11
M201 X1250 Y1250 Z400 E5000 ; sets maximum accelerations, mm/sec^2
M203 X180 Y180 Z12 E80 ; sets maximum feedrates, mm/sec
M204 P1250 R1250 T1250 ; sets acceleration (P, T) and retract acceleration (R), mm/sec^2
M205 X8.00 Y8.00 Z2.00 E10.00 ; sets the jerk limits, mm/sec
M205 S0 T0 ; sets the minimum extruding and travel feed rate, mm/sec
M107
;TYPE:Custom
G90 ; use absolute coordinates
M83 ; extruder relative mode
M104 S170 ; set extruder temp for bed leveling
M140 S60 ; set bed temp
M109 R170 ; wait for bed leveling temp
M190 S60 ; wait for bed temp
G28 ; home all without mesh bed level
G29 ; mesh bed leveling 
M104 S215 ; set extruder temp
G92 E0.0
G1 Y-2.0 X179 F2400
G1 Z3 F720
M109 S215 ; wait for extruder temp

; intro line
G1 X170 F1000
G1 Z0.2 F720
G1 X110.0 E8.0 F900
M73 P1 R11
G1 X40.0 E10.0 F700
G92 E0.0

M221 S95 ; set flow
G21 ; set units to millimeters
G90 ; use absolute coordinates
M83 ; use relative distances for extrusion
M900 K0.2 ; Filament gcode LA 1.5
; ; Filament gcode LA 1.0
;LAYER_CHANGE
;Z:0.2
;HEIGHT:0.2
;BEFORE_LAYER_CHANGE
G92 E0.0
;0.2


M73 P2 R10
G1 E-3.20000 F4200.000
G1 Z0.200 F9000.000
;AFTER_LAYER_CHANGE
;0.2
G1 Z0.400
G1 X116.475 Y104.714
G1 Z0.200
G1 E3.20000 F2400.000
M204 S800
;TYPE:Skirt
;WIDTH:0.42
G1 F1200.000
G1 X115.634 Y104.877 E0.02684
G1 X64.384 Y104.877 E1.60692
M73 P3 R10
G1 X63.893 Y104.824 E0.01550
G1 X63.423 Y104.671 E0.01550
G1 X62.995 Y104.423 E0.01550
G1 X62.627 Y104.093 E0.01550
G1 X62.236 Y103.501 E0.02225
G1 X62.036 Y102.820 E0.02225
G1 X60.617 Y89.261 E0.42745
G1 X60.754 Y87.894 E0.04308
G1 X61.179 Y86.587 E0.04308
G1 X61.781 Y85.527 E0.03823
G1 X62.698 Y84.481 E0.04362
G1 X63.846 Y83.640 E0.04462
G1 X74.972 Y77.623 E0.39658
G1 X76.985 Y76.705 E0.06937
G1 X79.078 Y75.991 E0.06937
G1 X81.290 Y75.476 E0.07120
G1 X83.927 Y75.162 E0.08325
G1 X94.754 Y75.123 E0.33948
G1 X96.982 Y75.235 E0.06994
G1 X99.552 Y75.645 E0.08160
G1 X101.745 Y76.244 E0.07130
G1 X103.813 Y77.041 E0.06948
G1 X105.400 Y77.820 E0.05543
G1 X116.189 Y83.660 E0.38465
G1 X117.149 Y84.345 E0.03698
G1 X118.070 Y85.323 E0.04213
G1 X118.680 Y86.293 E0.03591
G1 X119.102 Y87.337 E0.03532
G1 X119.337 Y88.447 E0.03556
G1 X119.374 Y89.557 E0.03484
G1 X117.960 Y102.847 E0.41904
G1 X117.705 Y103.621 E0.02555
G1 X117.200 Y104.266 E0.02567
G1 X116.526 Y104.682 E0.02484
M204 S1250
; printing object NeckGuide2.stl id:0 copy 0
G1 E-2.24000 F4200.000
;WIPE_START
G1 F7200.000
G1 X115.634 Y104.877 E-0.50568
G1 X114.901 Y104.877 E-0.40632
;WIPE_END
G1 E-0.04800 F4200.000
G1 Z0.400 F9000.000
G1 X113.943 Y96.764
G1 Z0.200
G1 E3.20000 F2400.000
M204 S800
;TYPE:Perimeter
G1 F1200.000
G1 X113.448 Y96.802 E0.01557
G1 X113.382 Y96.362 E0.01393
G1 X113.145 Y95.209 E0.03691
G1 X112.834 Y94.067 E0.03711
G1 X112.450 Y92.943 E0.03724
G1 X111.996 Y91.840 E0.03740
G1 X111.472 Y90.762 E0.03758
G1 X110.881 Y89.713 E0.03777
G1 X110.223 Y88.695 E0.03799
G1 X109.503 Y87.712 E0.03822
G1 X108.721 Y86.767 E0.03846
G1 X107.880 Y85.863 E0.03870
G1 X106.986 Y85.004 E0.03887
G1 X106.355 Y84.452 E0.02628
G1 X105.377 Y83.674 E0.03921
M73 P4 R10
G1 X104.691 Y83.177 E0.02656
G1 X103.635 Y82.483 E0.03962
G1 X102.900 Y82.046 E0.02682
G1 X101.773 Y81.441 E0.04009
G1 X100.608 Y80.892 E0.04038
G1 X99.413 Y80.403 E0.04050
G1 X98.593 Y80.108 E0.02731
G1 X97.352 Y79.719 E0.04078
G1 X96.086 Y79.393 E0.04100
G1 X94.801 Y79.129 E0.04112
G1 X93.504 Y78.929 E0.04114
G1 X92.627 Y78.832 E0.02767
G1 X91.315 Y78.740 E0.04124
G1 X90.004 Y78.713 E0.04110
G1 X88.820 Y78.734 E0.03713
G1 X87.508 Y78.819 E0.04122
G1 X86.630 Y78.912 E0.02768
G1 X85.332 Y79.105 E0.04115
G1 X84.046 Y79.362 E0.04113
G1 X82.780 Y79.682 E0.04094
G1 X81.942 Y79.932 E0.02742
G1 X80.715 Y80.355 E0.04069
G1 X79.514 Y80.839 E0.04060
G1 X78.348 Y81.381 E0.04032
G1 X77.584 Y81.777 E0.02698
G1 X76.479 Y82.413 E0.03996
G1 X75.417 Y83.103 E0.03973
G1 X74.729 Y83.594 E0.02649
G1 X74.063 Y84.108 E0.02638
G1 X73.111 Y84.916 E0.03915
G1 X72.209 Y85.772 E0.03898
G1 X71.363 Y86.672 E0.03873
G1 X70.575 Y87.613 E0.03848
G1 X69.848 Y88.592 E0.03824
G1 X69.184 Y89.606 E0.03801
G1 X68.586 Y90.653 E0.03780
G1 X68.055 Y91.728 E0.03760
G1 X67.593 Y92.828 E0.03741
G1 X67.202 Y93.950 E0.03726
G1 X66.884 Y95.091 E0.03712
G1 X66.639 Y96.246 E0.03704
G1 X66.559 Y96.802 E0.01761
G1 X66.057 Y96.764 E0.01576
G1 X66.071 Y96.356 E0.01280
G1 X66.174 Y95.213 E0.03597
G1 X66.344 Y94.079 E0.03596
G1 X66.659 Y92.565 E0.04848
G1 X65.601 Y92.143 E0.03570
G1 X65.231 Y91.929 E0.01339
G1 X64.890 Y91.667 E0.01350
G1 X64.586 Y91.362 E0.01350
G1 X64.325 Y91.019 E0.01350
G1 X64.112 Y90.645 E0.01350
G1 X63.947 Y90.240 E0.01370
G1 X63.817 Y89.695 E0.01759
G1 X63.783 Y89.259 E0.01370
G1 X63.805 Y88.829 E0.01350
G1 X63.885 Y88.406 E0.01350
G1 X64.019 Y87.997 E0.01350
G1 X64.206 Y87.609 E0.01350
G1 X64.442 Y87.249 E0.01350
G1 X64.724 Y86.923 E0.01350
G1 X65.051 Y86.633 E0.01370
G1 X65.280 Y86.471 E0.00880
G1 X65.522 Y86.330 E0.00880
G1 X65.922 Y86.152 E0.01370
G1 X66.341 Y86.029 E0.01370
G1 X66.897 Y85.956 E0.01759
G1 X67.341 Y85.966 E0.01391
G1 X67.893 Y86.064 E0.01759
G1 X68.303 Y86.205 E0.01360
G1 X69.316 Y86.724 E0.03569
G1 X70.264 Y85.477 E0.04913
G1 X70.753 Y84.892 E0.02390
G1 X71.265 Y84.326 E0.02395
G1 X71.800 Y83.780 E0.02395
G1 X72.356 Y83.256 E0.02395
G1 X72.933 Y82.755 E0.02395
G1 X73.529 Y82.277 E0.02395
G1 X74.143 Y81.823 E0.02395
G1 X74.775 Y81.394 E0.02395
G1 X75.421 Y80.992 E0.02386
G1 X76.428 Y80.432 E0.03611
G1 X77.111 Y80.096 E0.02386
G1 X77.809 Y79.786 E0.02395
G1 X78.520 Y79.505 E0.02395
G1 X79.240 Y79.251 E0.02395
G1 X79.968 Y79.028 E0.02386
G1 X81.081 Y78.745 E0.03602
G1 X82.207 Y78.530 E0.03593
G1 X83.343 Y78.382 E0.03593
G1 X84.489 Y78.302 E0.03602
G1 X85.257 Y78.287 E0.02407
G1 X95.123 Y78.291 E0.30934
G1 X95.893 Y78.321 E0.02416
G1 X97.037 Y78.424 E0.03602
G1 X98.173 Y78.595 E0.03602
G1 X98.916 Y78.744 E0.02377
G1 X100.032 Y79.028 E0.03611
G1 X100.757 Y79.250 E0.02377
G1 X101.831 Y79.640 E0.03582
G1 X102.541 Y79.938 E0.02415
G1 X103.233 Y80.262 E0.02395
G1 X103.901 Y80.607 E0.02357
G1 X104.902 Y81.189 E0.03631
G1 X105.857 Y81.823 E0.03593
G1 X106.772 Y82.513 E0.03593
G1 X107.646 Y83.258 E0.03602
G1 X108.200 Y83.780 E0.02386
G1 X108.733 Y84.324 E0.02386
G1 X109.497 Y85.185 E0.03611
G1 X109.974 Y85.780 E0.02390
G1 X110.680 Y86.727 E0.03703
G1 X111.703 Y86.202 E0.03604
G1 X111.963 Y86.106 E0.00870
G1 X112.240 Y86.031 E0.00901
G1 X112.523 Y85.981 E0.00901
G1 X112.809 Y85.955 E0.00901
G1 X113.096 Y85.955 E0.00901
G1 X113.382 Y85.980 E0.00901
G1 X113.665 Y86.030 E0.00901
G1 X113.942 Y86.105 E0.00901
G1 X114.466 Y86.324 E0.01779
G1 X114.844 Y86.555 E0.01391
G1 X115.066 Y86.727 E0.00880
G1 X115.277 Y86.923 E0.00901
G1 X115.469 Y87.136 E0.00901
G1 X115.639 Y87.360 E0.00880
G1 X115.862 Y87.735 E0.01370
G1 X116.034 Y88.137 E0.01370
G1 X116.174 Y88.680 E0.01759
G1 X116.216 Y89.115 E0.01370
G1 X116.201 Y89.552 E0.01370
G1 X116.161 Y89.824 E0.00860
G1 X116.051 Y90.246 E0.01370
G1 X115.888 Y90.645 E0.01350
G1 X115.675 Y91.019 E0.01350
G1 X115.414 Y91.362 E0.01350
G1 X115.110 Y91.667 E0.01350
G1 X114.769 Y91.929 E0.01350
G1 X114.399 Y92.143 E0.01339
G1 X113.341 Y92.565 E0.03570
G1 X113.656 Y94.079 E0.04848
G1 X113.826 Y95.213 E0.03596
M73 P5 R10
G1 X113.929 Y96.356 E0.03597
G1 X113.941 Y96.704 E0.01091
M204 S1250
G1 E-2.24000 F4200.000
;WIPE_START
G1 F7200.000
G1 X113.448 Y96.802 E-0.27850
G1 X113.382 Y96.362 E-0.24628
G1 X113.241 Y95.678 E-0.38722
;WIPE_END
G1 E-0.04800 F4200.000
G1 Z0.400 F9000.000
G1 X110.791 Y86.246
G1 Z0.200
G1 E3.20000 F2400.000
M204 S800
;TYPE:External perimeter
G1 F1200.000
G1 X111.551 Y85.856 E0.02676
G1 X111.848 Y85.746 E0.00994
G1 X112.158 Y85.663 E0.01005
G1 X112.473 Y85.606 E0.01005
G1 X112.792 Y85.578 E0.01005
G1 X113.113 Y85.578 E0.01005
G1 X113.432 Y85.606 E0.01005
G1 X113.747 Y85.662 E0.01005
G1 X114.057 Y85.746 E0.01005
G1 X114.357 Y85.856 E0.01005
G1 X114.645 Y85.991 E0.00997
G1 X115.059 Y86.245 E0.01521
G1 X115.310 Y86.440 E0.00997
G1 X115.545 Y86.658 E0.01005
G1 X115.760 Y86.895 E0.01005
G1 X115.952 Y87.149 E0.00997
G1 X116.199 Y87.564 E0.01514
G1 X116.389 Y88.008 E0.01514
G1 X116.482 Y88.312 E0.00997
G1 X116.547 Y88.623 E0.00997
G1 X116.594 Y89.104 E0.01514
G1 X116.577 Y89.586 E0.01514
G1 X116.531 Y89.899 E0.00990
G1 X116.409 Y90.366 E0.01514
G1 X116.228 Y90.811 E0.01506
G1 X115.990 Y91.228 E0.01506
G1 X115.699 Y91.610 E0.01506
G1 X115.360 Y91.950 E0.01506
G1 X114.979 Y92.243 E0.01506
G1 X114.564 Y92.483 E0.01503
G1 X113.775 Y92.798 E0.02664
G1 X114.027 Y94.013 E0.03890
G1 X114.201 Y95.168 E0.03665
G1 X114.305 Y96.333 E0.03665
G1 X114.332 Y97.112 E0.02446
G1 X113.627 Y97.166 E0.02216
G1 X113.661 Y97.751 E0.01836
G1 X114.265 Y97.995 E0.02044
G1 X114.796 Y98.289 E0.01903
G1 X113.826 Y98.288 E0.03040
G1 X113.630 Y98.679 E0.01372
G1 X114.258 Y98.991 E0.02199
G1 X114.796 Y99.289 E0.01928
G1 X113.826 Y99.288 E0.03040
G1 X113.630 Y99.679 E0.01372
G1 X114.258 Y99.991 E0.02199
G1 X114.796 Y100.289 E0.01928
G1 X113.826 Y100.288 E0.03040
G1 X113.630 Y100.679 E0.01372
G1 X114.258 Y100.991 E0.02199
G1 X114.796 Y101.289 E0.01928
G1 X113.826 Y101.288 E0.03040
G1 X113.630 Y101.679 E0.01372
G1 X114.258 Y101.991 E0.02199
G1 X114.797 Y102.290 E0.01932
G1 X114.196 Y102.290 E0.01886
G1 X113.152 Y102.134 E0.03307
G1 X113.157 Y97.476 E0.14603
G1 X113.124 Y97.189 E0.00906
G1 X113.010 Y96.428 E0.02413
G1 X112.778 Y95.296 E0.03622
G1 X112.473 Y94.178 E0.03636
G1 X112.097 Y93.076 E0.03650
G1 X111.652 Y91.994 E0.03667
G1 X111.138 Y90.937 E0.03685
G1 X110.558 Y89.908 E0.03706
G1 X109.913 Y88.909 E0.03728
G1 X109.205 Y87.944 E0.03752
G1 X108.437 Y87.016 E0.03777
G1 X107.612 Y86.127 E0.03803
G1 X106.731 Y85.282 E0.03826
G1 X106.113 Y84.742 E0.02573
G1 X105.149 Y83.974 E0.03866
G1 X104.476 Y83.487 E0.02602
G1 X103.435 Y82.803 E0.03909
G1 X102.714 Y82.374 E0.02629
G1 X101.604 Y81.778 E0.03951
G1 X100.456 Y81.237 E0.03976
G1 X99.277 Y80.755 E0.03994
G1 X98.473 Y80.465 E0.02681
G1 X97.248 Y80.082 E0.04023
G1 X96.001 Y79.760 E0.04041
G1 X94.734 Y79.500 E0.04053
G1 X93.454 Y79.303 E0.04060
G1 X92.593 Y79.207 E0.02718
G1 X91.298 Y79.117 E0.04070
G1 X90.004 Y79.090 E0.04058
G1 X88.836 Y79.111 E0.03663
G1 X87.540 Y79.195 E0.04070
G1 X86.678 Y79.287 E0.02719
G1 X85.397 Y79.477 E0.04061
G1 X84.129 Y79.730 E0.04054
G1 X82.880 Y80.046 E0.04039
G1 X82.057 Y80.291 E0.02693
G1 X80.847 Y80.708 E0.04014
G1 X79.664 Y81.185 E0.03999
G1 X78.514 Y81.719 E0.03976
G1 X77.765 Y82.108 E0.02646
G1 X76.676 Y82.735 E0.03938
G1 X75.629 Y83.414 E0.03914
G1 X74.954 Y83.897 E0.02601
G1 X74.301 Y84.402 E0.02589
G1 X73.363 Y85.197 E0.03855
G1 X72.477 Y86.038 E0.03832
G1 X71.645 Y86.922 E0.03805
G1 X70.871 Y87.846 E0.03780
G1 X70.157 Y88.808 E0.03755
G1 X69.506 Y89.803 E0.03731
G1 X68.919 Y90.830 E0.03708
G1 X68.398 Y91.884 E0.03687
G1 X67.945 Y92.963 E0.03668
G1 X67.562 Y94.063 E0.03652
G1 X67.250 Y95.181 E0.03638
G1 X67.010 Y96.312 E0.03627
G1 X66.843 Y97.473 E0.03677
G1 X66.848 Y102.134 E0.14614
G1 X65.804 Y102.290 E0.03307
G1 X65.203 Y102.290 E0.01886
G1 X65.742 Y101.991 E0.01932
G1 X66.370 Y101.679 E0.02199
G1 X66.174 Y101.288 E0.01372
G1 X65.204 Y101.289 E0.03040
G1 X65.742 Y100.991 E0.01928
G1 X66.370 Y100.679 E0.02199
G1 X66.174 Y100.288 E0.01372
G1 X65.204 Y100.289 E0.03040
M73 P6 R10
G1 X65.742 Y99.991 E0.01928
G1 X66.370 Y99.679 E0.02199
G1 X66.174 Y99.288 E0.01372
G1 X65.204 Y99.289 E0.03040
G1 X65.742 Y98.991 E0.01928
G1 X66.370 Y98.679 E0.02199
G1 X66.174 Y98.288 E0.01372
G1 X65.204 Y98.289 E0.03040
G1 X65.735 Y97.995 E0.01903
G1 X66.339 Y97.751 E0.02044
G1 X66.373 Y97.166 E0.01836
G1 X65.668 Y97.112 E0.02216
G1 X65.695 Y96.333 E0.02446
G1 X65.799 Y95.168 E0.03665
G1 X65.973 Y94.013 E0.03665
G1 X66.225 Y92.798 E0.03890
G1 X65.436 Y92.483 E0.02664
G1 X65.021 Y92.243 E0.01503
G1 X64.640 Y91.950 E0.01506
G1 X64.301 Y91.610 E0.01506
G1 X64.010 Y91.228 E0.01506
G1 X63.772 Y90.811 E0.01506
G1 X63.590 Y90.364 E0.01514
G1 X63.503 Y90.058 E0.00997
G1 X63.443 Y89.745 E0.00997
G1 X63.405 Y89.264 E0.01514
G1 X63.430 Y88.784 E0.01506
G1 X63.519 Y88.312 E0.01506
G1 X63.668 Y87.855 E0.01506
G1 X63.877 Y87.423 E0.01506
G1 X64.141 Y87.021 E0.01506
G1 X64.455 Y86.658 E0.01506
G1 X64.816 Y86.337 E0.01514
G1 X65.076 Y86.154 E0.00997
G1 X65.351 Y85.993 E0.00997
G1 X65.792 Y85.798 E0.01514
G1 X66.255 Y85.662 E0.01514
G1 X66.568 Y85.606 E0.00997
G1 X66.885 Y85.578 E0.00997
G1 X67.370 Y85.589 E0.01521
G1 X67.685 Y85.631 E0.00997
G1 X67.996 Y85.701 E0.00997
G1 X68.451 Y85.857 E0.01510
G1 X69.207 Y86.245 E0.02664
G1 X69.969 Y85.242 E0.03949
G1 X70.468 Y84.645 E0.02440
G1 X70.991 Y84.067 E0.02442
G1 X71.536 Y83.511 E0.02442
G1 X72.103 Y82.977 E0.02442
G1 X72.691 Y82.465 E0.02442
G1 X73.299 Y81.978 E0.02442
G1 X73.925 Y81.515 E0.02442
G1 X74.570 Y81.078 E0.02442
G1 X75.230 Y80.666 E0.02439
G1 X76.253 Y80.098 E0.03670
G1 X76.951 Y79.755 E0.02439
G1 X77.663 Y79.439 E0.02442
G1 X78.387 Y79.151 E0.02442
G1 X79.122 Y78.893 E0.02442
G1 X79.866 Y78.664 E0.02439
G1 X80.999 Y78.377 E0.03667
G1 X82.147 Y78.157 E0.03663
G1 X83.306 Y78.007 E0.03663
G1 X84.472 Y77.926 E0.03667
G1 X85.253 Y77.910 E0.02449
G1 X95.130 Y77.914 E0.30969
G1 X95.917 Y77.945 E0.02469
G1 X97.082 Y78.049 E0.03667
G1 X98.238 Y78.223 E0.03667
G1 X99.000 Y78.377 E0.02436
G1 X100.134 Y78.664 E0.03670
G1 X100.877 Y78.893 E0.02436
G1 X101.968 Y79.289 E0.03641
G1 X102.694 Y79.593 E0.02468
G1 X103.400 Y79.923 E0.02442
G1 X104.083 Y80.276 E0.02410
G1 X105.102 Y80.869 E0.03696
G1 X106.075 Y81.515 E0.03663
G1 X107.008 Y82.219 E0.03663
G1 X107.898 Y82.977 E0.03667
G1 X108.464 Y83.511 E0.02439
G1 X109.008 Y84.066 E0.02439
G1 X109.785 Y84.942 E0.03670
G1 X110.272 Y85.549 E0.02441
G1 X110.756 Y86.197 E0.02536
M204 S1250
G1 X110.995 Y86.590 F9000.000
G1 E-2.24000 F4200.000
;WIPE_START
G1 F7200.000
G1 X111.551 Y85.856 E-0.47961
G1 X111.848 Y85.746 E-0.17562
G1 X112.158 Y85.663 E-0.17757
G1 X112.298 Y85.638 E-0.07920
;WIPE_END
G1 E-0.04800 F4200.000
G1 Z0.400 F9000.000
G1 X115.780 Y87.830
G1 Z0.200
G1 E3.20000 F2400.000
M204 S800
;TYPE:Solid infill
;WIDTH:0.425596
G1 F1200.000
G1 X115.055 Y87.105 E0.03263
G1 X114.678 Y86.785 E0.01573
G1 X114.332 Y86.573 E0.01292
G1 X114.103 Y86.465 E0.00804
G1 X113.756 Y86.348 E0.01165
G1 X115.810 Y88.402 E0.09244
G1 X115.894 Y88.730 E0.01075
G1 X115.927 Y89.059 E0.01055
G1 X113.107 Y86.240 E0.12687
G1 X112.585 Y86.259 E0.01663
G1 X115.910 Y89.584 E0.14964
G1 X115.815 Y90.030 E0.01451
G1 X112.137 Y86.352 E0.16552
G1 X111.743 Y86.499 E0.01338
G1 X115.672 Y90.428 E0.17680
G1 X115.484 Y90.782 E0.01274
G1 X111.385 Y86.683 E0.18447
G1 X111.027 Y86.866 E0.01279
G1 X115.259 Y91.098 E0.19043
G1 X114.998 Y91.378 E0.01218
G1 X105.636 Y82.016 E0.42130
M73 P7 R10
G1 X104.753 Y81.429 E0.03373
G1 X104.168 Y81.089 E0.02155
G1 X114.702 Y91.623 E0.47406
G1 X114.370 Y91.833 E0.01249
G1 X103.004 Y80.467 E0.51147
G1 X102.024 Y80.028 E0.03418
G1 X105.175 Y83.179 E0.14180
G1 X105.548 Y83.448 E0.01464
G1 X106.536 Y84.235 E0.04020
G1 X107.177 Y84.795 E0.02709
G1 X108.082 Y85.664 E0.03991
G1 X108.934 Y86.580 E0.03979
G1 X109.726 Y87.538 E0.03955
G1 X110.252 Y88.255 E0.02830
G1 X113.996 Y91.999 E0.16848
G1 X113.609 Y92.154 E0.01325
G1 X111.253 Y89.798 E0.10600
G1 X111.723 Y90.631 E0.03042
G1 X111.891 Y90.977 E0.01224
G1 X113.222 Y92.308 E0.05991
G1 X113.016 Y92.390 E0.00706
G1 X113.082 Y92.709 E0.01037
G1 X112.364 Y91.991 E0.03232
G1 X112.736 Y92.904 E0.03137
G1 X113.224 Y93.393 E0.02197
G1 X113.366 Y94.076 E0.02220
G1 X112.744 Y93.453 E0.02799
M204 S1250
G1 E-2.24000 F4200.000
;WIPE_START
G1 F7200.000
G1 X113.366 Y94.076 E-0.48755
G1 X113.224 Y93.393 E-0.38661
G1 X113.176 Y93.344 E-0.03784
;WIPE_END
G1 E-0.04800 F4200.000
G1 Z0.400 F9000.000
G1 X104.126 Y82.670
G1 Z0.200
G1 E3.20000 F2400.000
M204 S800
G1 F1200.000
G1 X101.149 Y79.693 E0.13398
