; generated by PrusaSlicer 2.3.0+win64 on 2021-03-03 at 09:53:55 UTC


;
;

;
;
; 

; external perimeters extrusion width = 0.45mm
; perimeters extrusion width = 0.45mm
; infill extrusion width = 0.45mm
; solid infill extrusion width = 0.45mm
; top infill extrusion width = 0.40mm
; first layer extrusion width = 0.42mm

M73 P0 R9
M201 X1250 Y1250 Z400 E5000 ; sets maximum accelerations, mm/sec^2
M203 X180 Y180 Z12 E80 ; sets maximum feedrates, mm/sec
M204 P1250 R1250 T1250 ; sets acceleration (P, T) and retract acceleration (R), mm/sec^2
M205 X8.00 Y8.00 Z2.00 E10.00 ; sets the jerk limits, mm/sec
M205 S0 T0 ; sets the minimum extruding and travel feed rate, mm/sec
M107
;TYPE:Custom
G90 ; use absolute coordinates
M83 ; extruder relative mode
M104 S170 ; set extruder temp for bed leveling
M140 S60 ; set bed temp
M109 R170 ; wait for bed leveling temp
M190 S60 ; wait for bed temp
G28 ; home all without mesh bed level
G29 ; mesh bed leveling 
M104 S215 ; set extruder temp
G92 E0.0
G1 Y-2.0 X179 F2400
G1 Z3 F720
M109 S215 ; wait for extruder temp

; intro line
G1 X170 F1000
G1 Z0.2 F720
G1 X110.0 E8.0 F900
M73 P1 R9
G1 X40.0 E10.0 F700
G92 E0.0

M221 S95 ; set flow
G21 ; set units to millimeters
G90 ; use absolute coordinates
M83 ; use relative distances for extrusion
M900 K0.2 ; Filament gcode LA 1.5
; ; Filament gcode LA 1.0
;LAYER_CHANGE
;Z:0.2
;HEIGHT:0.2
;BEFORE_LAYER_CHANGE
G92 E0.0
;0.2


M73 P2 R9
G1 E-3.20000 F4200.000
G1 Z0.200 F9000.000
;AFTER_LAYER_CHANGE
;0.2
G1 Z0.400
G1 X116.475 Y104.714
G1 Z0.200
G1 E3.20000 F2400.000
M204 S800
;TYPE:Skirt
;WIDTH:0.42
G1 F1200.000
G1 X115.634 Y104.877 E0.02684
G1 X64.384 Y104.877 E1.60692
M73 P3 R9
G1 X63.893 Y104.824 E0.01550
G1 X63.423 Y104.671 E0.01550
G1 X62.995 Y104.423 E0.01550
G1 X62.627 Y104.093 E0.01550
G1 X62.236 Y103.501 E0.02225
G1 X62.036 Y102.820 E0.02225
G1 X60.617 Y89.261 E0.42745
G1 X60.754 Y87.894 E0.04308
G1 X61.179 Y86.587 E0.04308
G1 X61.781 Y85.527 E0.03823
G1 X62.698 Y84.481 E0.04362
G1 X63.846 Y83.640 E0.04462
G1 X74.972 Y77.623 E0.39658
G1 X76.995 Y76.701 E0.06973
G1 X79.089 Y75.988 E0.06937
G1 X81.633 Y75.418 E0.08174
G1 X83.914 Y75.163 E0.07196
G1 X94.754 Y75.123 E0.33988
G1 X96.974 Y75.234 E0.06970
G1 X99.193 Y75.569 E0.07037
G1 X101.727 Y76.239 E0.08217
G1 X103.812 Y77.040 E0.07004
G1 X105.400 Y77.820 E0.05547
M73 P4 R9
G1 X116.189 Y83.660 E0.38465
G1 X117.149 Y84.345 E0.03698
G1 X118.070 Y85.323 E0.04213
G1 X118.680 Y86.293 E0.03591
G1 X119.102 Y87.337 E0.03532
G1 X119.337 Y88.447 E0.03556
G1 X119.374 Y89.557 E0.03484
G1 X117.960 Y102.847 E0.41904
G1 X117.705 Y103.621 E0.02555
G1 X117.200 Y104.266 E0.02567
G1 X116.526 Y104.682 E0.02484
M204 S1250
; printing object NeckGuide.stl id:0 copy 0
G1 E-2.24000 F4200.000
;WIPE_START
G1 F7200.000
G1 X115.634 Y104.877 E-0.50568
G1 X114.901 Y104.877 E-0.40632
;WIPE_END
G1 E-0.04800 F4200.000
G1 Z0.400 F9000.000
G1 X113.943 Y96.764
G1 Z0.200
G1 E3.20000 F2400.000
M204 S800
;TYPE:Perimeter
G1 F1200.000
G1 X113.519 Y96.796 E0.01331
G1 X113.500 Y96.321 E0.01492
G1 X113.434 Y95.533 E0.02478
G1 X113.275 Y94.370 E0.03681
G1 X113.126 Y93.591 E0.02487
G1 X112.846 Y92.451 E0.03682
G1 X112.613 Y91.679 E0.02527
G1 X112.218 Y90.584 E0.03650
G1 X111.749 Y89.501 E0.03700
G1 X111.214 Y88.449 E0.03701
G1 X110.614 Y87.436 E0.03691
G1 X110.168 Y86.765 E0.02527
G1 X109.474 Y85.830 E0.03650
G1 X108.714 Y84.931 E0.03691
G1 X108.162 Y84.344 E0.02527
G1 X107.323 Y83.540 E0.03641
G1 X106.723 Y83.022 E0.02486
G1 X105.795 Y82.302 E0.03682
G1 X105.133 Y81.843 E0.02527
G1 X104.144 Y81.230 E0.03650
G1 X103.106 Y80.673 E0.03691
G1 X102.389 Y80.336 E0.02487
G1 X101.302 Y79.892 E0.03681
G1 X100.553 Y79.631 E0.02487
G1 X99.425 Y79.304 E0.03681
G1 X98.656 Y79.123 E0.02477
G1 X97.880 Y78.975 E0.02477
G1 X96.717 Y78.816 E0.03682
G1 X95.914 Y78.749 E0.02527
G1 X94.760 Y78.713 E0.03618
G1 X84.856 Y78.717 E0.31052
G1 X84.070 Y78.750 E0.02467
G1 X83.286 Y78.816 E0.02467
G1 X82.506 Y78.914 E0.02467
G1 X81.727 Y79.046 E0.02477
G1 X80.578 Y79.303 E0.03691
G1 X79.447 Y79.631 E0.03691
G1 X78.698 Y79.892 E0.02487
G1 X77.611 Y80.336 E0.03681
G1 X76.894 Y80.673 E0.02487
G1 X75.856 Y81.230 E0.03691
G1 X74.853 Y81.852 E0.03701
G1 X73.891 Y82.535 E0.03701
G1 X72.976 Y83.276 E0.03691
G1 X72.389 Y83.805 E0.02477
G1 X71.825 Y84.357 E0.02477
G1 X71.028 Y85.224 E0.03691
G1 X70.279 Y86.149 E0.03731
G1 X69.823 Y86.778 E0.02436
G1 X69.386 Y87.436 E0.02477
G1 X68.786 Y88.449 E0.03691
G1 X68.247 Y89.510 E0.03731
G1 X67.931 Y90.220 E0.02436
G1 X67.640 Y90.954 E0.02477
G1 X67.264 Y92.070 E0.03691
G1 X66.959 Y93.210 E0.03701
G1 X66.726 Y94.367 E0.03701
G1 X66.566 Y95.533 E0.03691
G1 X66.500 Y96.321 E0.02478
G1 X66.481 Y96.796 E0.01492
G1 X66.057 Y96.764 E0.01331
M73 P5 R9
G1 X66.071 Y96.356 E0.01280
G1 X66.174 Y95.213 E0.03597
G1 X66.344 Y94.079 E0.03596
G1 X66.659 Y92.565 E0.04848
G1 X65.601 Y92.143 E0.03570
G1 X65.231 Y91.929 E0.01339
G1 X64.890 Y91.667 E0.01350
G1 X64.586 Y91.362 E0.01350
G1 X64.325 Y91.019 E0.01350
G1 X64.112 Y90.645 E0.01350
G1 X63.947 Y90.240 E0.01370
G1 X63.817 Y89.695 E0.01759
G1 X63.783 Y89.259 E0.01370
G1 X63.805 Y88.829 E0.01350
G1 X63.885 Y88.406 E0.01350
G1 X64.019 Y87.997 E0.01350
G1 X64.206 Y87.609 E0.01350
G1 X64.442 Y87.249 E0.01350
G1 X64.724 Y86.923 E0.01350
G1 X65.051 Y86.633 E0.01370
G1 X65.280 Y86.471 E0.00880
G1 X65.522 Y86.330 E0.00880
G1 X65.922 Y86.152 E0.01370
G1 X66.341 Y86.029 E0.01370
G1 X66.897 Y85.956 E0.01759
G1 X67.341 Y85.966 E0.01391
G1 X67.893 Y86.064 E0.01759
G1 X68.303 Y86.205 E0.01360
G1 X69.316 Y86.724 E0.03569
G1 X70.264 Y85.477 E0.04913
G1 X70.753 Y84.892 E0.02390
G1 X71.265 Y84.326 E0.02395
G1 X71.800 Y83.780 E0.02395
G1 X72.356 Y83.256 E0.02395
G1 X72.933 Y82.755 E0.02395
G1 X73.529 Y82.277 E0.02395
G1 X74.143 Y81.823 E0.02395
G1 X74.775 Y81.394 E0.02395
G1 X75.424 Y80.990 E0.02395
G1 X76.086 Y80.614 E0.02386
G1 X77.105 Y80.099 E0.03582
G1 X77.810 Y79.786 E0.02416
G1 X78.520 Y79.505 E0.02395
G1 X79.240 Y79.251 E0.02395
G1 X79.968 Y79.028 E0.02386
G1 X81.081 Y78.745 E0.03602
G1 X82.207 Y78.530 E0.03593
G1 X83.343 Y78.382 E0.03593
G1 X84.489 Y78.302 E0.03602
G1 X85.257 Y78.287 E0.02407
G1 X95.123 Y78.291 E0.30934
G1 X95.893 Y78.321 E0.02416
G1 X97.037 Y78.424 E0.03602
G1 X98.173 Y78.595 E0.03602
G1 X98.916 Y78.744 E0.02377
G1 X100.032 Y79.028 E0.03611
G1 X100.757 Y79.250 E0.02377
G1 X101.831 Y79.640 E0.03582
G1 X102.539 Y79.937 E0.02406
G1 X103.577 Y80.435 E0.03611
G1 X104.246 Y80.798 E0.02386
G1 X104.892 Y81.182 E0.02357
G1 X105.857 Y81.823 E0.03631
G1 X106.772 Y82.513 E0.03593
G1 X107.646 Y83.258 E0.03602
G1 X108.200 Y83.780 E0.02386
G1 X108.733 Y84.324 E0.02386
G1 X109.497 Y85.185 E0.03611
G1 X109.974 Y85.780 E0.02390
G1 X110.680 Y86.727 E0.03703
G1 X111.703 Y86.202 E0.03604
G1 X111.963 Y86.106 E0.00870
G1 X112.240 Y86.031 E0.00901
G1 X112.523 Y85.981 E0.00901
G1 X112.809 Y85.955 E0.00901
G1 X113.096 Y85.955 E0.00901
G1 X113.382 Y85.980 E0.00901
G1 X113.665 Y86.030 E0.00901
G1 X113.942 Y86.105 E0.00901
G1 X114.466 Y86.324 E0.01779
G1 X114.844 Y86.555 E0.01391
G1 X115.066 Y86.727 E0.00880
G1 X115.277 Y86.923 E0.00901
G1 X115.469 Y87.136 E0.00901
G1 X115.639 Y87.360 E0.00880
G1 X115.862 Y87.735 E0.01370
G1 X116.034 Y88.137 E0.01370
G1 X116.174 Y88.680 E0.01759
G1 X116.216 Y89.115 E0.01370
G1 X116.201 Y89.552 E0.01370
G1 X116.161 Y89.824 E0.00860
G1 X116.051 Y90.246 E0.01370
G1 X115.888 Y90.645 E0.01350
G1 X115.675 Y91.019 E0.01350
G1 X115.414 Y91.362 E0.01350
G1 X115.110 Y91.667 E0.01350
G1 X114.769 Y91.929 E0.01350
G1 X114.399 Y92.143 E0.01339
G1 X113.341 Y92.565 E0.03570
G1 X113.656 Y94.079 E0.04848
G1 X113.826 Y95.213 E0.03596
G1 X113.929 Y96.356 E0.03597
G1 X113.941 Y96.704 E0.01091
M204 S1250
G1 E-2.24000 F4200.000
;WIPE_START
G1 F7200.000
G1 X113.519 Y96.796 E-0.23890
G1 X113.500 Y96.321 E-0.26367
G1 X113.438 Y95.585 E-0.40944
;WIPE_END
G1 E-0.04800 F4200.000
G1 Z0.400 F9000.000
G1 X110.791 Y86.246
G1 Z0.200
G1 E3.20000 F2400.000
M204 S800
;TYPE:External perimeter
G1 F1200.000
G1 X111.551 Y85.856 E0.02676
G1 X111.848 Y85.746 E0.00994
G1 X112.158 Y85.663 E0.01005
G1 X112.473 Y85.606 E0.01005
G1 X112.792 Y85.578 E0.01005
G1 X113.113 Y85.578 E0.01005
G1 X113.432 Y85.606 E0.01005
G1 X113.747 Y85.662 E0.01005
G1 X114.057 Y85.746 E0.01005
G1 X114.357 Y85.856 E0.01005
G1 X114.645 Y85.991 E0.00997
G1 X115.059 Y86.245 E0.01521
G1 X115.310 Y86.440 E0.00997
G1 X115.545 Y86.658 E0.01005
G1 X115.760 Y86.895 E0.01005
G1 X115.952 Y87.149 E0.00997
G1 X116.199 Y87.564 E0.01514
G1 X116.389 Y88.008 E0.01514
G1 X116.482 Y88.312 E0.00997
G1 X116.547 Y88.623 E0.00997
G1 X116.594 Y89.104 E0.01514
G1 X116.577 Y89.586 E0.01514
G1 X116.531 Y89.899 E0.00990
G1 X116.409 Y90.366 E0.01514
G1 X116.228 Y90.811 E0.01506
G1 X115.990 Y91.228 E0.01506
G1 X115.699 Y91.610 E0.01506
G1 X115.360 Y91.950 E0.01506
G1 X114.979 Y92.243 E0.01506
G1 X114.564 Y92.483 E0.01503
G1 X113.775 Y92.798 E0.02664
G1 X114.027 Y94.013 E0.03890
G1 X114.201 Y95.168 E0.03665
G1 X114.305 Y96.333 E0.03665
G1 X114.332 Y97.112 E0.02446
G1 X113.627 Y97.166 E0.02216
G1 X113.661 Y97.751 E0.01836
G1 X114.265 Y97.995 E0.02044
G1 X114.796 Y98.289 E0.01903
G1 X113.826 Y98.288 E0.03040
G1 X113.630 Y98.679 E0.01372
G1 X114.258 Y98.991 E0.02199
M73 P6 R9
G1 X114.796 Y99.289 E0.01928
G1 X113.826 Y99.288 E0.03040
G1 X113.630 Y99.679 E0.01372
G1 X114.258 Y99.991 E0.02199
G1 X114.796 Y100.289 E0.01928
G1 X113.826 Y100.288 E0.03040
G1 X113.630 Y100.679 E0.01372
G1 X114.258 Y100.991 E0.02199
G1 X114.796 Y101.289 E0.01928
G1 X113.826 Y101.288 E0.03040
G1 X113.630 Y101.679 E0.01372
G1 X114.258 Y101.991 E0.02199
G1 X114.797 Y102.290 E0.01932
G1 X114.196 Y102.290 E0.01886
G1 X113.152 Y102.134 E0.03308
G1 X113.155 Y97.115 E0.15737
G1 X113.124 Y96.344 E0.02418
G1 X113.059 Y95.575 E0.02422
G1 X112.902 Y94.431 E0.03619
G1 X112.758 Y93.671 E0.02425
G1 X112.482 Y92.550 E0.03620
G1 X112.255 Y91.798 E0.02465
G1 X111.867 Y90.723 E0.03582
G1 X111.408 Y89.661 E0.03626
G1 X110.883 Y88.631 E0.03626
G1 X110.295 Y87.636 E0.03623
G1 X109.859 Y86.982 E0.02465
G1 X109.178 Y86.065 E0.03582
G1 X108.432 Y85.182 E0.03623
G1 X107.894 Y84.609 E0.02465
G1 X107.070 Y83.819 E0.03579
G1 X106.484 Y83.314 E0.02425
G1 X105.572 Y82.607 E0.03620
G1 X104.926 Y82.158 E0.02465
G1 X103.955 Y81.556 E0.03582
G1 X102.937 Y81.010 E0.03623
G1 X102.237 Y80.681 E0.02425
G1 X101.168 Y80.245 E0.03619
G1 X100.438 Y79.991 E0.02425
G1 X99.329 Y79.669 E0.03619
G1 X98.578 Y79.492 E0.02421
G1 X97.819 Y79.348 E0.02421
G1 X96.675 Y79.191 E0.03620
G1 X95.892 Y79.126 E0.02465
G1 X94.754 Y79.090 E0.03569
G1 X84.864 Y79.094 E0.31009
G1 X84.094 Y79.126 E0.02418
G1 X83.326 Y79.191 E0.02418
G1 X82.561 Y79.287 E0.02418
G1 X81.799 Y79.416 E0.02421
G1 X80.672 Y79.668 E0.03623
G1 X79.562 Y79.991 E0.03623
G1 X78.832 Y80.245 E0.02425
G1 X77.763 Y80.681 E0.03619
G1 X77.063 Y81.010 E0.02425
G1 X76.045 Y81.556 E0.03623
G1 X75.062 Y82.166 E0.03626
G1 X74.119 Y82.836 E0.03626
G1 X73.221 Y83.563 E0.03623
G1 X72.647 Y84.080 E0.02421
G1 X72.096 Y84.620 E0.02421
G1 X71.314 Y85.470 E0.03623
G1 X70.579 Y86.379 E0.03663
G1 X70.133 Y86.993 E0.02381
G1 X69.705 Y87.636 E0.02421
G1 X69.117 Y88.631 E0.03623
G1 X68.587 Y89.672 E0.03663
G1 X68.278 Y90.366 E0.02381
G1 X67.994 Y91.084 E0.02421
G1 X67.626 Y92.179 E0.03623
G1 X67.326 Y93.296 E0.03626
G1 X67.098 Y94.430 E0.03626
G1 X66.941 Y95.575 E0.03623
G1 X66.876 Y96.344 E0.02422
G1 X66.845 Y97.115 E0.02418
G1 X66.848 Y102.134 E0.15737
G1 X65.804 Y102.290 E0.03308
G1 X65.203 Y102.290 E0.01886
G1 X65.742 Y101.991 E0.01932
G1 X66.370 Y101.679 E0.02199
G1 X66.174 Y101.288 E0.01372
G1 X65.204 Y101.289 E0.03040
G1 X65.742 Y100.991 E0.01928
G1 X66.370 Y100.679 E0.02199
G1 X66.174 Y100.288 E0.01372
G1 X65.204 Y100.289 E0.03040
G1 X65.742 Y99.991 E0.01928
G1 X66.370 Y99.679 E0.02199
G1 X66.174 Y99.288 E0.01372
G1 X65.204 Y99.289 E0.03040
G1 X65.742 Y98.991 E0.01928
G1 X66.370 Y98.679 E0.02199
G1 X66.174 Y98.288 E0.01372
G1 X65.204 Y98.289 E0.03040
G1 X65.735 Y97.995 E0.01903
G1 X66.339 Y97.751 E0.02044
G1 X66.373 Y97.166 E0.01836
G1 X65.668 Y97.112 E0.02216
G1 X65.695 Y96.333 E0.02446
G1 X65.799 Y95.168 E0.03665
G1 X65.973 Y94.013 E0.03665
G1 X66.225 Y92.798 E0.03890
G1 X65.436 Y92.483 E0.02664
G1 X65.021 Y92.243 E0.01503
G1 X64.640 Y91.950 E0.01506
G1 X64.301 Y91.610 E0.01506
M73 P7 R9
G1 X64.010 Y91.228 E0.01506
G1 X63.772 Y90.811 E0.01506
G1 X63.590 Y90.364 E0.01514
G1 X63.503 Y90.058 E0.00997
G1 X63.443 Y89.745 E0.00997
G1 X63.405 Y89.264 E0.01514
G1 X63.430 Y88.784 E0.01506
G1 X63.519 Y88.312 E0.01506
G1 X63.668 Y87.855 E0.01506
G1 X63.877 Y87.423 E0.01506
G1 X64.141 Y87.021 E0.01506
G1 X64.455 Y86.658 E0.01506
G1 X64.816 Y86.337 E0.01514
G1 X65.076 Y86.154 E0.00997
G1 X65.351 Y85.993 E0.00997
G1 X65.792 Y85.798 E0.01514
G1 X66.255 Y85.662 E0.01514
G1 X66.568 Y85.606 E0.00997
G1 X66.885 Y85.578 E0.00997
G1 X67.370 Y85.589 E0.01521
G1 X67.685 Y85.631 E0.00997
G1 X67.996 Y85.701 E0.00997
G1 X68.451 Y85.857 E0.01510
G1 X69.207 Y86.245 E0.02664
G1 X69.969 Y85.242 E0.03949
G1 X70.468 Y84.645 E0.02440
G1 X70.991 Y84.067 E0.02442
G1 X71.536 Y83.511 E0.02442
G1 X72.103 Y82.977 E0.02442
G1 X72.691 Y82.465 E0.02442
G1 X73.299 Y81.978 E0.02442
G1 X73.925 Y81.515 E0.02442
G1 X74.570 Y81.078 E0.02442
G1 X75.231 Y80.666 E0.02442
G1 X75.907 Y80.281 E0.02439
G1 X76.944 Y79.758 E0.03641
G1 X77.663 Y79.439 E0.02469
G1 X78.387 Y79.151 E0.02442
G1 X79.122 Y78.893 E0.02442
G1 X79.866 Y78.664 E0.02439
G1 X80.999 Y78.377 E0.03667
G1 X82.147 Y78.157 E0.03663
G1 X83.306 Y78.007 E0.03663
G1 X84.472 Y77.926 E0.03667
G1 X85.253 Y77.910 E0.02449
G1 X95.130 Y77.914 E0.30969
G1 X95.917 Y77.945 E0.02469
G1 X97.082 Y78.049 E0.03667
G1 X98.238 Y78.223 E0.03667
G1 X99.000 Y78.377 E0.02436
G1 X100.134 Y78.664 E0.03670
G1 X100.877 Y78.893 E0.02436
G1 X101.968 Y79.289 E0.03641
G1 X102.693 Y79.593 E0.02465
G1 X103.749 Y80.099 E0.03670
G1 X104.432 Y80.470 E0.02439
G1 X105.093 Y80.863 E0.02410
G1 X106.075 Y81.515 E0.03696
G1 X107.008 Y82.219 E0.03663
G1 X107.898 Y82.977 E0.03667
G1 X108.464 Y83.511 E0.02439
G1 X109.008 Y84.066 E0.02439
G1 X109.785 Y84.942 E0.03670
G1 X110.272 Y85.549 E0.02441
G1 X110.756 Y86.197 E0.02536
M204 S1250
G1 X110.995 Y86.590 F9000.000
G1 X110.345 Y86.641
M204 S800
;TYPE:Gap fill
;WIDTH:0.0990577
G1 F1200.000
G1 X109.717 Y85.800 E0.00490
M204 S1250
G1 X109.515 Y85.548 F9000.000
M204 S800
;WIDTH:0.100074
G1 F1200.000
G1 X109.131 Y85.094 E0.00282
M204 S1250
G1 X108.646 Y84.547 F9000.000
M204 S800
;WIDTH:0.0956028
G1 F1200.000
G1 X108.482 Y84.373 E0.00105
M204 S1250
G1 X108.199 Y84.084 F9000.000
M204 S800
;WIDTH:0.0991482
G1 F1200.000
G1 X107.541 Y83.453 E0.00426
M204 S1250
G1 X106.731 Y82.758 F9000.000
M204 S800
;WIDTH:0.0977629
G1 F1200.000
G1 X106.355 Y82.467 E0.00217
M204 S1250
G1 X105.780 Y82.032 F9000.000
M204 S800
;WIDTH:0.0946319
G1 F1200.000
G1 X105.659 Y81.948 E0.00063
M204 S1250
G1 X104.981 Y81.497 F9000.000
M204 S800
;WIDTH:0.100167
G1 F1200.000
G1 X104.430 Y81.156 E0.00308
M204 S1250
G1 X104.188 Y81.011 F9000.000
M204 S800
;WIDTH:0.0946502
G1 F1200.000
G1 X103.356 Y80.566 E0.00406
M204 S1250
G1 X102.343 Y80.086 F9000.000
M204 S800
;WIDTH:0.0993752
G1 F1200.000
G1 X101.586 Y79.778 E0.00384
M204 S1250
G1 X100.425 Y79.372 F9000.000
M204 S800
;WIDTH:0.100242
G1 F1200.000
G1 X99.754 Y79.177 E0.00333
M204 S1250
G1 X98.933 Y78.969 F9000.000
M204 S800
;WIDTH:0.0940776
G1 F1200.000
G1 X98.820 Y78.943 E0.00049
M204 S1250
G1 X98.281 Y78.834 F9000.000
M204 S800
;WIDTH:0.0945909
G1 F1200.000
G1 X98.079 Y78.796 E0.00088
M204 S1250
G1 X97.362 Y78.689 F9000.000
M204 S800
;WIDTH:0.0975968
G1 F1200.000
G1 X96.895 Y78.625 E0.00214
M204 S1250
G1 X95.825 Y78.532 F9000.000
M204 S800
;WIDTH:0.0989288
G1 F1200.000
G1 X94.911 Y78.504 E0.00426
M204 S1250
G1 E-2.24000 F4200.000
;WIPE_START
G1 F7200.000
G1 X95.825 Y78.532 E-0.50694
;WIPE_END
G1 E-0.45306 F4200.000
G1 Z0.400 F9000.000
G1 X88.048 Y78.502
G1 Z0.200
G1 E3.20000 F2400.000
M204 S800
;WIDTH:0.0955062
G1 F1200.000
G1 X85.121 Y78.503 E0.01280
M204 S1250
G1 X84.617 Y78.513 F9000.000
M204 S800
;WIDTH:0.0953666
G1 F1200.000
G1 X84.400 Y78.522 E0.00095
M204 S1250
