; generated by PrusaSlicer 2.3.0+win64 on 2021-07-31 at 18:35:14 UTC


;
;

;
;
; 

; external perimeters extrusion width = 0.45mm
; perimeters extrusion width = 0.45mm
; infill extrusion width = 0.45mm
; solid infill extrusion width = 0.45mm
; top infill extrusion width = 0.40mm
; first layer extrusion width = 0.42mm

M73 P0 R21
M201 X1250 Y1250 Z400 E5000 ; sets maximum accelerations, mm/sec^2
M203 X180 Y180 Z12 E80 ; sets maximum feedrates, mm/sec
M204 P1250 R1250 T1250 ; sets acceleration (P, T) and retract acceleration (R), mm/sec^2
M205 X8.00 Y8.00 Z2.00 E10.00 ; sets the jerk limits, mm/sec
M205 S0 T0 ; sets the minimum extruding and travel feed rate, mm/sec
M107
;TYPE:Custom
G90 ; use absolute coordinates
M83 ; extruder relative mode
M104 S170 ; set extruder temp for bed leveling
M140 S60 ; set bed temp
M109 R170 ; wait for bed leveling temp
M190 S60 ; wait for bed temp
G28 ; home all without mesh bed level
G29 ; mesh bed leveling 
M104 S215 ; set extruder temp
G92 E0.0
G1 Y-2.0 X179 F2400
G1 Z3 F720
M109 S215 ; wait for extruder temp

; intro line
G1 X170 F1000
G1 Z0.2 F720
G1 X110.0 E8.0 F900
G1 X40.0 E10.0 F700
G92 E0.0

M221 S95 ; set flow
G21 ; set units to millimeters
G90 ; use absolute coordinates
M83 ; use relative distances for extrusion
M900 K0.2 ; Filament gcode LA 1.5
; ; Filament gcode LA 1.0
;LAYER_CHANGE
;Z:0.2
;HEIGHT:0.2
;BEFORE_LAYER_CHANGE
G92 E0.0
;0.2


M73 P1 R21
G1 E-3.20000 F4200.000
G1 Z0.200 F9000.000
;AFTER_LAYER_CHANGE
;0.2
G1 Z0.400
G1 X80.850 Y81.118
G1 Z0.200
G1 E3.20000 F2400.000
M204 S800
;TYPE:Skirt
;WIDTH:0.42
G1 F1200.000
G1 X81.648 Y80.586 E0.03006
G1 X89.203 Y77.456 E0.25643
G1 X89.717 Y77.302 E0.01681
G1 X90.255 Y77.249 E0.01694
G1 X91.422 Y77.326 E0.03668
G1 X92.518 Y77.498 E0.03479
M73 P1 R20
G1 X93.846 Y77.840 E0.04299
G1 X94.903 Y78.227 E0.03530
G1 X95.909 Y78.698 E0.03482
G1 X97.095 Y79.402 E0.04325
G1 X97.993 Y80.062 E0.03495
G1 X98.882 Y80.851 E0.03726
G1 X99.414 Y81.648 E0.03006
G1 X102.546 Y89.208 E0.25656
G1 X102.705 Y89.750 E0.01771
G1 X102.750 Y90.313 E0.01771
G1 X102.665 Y91.503 E0.03741
G1 X102.485 Y92.603 E0.03495
G1 X102.130 Y93.939 E0.04334
G1 X101.744 Y94.976 E0.03469
G1 X101.260 Y95.989 E0.03520
G1 X100.555 Y97.160 E0.04286
G1 X99.887 Y98.057 E0.03508
G1 X99.144 Y98.888 E0.03494
G1 X98.349 Y99.416 E0.02993
G1 X90.792 Y102.547 E0.25645
G1 X90.251 Y102.706 E0.01771
G1 X89.688 Y102.751 E0.01771
G1 X88.409 Y102.655 E0.04019
G1 X87.314 Y102.469 E0.03482
G1 X86.248 Y102.190 E0.03456
G1 X84.961 Y101.717 E0.04299
G1 X83.010 Y100.669 E0.06944
G1 X81.908 Y99.859 E0.04286
G1 X81.113 Y99.145 E0.03352
G1 X80.584 Y98.350 E0.02993
G1 X77.454 Y90.793 E0.25647
G1 X77.295 Y90.251 E0.01771
G1 X77.250 Y89.688 E0.01771
G1 X77.355 Y88.337 E0.04249
G1 X77.541 Y87.274 E0.03383
G1 X78.201 Y85.157 E0.06954
G1 X78.789 Y83.919 E0.04299
G1 X79.359 Y82.970 E0.03469
G1 X80.008 Y82.075 E0.03467
G1 X80.811 Y81.163 E0.03809
M204 S1250
G1 X81.093 Y81.412 F9000.000
M204 S800
G1 F1200.000
G1 X81.807 Y80.928 E0.02703
G1 X89.344 Y77.806 E0.25579
G1 X90.253 Y77.627 E0.02907
G1 X92.441 Y77.867 E0.06902
G1 X93.736 Y78.201 E0.04192
G1 X94.757 Y78.574 E0.03409
G1 X95.732 Y79.031 E0.03375
G1 X96.885 Y79.715 E0.04204
G1 X97.756 Y80.355 E0.03387
G1 X98.609 Y81.111 E0.03577
G1 X99.071 Y81.805 E0.02614
G1 X102.196 Y89.348 E0.25598
G1 X102.334 Y89.818 E0.01538
G1 X102.373 Y90.304 E0.01526
G1 X102.290 Y91.461 E0.03640
G1 X102.117 Y92.524 E0.03375
G1 X101.771 Y93.826 E0.04226
G1 X101.397 Y94.828 E0.03351
G1 X100.929 Y95.810 E0.03411
G1 X100.241 Y96.952 E0.04180
G1 X98.884 Y98.614 E0.06728
G1 X98.193 Y99.073 E0.02602
G1 X90.649 Y102.198 E0.25602
G1 X89.697 Y102.374 E0.03036
G1 X88.453 Y102.280 E0.03911
G1 X87.396 Y102.100 E0.03363
G1 X86.362 Y101.831 E0.03351
G1 X85.107 Y101.369 E0.04192
G1 X83.219 Y100.355 E0.06719
G1 X82.364 Y99.741 E0.03298
G1 X81.387 Y98.886 E0.04073
G1 X80.928 Y98.194 E0.02602
G1 X77.803 Y90.650 E0.25605
G1 X77.627 Y89.697 E0.03036
G1 X77.729 Y88.382 E0.04136
G1 X77.910 Y87.351 E0.03281
G1 X78.549 Y85.303 E0.06729
G1 X79.123 Y84.095 E0.04193
G1 X79.673 Y83.178 E0.03351
G1 X80.299 Y82.314 E0.03347
G1 X81.053 Y81.457 E0.03580
M204 S1250
; printing object OnDiskCoupler01.stl id:0 copy 0
G1 E-2.24000 F4200.000
;WIPE_START
G1 F7200.000
G1 X81.807 Y80.928 E-0.51001
G1 X82.477 Y80.651 E-0.40199
;WIPE_END
G1 E-0.04800 F4200.000
G1 Z0.400 F9000.000
G1 X88.342 Y93.125
G1 Z0.200
G1 E3.20000 F2400.000
M204 S800
;TYPE:Perimeter
G1 F1200.000
G1 X88.646 Y93.269 E0.01055
G1 X88.963 Y93.382 E0.01055
G1 X88.963 Y99.161 E0.18119
M73 P2 R20
G1 X88.068 Y99.008 E0.02847
G1 X87.314 Y98.813 E0.02441
G1 X86.580 Y98.554 E0.02441
G1 X85.870 Y98.235 E0.02441
G1 X85.189 Y97.857 E0.02441
G1 X84.540 Y97.421 E0.02454
G1 X84.263 Y97.205 E0.01102
G1 X88.300 Y93.167 E0.17901
M204 S1250
G1 X88.283 Y92.651 F9000.000
M204 S800
;TYPE:External perimeter
G1 F1200.000
G1 X88.503 Y92.784 E0.00808
G1 X88.790 Y92.920 E0.00996
G1 X89.092 Y93.028 E0.01003
G1 X89.340 Y93.083 E0.00797
G1 X89.340 Y99.561 E0.20310
G1 X88.787 Y99.513 E0.01739
G1 X87.988 Y99.377 E0.02541
G1 X87.204 Y99.174 E0.02541
G1 X86.440 Y98.905 E0.02541
G1 X85.700 Y98.572 E0.02541
G1 X84.992 Y98.179 E0.02541
G1 X84.318 Y97.726 E0.02545
G1 X83.704 Y97.230 E0.02476
G1 X88.240 Y92.693 E0.20116
M204 S1250
G1 X88.398 Y92.881 F9000.000
G1 X88.113 Y93.514
M204 S800
;TYPE:Solid infill
;WIDTH:0.430001
G1 F1200.000
G1 X88.680 Y94.081 E0.02581
G1 X88.680 Y94.629 E0.01762
G1 X87.959 Y93.908 E0.03281
G1 X87.685 Y94.181 E0.01246
G1 X88.680 Y95.176 E0.04527
G1 X88.680 Y95.723 E0.01762
G1 X87.412 Y94.455 E0.05773
G1 X87.138 Y94.729 E0.01246
G1 X88.680 Y96.271 E0.07018
G1 X88.680 Y96.818 E0.01762
G1 X86.864 Y95.003 E0.08264
G1 X86.591 Y95.276 E0.01246
G1 X88.680 Y97.366 E0.09510
G1 X88.680 Y97.913 E0.01762
G1 X86.317 Y95.550 E0.10756
G1 X86.043 Y95.824 E0.01246
G1 X88.680 Y98.460 E0.12002
G1 X88.680 Y98.826 E0.01175
G1 X88.460 Y98.788 E0.00718
G1 X85.770 Y96.097 E0.12247
G1 X85.496 Y96.371 E0.01246
G1 X87.761 Y98.636 E0.10311
G1 X87.397 Y98.542 E0.01212
G1 X86.969 Y98.392 E0.01459
G1 X85.222 Y96.645 E0.07951
G1 X84.948 Y96.919 E0.01246
G1 X86.363 Y98.333 E0.06438
M204 S1250
G1 E-2.24000 F4200.000
;WIPE_START
G1 F7200.000
G1 X85.199 Y97.169 E-0.91200
;WIPE_END
G1 E-0.04800 F4200.000
G1 Z0.400 F9000.000
G1 X93.124 Y91.658
G1 Z0.200
G1 E3.20000 F2400.000
M204 S800
;TYPE:Perimeter
;WIDTH:0.42
G1 F1200.000
G1 X93.268 Y91.354 E0.01055
G1 X93.381 Y91.038 E0.01055
G1 X99.146 Y91.038 E0.18073
G1 X99.112 Y91.358 E0.01011
G1 X98.964 Y92.123 E0.02441
G1 X98.753 Y92.872 E0.02441
G1 X98.480 Y93.601 E0.02441
G1 X98.145 Y94.304 E0.02441
G1 X97.753 Y94.976 E0.02441
G1 X97.202 Y95.736 E0.02943
G1 X93.167 Y91.701 E0.17894
M204 S1250
G1 X92.647 Y91.714 F9000.000
M204 S800
;TYPE:External perimeter
G1 F1200.000
G1 X92.783 Y91.499 E0.00797
G1 X92.920 Y91.210 E0.01003
G1 X93.027 Y90.909 E0.01003
G1 X93.083 Y90.660 E0.00797
G1 X99.565 Y90.660 E0.20324
G1 X99.485 Y91.414 E0.02375
G1 X99.332 Y92.210 E0.02541
G1 X99.112 Y92.990 E0.02541
G1 X98.827 Y93.748 E0.02541
G1 X98.479 Y94.480 E0.02541
G1 X98.071 Y95.180 E0.02541
G1 X97.605 Y95.843 E0.02541
G1 X97.227 Y96.294 E0.01845
G1 X92.689 Y91.756 E0.20121
M204 S1250
G1 X92.877 Y91.606 F9000.000
G1 E-2.24000 F4200.000
;WIPE_START
G1 F7200.000
G1 X92.783 Y91.499 E-0.15173
G1 X92.920 Y91.210 E-0.17725
G1 X93.027 Y90.909 E-0.17725
G1 X93.083 Y90.660 E-0.14093
G1 X93.561 Y90.660 E-0.26484
;WIPE_END
G1 E-0.04800 F4200.000
G1 Z0.400 F9000.000
G1 X98.199 Y91.151
G1 Z0.200
G1 E3.20000 F2400.000
M204 S800
;TYPE:Solid infill
;WIDTH:0.448525
G1 F1200.000
G1 X98.756 Y91.708 E0.02657
G1 X98.655 Y92.180 E0.01628
G1 X97.795 Y91.320 E0.04099
G1 X97.222 Y91.320 E0.01935
G1 X98.529 Y92.627 E0.06233
G1 X98.383 Y93.055 E0.01524
G1 X96.648 Y91.320 E0.08273
G1 X96.074 Y91.320 E0.01935
G1 X98.226 Y93.472 E0.10262
G1 X98.042 Y93.862 E0.01454
G1 X95.501 Y91.320 E0.12122
G1 X94.927 Y91.320 E0.01935
G1 X97.852 Y94.245 E0.13951
G1 X97.641 Y94.607 E0.01414
G1 X94.354 Y91.320 E0.15678
G1 X93.780 Y91.320 E0.01935
G1 X97.417 Y94.958 E0.17348
G1 X97.176 Y95.290 E0.01385
G1 X93.344 Y91.458 E0.18276
M204 S1250
G1 E-2.24000 F4200.000
;WIPE_START
G1 F7200.000
G1 X94.508 Y92.622 E-0.91200
;WIPE_END
G1 E-0.04800 F4200.000
G1 Z0.400 F9000.000
G1 X86.618 Y88.963
G1 Z0.200
G1 E3.20000 F2400.000
M204 S800
;TYPE:Perimeter
;WIDTH:0.42
G1 F1200.000
G1 X80.853 Y88.963 E0.18078
G1 X80.870 Y88.771 E0.00607
G1 X81.006 Y88.005 E0.02439
G1 X81.207 Y87.253 E0.02441
G1 X81.470 Y86.520 E0.02441
G1 X81.796 Y85.809 E0.02454
G1 X82.043 Y85.357 E0.01615
G1 X82.317 Y84.916 E0.01628
G1 X82.796 Y84.263 E0.02538
G1 X86.875 Y88.343 E0.18088
G1 X86.731 Y88.647 E0.01055
G1 X86.639 Y88.907 E0.00866
M204 S1250
G1 X86.917 Y89.340 F9000.000
M204 S800
;TYPE:External perimeter
G1 F1200.000
G1 X80.440 Y89.340 E0.20307
G1 X80.496 Y88.721 E0.01951
G1 X80.638 Y87.923 E0.02540
G1 X80.847 Y87.140 E0.02541
G1 X81.121 Y86.377 E0.02541
G1 X81.459 Y85.639 E0.02545
G1 X81.717 Y85.167 E0.01690
G1 X82.003 Y84.708 E0.01694
G1 X82.314 Y84.266 E0.01694
G1 X82.770 Y83.704 E0.02270
G1 X87.353 Y88.287 E0.20323
G1 X87.217 Y88.502 E0.00797
G1 X87.080 Y88.791 E0.01003
G1 X86.973 Y89.092 E0.01003
G1 X86.930 Y89.282 E0.00609
M204 S1250
G1 X86.591 Y89.108 F9000.000
G1 X86.655 Y88.543
M204 S800
;TYPE:Solid infill
;WIDTH:0.449211
G1 F1200.000
G1 X82.820 Y84.708 E0.18321
G1 X82.577 Y85.040 E0.01389
G1 X86.218 Y88.681 E0.17395
G1 X85.644 Y88.681 E0.01941
G1 X82.355 Y85.392 E0.15714
G1 X82.146 Y85.758 E0.01424
G1 X85.069 Y88.681 E0.13964
G1 X84.494 Y88.681 E0.01941
G1 X81.955 Y86.141 E0.12133
M73 P3 R20
G1 X81.774 Y86.535 E0.01464
G1 X83.920 Y88.681 E0.10250
G1 X83.345 Y88.681 E0.01941
G1 X81.616 Y86.951 E0.08263
G1 X81.466 Y87.376 E0.01523
G1 X82.771 Y88.681 E0.06231
G1 X82.196 Y88.681 E0.01941
G1 X81.346 Y87.830 E0.04064
G1 X81.241 Y88.300 E0.01627
G1 X81.791 Y88.850 E0.02629
M204 S1250
G1 E-2.24000 F4200.000
;WIPE_START
G1 F7200.000
G1 X81.241 Y88.300 E-0.43120
G1 X81.346 Y87.830 E-0.26683
G1 X81.619 Y88.103 E-0.21397
;WIPE_END
G1 E-0.04800 F4200.000
G1 Z0.400 F9000.000
G1 X91.037 Y86.619
G1 Z0.200
G1 E3.20000 F2400.000
M204 S800
;TYPE:Perimeter
;WIDTH:0.42
G1 F1200.000
G1 X91.037 Y80.854 E0.18076
G1 X91.293 Y80.879 E0.00808
G1 X92.059 Y81.021 E0.02441
G1 X92.810 Y81.227 E0.02441
G1 X93.540 Y81.496 E0.02441
G1 X94.246 Y81.825 E0.02441
G1 X94.921 Y82.213 E0.02441
G1 X95.560 Y82.655 E0.02437
G1 X95.734 Y82.800 E0.00710
G1 X91.658 Y86.876 E0.18074
G1 X91.354 Y86.732 E0.01055
G1 X91.093 Y86.639 E0.00866
M204 S1250
G1 X90.660 Y86.918 F9000.000
M204 S800
;TYPE:External perimeter
G1 F1200.000
G1 X90.660 Y80.438 E0.20317
G1 X91.346 Y80.506 E0.02163
G1 X92.143 Y80.653 E0.02541
G1 X92.925 Y80.868 E0.02541
G1 X93.685 Y81.147 E0.02541
G1 X94.420 Y81.490 E0.02541
G1 X95.122 Y81.893 E0.02541
G1 X95.788 Y82.355 E0.02539
G1 X96.292 Y82.775 E0.02058
G1 X91.713 Y87.354 E0.20305
G1 X91.498 Y87.218 E0.00797
G1 X91.209 Y87.081 E0.01003
G1 X90.908 Y86.973 E0.01003
G1 X90.718 Y86.931 E0.00609
M204 S1250
G1 X90.892 Y86.592 F9000.000
G1 E-2.24000 F4200.000
;WIPE_START
G1 F7200.000
G1 X90.704 Y85.285 E-0.91200
;WIPE_END
G1 E-0.04800 F4200.000
G1 Z0.400 F9000.000
G1 X93.654 Y81.673
G1 Z0.200
G1 E3.20000 F2400.000
M204 S800
;TYPE:Solid infill
;WIDTH:0.430612
G1 F1200.000
G1 X95.057 Y83.077 E0.06398
G1 X94.783 Y83.351 E0.01250
G1 X93.048 Y81.616 E0.07909
G1 X92.723 Y81.497 E0.01116
G1 X92.251 Y81.367 E0.01579
G1 X94.509 Y83.625 E0.10294
G1 X94.235 Y83.899 E0.01250
G1 X91.550 Y81.215 E0.12239
G1 X91.320 Y81.172 E0.00755
G1 X91.320 Y81.532 E0.01163
G1 X93.961 Y84.173 E0.12039
G1 X93.686 Y84.447 E0.01250
G1 X91.320 Y82.081 E0.10789
G1 X91.320 Y82.629 E0.01767
G1 X93.412 Y84.722 E0.09540
G1 X93.138 Y84.996 E0.01250
G1 X91.320 Y83.177 E0.08290
G1 X91.320 Y83.726 E0.01767
G1 X92.864 Y85.270 E0.07040
G1 X92.590 Y85.544 E0.01250
G1 X91.320 Y84.274 E0.05790
G1 X91.320 Y84.822 E0.01767
G1 X92.316 Y85.818 E0.04541
G1 X92.042 Y86.092 E0.01250
G1 X91.320 Y85.370 E0.03291
G1 X91.320 Y85.919 E0.01767
G1 X91.887 Y86.486 E0.02588
M204 S1250
; stop printing object OnDiskCoupler01.stl id:0 copy 0
M106 S84.15
;LAYER_CHANGE
;Z:0.4
;HEIGHT:0.2
;BEFORE_LAYER_CHANGE
G92 E0.0
;0.4


G1 E-2.24000 F4200.000
;WIPE_START
G1 F7200.000
G1 X91.320 Y85.919 E-0.44488
G1 X91.320 Y85.370 E-0.30384
G1 X91.528 Y85.579 E-0.16328
;WIPE_END
G1 E-0.04800 F4200.000
G1 Z0.400 F9000.000
;AFTER_LAYER_CHANGE
;0.4
M104 S210 ; set temperature
G1 Z0.600
G1 X98.882 Y80.851
G1 Z0.400
G1 E3.20000 F2400.000
;TYPE:Skirt
;WIDTH:0.42
G1 X99.414 Y81.648 E0.03006
G1 X102.546 Y89.208 E0.25656
G1 X102.705 Y89.750 E0.01771
G1 X102.750 Y90.313 E0.01771
G1 X102.665 Y91.503 E0.03741
G1 X102.485 Y92.603 E0.03495
G1 X102.130 Y93.939 E0.04334
G1 X101.744 Y94.976 E0.03469
G1 X101.260 Y95.989 E0.03520
G1 X100.555 Y97.160 E0.04286
G1 X99.887 Y98.057 E0.03508
G1 X99.144 Y98.888 E0.03494
G1 X98.349 Y99.416 E0.02993
G1 X90.792 Y102.547 E0.25645
G1 X90.251 Y102.706 E0.01771
G1 X89.688 Y102.751 E0.01771
G1 X88.409 Y102.655 E0.04019
G1 X87.314 Y102.469 E0.03482
G1 X86.248 Y102.190 E0.03456
G1 X84.961 Y101.717 E0.04299
G1 X83.010 Y100.669 E0.06944
G1 X81.908 Y99.859 E0.04286
G1 X81.113 Y99.145 E0.03352
G1 X80.584 Y98.350 E0.02993
G1 X77.454 Y90.793 E0.25647
G1 X77.295 Y90.251 E0.01771
G1 X77.250 Y89.688 E0.01771
G1 X77.355 Y88.337 E0.04249
G1 X77.541 Y87.274 E0.03383
G1 X78.201 Y85.157 E0.06954
G1 X78.789 Y83.919 E0.04299
G1 X79.359 Y82.970 E0.03469
G1 X80.008 Y82.075 E0.03467
G1 X80.850 Y81.118 E0.03997
G1 X81.648 Y80.586 E0.03006
G1 X89.203 Y77.456 E0.25643
G1 X89.717 Y77.302 E0.01681
G1 X90.255 Y77.249 E0.01694
G1 X91.422 Y77.326 E0.03668
G1 X92.518 Y77.498 E0.03479
G1 X93.846 Y77.840 E0.04299
G1 X94.903 Y78.227 E0.03530
G1 X95.909 Y78.698 E0.03482
G1 X97.095 Y79.402 E0.04325
G1 X97.993 Y80.062 E0.03495
G1 X98.837 Y80.811 E0.03538
G1 X98.588 Y81.092 F9000.000
G1 F2400.000
G1 X99.071 Y81.805 E0.02701
G1 X102.196 Y89.348 E0.25598
G1 X102.334 Y89.818 E0.01538
G1 X102.373 Y90.304 E0.01526
G1 X102.290 Y91.461 E0.03640
G1 X102.117 Y92.524 E0.03375
G1 X101.771 Y93.826 E0.04226
G1 X101.397 Y94.828 E0.03351
G1 X100.929 Y95.810 E0.03411
G1 X100.241 Y96.952 E0.04180
G1 X98.884 Y98.614 E0.06728
G1 X98.193 Y99.073 E0.02602
G1 X90.649 Y102.198 E0.25602
G1 X89.697 Y102.374 E0.03036
G1 X88.453 Y102.280 E0.03911
G1 X87.396 Y102.100 E0.03363
G1 X86.362 Y101.831 E0.03351
G1 X85.107 Y101.369 E0.04192
G1 X83.219 Y100.355 E0.06719
G1 X82.364 Y99.741 E0.03298
G1 X81.387 Y98.886 E0.04073
G1 X80.928 Y98.194 E0.02602
G1 X77.803 Y90.650 E0.25605
G1 X77.627 Y89.697 E0.03036
G1 X77.729 Y88.382 E0.04136
G1 X77.910 Y87.351 E0.03281
G1 X78.549 Y85.303 E0.06729
G1 X79.123 Y84.095 E0.04193
G1 X79.673 Y83.178 E0.03351
G1 X80.299 Y82.314 E0.03347
G1 X81.112 Y81.390 E0.03860
G1 X81.807 Y80.928 E0.02614
G1 X89.344 Y77.806 E0.25579
G1 X90.253 Y77.627 E0.02907
G1 X92.441 Y77.867 E0.06902
G1 X93.736 Y78.201 E0.04192
G1 X94.757 Y78.574 E0.03409
G1 X95.732 Y79.031 E0.03375
G1 X96.885 Y79.715 E0.04204
G1 X97.756 Y80.355 E0.03387
G1 X98.543 Y81.053 E0.03299
; printing object OnDiskCoupler01.stl id:0 copy 0
G1 E-2.24000 F4200.000
;WIPE_START
G1 F7200.000
G1 X99.071 Y81.805 E-0.50962
G1 X99.349 Y82.476 E-0.40238
;WIPE_END
G1 E-0.04800 F4200.000
G1 Z0.600 F9000.000
G1 X99.318 Y90.883
G1 Z0.400
G1 E3.20000 F2400.000
M204 S800
;TYPE:Perimeter
;WIDTH:0.45
G1 F1500.000
G1 X99.300 Y91.120 E0.00805
G1 X99.172 Y91.905 E0.02694
G1 X99.051 Y92.415 E0.01772
G1 X98.908 Y92.896 E0.01701
G1 X98.622 Y93.662 E0.02765
G1 X98.282 Y94.376 E0.02678
G1 X97.883 Y95.060 E0.02679
G1 X97.426 Y95.711 E0.02694
G1 X97.216 Y95.969 E0.01125
G1 X92.930 Y91.683 E0.20515
G1 X93.126 Y91.295 E0.01471
G1 X93.262 Y90.883 E0.01471
G1 X99.258 Y90.883 E0.20298
M204 S1250
G1 X99.758 Y90.475 F9000.000
M204 S800
;TYPE:External perimeter
G1 F1500.000
G1 X99.705 Y91.168 E0.02352
G1 X99.571 Y91.985 E0.02801
G1 X99.445 Y92.519 E0.01859
G1 X99.295 Y93.026 E0.01788
G1 X98.997 Y93.821 E0.02872
G1 X98.643 Y94.567 E0.02795
G1 X98.226 Y95.280 E0.02796
G1 X97.750 Y95.957 E0.02801
G1 X97.237 Y96.566 E0.02696
