; generated by PrusaSlicer 2.3.0+win64 on 2021-07-29 at 18:45:46 UTC


;
;

;
;
; 

; external perimeters extrusion width = 0.45mm
; perimeters extrusion width = 0.45mm
; infill extrusion width = 0.45mm
; solid infill extrusion width = 0.45mm
; top infill extrusion width = 0.40mm
; first layer extrusion width = 0.42mm

M73 P0 R13
M201 X1250 Y1250 Z400 E5000 ; sets maximum accelerations, mm/sec^2
M203 X180 Y180 Z12 E80 ; sets maximum feedrates, mm/sec
M204 P1250 R1250 T1250 ; sets acceleration (P, T) and retract acceleration (R), mm/sec^2
M205 X8.00 Y8.00 Z2.00 E10.00 ; sets the jerk limits, mm/sec
M205 S0 T0 ; sets the minimum extruding and travel feed rate, mm/sec
M107
;TYPE:Custom
G90 ; use absolute coordinates
M83 ; extruder relative mode
M104 S170 ; set extruder temp for bed leveling
M140 S60 ; set bed temp
M109 R170 ; wait for bed leveling temp
M190 S60 ; wait for bed temp
G28 ; home all without mesh bed level
G29 ; mesh bed leveling 
M104 S215 ; set extruder temp
G92 E0.0
G1 Y-2.0 X179 F2400
M73 P0 R12
G1 Z3 F720
M109 S215 ; wait for extruder temp

; intro line
G1 X170 F1000
G1 Z0.2 F720
G1 X110.0 E8.0 F900
M73 P1 R12
G1 X40.0 E10.0 F700
G92 E0.0

M221 S95 ; set flow
G21 ; set units to millimeters
G90 ; use absolute coordinates
M83 ; use relative distances for extrusion
M900 K0.2 ; Filament gcode LA 1.5
; ; Filament gcode LA 1.0
;LAYER_CHANGE
;Z:0.2
;HEIGHT:0.2
;BEFORE_LAYER_CHANGE
G92 E0.0
;0.2


M73 P2 R12
G1 E-3.20000 F4200.000
G1 Z0.200 F9000.000
;AFTER_LAYER_CHANGE
;0.2
G1 Z0.400
G1 X80.981 Y80.982
G1 Z0.200
G1 E3.20000 F2400.000
M204 S800
;TYPE:Skirt
;WIDTH:0.42
G1 F1200.000
G1 X81.815 Y80.410 E0.03170
G1 X88.946 Y77.455 E0.24203
G1 X89.463 Y77.299 E0.01694
G1 X90.005 Y77.246 E0.01707
G1 X91.394 Y77.322 E0.04362
G1 X92.494 Y77.492 E0.03491
G1 X93.583 Y77.760 E0.03516
G1 X94.896 Y78.223 E0.04364
G1 X95.912 Y78.699 E0.03520
G1 X97.109 Y79.411 E0.04364
G1 X98.009 Y80.075 E0.03508
G1 X99.021 Y80.984 E0.04264
G1 X99.590 Y81.814 E0.03157
G1 X102.545 Y88.946 E0.24204
G1 X102.701 Y89.463 E0.01694
G1 X102.754 Y90.001 E0.01694
G1 X102.698 Y91.193 E0.03742
G1 X102.492 Y92.570 E0.04367
G1 X102.217 Y93.661 E0.03526
G1 X101.749 Y94.964 E0.04342
G1 X101.261 Y95.989 E0.03559
G1 X100.546 Y97.173 E0.04338
G1 X99.877 Y98.070 E0.03508
G1 X99.018 Y99.019 E0.04013
G1 X98.184 Y99.590 E0.03170
G1 X91.054 Y102.545 E0.24199
G1 X90.537 Y102.701 E0.01694
G1 X89.999 Y102.754 E0.01694
G1 X88.767 Y102.694 E0.03867
G1 X87.655 Y102.537 E0.03523
G1 X86.315 Y102.210 E0.04325
G1 X85.237 Y101.831 E0.03581
G1 X83.994 Y101.251 E0.04303
G1 X83.020 Y100.675 E0.03546
G1 X81.894 Y99.847 E0.04383
G1 X80.980 Y99.017 E0.03870
G1 X80.411 Y98.187 E0.03157
G1 X77.455 Y91.054 E0.24208
G1 X77.299 Y90.537 E0.01694
G1 X77.246 Y89.999 E0.01694
G1 X77.314 Y88.685 E0.04125
G1 X77.477 Y87.586 E0.03486
G1 X77.815 Y86.233 E0.04373
G1 X78.194 Y85.175 E0.03524
G1 X78.786 Y83.924 E0.04338
G1 X79.364 Y82.962 E0.03520
G1 X80.201 Y81.836 E0.04398
G1 X80.940 Y81.026 E0.03438
M204 S1250
G1 X81.219 Y81.280 F9000.000
M204 S800
G1 F1200.000
G1 X81.973 Y80.752 E0.02887
G1 X89.090 Y77.804 E0.24155
G1 X90.004 Y77.623 E0.02919
G1 X91.357 Y77.698 E0.04250
G1 X92.419 Y77.862 E0.03370
G1 X93.473 Y78.121 E0.03404
G1 X94.754 Y78.572 E0.04257
G1 X95.732 Y79.030 E0.03387
G1 X96.901 Y79.725 E0.04264
G1 X97.770 Y80.366 E0.03387
G1 X98.753 Y81.249 E0.04141
G1 X99.248 Y81.975 E0.02755
G1 X102.196 Y89.090 E0.24150
G1 X102.377 Y90.000 E0.02907
G1 X102.323 Y91.155 E0.03627
G1 X102.123 Y92.493 E0.04242
G1 X101.857 Y93.549 E0.03412
G1 X101.401 Y94.817 E0.04225
G1 X100.929 Y95.809 E0.03446
G1 X100.232 Y96.964 E0.04228
G1 X99.586 Y97.829 E0.03387
G1 X98.753 Y98.751 E0.03894
G1 X97.981 Y99.267 E0.02914
G1 X90.864 Y102.215 E0.24153
M73 P3 R12
G1 X90.000 Y102.377 E0.02755
G1 X88.804 Y102.319 E0.03754
G1 X87.726 Y102.166 E0.03414
G1 X86.420 Y101.848 E0.04216
G1 X85.386 Y101.485 E0.03436
G1 X84.168 Y100.917 E0.04215
G1 X83.232 Y100.362 E0.03410
G1 X82.134 Y99.556 E0.04271
G1 X81.249 Y98.753 E0.03748
G1 X80.733 Y97.981 E0.02912
G1 X77.785 Y90.864 E0.24153
G1 X77.623 Y90.000 E0.02755
G1 X77.689 Y88.720 E0.04018
G1 X77.846 Y87.659 E0.03365
G1 X78.177 Y86.340 E0.04262
G1 X78.542 Y85.319 E0.03400
G1 X79.120 Y84.100 E0.04228
G1 X79.677 Y83.171 E0.03398
G1 X80.493 Y82.074 E0.04286
G1 X81.178 Y81.325 E0.03184
M204 S1250
; printing object OnDiskWasher08.stl id:0 copy 0
G1 E-2.24000 F4200.000
;WIPE_START
G1 F7200.000
G1 X81.973 Y80.752 E-0.54276
G1 X82.589 Y80.497 E-0.36924
;WIPE_END
G1 E-0.04800 F4200.000
G1 Z0.400 F9000.000
G1 X88.301 Y92.812
G1 Z0.200
G1 E3.20000 F2400.000
M204 S800
;TYPE:Perimeter
G1 F1200.000
G1 X88.741 Y93.039 E0.01552
G1 X89.213 Y93.189 E0.01552
G1 X89.213 Y99.176 E0.18772
G1 X88.839 Y99.139 E0.01178
G1 X88.068 Y99.007 E0.02454
G1 X87.314 Y98.812 E0.02441
G1 X86.580 Y98.554 E0.02441
G1 X85.866 Y98.233 E0.02454
G1 X85.412 Y97.989 E0.01615
G1 X84.973 Y97.720 E0.01615
G1 X84.333 Y97.263 E0.02467
G1 X84.068 Y97.045 E0.01076
G1 X88.259 Y92.854 E0.18582
M204 S1250
G1 X88.255 Y92.325 F9000.000
M204 S800
;TYPE:External perimeter
G1 F1200.000
G1 X88.454 Y92.466 E0.00765
G1 X88.886 Y92.689 E0.01525
G1 X89.352 Y92.838 E0.01532
G1 X89.590 Y92.873 E0.00756
G1 X89.590 Y99.578 E0.21023
G1 X88.789 Y99.513 E0.02520
G1 X87.989 Y99.376 E0.02545
G1 X87.204 Y99.173 E0.02541
G1 X86.440 Y98.904 E0.02541
G1 X85.699 Y98.571 E0.02545
G1 X85.225 Y98.316 E0.01690
G1 X84.765 Y98.035 E0.01690
G1 X84.103 Y97.562 E0.02550
G1 X83.517 Y97.063 E0.02415
G1 X88.213 Y92.367 E0.20820
M204 S1250
G1 X88.353 Y92.548 F9000.000
G1 E-2.24000 F4200.000
;WIPE_START
G1 F7200.000
G1 X88.454 Y92.466 E-0.14455
G1 X88.886 Y92.689 E-0.26952
G1 X89.352 Y92.838 E-0.27077
G1 X89.590 Y92.873 E-0.13355
G1 X89.590 Y93.042 E-0.09362
;WIPE_END
G1 E-0.04800 F4200.000
G1 Z0.400 F9000.000
G1 X89.100 Y94.054
G1 Z0.200
G1 E3.20000 F2400.000
M204 S800
;TYPE:Solid infill
;WIDTH:0.426986
G1 F1200.000
G1 X88.279 Y93.234 E0.03705
G1 X88.008 Y93.505 E0.01227
G1 X88.930 Y94.427 E0.04165
G1 X88.930 Y94.971 E0.01735
G1 X87.736 Y93.777 E0.05392
G1 X87.465 Y94.048 E0.01227
G1 X88.930 Y95.514 E0.06618
G1 X88.930 Y96.057 E0.01735
G1 X87.193 Y94.320 E0.07845
G1 X86.922 Y94.591 E0.01227
G1 X88.930 Y96.600 E0.09071
G1 X88.930 Y97.143 E0.01735
G1 X86.650 Y94.863 E0.10298
G1 X86.378 Y95.135 E0.01227
G1 X88.930 Y97.686 E0.11525
G1 X88.930 Y98.230 E0.01735
G1 X86.107 Y95.406 E0.12751
G1 X85.835 Y95.678 E0.01227
G1 X88.930 Y98.773 E0.13978
G1 X88.930 Y98.864 E0.00291
G1 X88.390 Y98.776 E0.01748
G1 X85.564 Y95.949 E0.12764
G1 X85.292 Y96.221 E0.01227
G1 X87.688 Y98.617 E0.10821
G1 X87.397 Y98.541 E0.00961
G1 X86.892 Y98.364 E0.01709
G1 X85.020 Y96.493 E0.08452
G1 X84.749 Y96.764 E0.01227
G1 X86.280 Y98.295 E0.06914
M204 S1250
G1 E-2.24000 F4200.000
;WIPE_START
G1 F7200.000
G1 X85.116 Y97.131 E-0.91200
;WIPE_END
G1 E-0.04800 F4200.000
G1 Z0.400 F9000.000
G1 X92.844 Y91.731
M73 P4 R12
G1 Z0.200
G1 E3.20000 F2400.000
M204 S800
;TYPE:Perimeter
;WIDTH:0.42
G1 F1200.000
G1 X92.812 Y91.699 E0.00144
G1 X93.039 Y91.259 E0.01552
G1 X93.189 Y90.787 E0.01552
G1 X99.171 Y90.787 E0.18755
G1 X99.146 Y91.105 E0.00999
G1 X99.070 Y91.614 E0.01615
G1 X98.966 Y92.118 E0.01615
G1 X98.753 Y92.871 E0.02454
G1 X98.480 Y93.600 E0.02441
G1 X98.146 Y94.303 E0.02441
G1 X97.753 Y94.976 E0.02441
G1 X97.303 Y95.616 E0.02454
G1 X97.045 Y95.932 E0.01279
G1 X92.886 Y91.773 E0.18441
M204 S1250
G1 X92.321 Y91.742 F9000.000
M204 S800
;TYPE:External perimeter
G1 F1200.000
G1 X92.465 Y91.548 E0.00756
G1 X92.689 Y91.114 E0.01532
G1 X92.838 Y90.648 E0.01532
G1 X92.873 Y90.410 E0.00756
G1 X99.578 Y90.410 E0.21024
G1 X99.521 Y91.147 E0.02318
G1 X99.442 Y91.680 E0.01690
G1 X99.332 Y92.208 E0.01690
G1 X99.112 Y92.989 E0.02545
G1 X98.827 Y93.748 E0.02541
G1 X98.479 Y94.480 E0.02541
G1 X98.071 Y95.179 E0.02541
G1 X97.604 Y95.844 E0.02545
G1 X97.062 Y96.482 E0.02626
G1 X92.364 Y91.784 E0.20834
M204 S1250
G1 X92.543 Y91.647 F9000.000
G1 E-2.24000 F4200.000
;WIPE_START
G1 F7200.000
G1 X92.465 Y91.548 E-0.14228
G1 X92.689 Y91.114 E-0.27077
G1 X92.838 Y90.648 E-0.27077
G1 X92.873 Y90.410 E-0.13355
G1 X93.044 Y90.410 E-0.09464
;WIPE_END
G1 E-0.04800 F4200.000
G1 Z0.400 F9000.000
G1 X98.287 Y90.900
G1 Z0.200
G1 E3.20000 F2400.000
M204 S800
;TYPE:Solid infill
;WIDTH:0.42047
G1 F1200.000
G1 X98.812 Y91.426 E0.02333
G1 X98.727 Y91.875 E0.01435
G1 X97.923 Y91.070 E0.03573
G1 X97.389 Y91.070 E0.01676
G1 X98.620 Y92.302 E0.05468
G1 X98.503 Y92.718 E0.01359
G1 X96.855 Y91.070 E0.07318
G1 X96.321 Y91.070 E0.01676
G1 X98.362 Y93.111 E0.09061
G1 X98.215 Y93.498 E0.01301
G1 X95.787 Y91.070 E0.10781
G1 X95.253 Y91.070 E0.01676
G1 X98.043 Y93.860 E0.12388
G1 X97.868 Y94.219 E0.01253
G1 X94.719 Y91.070 E0.13979
G1 X94.185 Y91.070 E0.01676
G1 X97.671 Y94.556 E0.15476
G1 X97.469 Y94.888 E0.01220
G1 X93.651 Y91.070 E0.16951
G1 X93.396 Y91.070 E0.00801
G1 X93.328 Y91.281 E0.00697
G1 X97.249 Y95.201 E0.17404
G1 X97.024 Y95.511 E0.01200
G1 X93.032 Y91.519 E0.17723
M204 S1250
G1 E-2.24000 F4200.000
;WIPE_START
G1 F7200.000
G1 X94.196 Y92.682 E-0.91200
;WIPE_END
G1 E-0.04800 F4200.000
G1 Z0.400 F9000.000
G1 X86.811 Y89.213
G1 Z0.200
G1 E3.20000 F2400.000
M204 S800
;TYPE:Perimeter
;WIDTH:0.42
G1 F1200.000
G1 X80.827 Y89.213 E0.18761
G1 X80.839 Y89.028 E0.00580
G1 X80.954 Y88.258 E0.02440
G1 X81.134 Y87.497 E0.02454
G1 X81.288 Y87.005 E0.01615
G1 X81.470 Y86.519 E0.01628
G1 X81.680 Y86.045 E0.01628
G1 X81.912 Y85.590 E0.01602
G1 X82.318 Y84.916 E0.02467
G1 X82.773 Y84.287 E0.02434
G1 X82.960 Y84.073 E0.00890
G1 X87.188 Y88.301 E0.18749
G1 X86.961 Y88.741 E0.01552
G1 X86.829 Y89.156 E0.01364
M204 S1250
G1 X87.127 Y89.590 F9000.000
M204 S800
;TYPE:External perimeter
G1 F1200.000
G1 X80.426 Y89.590 E0.21011
G1 X80.464 Y88.989 E0.01889
G1 X80.583 Y88.187 E0.02541
G1 X80.770 Y87.397 E0.02545
G1 X80.931 Y86.883 E0.01690
G1 X81.121 Y86.377 E0.01694
G1 X81.339 Y85.883 E0.01694
G1 X81.582 Y85.406 E0.01676
G1 X82.003 Y84.707 E0.02559
G1 X82.478 Y84.052 E0.02539
G1 X82.941 Y83.521 E0.02208
G1 X87.679 Y88.258 E0.21006
M73 P5 R12
G1 X87.535 Y88.452 E0.00756
G1 X87.311 Y88.886 E0.01532
G1 X87.162 Y89.352 E0.01532
G1 X87.136 Y89.531 E0.00568
M204 S1250
G1 X86.799 Y89.361 F9000.000
G1 X86.968 Y88.482
M204 S800
;TYPE:Solid infill
;WIDTH:0.421028
G1 F1200.000
G1 X82.976 Y84.489 E0.17751
G1 X82.751 Y84.800 E0.01204
G1 X86.671 Y88.720 E0.17430
G1 X86.604 Y88.930 E0.00694
G1 X86.347 Y88.930 E0.00809
G1 X82.529 Y85.113 E0.16974
G1 X82.328 Y85.446 E0.01225
G1 X85.812 Y88.930 E0.15490
G1 X85.277 Y88.930 E0.01681
G1 X82.131 Y85.783 E0.13992
G1 X81.950 Y86.137 E0.01250
G1 X84.743 Y88.930 E0.12418
G1 X84.208 Y88.930 E0.01681
G1 X81.785 Y86.507 E0.10774
G1 X81.633 Y86.890 E0.01295
G1 X83.673 Y88.930 E0.09071
G1 X83.139 Y88.930 E0.01681
G1 X81.496 Y87.287 E0.07304
G1 X81.376 Y87.702 E0.01358
G1 X82.604 Y88.930 E0.05459
G1 X82.069 Y88.930 E0.01681
G1 X81.274 Y88.135 E0.03537
G1 X81.191 Y88.587 E0.01444
G1 X81.704 Y89.100 E0.02282
M204 S1250
G1 E-2.24000 F4200.000
;WIPE_START
G1 F7200.000
G1 X81.191 Y88.587 E-0.40225
G1 X81.274 Y88.135 E-0.25458
G1 X81.599 Y88.460 E-0.25518
;WIPE_END
G1 E-0.04800 F4200.000
G1 Z0.400 F9000.000
G1 X90.787 Y86.811
G1 Z0.200
G1 E3.20000 F2400.000
M204 S800
;TYPE:Perimeter
;WIDTH:0.42
G1 F1200.000
G1 X90.787 Y80.829 E0.18757
G1 X91.036 Y80.846 E0.00783
G1 X91.809 Y80.967 E0.02453
G1 X92.311 Y81.082 E0.01615
G1 X92.802 Y81.224 E0.01602
G1 X93.544 Y81.497 E0.02480
G1 X94.014 Y81.708 E0.01614
G1 X94.471 Y81.945 E0.01615
G1 X95.138 Y82.354 E0.02454
G1 X95.765 Y82.814 E0.02438
G1 X95.929 Y82.958 E0.00683
G1 X91.699 Y87.188 E0.18757
G1 X91.259 Y86.961 E0.01552
G1 X90.844 Y86.829 E0.01364
M204 S1250
G1 X90.410 Y87.127 F9000.000
M204 S800
;TYPE:External perimeter
G1 F1200.000
G1 X90.410 Y80.424 E0.21016
G1 X91.079 Y80.471 E0.02101
G1 X91.881 Y80.596 E0.02545
G1 X92.406 Y80.717 E0.01690
G1 X92.919 Y80.865 E0.01676
G1 X93.687 Y81.147 E0.02563
G1 X94.178 Y81.368 E0.01689
G1 X94.656 Y81.617 E0.01690
G1 X95.349 Y82.040 E0.02545
G1 X96.002 Y82.520 E0.02540
G1 X96.480 Y82.941 E0.01996
G1 X91.742 Y87.679 E0.21009
G1 X91.548 Y87.535 E0.00756
G1 X91.114 Y87.311 E0.01532
G1 X90.648 Y87.162 E0.01532
G1 X90.469 Y87.136 E0.00568
M204 S1250
G1 X90.639 Y86.799 F9000.000
G1 E-2.24000 F4200.000
;WIPE_START
G1 F7200.000
G1 X90.455 Y85.490 E-0.91200
;WIPE_END
G1 E-0.04800 F4200.000
G1 Z0.400 F9000.000
G1 X93.731 Y81.704
G1 Z0.200
G1 E3.20000 F2400.000
M204 S800
;TYPE:Solid infill
;WIDTH:0.427537
G1 F1200.000
G1 X95.257 Y83.230 E0.06902
G1 X94.985 Y83.502 E0.01230
G1 X93.127 Y81.645 E0.08402
G1 X92.714 Y81.493 E0.01408
G1 X92.316 Y81.378 E0.01323
G1 X94.713 Y83.774 E0.10839
G1 X94.441 Y84.046 E0.01230
G1 X91.618 Y81.223 E0.12768
G1 X91.070 Y81.138 E0.01773
G1 X91.070 Y81.219 E0.00261
G1 X94.169 Y84.318 E0.14016
G1 X93.897 Y84.590 E0.01230
G1 X91.070 Y81.763 E0.12786
G1 X91.070 Y82.307 E0.01740
G1 X93.625 Y84.862 E0.11556
G1 X93.353 Y85.134 E0.01230
G1 X91.070 Y82.851 E0.10326
G1 X91.070 Y83.395 E0.01740
G1 X93.081 Y85.406 E0.09096
M73 P6 R12
G1 X92.809 Y85.678 E0.01230
G1 X91.070 Y83.939 E0.07866
G1 X91.070 Y84.483 E0.01740
G1 X92.537 Y85.950 E0.06636
G1 X92.265 Y86.222 E0.01230
G1 X91.070 Y85.027 E0.05406
G1 X91.070 Y85.571 E0.01740
G1 X91.993 Y86.494 E0.04175
G1 X91.721 Y86.766 E0.01230
G1 X90.900 Y85.945 E0.03713
M204 S1250
; stop printing object OnDiskWasher08.stl id:0 copy 0
M106 S84.15
;LAYER_CHANGE
;Z:0.4
;HEIGHT:0.2
;BEFORE_LAYER_CHANGE
G92 E0.0
;0.4


G1 E-2.24000 F4200.000
;WIPE_START
G1 F7200.000
G1 X91.721 Y86.766 E-0.64337
G1 X91.993 Y86.494 E-0.21314
G1 X91.922 Y86.423 E-0.05549
;WIPE_END
G1 E-0.04800 F4200.000
G1 Z0.400 F9000.000
;AFTER_LAYER_CHANGE
;0.4
M104 S210 ; set temperature
G1 Z0.600
G1 X99.021 Y80.984
G1 Z0.400
G1 E3.20000 F2400.000
;TYPE:Skirt
;WIDTH:0.42
G1 X99.590 Y81.814 E0.03157
G1 X102.545 Y88.946 E0.24204
G1 X102.701 Y89.463 E0.01694
G1 X102.754 Y90.001 E0.01694
G1 X102.698 Y91.193 E0.03742
G1 X102.492 Y92.570 E0.04367
G1 X102.217 Y93.661 E0.03526
G1 X101.749 Y94.964 E0.04342
G1 X101.261 Y95.989 E0.03559
G1 X100.546 Y97.173 E0.04338
G1 X99.877 Y98.070 E0.03508
G1 X99.018 Y99.019 E0.04013
G1 X98.184 Y99.590 E0.03170
G1 X91.054 Y102.545 E0.24199
G1 X90.537 Y102.701 E0.01694
G1 X89.999 Y102.754 E0.01694
G1 X88.767 Y102.694 E0.03867
G1 X87.655 Y102.537 E0.03523
G1 X86.315 Y102.210 E0.04325
G1 X85.237 Y101.831 E0.03581
G1 X83.994 Y101.251 E0.04303
G1 X83.020 Y100.675 E0.03546
G1 X81.894 Y99.847 E0.04383
G1 X80.980 Y99.017 E0.03870
G1 X80.411 Y98.187 E0.03157
G1 X77.455 Y91.054 E0.24208
G1 X77.299 Y90.537 E0.01694
G1 X77.246 Y89.999 E0.01694
G1 X77.314 Y88.685 E0.04125
G1 X77.477 Y87.586 E0.03486
G1 X77.815 Y86.233 E0.04373
G1 X78.194 Y85.175 E0.03524
G1 X78.786 Y83.924 E0.04338
G1 X79.364 Y82.962 E0.03520
G1 X80.201 Y81.836 E0.04398
G1 X80.981 Y80.982 E0.03626
G1 X81.815 Y80.410 E0.03170
G1 X88.946 Y77.455 E0.24203
G1 X89.463 Y77.299 E0.01694
G1 X90.005 Y77.246 E0.01707
G1 X91.394 Y77.322 E0.04362
G1 X92.494 Y77.492 E0.03491
G1 X93.583 Y77.760 E0.03516
G1 X94.896 Y78.223 E0.04364
G1 X95.912 Y78.699 E0.03520
G1 X97.109 Y79.411 E0.04364
G1 X98.009 Y80.075 E0.03508
G1 X98.976 Y80.943 E0.04075
G1 X98.724 Y81.223 F9000.000
G1 F2400.000
G1 X99.248 Y81.975 E0.02871
G1 X102.196 Y89.090 E0.24150
G1 X102.377 Y90.000 E0.02907
G1 X102.323 Y91.155 E0.03627
G1 X102.123 Y92.493 E0.04242
G1 X101.857 Y93.549 E0.03412
G1 X101.401 Y94.817 E0.04225
G1 X100.929 Y95.809 E0.03446
G1 X100.232 Y96.964 E0.04228
G1 X99.586 Y97.829 E0.03387
G1 X98.753 Y98.751 E0.03894
G1 X97.981 Y99.267 E0.02914
G1 X90.864 Y102.215 E0.24153
G1 X90.000 Y102.377 E0.02755
G1 X88.804 Y102.319 E0.03754
G1 X87.726 Y102.166 E0.03414
G1 X86.420 Y101.848 E0.04216
G1 X85.386 Y101.485 E0.03436
G1 X84.168 Y100.917 E0.04215
G1 X83.232 Y100.362 E0.03410
G1 X82.134 Y99.556 E0.04271
G1 X81.249 Y98.753 E0.03748
G1 X80.733 Y97.981 E0.02912
G1 X77.785 Y90.864 E0.24153
G1 X77.623 Y90.000 E0.02755
G1 X77.689 Y88.720 E0.04018
G1 X77.846 Y87.659 E0.03365
G1 X78.177 Y86.340 E0.04262
G1 X78.542 Y85.319 E0.03400
G1 X79.120 Y84.100 E0.04228
G1 X79.677 Y83.171 E0.03398
G1 X80.493 Y82.074 E0.04286
