; generated by PrusaSlicer 2.3.0+win64 on 2021-07-31 at 18:52:05 UTC


;
;

;
;
; 

; external perimeters extrusion width = 0.45mm
; perimeters extrusion width = 0.45mm
; infill extrusion width = 0.45mm
; solid infill extrusion width = 0.45mm
; top infill extrusion width = 0.40mm
; first layer extrusion width = 0.42mm

M73 P0 R30
M201 X1250 Y1250 Z400 E5000 ; sets maximum accelerations, mm/sec^2
M203 X180 Y180 Z12 E80 ; sets maximum feedrates, mm/sec
M204 P1250 R1250 T1250 ; sets acceleration (P, T) and retract acceleration (R), mm/sec^2
M205 X8.00 Y8.00 Z2.00 E10.00 ; sets the jerk limits, mm/sec
M205 S0 T0 ; sets the minimum extruding and travel feed rate, mm/sec
M107
;TYPE:Custom
G90 ; use absolute coordinates
M83 ; extruder relative mode
M104 S170 ; set extruder temp for bed leveling
M140 S60 ; set bed temp
M109 R170 ; wait for bed leveling temp
M190 S60 ; wait for bed temp
G28 ; home all without mesh bed level
G29 ; mesh bed leveling 
M104 S215 ; set extruder temp
G92 E0.0
G1 Y-2.0 X179 F2400
G1 Z3 F720
M109 S215 ; wait for extruder temp

; intro line
G1 X170 F1000
G1 Z0.2 F720
G1 X110.0 E8.0 F900
G1 X40.0 E10.0 F700
G92 E0.0

M221 S95 ; set flow
G21 ; set units to millimeters
G90 ; use absolute coordinates
M83 ; use relative distances for extrusion
M900 K0.2 ; Filament gcode LA 1.5
; ; Filament gcode LA 1.0
;LAYER_CHANGE
;Z:0.2
;HEIGHT:0.2
;BEFORE_LAYER_CHANGE
G92 E0.0
;0.2


M73 P0 R29
G1 E-3.20000 F4200.000
G1 Z0.200 F9000.000
;AFTER_LAYER_CHANGE
;0.2
G1 Z0.400
G1 X76.831 Y85.374
G1 Z0.200
G1 E3.20000 F2400.000
M204 S800
;TYPE:Skirt
;WIDTH:0.42
G1 F1200.000
G1 X96.178 Y73.713 E0.70828
G1 X97.016 Y73.280 E0.02956
G1 X98.063 Y72.915 E0.03476
G1 X98.998 Y72.732 E0.02988
M73 P1 R29
G1 X99.922 Y72.673 E0.02904
G1 X101.423 Y72.831 E0.04731
G1 X102.874 Y73.302 E0.04781
G1 X104.179 Y74.055 E0.04727
G1 X105.319 Y75.082 E0.04811
G1 X106.201 Y76.297 E0.04706
G1 X106.822 Y77.694 E0.04795
G1 X107.136 Y79.181 E0.04764
G1 X107.128 Y80.743 E0.04897
G1 X106.834 Y82.122 E0.04421
G1 X106.350 Y83.287 E0.03956
G1 X96.301 Y101.481 E0.65170
G1 X95.024 Y103.145 E0.06577
G1 X94.605 Y103.568 E0.01867
G1 X94.164 Y103.873 E0.01681
G1 X85.903 Y107.264 E0.28000
G1 X85.329 Y107.325 E0.01809
G1 X84.310 Y107.264 E0.03199
G1 X82.204 Y106.873 E0.06716
G1 X80.220 Y106.147 E0.06624
G1 X78.610 Y105.255 E0.05770
G1 X76.943 Y103.958 E0.06624
G1 X76.277 Y103.151 E0.03281
G1 X72.886 Y94.885 E0.28014
G1 X72.829 Y94.306 E0.01822
G1 X72.898 Y93.218 E0.03419
G1 X73.301 Y91.121 E0.06695
G1 X73.923 Y89.397 E0.05747
G1 X74.936 Y87.546 E0.06615
G1 X76.023 Y86.128 E0.05603
G1 X76.787 Y85.415 E0.03278
M204 S1250
G1 X77.041 Y85.687 F9000.000
M204 S800
G1 F1200.000
G1 X96.372 Y74.036 E0.70768
G1 X97.163 Y73.628 E0.02791
G1 X98.164 Y73.279 E0.03326
G1 X99.046 Y73.106 E0.02818
G1 X99.923 Y73.050 E0.02753
G1 X101.349 Y73.200 E0.04496
G1 X102.727 Y73.649 E0.04545
G1 X103.964 Y74.365 E0.04480
G1 X105.064 Y75.363 E0.04658
G1 X105.991 Y76.696 E0.05091
G1 X106.532 Y78.035 E0.04529
G1 X106.783 Y79.483 E0.04608
G1 X106.725 Y80.924 E0.04521
G1 X106.461 Y82.052 E0.03632
G1 X106.010 Y83.122 E0.03640
G1 X96.365 Y100.645 E0.62715
G1 X95.822 Y101.521 E0.03232
G1 X94.722 Y102.917 E0.05572
G1 X93.950 Y103.560 E0.03149
G1 X85.795 Y106.901 E0.27633
G1 X85.269 Y106.947 E0.01657
G1 X84.070 Y106.858 E0.03768
G1 X82.291 Y106.506 E0.05689
G1 X80.371 Y105.801 E0.06410
G1 X78.805 Y104.932 E0.05617
G1 X77.412 Y103.873 E0.05486
G1 X76.910 Y103.397 E0.02169
G1 X76.603 Y102.962 E0.01669
G1 X73.255 Y94.804 E0.27649
G1 X73.206 Y94.293 E0.01609
G1 X73.274 Y93.249 E0.03283
G1 X73.667 Y91.213 E0.06500
G1 X74.387 Y89.290 E0.06439
G1 X75.259 Y87.742 E0.05570
G1 X76.303 Y86.380 E0.05379
G1 X76.997 Y85.728 E0.02989
M204 S1250
; printing object PotPostD_01.stl id:1 copy 0
G1 E-2.24000 F4200.000
;WIPE_START
G1 F7200.000
G1 X78.406 Y84.878 E-0.91200
;WIPE_END
G1 E-0.04800 F4200.000
G1 Z0.400 F9000.000
G1 X96.263 Y80.696
G1 Z0.200
G1 E3.20000 F2400.000
M204 S800
;TYPE:External perimeter
G1 F1200.000
G1 X96.205 Y80.336 E0.01143
G1 X96.183 Y79.973 E0.01141
G1 X96.196 Y79.609 E0.01141
G1 X96.245 Y79.249 E0.01141
G1 X96.328 Y78.894 E0.01141
G1 X96.446 Y78.550 E0.01141
G1 X96.596 Y78.218 E0.01141
G1 X96.778 Y77.903 E0.01141
G1 X96.990 Y77.607 E0.01141
G1 X97.229 Y77.333 E0.01141
G1 X97.495 Y77.084 E0.01141
G1 X97.783 Y76.861 E0.01141
G1 X98.091 Y76.668 E0.01141
G1 X98.417 Y76.505 E0.01141
G1 X98.757 Y76.375 E0.01141
G1 X99.108 Y76.279 E0.01141
G1 X99.466 Y76.217 E0.01141
G1 X99.828 Y76.191 E0.01138
G1 X100.193 Y76.200 E0.01144
G1 X100.554 Y76.244 E0.01140
G1 X100.910 Y76.323 E0.01142
G1 X101.256 Y76.436 E0.01141
G1 X101.589 Y76.583 E0.01141
G1 X101.906 Y76.761 E0.01141
G1 X102.205 Y76.969 E0.01141
G1 X102.482 Y77.205 E0.01141
G1 X102.734 Y77.467 E0.01141
G1 X102.960 Y77.753 E0.01141
G1 X103.157 Y78.058 E0.01141
G1 X103.324 Y78.382 E0.01141
G1 X103.458 Y78.721 E0.01141
G1 X103.559 Y79.070 E0.01141
G1 X103.625 Y79.431 E0.01149
G1 X103.658 Y79.970 E0.01695
G1 X103.636 Y80.336 E0.01149
G1 X103.578 Y80.696 E0.01141
G1 X103.486 Y81.048 E0.01141
G1 X103.360 Y81.389 E0.01141
G1 X103.202 Y81.717 E0.01141
G1 X103.012 Y82.028 E0.01141
G1 X102.793 Y82.318 E0.01141
G1 X102.547 Y82.586 E0.01141
G1 X102.276 Y82.829 E0.01141
G1 X101.983 Y83.045 E0.01141
G1 X101.670 Y83.231 E0.01141
G1 X101.340 Y83.385 E0.01141
G1 X100.997 Y83.507 E0.01141
G1 X100.644 Y83.594 E0.01141
G1 X100.284 Y83.647 E0.01141
G1 X99.920 Y83.665 E0.01141
G1 X99.557 Y83.647 E0.01141
G1 X99.197 Y83.594 E0.01141
G1 X98.843 Y83.507 E0.01141
G1 X98.500 Y83.385 E0.01141
G1 X98.171 Y83.231 E0.01141
G1 X97.858 Y83.045 E0.01141
G1 X97.564 Y82.829 E0.01141
G1 X97.293 Y82.586 E0.01141
G1 X97.047 Y82.318 E0.01141
G1 X96.828 Y82.028 E0.01141
G1 X96.639 Y81.717 E0.01141
G1 X96.480 Y81.389 E0.01141
G1 X96.354 Y81.048 E0.01141
G1 X96.278 Y80.754 E0.00951
M204 S1250
G1 X95.916 Y80.583 F9000.000
G1 X95.958 Y81.036
M204 S800
G1 F1200.000
G1 X95.850 Y80.526 E0.01635
G1 X95.814 Y80.187 E0.01068
G1 X95.807 Y79.841 E0.01085
G1 X95.828 Y79.499 E0.01074
G1 X95.914 Y78.988 E0.01627
G1 X96.065 Y78.491 E0.01627
G1 X96.197 Y78.175 E0.01074
G1 X96.356 Y77.871 E0.01076
G1 X96.540 Y77.581 E0.01078
G1 X96.864 Y77.173 E0.01635
G1 X97.104 Y76.928 E0.01073
G1 X97.363 Y76.704 E0.01073
G1 X97.790 Y76.408 E0.01630
G1 X98.091 Y76.242 E0.01078
G1 X98.403 Y76.103 E0.01073
G1 X98.898 Y75.942 E0.01630
G1 X99.234 Y75.870 E0.01078
G1 X99.574 Y75.827 E0.01073
G1 X100.093 Y75.817 E0.01630
G1 X100.434 Y75.845 E0.01071
G1 X100.946 Y75.943 E0.01633
G1 X101.271 Y76.041 E0.01067
G1 X101.752 Y76.243 E0.01633
G1 X102.050 Y76.407 E0.01067
G1 X102.478 Y76.704 E0.01635
G1 X102.737 Y76.928 E0.01073
G1 X102.978 Y77.174 E0.01080
G1 X103.196 Y77.438 E0.01074
G1 X103.484 Y77.870 E0.01627
G1 X103.714 Y78.335 E0.01627
G1 X103.834 Y78.656 E0.01074
G1 X103.926 Y78.988 E0.01080
G1 X103.990 Y79.324 E0.01073
G1 X104.034 Y79.844 E0.01637
G1 X104.027 Y80.184 E0.01064
G1 X103.961 Y80.700 E0.01633
G1 X103.883 Y81.034 E0.01074
G1 X103.777 Y81.360 E0.01076
G1 X103.644 Y81.677 E0.01077
G1 X103.393 Y82.134 E0.01635
G1 X103.199 Y82.413 E0.01067
G1 X102.858 Y82.808 E0.01633
G1 X102.609 Y83.042 E0.01074
G1 X102.339 Y83.256 E0.01081
G1 X102.052 Y83.447 E0.01079
G1 X101.752 Y83.612 E0.01074
G1 X101.273 Y83.813 E0.01630
G1 X100.944 Y83.913 E0.01077
G1 X100.609 Y83.984 E0.01074
G1 X100.092 Y84.038 E0.01630
G1 X99.748 Y84.038 E0.01077
G1 X99.407 Y84.010 E0.01074
G1 X98.895 Y83.912 E0.01635
G1 X98.567 Y83.813 E0.01073
G1 X98.249 Y83.687 E0.01074
G1 X97.788 Y83.446 E0.01630
G1 X97.502 Y83.256 E0.01077
G1 X97.234 Y83.044 E0.01074
G1 X96.861 Y82.679 E0.01635
G1 X96.643 Y82.415 E0.01073
G1 X96.446 Y82.132 E0.01081
G1 X96.275 Y81.835 E0.01074
G1 X96.063 Y81.360 E0.01633
G1 X95.977 Y81.093 E0.00879
M204 S1250
G1 X96.240 Y80.752 F9000.000
; stop printing object PotPostD_01.stl id:1 copy 0
; printing object OnDiskCoupler01.stl id:0 copy 0
G1 E-2.24000 F4200.000
;WIPE_START
G1 F7200.000
G1 X95.850 Y80.526 E-0.32202
G1 X95.814 Y80.187 E-0.18884
G1 X95.807 Y79.841 E-0.19172
G1 X95.828 Y79.499 E-0.18985
G1 X95.834 Y79.465 E-0.01957
;WIPE_END
G1 E-0.04800 F4200.000
G1 Z0.400 F9000.000
G1 X84.542 Y97.955
G1 Z0.200
G1 E3.20000 F2400.000
M204 S800
;TYPE:Perimeter
G1 F1200.000
G1 X84.542 Y103.734 E0.18119
G1 X83.647 Y103.581 E0.02847
G1 X82.894 Y103.386 E0.02441
G1 X82.159 Y103.128 E0.02441
G1 X81.449 Y102.808 E0.02441
G1 X80.769 Y102.430 E0.02441
G1 X80.119 Y101.994 E0.02454
G1 X79.842 Y101.778 E0.01102
G1 X83.922 Y97.698 E0.18090
G1 X84.226 Y97.842 E0.01055
G1 X84.486 Y97.935 E0.00866
M204 S1250
G1 X84.920 Y97.656 F9000.000
M204 S800
;TYPE:External perimeter
G1 F1200.000
G1 X84.920 Y104.134 E0.20310
G1 X84.367 Y104.086 E0.01739
G1 X83.568 Y103.950 E0.02541
G1 X82.784 Y103.747 E0.02541
G1 X82.019 Y103.478 E0.02541
G1 X81.280 Y103.146 E0.02541
G1 X80.572 Y102.752 E0.02541
G1 X79.898 Y102.299 E0.02545
G1 X79.284 Y101.803 E0.02476
G1 X83.863 Y97.224 E0.20304
G1 X84.083 Y97.357 E0.00808
G1 X84.370 Y97.493 E0.00996
G1 X84.671 Y97.601 E0.01003
G1 X84.861 Y97.643 E0.00609
M204 S1250
G1 X84.687 Y97.982 F9000.000
G1 X83.693 Y98.087
M204 S800
;TYPE:Solid infill
;WIDTH:0.430001
G1 F1200.000
G1 X84.260 Y98.654 E0.02581
G1 X84.260 Y99.202 E0.01762
G1 X83.539 Y98.481 E0.03281
G1 X83.265 Y98.755 E0.01246
G1 X84.260 Y99.749 E0.04527
G1 X84.260 Y100.296 E0.01762
G1 X82.991 Y99.028 E0.05773
G1 X82.718 Y99.302 E0.01246
G1 X84.260 Y100.844 E0.07018
G1 X84.260 Y101.391 E0.01762
G1 X82.444 Y99.576 E0.08264
G1 X82.170 Y99.849 E0.01246
G1 X84.260 Y101.939 E0.09510
G1 X84.260 Y102.486 E0.01762
G1 X81.897 Y100.123 E0.10756
G1 X81.623 Y100.397 E0.01246
G1 X84.260 Y103.034 E0.12002
G1 X84.260 Y103.399 E0.01175
G1 X84.040 Y103.361 E0.00718
G1 X81.349 Y100.670 E0.12247
G1 X81.075 Y100.944 E0.01246
G1 X83.341 Y103.209 E0.10311
G1 X82.976 Y103.115 E0.01212
G1 X82.548 Y102.965 E0.01459
G1 X80.802 Y101.218 E0.07951
G1 X80.528 Y101.492 E0.01246
G1 X81.942 Y102.906 E0.06438
M204 S1250
G1 E-2.24000 F4200.000
;WIPE_START
G1 F7200.000
G1 X80.779 Y101.742 E-0.91200
;WIPE_END
G1 E-0.04800 F4200.000
G1 Z0.400 F9000.000
G1 X88.704 Y96.231
G1 Z0.200
G1 E3.20000 F2400.000
M204 S800
;TYPE:Perimeter
;WIDTH:0.42
G1 F1200.000
G1 X88.848 Y95.927 E0.01055
G1 X88.961 Y95.611 E0.01055
G1 X94.725 Y95.611 E0.18073
G1 X94.691 Y95.931 E0.01011
G1 X94.544 Y96.696 E0.02441
G1 X94.333 Y97.445 E0.02441
G1 X94.059 Y98.174 E0.02441
G1 X93.725 Y98.877 E0.02441
G1 X93.333 Y99.549 E0.02441
M73 P2 R29
G1 X92.782 Y100.309 E0.02943
G1 X88.746 Y96.274 E0.17894
M204 S1250
G1 X88.226 Y96.287 F9000.000
M204 S800
;TYPE:External perimeter
G1 F1200.000
G1 X88.362 Y96.072 E0.00797
G1 X88.499 Y95.783 E0.01003
G1 X88.607 Y95.482 E0.01003
G1 X88.662 Y95.234 E0.00797
G1 X95.144 Y95.234 E0.20324
G1 X95.065 Y95.987 E0.02375
G1 X94.911 Y96.783 E0.02541
G1 X94.692 Y97.563 E0.02541
G1 X94.407 Y98.321 E0.02541
G1 X94.059 Y99.053 E0.02541
G1 X93.650 Y99.753 E0.02541
G1 X93.184 Y100.416 E0.02541
G1 X92.806 Y100.867 E0.01845
G1 X88.269 Y96.329 E0.20121
M204 S1250
G1 X88.456 Y96.179 F9000.000
G1 E-2.24000 F4200.000
;WIPE_START
G1 F7200.000
G1 X88.362 Y96.072 E-0.15173
G1 X88.499 Y95.783 E-0.17725
G1 X88.607 Y95.482 E-0.17725
G1 X88.662 Y95.234 E-0.14093
G1 X89.140 Y95.234 E-0.26484
;WIPE_END
G1 E-0.04800 F4200.000
G1 Z0.400 F9000.000
G1 X93.779 Y95.724
G1 Z0.200
G1 E3.20000 F2400.000
M204 S800
;TYPE:Solid infill
;WIDTH:0.448525
G1 F1200.000
G1 X94.336 Y96.281 E0.02657
G1 X94.234 Y96.753 E0.01628
G1 X93.375 Y95.893 E0.04099
G1 X92.801 Y95.893 E0.01935
G1 X94.108 Y97.200 E0.06233
G1 X93.962 Y97.628 E0.01524
G1 X92.228 Y95.893 E0.08273
G1 X91.654 Y95.893 E0.01935
G1 X93.806 Y98.045 E0.10262
G1 X93.622 Y98.435 E0.01454
G1 X91.081 Y95.893 E0.12122
G1 X90.507 Y95.893 E0.01935
G1 X93.432 Y98.818 E0.13951
G1 X93.220 Y99.181 E0.01414
G1 X89.933 Y95.893 E0.15678
G1 X89.360 Y95.893 E0.01935
G1 X92.997 Y99.531 E0.17348
G1 X92.756 Y99.863 E0.01385
G1 X88.924 Y96.031 E0.18276
M204 S1250
G1 E-2.24000 F4200.000
;WIPE_START
G1 F7200.000
G1 X90.088 Y97.195 E-0.91200
;WIPE_END
G1 E-0.04800 F4200.000
G1 Z0.400 F9000.000
G1 X82.198 Y93.537
G1 Z0.200
G1 E3.20000 F2400.000
M204 S800
;TYPE:Perimeter
;WIDTH:0.42
G1 F1200.000
G1 X76.432 Y93.537 E0.18078
G1 X76.450 Y93.344 E0.00607
G1 X76.586 Y92.578 E0.02439
G1 X76.786 Y91.826 E0.02441
G1 X77.050 Y91.093 E0.02441
G1 X77.376 Y90.382 E0.02454
G1 X77.623 Y89.930 E0.01615
G1 X77.897 Y89.489 E0.01628
G1 X78.376 Y88.837 E0.02538
G1 X82.455 Y92.916 E0.18088
G1 X82.311 Y93.220 E0.01055
G1 X82.218 Y93.480 E0.00866
M204 S1250
G1 X82.497 Y93.914 F9000.000
M204 S800
;TYPE:External perimeter
G1 F1200.000
G1 X76.020 Y93.914 E0.20307
G1 X76.076 Y93.294 E0.01951
G1 X76.217 Y92.496 E0.02540
G1 X76.426 Y91.713 E0.02541
G1 X76.700 Y90.951 E0.02541
G1 X77.039 Y90.213 E0.02545
G1 X77.297 Y89.740 E0.01690
G1 X77.582 Y89.281 E0.01694
G1 X77.893 Y88.839 E0.01694
G1 X78.350 Y88.277 E0.02270
G1 X82.933 Y92.860 E0.20323
G1 X82.797 Y93.075 E0.00797
G1 X82.660 Y93.364 E0.01003
G1 X82.552 Y93.665 E0.01003
G1 X82.510 Y93.855 E0.00609
M204 S1250
G1 X82.171 Y93.681 F9000.000
G1 X82.235 Y93.116
M204 S800
;TYPE:Solid infill
;WIDTH:0.449211
G1 F1200.000
G1 X78.400 Y89.281 E0.18321
G1 X78.157 Y89.613 E0.01389
G1 X81.798 Y93.254 E0.17395
G1 X81.223 Y93.254 E0.01941
G1 X77.934 Y89.965 E0.15714
G1 X77.726 Y90.331 E0.01424
G1 X80.649 Y93.254 E0.13964
G1 X80.074 Y93.254 E0.01941
G1 X77.535 Y90.714 E0.12133
G1 X77.354 Y91.108 E0.01464
G1 X79.499 Y93.254 E0.10250
G1 X78.925 Y93.254 E0.01941
G1 X77.195 Y91.524 E0.08263
G1 X77.046 Y91.950 E0.01523
G1 X78.350 Y93.254 E0.06231
G1 X77.776 Y93.254 E0.01941
G1 X76.925 Y92.403 E0.04064
G1 X76.821 Y92.873 E0.01627
G1 X77.371 Y93.423 E0.02629
M204 S1250
G1 E-2.24000 F4200.000
;WIPE_START
G1 F7200.000
G1 X76.821 Y92.873 E-0.43120
G1 X76.925 Y92.403 E-0.26683
G1 X77.198 Y92.676 E-0.21397
;WIPE_END
G1 E-0.04800 F4200.000
G1 Z0.400 F9000.000
G1 X86.617 Y91.192
G1 Z0.200
G1 E3.20000 F2400.000
M204 S800
;TYPE:Perimeter
;WIDTH:0.42
G1 F1200.000
G1 X86.617 Y85.427 E0.18076
G1 X86.873 Y85.452 E0.00808
G1 X87.638 Y85.594 E0.02441
G1 X88.389 Y85.800 E0.02441
G1 X89.120 Y86.069 E0.02441
G1 X89.825 Y86.398 E0.02441
G1 X90.500 Y86.786 E0.02441
G1 X91.139 Y87.228 E0.02437
G1 X91.313 Y87.373 E0.00710
G1 X87.237 Y91.449 E0.18074
G1 X86.933 Y91.305 E0.01055
G1 X86.673 Y91.212 E0.00866
M204 S1250
G1 X86.240 Y91.491 F9000.000
M204 S800
;TYPE:External perimeter
G1 F1200.000
G1 X86.240 Y85.011 E0.20317
G1 X86.926 Y85.079 E0.02163
G1 X87.723 Y85.226 E0.02541
G1 X88.504 Y85.441 E0.02541
G1 X89.265 Y85.720 E0.02541
G1 X89.999 Y86.063 E0.02541
G1 X90.702 Y86.467 E0.02541
G1 X91.368 Y86.928 E0.02539
G1 X91.872 Y87.348 E0.02058
G1 X87.293 Y91.927 E0.20305
G1 X87.078 Y91.791 E0.00797
G1 X86.789 Y91.654 E0.01003
G1 X86.488 Y91.546 E0.01003
G1 X86.298 Y91.504 E0.00609
M204 S1250
G1 X86.472 Y91.165 F9000.000
G1 E-2.24000 F4200.000
;WIPE_START
G1 F7200.000
G1 X86.283 Y89.858 E-0.91200
;WIPE_END
G1 E-0.04800 F4200.000
G1 Z0.400 F9000.000
G1 X89.233 Y86.246
G1 Z0.200
G1 E3.20000 F2400.000
M204 S800
;TYPE:Solid infill
;WIDTH:0.430612
G1 F1200.000
G1 X90.637 Y87.650 E0.06398
G1 X90.363 Y87.924 E0.01250
G1 X88.628 Y86.189 E0.07909
G1 X88.303 Y86.070 E0.01116
G1 X87.831 Y85.940 E0.01579
G1 X90.088 Y88.198 E0.10294
G1 X89.814 Y88.472 E0.01250
G1 X87.130 Y85.788 E0.12239
G1 X86.899 Y85.745 E0.00755
G1 X86.899 Y86.106 E0.01163
G1 X89.540 Y88.746 E0.12039
G1 X89.266 Y89.020 E0.01250
G1 X86.899 Y86.654 E0.10789
G1 X86.899 Y87.202 E0.01767
G1 X88.992 Y89.295 E0.09540
G1 X88.718 Y89.569 E0.01250
G1 X86.899 Y87.750 E0.08290
G1 X86.899 Y88.299 E0.01767
G1 X88.444 Y89.843 E0.07040
G1 X88.169 Y90.117 E0.01250
G1 X86.899 Y88.847 E0.05790
G1 X86.899 Y89.395 E0.01767
G1 X87.895 Y90.391 E0.04541
G1 X87.621 Y90.665 E0.01250
G1 X86.899 Y89.944 E0.03291
G1 X86.899 Y90.492 E0.01767
G1 X87.467 Y91.059 E0.02588
M204 S1250
; stop printing object OnDiskCoupler01.stl id:0 copy 0
M106 S84.15
;LAYER_CHANGE
;Z:0.4
;HEIGHT:0.2
;BEFORE_LAYER_CHANGE
G92 E0.0
;0.4


G1 E-2.24000 F4200.000
;WIPE_START
G1 F7200.000
G1 X86.899 Y90.492 E-0.44488
