; generated by PrusaSlicer 2.3.0+win64 on 2021-07-26 at 08:29:16 UTC


;
;

;
;
; 

; external perimeters extrusion width = 0.45mm
; perimeters extrusion width = 0.45mm
; infill extrusion width = 0.45mm
; solid infill extrusion width = 0.45mm
; top infill extrusion width = 0.40mm
; first layer extrusion width = 0.42mm

M73 P0 R5
M201 X1250 Y1250 Z400 E5000 ; sets maximum accelerations, mm/sec^2
M203 X180 Y180 Z12 E80 ; sets maximum feedrates, mm/sec
M204 P1250 R1250 T1250 ; sets acceleration (P, T) and retract acceleration (R), mm/sec^2
M205 X8.00 Y8.00 Z2.00 E10.00 ; sets the jerk limits, mm/sec
M205 S0 T0 ; sets the minimum extruding and travel feed rate, mm/sec
M107
;TYPE:Custom
G90 ; use absolute coordinates
M83 ; extruder relative mode
M104 S170 ; set extruder temp for bed leveling
M140 S60 ; set bed temp
M109 R170 ; wait for bed leveling temp
M190 S60 ; wait for bed temp
G28 ; home all without mesh bed level
G29 ; mesh bed leveling 
M104 S215 ; set extruder temp
G92 E0.0
G1 Y-2.0 X179 F2400
M73 P1 R5
G1 Z3 F720
M109 S215 ; wait for extruder temp

; intro line
G1 X170 F1000
G1 Z0.2 F720
G1 X110.0 E8.0 F900
M73 P3 R5
G1 X40.0 E10.0 F700
G92 E0.0

M221 S95 ; set flow
G21 ; set units to millimeters
G90 ; use absolute coordinates
M83 ; use relative distances for extrusion
M900 K0.2 ; Filament gcode LA 1.5
; ; Filament gcode LA 1.0
;LAYER_CHANGE
;Z:0.2
;HEIGHT:0.2
;BEFORE_LAYER_CHANGE
G92 E0.0
;0.2


M73 P5 R5
G1 E-3.20000 F4200.000
G1 Z0.200 F9000.000
;AFTER_LAYER_CHANGE
;0.2
G1 Z0.400
G1 X80.951 Y81.012
G1 Z0.200
G1 E3.20000 F2400.000
M204 S800
;TYPE:Skirt
;WIDTH:0.42
G1 F1200.000
G1 X81.988 Y80.077 E0.04376
G1 X82.888 Y79.413 E0.03507
G1 X84.087 Y78.700 E0.04376
G1 X85.100 Y78.225 E0.03508
G1 X86.416 Y77.760 E0.04376
G1 X87.503 Y77.493 E0.03507
G1 X88.884 Y77.295 E0.04376
G1 X90.002 Y77.246 E0.03508
G1 X91.396 Y77.323 E0.04376
G1 X92.501 Y77.494 E0.03508
G1 X93.853 Y77.842 E0.04376
G1 X94.903 Y78.227 E0.03508
G1 X96.161 Y78.833 E0.04376
G1 X97.112 Y79.414 E0.03495
G1 X98.012 Y80.077 E0.03507
G1 X99.049 Y81.012 E0.04377
G1 X99.801 Y81.840 E0.03507
G1 X100.635 Y82.960 E0.04377
G1 X101.210 Y83.919 E0.03507
G1 X101.808 Y85.180 E0.04377
G1 X102.185 Y86.233 E0.03507
G1 X102.524 Y87.588 E0.04377
G1 X102.687 Y88.694 E0.03507
G1 X102.754 Y90.089 E0.04378
M73 P6 R5
G1 X102.697 Y91.205 E0.03505
G1 X102.489 Y92.586 E0.04377
G1 X102.215 Y93.670 E0.03507
G1 X101.740 Y94.983 E0.04377
G1 X101.259 Y95.992 E0.03507
G1 X100.537 Y97.187 E0.04377
G1 X99.866 Y98.082 E0.03507
G1 X98.924 Y99.113 E0.04377
G1 X98.091 Y99.859 E0.03507
G1 X96.965 Y100.685 E0.04377
G1 X96.003 Y101.254 E0.03507
G1 X94.737 Y101.842 E0.04377
G1 X93.681 Y102.212 E0.03507
G1 X92.325 Y102.541 E0.04377
G1 X91.221 Y102.696 E0.03495
G1 X89.843 Y102.754 E0.04325
G1 X88.709 Y102.689 E0.03559
G1 X87.327 Y102.471 E0.04389
G1 X86.244 Y102.189 E0.03507
G1 X84.938 Y101.707 E0.04364
G1 X83.929 Y101.217 E0.03519
G1 X82.743 Y100.489 E0.04364
G1 X81.852 Y99.812 E0.03508
G1 X80.851 Y98.887 E0.04274
G1 X80.095 Y98.035 E0.03572
G1 X79.334 Y96.992 E0.04047
G1 X78.727 Y95.967 E0.03734
G1 X78.245 Y94.949 E0.03532
G1 X77.784 Y93.666 E0.04274
G1 X77.510 Y92.582 E0.03508
G1 X77.303 Y91.201 E0.04376
G1 X77.246 Y90.055 E0.03597
G1 X77.313 Y88.690 E0.04286
G1 X77.476 Y87.587 E0.03495
G1 X77.815 Y86.233 E0.04376
G1 X78.192 Y85.180 E0.03508
G1 X78.789 Y83.919 E0.04376
G1 X79.365 Y82.960 E0.03508
G1 X80.199 Y81.840 E0.04376
G1 X80.911 Y81.057 E0.03320
M204 S1250
G1 X81.190 Y81.310 F9000.000
M204 S800
G1 F1200.000
G1 X82.228 Y80.368 E0.04396
G1 X83.097 Y79.727 E0.03386
G1 X84.266 Y79.032 E0.04264
G1 X85.244 Y78.574 E0.03387
G1 X86.526 Y78.121 E0.04264
G1 X87.575 Y77.863 E0.03387
G1 X88.922 Y77.671 E0.04264
G1 X90.004 Y77.623 E0.03399
M73 P7 R5
G1 X91.359 Y77.698 E0.04252
G1 X92.426 Y77.864 E0.03387
G1 X93.743 Y78.203 E0.04264
G1 X94.757 Y78.574 E0.03387
G1 X95.982 Y79.165 E0.04264
G1 X96.904 Y79.728 E0.03387
G1 X97.989 Y80.548 E0.04264
G1 X98.783 Y81.280 E0.03387
G1 X99.687 Y82.296 E0.04264
G1 X100.322 Y83.170 E0.03387
G1 X101.009 Y84.344 E0.04264
G1 X101.460 Y85.325 E0.03387
G1 X101.904 Y86.611 E0.04264
G1 X102.154 Y87.662 E0.03387
G1 X102.324 Y88.869 E0.03823
G1 X102.377 Y90.087 E0.03823
G1 X102.307 Y91.306 E0.03828
G1 X102.119 Y92.512 E0.03828
G1 X101.771 Y93.826 E0.04264
G1 X101.392 Y94.838 E0.03387
G1 X100.793 Y96.059 E0.04264
G1 X100.224 Y96.977 E0.03387
G1 X99.577 Y97.840 E0.03382
G1 X98.661 Y98.842 E0.04257
G1 X97.855 Y99.565 E0.03394
G1 X96.757 Y100.370 E0.04269
G1 X95.829 Y100.919 E0.03382
G1 X94.598 Y101.492 E0.04257
G1 X93.576 Y101.849 E0.03394
G1 X92.257 Y102.170 E0.04257
G1 X91.187 Y102.320 E0.03387
G1 X89.844 Y102.377 E0.04216
G1 X88.750 Y102.314 E0.03434
G1 X87.407 Y102.103 E0.04264
G1 X86.361 Y101.831 E0.03387
G1 X85.089 Y101.362 E0.04252
G1 X84.114 Y100.888 E0.03399
G1 X82.955 Y100.177 E0.04264
G1 X82.095 Y99.524 E0.03387
G1 X81.119 Y98.621 E0.04169
G1 X80.384 Y97.793 E0.03470
G1 X79.602 Y96.713 E0.04181
G1 X78.594 Y94.807 E0.06762
G1 X78.144 Y93.554 E0.04174
G1 X77.878 Y92.503 E0.03399
G1 X77.678 Y91.162 E0.04252
G1 X77.623 Y90.056 E0.03470
G1 X77.689 Y88.725 E0.04180
M73 P8 R5
G1 X77.847 Y87.656 E0.03387
G1 X78.176 Y86.341 E0.04252
G1 X78.542 Y85.320 E0.03399
G1 X79.123 Y84.095 E0.04252
G1 X79.679 Y83.169 E0.03387
G1 X80.491 Y82.078 E0.04264
G1 X81.149 Y81.355 E0.03066
M204 S1250
; printing object OnDiskWasher02.stl id:0 copy 0
G1 E-2.24000 F4200.000
;WIPE_START
G1 F7200.000
G1 X82.228 Y80.368 E-0.81002
G1 X82.376 Y80.259 E-0.10198
;WIPE_END
G1 E-0.04800 F4200.000
G1 Z0.400 F9000.000
G1 X87.220 Y87.427
G1 Z0.200
G1 E3.20000 F2400.000
M204 S800
;TYPE:Perimeter
G1 F1200.000
G1 X87.499 Y87.155 E0.01223
G1 X87.805 Y86.913 E0.01223
G1 X88.134 Y86.704 E0.01223
G1 X88.483 Y86.530 E0.01223
G1 X88.848 Y86.392 E0.01223
G1 X89.225 Y86.293 E0.01223
G1 X89.610 Y86.233 E0.01222
G1 X89.996 Y86.212 E0.01212
G1 X90.575 Y86.256 E0.01819
G1 X90.965 Y86.337 E0.01249
G1 X91.336 Y86.456 E0.01223
G1 X91.693 Y86.612 E0.01223
G1 X92.033 Y86.804 E0.01223
G1 X92.351 Y87.030 E0.01223
G1 X92.644 Y87.288 E0.01223
G1 X92.909 Y87.574 E0.01223
G1 X93.143 Y87.886 E0.01223
G1 X93.343 Y88.220 E0.01223
G1 X93.509 Y88.573 E0.01223
G1 X93.637 Y88.942 E0.01223
G1 X93.726 Y89.321 E0.01223
G1 X93.776 Y89.704 E0.01211
G1 X93.776 Y90.296 E0.01856
G1 X93.726 Y90.680 E0.01212
G1 X93.637 Y91.059 E0.01223
G1 X93.509 Y91.428 E0.01223
G1 X93.343 Y91.781 E0.01223
G1 X93.143 Y92.115 E0.01223
G1 X92.909 Y92.427 E0.01223
G1 X92.644 Y92.713 E0.01223
G1 X92.351 Y92.971 E0.01223
G1 X92.027 Y93.201 E0.01247
G1 X91.524 Y93.469 E0.01786
G1 X91.152 Y93.609 E0.01247
G1 X90.775 Y93.708 E0.01223
G1 X90.389 Y93.768 E0.01223
G1 X90.000 Y93.788 E0.01223
G1 X89.610 Y93.768 E0.01223
G1 X89.225 Y93.708 E0.01223
G1 X88.848 Y93.609 E0.01223
G1 X88.483 Y93.471 E0.01223
G1 X88.134 Y93.297 E0.01223
G1 X87.799 Y93.084 E0.01247
G1 X87.361 Y92.719 E0.01786
G1 X87.091 Y92.427 E0.01247
G1 X86.857 Y92.115 E0.01223
G1 X86.656 Y91.781 E0.01223
G1 X86.491 Y91.428 E0.01223
G1 X86.363 Y91.059 E0.01223
G1 X86.272 Y90.672 E0.01247
G1 X86.213 Y90.106 E0.01786
G1 X86.223 Y89.708 E0.01247
G1 X86.274 Y89.314 E0.01247
G1 X86.419 Y88.763 E0.01786
G1 X86.569 Y88.395 E0.01247
G1 X86.752 Y88.050 E0.01223
G1 X86.970 Y87.727 E0.01223
G1 X87.182 Y87.474 E0.01035
M204 S1250
G1 X87.471 Y87.715 F9000.000
M204 S800
;TYPE:External perimeter
G1 F1200.000
G1 X87.749 Y87.439 E0.01227
G1 X88.024 Y87.221 E0.01101
G1 X88.320 Y87.033 E0.01101
G1 X88.634 Y86.876 E0.01101
G1 X88.963 Y86.752 E0.01101
G1 X89.302 Y86.662 E0.01101
G1 X89.649 Y86.608 E0.01101
G1 X89.992 Y86.590 E0.01076
G1 X90.522 Y86.630 E0.01666
G1 X90.868 Y86.703 E0.01110
G1 X91.203 Y86.809 E0.01101
G1 X91.525 Y86.950 E0.01101
G1 X91.830 Y87.123 E0.01101
G1 X92.116 Y87.326 E0.01101
G1 X92.380 Y87.558 E0.01101
G1 X92.619 Y87.816 E0.01101
G1 X92.829 Y88.097 E0.01101
G1 X93.010 Y88.398 E0.01101
G1 X93.159 Y88.716 E0.01101
G1 X93.274 Y89.047 E0.01101
G1 X93.355 Y89.389 E0.01101
G1 X93.400 Y89.736 E0.01097
G1 X93.400 Y90.265 E0.01659
G1 X93.355 Y90.612 E0.01097
G1 X93.274 Y90.954 E0.01101
G1 X93.159 Y91.285 E0.01101
G1 X93.010 Y91.603 E0.01101
G1 X92.829 Y91.904 E0.01101
G1 X92.619 Y92.185 E0.01101
G1 X92.380 Y92.443 E0.01101
G1 X92.116 Y92.675 E0.01101
G1 X91.828 Y92.880 E0.01109
G1 X91.368 Y93.124 E0.01634
G1 X91.037 Y93.249 E0.01109
G1 X90.697 Y93.339 E0.01101
G1 X90.351 Y93.393 E0.01101
G1 X90.000 Y93.411 E0.01101
G1 X89.649 Y93.393 E0.01101
G1 X89.302 Y93.339 E0.01101
G1 X88.963 Y93.249 E0.01101
G1 X88.634 Y93.125 E0.01101
G1 X88.320 Y92.968 E0.01101
G1 X88.022 Y92.779 E0.01109
G1 X87.621 Y92.445 E0.01634
G1 X87.381 Y92.185 E0.01109
G1 X87.170 Y91.904 E0.01101
G1 X86.990 Y91.603 E0.01101
G1 X86.841 Y91.285 E0.01101
G1 X86.725 Y90.954 E0.01101
G1 X86.644 Y90.609 E0.01109
M73 P9 R5
G1 X86.591 Y90.091 E0.01634
G1 X86.600 Y89.737 E0.01109
G1 X86.645 Y89.386 E0.01109
G1 X86.778 Y88.883 E0.01634
G1 X86.911 Y88.555 E0.01109
G1 X87.076 Y88.245 E0.01101
G1 X87.272 Y87.954 E0.01101
G1 X87.433 Y87.761 E0.00786
M204 S1250
G1 X87.352 Y87.342 F9000.000
G1 E-2.24000 F4200.000
;WIPE_START
G1 F7200.000
G1 X87.749 Y87.439 E-0.25008
G1 X88.024 Y87.221 E-0.19458
G1 X88.320 Y87.033 E-0.19458
G1 X88.634 Y86.876 E-0.19458
G1 X88.766 Y86.826 E-0.07819
;WIPE_END
G1 E-0.04800 F4200.000
G1 Z0.400 F9000.000
G1 X83.092 Y83.911
G1 Z0.200
G1 E3.20000 F2400.000
M204 S800
;TYPE:Perimeter
G1 F1200.000
G1 X83.648 Y83.328 E0.02528
G1 X84.034 Y82.980 E0.01628
G1 X84.416 Y82.673 E0.01537
G1 X85.083 Y82.210 E0.02546
G1 X85.525 Y81.947 E0.01613
G1 X85.982 Y81.710 E0.01615
G1 X86.704 Y81.398 E0.02467
G1 X87.190 Y81.227 E0.01615
G1 X87.685 Y81.084 E0.01615
G1 X88.450 Y80.919 E0.02454
G1 X89.226 Y80.820 E0.02454
G1 X89.741 Y80.791 E0.01615
G1 X90.231 Y80.791 E0.01537
G1 X91.036 Y80.847 E0.02533
G1 X91.809 Y80.967 E0.02452
G1 X92.311 Y81.082 E0.01615
G1 X92.806 Y81.226 E0.01615
G1 X93.544 Y81.497 E0.02467
G1 X94.014 Y81.708 E0.01615
G1 X94.471 Y81.946 E0.01615
G1 X95.142 Y82.356 E0.02467
G1 X95.561 Y82.656 E0.01615
G1 X95.943 Y82.962 E0.01537
G1 X96.540 Y83.513 E0.02546
G1 X96.892 Y83.888 E0.01613
G1 X97.223 Y84.282 E0.01615
G1 X97.682 Y84.916 E0.02454
G1 X98.086 Y85.586 E0.02454
G1 X98.320 Y86.045 E0.01615
G1 X98.530 Y86.520 E0.01628
G1 X98.712 Y87.006 E0.01628
G1 X98.859 Y87.474 E0.01537
G1 X99.046 Y88.259 E0.02533
G1 X99.161 Y89.033 E0.02452
G1 X99.201 Y89.546 E0.01615
G1 X99.212 Y90.060 E0.01611
G1 X99.173 Y90.847 E0.02470
G1 X99.112 Y91.358 E0.01615
G1 X99.021 Y91.869 E0.01628
G1 X98.901 Y92.375 E0.01628
G1 X98.762 Y92.845 E0.01537
G1 X98.479 Y93.601 E0.02533
G1 X98.144 Y94.308 E0.02452
G1 X97.890 Y94.756 E0.01615
G1 X97.610 Y95.193 E0.01628
G1 X97.305 Y95.613 E0.01628
G1 X96.980 Y96.012 E0.01615
G1 X96.445 Y96.583 E0.02454
G1 X95.863 Y97.106 E0.02454
G1 X95.457 Y97.423 E0.01615
G1 X95.030 Y97.719 E0.01628
G1 X94.587 Y97.990 E0.01628
G1 X94.134 Y98.233 E0.01615
G1 X93.416 Y98.556 E0.02467
G1 X92.933 Y98.734 E0.01615
G1 X92.440 Y98.884 E0.01615
G1 X91.678 Y99.059 E0.02454
G1 X90.903 Y99.169 E0.02454
G1 X90.389 Y99.205 E0.01615
G1 X89.874 Y99.212 E0.01615
G1 X89.089 Y99.168 E0.02467
G1 X88.578 Y99.103 E0.01615
G1 X88.068 Y99.008 E0.01628
G1 X87.563 Y98.885 E0.01628
G1 X87.071 Y98.735 E0.01615
G1 X86.336 Y98.453 E0.02467
G1 X85.869 Y98.235 E0.01615
G1 X85.437 Y98.004 E0.01537
G1 X84.754 Y97.573 E0.02533
G1 X84.130 Y97.101 E0.02452
G1 X83.743 Y96.762 E0.01615
G1 X83.372 Y96.399 E0.01628
G1 X83.022 Y96.016 E0.01628
G1 X82.697 Y95.616 E0.01615
G1 X82.244 Y94.973 E0.02467
G1 X81.979 Y94.532 E0.01615
G1 X81.738 Y94.076 E0.01615
G1 X81.420 Y93.357 E0.02467
M73 P10 R5
G1 X81.246 Y92.872 E0.01615
G1 X81.100 Y92.378 E0.01615
G1 X80.929 Y91.610 E0.02467
G1 X80.853 Y91.101 E0.01615
G1 X80.806 Y90.588 E0.01615
M73 P10 R4
G1 X80.790 Y89.806 E0.02454
G1 X80.839 Y89.025 E0.02454
G1 X80.908 Y88.514 E0.01615
G1 X81.006 Y88.005 E0.01628
G1 X81.133 Y87.501 E0.01628
G1 X81.286 Y87.010 E0.01615
G1 X81.573 Y86.277 E0.02467
G1 X81.794 Y85.812 E0.01615
G1 X82.029 Y85.382 E0.01537
G1 X82.464 Y84.701 E0.02533
G1 X83.052 Y83.956 E0.02976
M204 S1250
G1 X82.770 Y83.706 F9000.000
M204 S800
;TYPE:External perimeter
G1 F1200.000
G1 X83.388 Y83.054 E0.02816
G1 X83.790 Y82.693 E0.01694
G1 X84.190 Y82.371 E0.01611
G1 X84.879 Y81.893 E0.02629
G1 X85.342 Y81.618 E0.01689
G1 X85.820 Y81.369 E0.01690
G1 X86.567 Y81.046 E0.02550
G1 X87.075 Y80.868 E0.01690
G1 X87.593 Y80.718 E0.01690
G1 X88.386 Y80.547 E0.02545
G1 X89.192 Y80.445 E0.02545
G1 X89.730 Y80.414 E0.01690
G1 X90.243 Y80.414 E0.01611
G1 X91.079 Y80.472 E0.02625
G1 X91.880 Y80.597 E0.02545
G1 X92.406 Y80.717 E0.01690
G1 X92.923 Y80.867 E0.01690
G1 X93.687 Y81.148 E0.02550
G1 X94.178 Y81.369 E0.01690
G1 X94.656 Y81.617 E0.01690
G1 X95.350 Y82.042 E0.02550
G1 X95.789 Y82.355 E0.01690
G1 X96.190 Y82.676 E0.01611
G1 X96.806 Y83.245 E0.02629
G1 X97.175 Y83.637 E0.01689
G1 X97.521 Y84.050 E0.01690
G1 X97.997 Y84.708 E0.02545
G1 X98.416 Y85.403 E0.02545
G1 X98.661 Y85.883 E0.01690
G1 X98.879 Y86.377 E0.01694
G1 X99.069 Y86.883 E0.01694
G1 X99.223 Y87.374 E0.01611
G1 X99.417 Y88.188 E0.02625
G1 X99.536 Y88.991 E0.02545
G1 X99.578 Y89.528 E0.01690
G1 X99.590 Y90.066 E0.01686
G1 X99.549 Y90.879 E0.02553
G1 X99.485 Y91.414 E0.01690
G1 X99.390 Y91.946 E0.01694
G1 X99.266 Y92.472 E0.01694
G1 X99.120 Y92.964 E0.01611
G1 X98.827 Y93.748 E0.02625
G1 X98.478 Y94.481 E0.02545
G1 X98.213 Y94.951 E0.01690
G1 X97.922 Y95.405 E0.01694
G1 X97.605 Y95.843 E0.01694
G1 X97.264 Y96.261 E0.01690
G1 X96.709 Y96.853 E0.02545
G1 X96.105 Y97.396 E0.02545
G1 X95.680 Y97.727 E0.01690
G1 X95.236 Y98.035 E0.01694
G1 X94.775 Y98.317 E0.01694
G1 X94.301 Y98.572 E0.01690
G1 X93.559 Y98.905 E0.02550
G1 X93.053 Y99.091 E0.01690
G1 X92.538 Y99.248 E0.01690
G1 X91.746 Y99.430 E0.02545
G1 X90.943 Y99.544 E0.02545
G1 X90.405 Y99.582 E0.01690
G1 X89.866 Y99.589 E0.01690
G1 X89.054 Y99.544 E0.02550
G1 X88.520 Y99.475 E0.01690
G1 X87.988 Y99.377 E0.01694
G1 X87.463 Y99.249 E0.01694
G1 X86.948 Y99.092 E0.01690
G1 X86.189 Y98.801 E0.02550
G1 X85.700 Y98.573 E0.01690
G1 X85.248 Y98.330 E0.01611
G1 X84.539 Y97.884 E0.02625
G1 X83.892 Y97.394 E0.02545
G1 X83.487 Y97.039 E0.01690
G1 X83.100 Y96.661 E0.01694
G1 X82.736 Y96.262 E0.01694
G1 X82.396 Y95.844 E0.01690
G1 X81.928 Y95.179 E0.02550
G1 X81.650 Y94.717 E0.01690
G1 X81.398 Y94.241 E0.01690
M73 P11 R4
G1 X81.070 Y93.497 E0.02550
G1 X80.888 Y92.990 E0.01690
G1 X80.734 Y92.473 E0.01690
G1 X80.558 Y91.679 E0.02550
G1 X80.479 Y91.146 E0.01690
G1 X80.429 Y90.610 E0.01690
G1 X80.412 Y89.798 E0.02545
G1 X80.464 Y88.988 E0.02545
G1 X80.536 Y88.454 E0.01690
G1 X80.638 Y87.923 E0.01694
G1 X80.770 Y87.399 E0.01694
G1 X80.930 Y86.885 E0.01690
G1 X81.227 Y86.127 E0.02550
G1 X81.458 Y85.641 E0.01690
G1 X81.704 Y85.190 E0.01611
G1 X82.155 Y84.485 E0.02625
G1 X82.730 Y83.751 E0.02922
M204 S1250
G1 X83.162 Y83.781 F9000.000
G1 E-2.24000 F4200.000
;WIPE_START
G1 F7200.000
G1 X83.388 Y83.054 E-0.53098
G1 X83.790 Y82.693 E-0.29947
G1 X83.904 Y82.601 E-0.08154
;WIPE_END
G1 E-0.04800 F4200.000
G1 Z0.400 F9000.000
G1 X95.072 Y82.446
G1 Z0.200
G1 E3.20000 F2400.000
M204 S800
;TYPE:Solid infill
;WIDTH:0.422817
G1 F1200.000
G1 X96.681 Y84.075 E0.07232
G1 X97.000 Y84.456 E0.01570
G1 X97.446 Y85.072 E0.02403
G1 X97.866 Y85.778 E0.02594
G1 X94.225 Y82.137 E0.16267
G1 X93.891 Y81.963 E0.01191
G1 X93.236 Y81.685 E0.02245
G1 X98.322 Y86.771 E0.22718
G1 X98.593 Y87.579 E0.02695
G1 X92.423 Y81.409 E0.27563
G1 X91.716 Y81.239 E0.02299
G1 X98.762 Y88.285 E0.31476
M73 P12 R4
G1 X98.859 Y88.919 E0.02027
G1 X91.079 Y81.140 E0.34754
G1 X90.495 Y81.093 E0.01850
G1 X98.915 Y89.513 E0.37615
G1 X98.929 Y90.064 E0.01741
G1 X89.939 Y81.074 E0.40160
G1 X89.420 Y81.093 E0.01639
G1 X98.904 Y90.576 E0.42364
G1 X98.862 Y91.071 E0.01570
G1 X88.933 Y81.143 E0.44353
M73 P13 R4
G1 X88.460 Y81.207 E0.01509
G1 X98.792 Y91.539 E0.46160
G1 X98.703 Y91.987 E0.01441
G1 X88.017 Y81.301 E0.47734
G1 X87.585 Y81.407 E0.01404
G1 X98.594 Y92.416 E0.49180
G1 X98.467 Y92.826 E0.01356
G1 X87.174 Y81.532 E0.50452
M73 P14 R4
G1 X86.778 Y81.674 E0.01328
G1 X91.229 Y86.125 E0.19885
