; generated by PrusaSlicer 2.3.0+win64 on 2021-08-01 at 10:16:24 UTC


;
;

;
;
; 

; external perimeters extrusion width = 0.45mm
; perimeters extrusion width = 0.45mm
; infill extrusion width = 0.45mm
; solid infill extrusion width = 0.45mm
; top infill extrusion width = 0.40mm
; first layer extrusion width = 0.42mm

M73 P0 R25
M201 X1250 Y1250 Z400 E5000 ; sets maximum accelerations, mm/sec^2
M203 X180 Y180 Z12 E80 ; sets maximum feedrates, mm/sec
M204 P1250 R1250 T1250 ; sets acceleration (P, T) and retract acceleration (R), mm/sec^2
M205 X8.00 Y8.00 Z2.00 E10.00 ; sets the jerk limits, mm/sec
M205 S0 T0 ; sets the minimum extruding and travel feed rate, mm/sec
M107
;TYPE:Custom
G90 ; use absolute coordinates
M83 ; extruder relative mode
M104 S170 ; set extruder temp for bed leveling
M140 S60 ; set bed temp
M109 R170 ; wait for bed leveling temp
M190 S60 ; wait for bed temp
G28 ; home all without mesh bed level
G29 ; mesh bed leveling 
M104 S215 ; set extruder temp
G92 E0.0
G1 Y-2.0 X179 F2400
G1 Z3 F720
M109 S215 ; wait for extruder temp

; intro line
G1 X170 F1000
G1 Z0.2 F720
G1 X110.0 E8.0 F900
G1 X40.0 E10.0 F700
G92 E0.0

M221 S95 ; set flow
G21 ; set units to millimeters
G90 ; use absolute coordinates
M83 ; use relative distances for extrusion
M900 K0.2 ; Filament gcode LA 1.5
; ; Filament gcode LA 1.0
;LAYER_CHANGE
;Z:0.2
;HEIGHT:0.2
;BEFORE_LAYER_CHANGE
G92 E0.0
;0.2


M73 P1 R25
G1 E-3.20000 F4200.000
G1 Z0.200 F9000.000
;AFTER_LAYER_CHANGE
;0.2
G1 Z0.400
G1 X79.255 Y72.722
G1 Z0.200
G1 E3.20000 F2400.000
M204 S800
;TYPE:Skirt
;WIDTH:0.42
G1 F1200.000
G1 X79.848 Y72.214 E0.02447
G1 X80.555 Y71.894 E0.02434
G1 X81.328 Y71.785 E0.02447
G1 X81.985 Y71.865 E0.02078
G1 X91.782 Y74.373 E0.31709
G1 X92.497 Y74.697 E0.02460
G1 X93.091 Y75.210 E0.02460
G1 X93.535 Y75.910 E0.02600
G1 X102.095 Y95.685 E0.67562
G1 X102.253 Y96.253 E0.01848
G1 X102.287 Y96.837 E0.01835
G1 X102.196 Y97.419 E0.01848
G1 X101.985 Y97.965 E0.01835
G1 X97.060 Y106.921 E0.32048
G1 X96.487 Y107.581 E0.02739
G1 X95.736 Y108.028 E0.02739
G1 X95.050 Y108.202 E0.02218
G1 X94.339 Y108.195 E0.02231
G1 X93.691 Y108.022 E0.02103
G1 X92.966 Y107.642 E0.02567
G1 X91.232 Y106.573 E0.06387
G1 X89.933 Y105.660 E0.04977
G1 X88.353 Y104.404 E0.06331
G1 X86.834 Y103.019 E0.06444
G1 X84.749 Y100.767 E0.09622
G1 X82.890 Y98.297 E0.09693
G1 X82.064 Y97.003 E0.04814
G1 X81.090 Y95.262 E0.06256
G1 X79.816 Y92.456 E0.09661
G1 X79.279 Y90.984 E0.04912
G1 X78.708 Y89.075 E0.06249
G1 X78.072 Y86.032 E0.09747
G1 X77.872 Y84.494 E0.04862
G1 X77.731 Y82.496 E0.06283
G1 X77.775 Y79.383 E0.09759
G1 X78.130 Y76.340 E0.09608
G1 X78.533 Y74.358 E0.06341
G1 X78.830 Y73.372 E0.03229
G1 X79.222 Y72.772 E0.02246
M204 S1250
G1 X79.145 Y73.590 F9000.000
M204 S800
G1 F1200.000
G1 X79.508 Y73.006 E0.02154
G1 X80.022 Y72.551 E0.02154
G1 X80.645 Y72.261 E0.02154
G1 X81.329 Y72.162 E0.02166
G1 X81.898 Y72.232 E0.01799
G1 X91.672 Y74.734 E0.31632
G1 X92.294 Y75.015 E0.02142
G1 X92.813 Y75.466 E0.02154
G1 X93.190 Y76.063 E0.02213
G1 X101.741 Y95.815 E0.67488
G1 X101.880 Y96.306 E0.01597
G1 X101.911 Y96.814 E0.01597
G1 X101.833 Y97.317 E0.01597
G1 X101.647 Y97.796 E0.01609
G1 X96.748 Y106.708 E0.31886
G1 X96.254 Y107.284 E0.02378
G1 X95.608 Y107.673 E0.02367
G1 X94.925 Y107.836 E0.02201
G1 X94.224 Y107.792 E0.02201
G1 X93.681 Y107.606 E0.01799
G1 X92.709 Y107.056 E0.03502
G1 X91.015 Y105.971 E0.06307
G1 X89.765 Y105.061 E0.04848
G1 X88.211 Y103.782 E0.06311
G1 X86.757 Y102.412 E0.06263
G1 X84.719 Y100.136 E0.09579
G1 X82.939 Y97.689 E0.09488
G1 X81.414 Y95.069 E0.09504
G1 X80.168 Y92.323 E0.09455
G1 X79.193 Y89.423 E0.09595
G1 X78.721 Y87.488 E0.06244
G1 X78.444 Y85.976 E0.04819
G1 X78.247 Y84.458 E0.04799
G1 X78.108 Y82.483 E0.06210
G1 X78.149 Y79.447 E0.09517
G1 X78.500 Y76.413 E0.09577
G1 X79.132 Y73.648 E0.08893
M204 S1250
; printing object OnOffMount_01_cutdown.stl id:0 copy 0
G1 E-2.24000 F4200.000
;WIPE_START
G1 F7200.000
G1 X79.508 Y73.006 E-0.41231
G1 X80.022 Y72.551 E-0.38072
G1 X80.217 Y72.460 E-0.11897
;WIPE_END
G1 E-0.04800 F4200.000
G1 Z0.400 F9000.000
G1 X87.201 Y91.294
G1 Z0.200
G1 E3.20000 F2400.000
M204 S800
;TYPE:Perimeter
G1 F1200.000
G1 X87.498 Y91.185 E0.00992
G1 X87.809 Y91.129 E0.00992
G1 X88.139 Y91.129 E0.01033
G1 X88.576 Y91.227 E0.01405
G1 X88.873 Y91.368 E0.01033
G1 X89.142 Y91.560 E0.01033
G1 X89.441 Y91.893 E0.01405
G1 X89.601 Y92.181 E0.01033
G1 X89.704 Y92.480 E0.00992
G1 X89.753 Y92.793 E0.00992
G1 X89.746 Y93.109 E0.00992
G1 X89.683 Y93.419 E0.00992
G1 X89.562 Y93.726 E0.01033
G1 X89.310 Y94.096 E0.01405
G1 X89.070 Y94.321 E0.01033
G1 X88.793 Y94.500 E0.01033
G1 X88.373 Y94.656 E0.01405
G1 X88.046 Y94.699 E0.01033
G1 X87.717 Y94.685 E0.01033
G1 X87.285 Y94.567 E0.01405
G1 X86.994 Y94.413 E0.01033
G1 X86.745 Y94.218 E0.00992
G1 X86.525 Y93.973 E0.01033
G1 X86.306 Y93.581 E0.01405
G1 X86.213 Y93.265 E0.01033
G1 X86.178 Y92.951 E0.00992
G1 X86.200 Y92.622 E0.01033
G1 X86.327 Y92.193 E0.01405
G1 X86.488 Y91.905 E0.01033
G1 X86.688 Y91.660 E0.00992
G1 X86.928 Y91.454 E0.00992
G1 X87.149 Y91.325 E0.00804
M204 S1250
G1 X87.340 Y91.650 F9000.000
M204 S800
;TYPE:External perimeter
G1 F1200.000
G1 X87.597 Y91.550 E0.00864
G1 X87.843 Y91.506 E0.00782
G1 X88.097 Y91.506 E0.00797
G1 X88.452 Y91.586 E0.01142
G1 X88.682 Y91.695 E0.00797
G1 X88.889 Y91.842 E0.00797
G1 X89.132 Y92.114 E0.01142
G1 X89.255 Y92.336 E0.00797
G1 X89.337 Y92.571 E0.00782
G1 X89.375 Y92.818 E0.00782
G1 X89.370 Y93.067 E0.00782
G1 X89.320 Y93.312 E0.00782
G1 X89.227 Y93.548 E0.00797
G1 X89.022 Y93.849 E0.01142
G1 X88.837 Y94.023 E0.00797
G1 X88.623 Y94.161 E0.00797
G1 X88.282 Y94.288 E0.01142
G1 X88.030 Y94.321 E0.00797
G1 X87.776 Y94.310 E0.00797
G1 X87.424 Y94.214 E0.01142
G1 X87.200 Y94.095 E0.00797
G1 X87.003 Y93.942 E0.00782
G1 X86.834 Y93.752 E0.00797
G1 X86.656 Y93.434 E0.01142
G1 X86.584 Y93.191 E0.00797
G1 X86.557 Y92.943 E0.00782
G1 X86.573 Y92.689 E0.00797
G1 X86.677 Y92.340 E0.01142
G1 X86.801 Y92.118 E0.00797
G1 X86.959 Y91.925 E0.00782
G1 X87.148 Y91.763 E0.00782
G1 X87.288 Y91.680 E0.00511
M204 S1250
G1 X87.359 Y91.375 F9000.000
G1 E-2.24000 F4200.000
;WIPE_START
G1 F7200.000
G1 X87.597 Y91.550 E-0.18562
G1 X87.843 Y91.506 E-0.13821
G1 X88.097 Y91.506 E-0.14081
G1 X88.452 Y91.586 E-0.20192
G1 X88.682 Y91.695 E-0.14082
G1 X88.835 Y91.804 E-0.10462
;WIPE_END
G1 E-0.04800 F4200.000
G1 Z0.400 F9000.000
G1 X90.083 Y77.592
G1 Z0.200
G1 E3.20000 F2400.000
M204 S800
;TYPE:Perimeter
G1 F1200.000
G1 X89.929 Y78.340 E0.02395
G1 X89.816 Y79.115 E0.02455
G1 X89.736 Y79.889 E0.02440
G1 X89.690 Y80.666 E0.02440
G1 X89.677 Y81.444 E0.02440
G1 X89.697 Y82.222 E0.02440
G1 X89.750 Y82.999 E0.02440
G1 X89.835 Y83.772 E0.02440
G1 X89.955 Y84.545 E0.02450
G1 X90.193 Y85.683 E0.03647
G1 X90.393 Y86.436 E0.02444
G1 X90.625 Y87.179 E0.02440
G1 X90.888 Y87.912 E0.02440
G1 X91.182 Y88.632 E0.02440
G1 X91.506 Y89.340 E0.02440
G1 X91.862 Y90.036 E0.02450
G1 X92.446 Y91.042 E0.03647
G1 X92.872 Y91.694 E0.02444
G1 X93.325 Y92.327 E0.02440
G1 X93.805 Y92.940 E0.02440
G1 X94.310 Y93.532 E0.02440
G1 X94.840 Y94.102 E0.02440
G1 X95.394 Y94.649 E0.02440
G1 X95.971 Y95.172 E0.02440
G1 X96.569 Y95.670 E0.02440
G1 X97.188 Y96.141 E0.02440
G1 X97.830 Y96.589 E0.02455
G1 X98.481 Y96.989 E0.02395
G1 X94.418 Y104.383 E0.26453
G1 X93.929 Y104.095 E0.01781
G1 X93.170 Y103.609 E0.02827
G1 X92.058 Y102.828 E0.04259
G1 X91.342 Y102.278 E0.02832
G1 X90.645 Y101.704 E0.02830
G1 X89.634 Y100.799 E0.04254
G1 X88.671 Y99.842 E0.04258
G1 X88.058 Y99.181 E0.02826
G1 X87.469 Y98.499 E0.02826
G1 X86.623 Y97.433 E0.04266
G1 X86.096 Y96.708 E0.02811
G1 X85.588 Y95.958 E0.02841
G1 X84.874 Y94.800 E0.04266
G1 X84.435 Y94.015 E0.02818
M73 P2 R25
G1 X83.824 Y92.805 E0.04251
G1 X83.450 Y91.980 E0.02841
G1 X83.104 Y91.143 E0.02840
G1 X82.641 Y89.871 E0.04244
G1 X82.242 Y88.575 E0.04253
G1 X82.013 Y87.702 E0.02831
G1 X81.814 Y86.820 E0.02833
G1 X81.570 Y85.484 E0.04259
G1 X81.447 Y84.594 E0.02818
G1 X81.317 Y83.242 E0.04258
G1 X81.256 Y81.888 E0.04250
G1 X81.264 Y80.532 E0.04250
G1 X81.341 Y79.179 E0.04250
G1 X81.486 Y77.831 E0.04250
G1 X81.700 Y76.490 E0.04258
G1 X81.906 Y75.494 E0.03191
G1 X90.025 Y77.577 E0.26281
M204 S1250
G1 X90.525 Y77.316 F9000.000
M204 S800
;TYPE:External perimeter
G1 F1200.000
G1 X90.300 Y78.405 E0.03488
G1 X90.190 Y79.161 E0.02395
G1 X90.112 Y79.919 E0.02390
G1 X90.067 Y80.680 E0.02390
G1 X90.054 Y81.442 E0.02390
G1 X90.073 Y82.204 E0.02390
G1 X90.125 Y82.965 E0.02390
G1 X90.209 Y83.723 E0.02390
G1 X90.326 Y84.477 E0.02394
G1 X90.560 Y85.596 E0.03584
G1 X90.756 Y86.332 E0.02387
G1 X90.983 Y87.059 E0.02390
G1 X91.240 Y87.777 E0.02390
G1 X91.528 Y88.483 E0.02390
G1 X91.846 Y89.175 E0.02390
G1 X92.193 Y89.855 E0.02394
G1 X92.767 Y90.844 E0.03584
G1 X93.183 Y91.481 E0.02387
G1 X93.627 Y92.101 E0.02390
G1 X94.097 Y92.701 E0.02390
G1 X94.592 Y93.281 E0.02390
G1 X95.111 Y93.839 E0.02390
G1 X95.653 Y94.375 E0.02390
G1 X96.218 Y94.887 E0.02390
G1 X96.804 Y95.375 E0.02390
G1 X97.410 Y95.837 E0.02390
G1 X98.037 Y96.274 E0.02395
G1 X98.985 Y96.855 E0.03488
G1 X94.562 Y104.904 E0.28796
G1 X93.731 Y104.417 E0.03020
G1 X92.959 Y103.922 E0.02875
G1 X91.835 Y103.132 E0.04309
G1 X91.107 Y102.573 E0.02877
G1 X90.399 Y101.990 E0.02875
G1 X89.376 Y101.073 E0.04309
G1 X88.399 Y100.104 E0.04313
G1 X87.777 Y99.432 E0.02871
G1 X87.178 Y98.740 E0.02871
G1 X86.323 Y97.661 E0.04316
G1 X85.787 Y96.925 E0.02856
G1 X85.271 Y96.162 E0.02886
G1 X84.549 Y94.991 E0.04316
G1 X84.103 Y94.192 E0.02868
G1 X83.484 Y92.968 E0.04300
G1 X83.104 Y92.130 E0.02886
G1 X82.753 Y91.280 E0.02885
G1 X82.284 Y89.991 E0.04298
G1 X81.879 Y88.678 E0.04308
G1 X81.647 Y87.791 E0.02876
G1 X81.444 Y86.896 E0.02878
G1 X81.198 Y85.544 E0.04309
G1 X81.072 Y84.638 E0.02868
G1 X80.941 Y83.269 E0.04313
G1 X80.879 Y81.895 E0.04310
G1 X80.887 Y80.521 E0.04310
G1 X80.965 Y79.148 E0.04310
G1 X81.112 Y77.781 E0.04310
G1 X81.329 Y76.423 E0.04313
G1 X81.627 Y75.033 E0.04458
G1 X90.467 Y77.301 E0.28614
M204 S1250
G1 X90.270 Y77.624 F9000.000
G1 E-2.24000 F4200.000
;WIPE_START
G1 F7200.000
G1 X90.300 Y78.405 E-0.61889
G1 X90.224 Y78.928 E-0.29311
;WIPE_END
G1 E-0.04800 F4200.000
G1 Z0.400 F9000.000
G1 X88.903 Y77.406
G1 Z0.200
G1 E3.20000 F2400.000
M204 S800
;TYPE:Solid infill
;WIDTH:0.426899
G1 F1200.000
G1 X89.674 Y78.176 E0.03479
G1 X89.599 Y78.644 E0.01513
G1 X88.408 Y77.454 E0.05374
G1 X87.678 Y77.267 E0.02408
G1 X89.531 Y79.120 E0.08367
G1 X89.480 Y79.612 E0.01581
G1 X86.948 Y77.079 E0.11437
G1 X86.217 Y76.892 E0.02408
G1 X89.440 Y80.114 E0.14551
G1 X89.409 Y80.627 E0.01639
G1 X85.487 Y76.704 E0.17711
G1 X84.756 Y76.517 E0.02408
G1 X89.399 Y81.159 E0.20962
G1 X89.400 Y81.704 E0.01739
G1 X84.026 Y76.330 E0.24268
G1 X83.295 Y76.142 E0.02408
G1 X89.416 Y82.263 E0.27636
G1 X89.456 Y82.845 E0.01865
G1 X82.565 Y75.955 E0.31113
G1 X82.123 Y75.841 E0.01457
G1 X82.086 Y76.019 E0.00579
G1 X89.515 Y83.448 E0.33543
G1 X89.596 Y84.071 E0.02008
G1 X81.993 Y76.469 E0.34328
G1 X81.915 Y76.934 E0.01506
G1 X89.703 Y84.722 E0.35163
G1 X89.847 Y85.409 E0.02241
G1 X81.841 Y77.403 E0.36150
G1 X81.766 Y77.871 E0.01515
G1 X90.017 Y86.122 E0.37256
G1 X90.237 Y86.885 E0.02534
G1 X81.713 Y78.361 E0.38487
G1 X81.661 Y78.851 E0.01574
G1 X90.513 Y87.704 E0.39971
G1 X90.861 Y88.595 E0.03057
G1 X81.614 Y79.348 E0.41753
G1 X81.585 Y79.862 E0.01643
G1 X91.320 Y89.597 E0.43956
G1 X91.614 Y90.171 E0.02058
G1 X91.976 Y90.796 E0.02307
G1 X81.556 Y80.376 E0.47050
M73 P2 R24
G1 X81.545 Y80.908 E0.01697
M73 P3 R24
G1 X93.011 Y92.374 E0.51774
G1 X93.586 Y93.119 E0.03004
G1 X94.099 Y93.720 E0.02523
G1 X94.637 Y94.299 E0.02523
G1 X95.200 Y94.854 E0.02523
G1 X95.785 Y95.385 E0.02523
G1 X96.393 Y95.891 E0.02523
G1 X96.962 Y96.325 E0.02284
G1 X97.970 Y97.333 E0.04552
G1 X97.777 Y97.683 E0.01277
G1 X81.542 Y81.448 E0.73308
G1 X81.544 Y81.993 E0.01742
G1 X97.584 Y98.034 E0.72428
G1 X97.392 Y98.384 E0.01277
G1 X81.570 Y82.562 E0.71443
G1 X81.595 Y83.130 E0.01817
G1 X97.199 Y98.735 E0.70458
G1 X97.007 Y99.085 E0.01277
G1 X81.647 Y83.726 E0.69352
G1 X81.705 Y84.326 E0.01927
G1 X88.241 Y90.862 E0.29511
G1 X88.170 Y90.846 E0.00232
G1 X87.784 Y90.846 E0.01232
G1 X87.697 Y90.862 E0.00281
G1 X81.781 Y84.945 E0.26714
G1 X81.876 Y85.583 E0.02059
G1 X87.263 Y90.970 E0.24324
G1 X87.079 Y91.038 E0.00624
G1 X86.895 Y91.146 E0.00681
G1 X81.997 Y86.247 E0.22119
G1 X82.126 Y86.919 E0.02186
G1 X86.584 Y91.377 E0.20128
G1 X86.485 Y91.462 E0.00415
G1 X86.323 Y91.659 E0.00816
G1 X82.285 Y87.621 E0.18234
G1 X82.477 Y88.356 E0.02427
G1 X86.114 Y91.994 E0.16423
G1 X86.065 Y92.082 E0.00324
G1 X85.972 Y92.395 E0.01040
G1 X82.709 Y89.132 E0.14734
G1 X82.963 Y89.928 E0.02669
G1 X86.074 Y93.040 E0.14048
M204 S1250
G1 E-2.24000 F4200.000
;WIPE_START
G1 F7200.000
G1 X84.910 Y91.876 E-0.91200
;WIPE_END
G1 E-0.04800 F4200.000
G1 Z0.400 F9000.000
G1 X89.805 Y92.426
G1 Z0.200
G1 E3.20000 F2400.000
M204 S800
G1 F1200.000
G1 X96.814 Y99.435 E0.31648
G1 X96.622 Y99.786 E0.01277
G1 X90.019 Y93.184 E0.29811
G1 X89.956 Y93.500 E0.01029
G1 X89.909 Y93.617 E0.00402
G1 X96.429 Y100.136 E0.29438
G1 X96.236 Y100.487 E0.01277
G1 X89.731 Y93.981 E0.29376
G1 X89.506 Y94.300 E0.01244
G1 X96.044 Y100.837 E0.29518
G1 X95.851 Y101.188 E0.01277
G1 X89.223 Y94.559 E0.29930
G1 X88.888 Y94.767 E0.01259
G1 X95.659 Y101.538 E0.30574
G1 X95.466 Y101.889 E0.01277
G1 X88.491 Y94.914 E0.31494
G1 X88.016 Y94.981 E0.01534
G1 X95.274 Y102.239 E0.32772
M73 P4 R24
G1 X95.081 Y102.590 E0.01277
G1 X87.377 Y94.885 E0.34787
G1 X87.180 Y94.832 E0.00650
G1 X86.839 Y94.651 E0.01232
G1 X86.551 Y94.426 E0.01170
G1 X86.293 Y94.138 E0.01232
G1 X86.044 Y93.692 E0.01631
G1 X85.986 Y93.494 E0.00657
G1 X83.274 Y90.783 E0.12245
G1 X83.635 Y91.686 E0.03106
G1 X94.888 Y102.940 E0.50815
G1 X94.696 Y103.290 E0.01277
G1 X84.071 Y92.666 E0.47973
G1 X84.624 Y93.762 E0.03919
G1 X94.503 Y103.641 E0.44607
G1 X94.311 Y103.991 E0.01277
G1 X85.347 Y95.028 E0.40474
G1 X85.826 Y95.804 E0.02913
G1 X86.341 Y96.565 E0.02935
G1 X92.731 Y102.955 E0.28852
G1 X92.226 Y102.600 E0.01974
G1 X91.518 Y102.056 E0.02849
G1 X90.829 Y101.490 E0.02847
G1 X89.829 Y100.593 E0.04290
G1 X87.155 Y97.921 E0.12069
M204 S1250
; stop printing object OnOffMount_01_cutdown.stl id:0 copy 0
M106 S84.15
;LAYER_CHANGE
;Z:0.45
;HEIGHT:0.25
;BEFORE_LAYER_CHANGE
G92 E0.0
;0.45


G1 E-2.24000 F4200.000
;WIPE_START
G1 F7200.000
G1 X88.319 Y99.084 E-0.91200
;WIPE_END
G1 E-0.04800 F4200.000
G1 Z0.400 F9000.000
G1 Z0.450
;AFTER_LAYER_CHANGE
;0.45
M104 S210 ; set temperature
G1 Z0.650
G1 X96.487 Y107.581
G1 Z0.450
G1 E3.20000 F2400.000
;TYPE:Skirt
;WIDTH:0.42
G1 X95.736 Y108.028 E0.03327
G1 X95.050 Y108.202 E0.02693
G1 X94.339 Y108.195 E0.02709
G1 X93.691 Y108.022 E0.02554
G1 X92.966 Y107.642 E0.03117
G1 X91.232 Y106.573 E0.07756
G1 X89.933 Y105.660 E0.06044
G1 X88.353 Y104.404 E0.07689
G1 X86.834 Y103.019 E0.07826
G1 X84.749 Y100.767 E0.11685
G1 X82.890 Y98.297 E0.11771
G1 X82.064 Y97.003 E0.05846
G1 X81.090 Y95.262 E0.07598
G1 X79.816 Y92.456 E0.11733
G1 X79.279 Y90.984 E0.05966
G1 X78.708 Y89.075 E0.07589
G1 X78.072 Y86.032 E0.11837
G1 X77.872 Y84.494 E0.05904
G1 X77.731 Y82.496 E0.07630
G1 X77.775 Y79.383 E0.11851
G1 X78.130 Y76.340 E0.11668
G1 X78.533 Y74.358 E0.07701
G1 X78.830 Y73.372 E0.03921
G1 X79.255 Y72.722 E0.02956
G1 X79.848 Y72.214 E0.02972
G1 X80.555 Y71.894 E0.02956
G1 X81.328 Y71.785 E0.02972
G1 X81.985 Y71.865 E0.02523
G1 X91.782 Y74.373 E0.38508
G1 X92.497 Y74.697 E0.02987
G1 X93.091 Y75.210 E0.02987
G1 X93.535 Y75.910 E0.03157
G1 X102.095 Y95.685 E0.82050
G1 X102.253 Y96.253 E0.02244
G1 X102.287 Y96.837 E0.02228
G1 X102.196 Y97.419 E0.02244
G1 X101.985 Y97.965 E0.02228
G1 X97.060 Y106.921 E0.38920
G1 X96.526 Y107.536 E0.03098
G1 X96.254 Y107.284 F9000.000
G1 F2400.000
G1 X95.608 Y107.673 E0.02874
G1 X94.925 Y107.836 E0.02673
G1 X94.224 Y107.792 E0.02673
G1 X93.681 Y107.606 E0.02185
G1 X92.709 Y107.056 E0.04253
G1 X91.015 Y105.971 E0.07659
G1 X89.765 Y105.061 E0.05888
G1 X88.211 Y103.782 E0.07665
G1 X86.757 Y102.412 E0.07606
G1 X84.719 Y100.136 E0.11633
G1 X82.939 Y97.689 E0.11522
G1 X81.414 Y95.069 E0.11542
