; generated by PrusaSlicer 2.3.0+win64 on 2021-07-25 at 17:56:23 UTC


;
;

;
;
; 

; external perimeters extrusion width = 0.45mm
; perimeters extrusion width = 0.45mm
; infill extrusion width = 0.45mm
; solid infill extrusion width = 0.45mm
; top infill extrusion width = 0.40mm
; first layer extrusion width = 0.42mm

M73 P0 R7
M201 X1250 Y1250 Z400 E5000 ; sets maximum accelerations, mm/sec^2
M203 X180 Y180 Z12 E80 ; sets maximum feedrates, mm/sec
M204 P1250 R1250 T1250 ; sets acceleration (P, T) and retract acceleration (R), mm/sec^2
M205 X8.00 Y8.00 Z2.00 E10.00 ; sets the jerk limits, mm/sec
M205 S0 T0 ; sets the minimum extruding and travel feed rate, mm/sec
M107
;TYPE:Custom
G90 ; use absolute coordinates
M83 ; extruder relative mode
M104 S170 ; set extruder temp for bed leveling
M140 S60 ; set bed temp
M109 R170 ; wait for bed leveling temp
M190 S60 ; wait for bed temp
G28 ; home all without mesh bed level
G29 ; mesh bed leveling 
M104 S215 ; set extruder temp
G92 E0.0
G1 Y-2.0 X179 F2400
M73 P1 R7
G1 Z3 F720
M109 S215 ; wait for extruder temp

; intro line
G1 X170 F1000
G1 Z0.2 F720
G1 X110.0 E8.0 F900
M73 P2 R7
G1 X40.0 E10.0 F700
G92 E0.0

M221 S95 ; set flow
G21 ; set units to millimeters
G90 ; use absolute coordinates
M83 ; use relative distances for extrusion
M900 K0.2 ; Filament gcode LA 1.5
; ; Filament gcode LA 1.0
;LAYER_CHANGE
;Z:0.2
;HEIGHT:0.2
;BEFORE_LAYER_CHANGE
G92 E0.0
;0.2


M73 P3 R7
G1 E-3.20000 F4200.000
G1 Z0.200 F9000.000
;AFTER_LAYER_CHANGE
;0.2
G1 Z0.400
G1 X84.118 Y68.228
G1 Z0.200
G1 E3.20000 F2400.000
M204 S800
;TYPE:Skirt
;WIDTH:0.42
G1 F1200.000
G1 X84.832 Y67.415 E0.03395
G1 X85.522 Y66.816 E0.02863
G1 X86.261 Y66.320 E0.02791
G1 X87.072 Y65.908 E0.02851
G1 X88.094 Y65.553 E0.03394
G1 X88.993 Y65.371 E0.02875
G1 X89.910 Y65.303 E0.02883
G1 X90.961 Y65.365 E0.03300
G1 X91.839 Y65.535 E0.02806
G1 X92.704 Y65.816 E0.02851
G1 X93.474 Y66.172 E0.02660
G1 X94.246 Y66.646 E0.02839
M73 P4 R7
G1 X94.930 Y67.191 E0.02744
G1 X95.550 Y67.819 E0.02767
G1 X96.084 Y68.508 E0.02732
G1 X116.664 Y104.155 E1.29059
G1 X117.156 Y105.527 E0.04570
G1 X117.369 Y106.966 E0.04559
G1 X117.295 Y108.418 E0.04558
G1 X116.939 Y109.823 E0.04547
G1 X116.312 Y111.139 E0.04570
G1 X115.443 Y112.300 E0.04547
G1 X114.360 Y113.271 E0.04559
G1 X113.126 Y114.002 E0.04499
G1 X111.695 Y114.500 E0.04749
G1 X110.035 Y114.697 E0.05241
G1 X69.442 Y114.676 E1.27279
M73 P5 R7
G1 X68.549 Y114.553 E0.02824
G1 X67.664 Y114.317 E0.02872
G1 X66.667 Y113.901 E0.03390
G1 X65.877 Y113.437 E0.02871
G1 X65.153 Y112.881 E0.02860
G1 X64.390 Y112.110 E0.03402
G1 X63.840 Y111.378 E0.02872
G1 X63.383 Y110.581 E0.02879
G1 X62.812 Y108.979 E0.05333
G1 X62.623 Y107.283 E0.05353
G1 X62.791 Y105.757 E0.04812
G1 X63.015 Y104.948 E0.02633
G1 X63.349 Y104.128 E0.02776
G1 X83.619 Y68.977 E1.27224
G1 X84.084 Y68.278 E0.02635
M204 S1250
; printing object OnOffSupport_02.stl id:0 copy 0
G1 E-2.24000 F4200.000
;WIPE_START
G1 F7200.000
G1 X84.832 Y67.415 E-0.63295
G1 X85.213 Y67.085 E-0.27905
;WIPE_END
G1 E-0.04800 F4200.000
G1 Z0.400 F9000.000
G1 X82.379 Y93.972
G1 Z0.200
G1 E3.20000 F2400.000
M204 S800
;TYPE:External perimeter
G1 F1200.000
G1 X82.441 Y97.542 E0.11193
M73 P6 R7
G1 X80.621 Y97.574 E0.05706
G1 X80.559 Y94.004 E0.11193
G1 X82.319 Y93.974 E0.05518
M204 S1250
G1 X82.750 Y93.823 F9000.000
G1 E-2.24000 F4200.000
;WIPE_START
G1 F7200.000
G1 X82.375 Y95.618 E-0.91200
;WIPE_END
G1 E-0.04800 F4200.000
G1 Z0.400 F9000.000
G1 X85.340 Y94.694
G1 Z0.200
G1 E3.20000 F2400.000
M204 S800
;TYPE:Perimeter
G1 F1200.000
G1 X85.397 Y94.457 E0.00763
G1 X85.532 Y94.052 E0.01337
G1 X85.703 Y93.662 E0.01337
G1 X85.911 Y93.282 E0.01358
G1 X86.272 Y92.769 E0.01964
G1 X86.558 Y92.445 E0.01358
G1 X86.868 Y92.152 E0.01337
G1 X87.208 Y91.883 E0.01358
G1 X87.740 Y91.552 E0.01964
G1 X88.131 Y91.365 E0.01358
G1 X88.531 Y91.216 E0.01337
G1 X88.942 Y91.104 E0.01337
G1 X89.368 Y91.027 E0.01356
G1 X89.969 Y90.986 E0.01891
G1 X90.425 Y91.004 E0.01429
G1 X90.849 Y91.061 E0.01341
G1 X91.265 Y91.155 E0.01337
G1 X91.671 Y91.286 E0.01337
G1 X92.064 Y91.453 E0.01337
G1 X92.440 Y91.654 E0.01337
G1 X92.802 Y91.891 E0.01358
G1 X93.285 Y92.290 E0.01964
G1 X93.586 Y92.601 E0.01358
G1 X93.854 Y92.933 E0.01337
G1 X94.096 Y93.293 E0.01358
G1 X94.384 Y93.849 E0.01964
G1 X94.540 Y94.253 E0.01358
G1 X94.657 Y94.663 E0.01337
G1 X94.739 Y95.089 E0.01358
G1 X94.788 Y95.711 E0.01959
G1 X94.773 Y96.146 E0.01363
G1 X94.721 Y96.569 E0.01338
G1 X94.631 Y96.986 E0.01337
G1 X94.503 Y97.400 E0.01358
G1 X94.252 Y97.974 E0.01964
G1 X94.035 Y98.349 E0.01358
G1 X93.790 Y98.698 E0.01337
G1 X93.515 Y99.024 E0.01337
G1 X93.211 Y99.324 E0.01337
G1 X92.878 Y99.600 E0.01358
G1 X92.353 Y99.943 E0.01964
G1 X91.967 Y100.138 E0.01358
G1 X91.570 Y100.296 E0.01337
G1 X91.155 Y100.420 E0.01358
G1 X90.539 Y100.531 E0.01964
G1 X90.100 Y100.560 E0.01379
G1 X89.474 Y100.532 E0.01964
G1 X89.046 Y100.465 E0.01358
G1 X88.633 Y100.361 E0.01337
G1 X88.230 Y100.221 E0.01337
G1 X87.841 Y100.046 E0.01337
G1 X87.469 Y99.837 E0.01337
G1 X87.117 Y99.596 E0.01337
G1 X86.788 Y99.324 E0.01337
G1 X86.480 Y99.019 E0.01358
G1 X86.087 Y98.532 E0.01964
G1 X85.854 Y98.167 E0.01358
G1 X85.654 Y97.783 E0.01356
G1 X85.436 Y97.221 E0.01891
G1 X85.319 Y96.780 E0.01429
G1 X85.248 Y96.358 E0.01341
G1 X85.214 Y95.927 E0.01358
G1 X85.235 Y95.300 E0.01964
G1 X85.326 Y94.752 E0.01743
M204 S1250
G1 X85.693 Y94.839 F9000.000
M204 S800
;TYPE:External perimeter
G1 F1200.000
G1 X85.760 Y94.561 E0.00899
G1 X85.884 Y94.188 E0.01232
G1 X86.042 Y93.828 E0.01232
G1 X86.232 Y93.481 E0.01239
G1 X86.568 Y93.003 E0.01833
G1 X86.830 Y92.707 E0.01239
G1 X87.115 Y92.437 E0.01232
G1 X87.425 Y92.192 E0.01239
G1 X87.922 Y91.883 E0.01833
G1 X88.278 Y91.713 E0.01239
G1 X88.646 Y91.576 E0.01232
G1 X89.025 Y91.472 E0.01232
G1 X89.414 Y91.402 E0.01239
G1 X89.975 Y91.363 E0.01762
G1 X90.392 Y91.380 E0.01310
G1 X90.782 Y91.433 E0.01233
G1 X91.165 Y91.520 E0.01232
G1 X91.539 Y91.640 E0.01232
G1 X91.901 Y91.793 E0.01232
G1 X92.248 Y91.978 E0.01232
G1 X92.578 Y92.195 E0.01239
G1 X93.029 Y92.567 E0.01833
G1 X93.304 Y92.851 E0.01239
G1 X93.551 Y93.157 E0.01232
G1 X93.771 Y93.485 E0.01239
G1 X94.040 Y94.004 E0.01833
G1 X94.182 Y94.373 E0.01239
G1 X94.290 Y94.751 E0.01232
G1 X94.364 Y95.139 E0.01239
G1 X94.410 Y95.720 E0.01827
G1 X94.397 Y96.117 E0.01245
G1 X94.349 Y96.507 E0.01232
G1 X94.266 Y96.891 E0.01232
G1 X94.149 Y97.268 E0.01239
G1 X93.915 Y97.804 E0.01833
G1 X93.717 Y98.146 E0.01239
G1 X93.491 Y98.468 E0.01232
G1 X93.238 Y98.768 E0.01232
G1 X92.958 Y99.044 E0.01232
G1 X92.654 Y99.296 E0.01239
G1 X92.165 Y99.616 E0.01833
G1 X91.812 Y99.794 E0.01239
G1 X91.447 Y99.939 E0.01232
G1 X91.068 Y100.052 E0.01239
G1 X90.493 Y100.156 E0.01833
G1 X90.096 Y100.182 E0.01247
G1 X89.512 Y100.156 E0.01833
G1 X89.122 Y100.095 E0.01239
G1 X88.740 Y100.000 E0.01232
G1 X88.369 Y99.871 E0.01232
G1 X88.011 Y99.709 E0.01232
G1 X87.668 Y99.517 E0.01232
G1 X87.344 Y99.294 E0.01232
G1 X87.042 Y99.044 E0.01232
G1 X86.761 Y98.766 E0.01239
G1 X86.393 Y98.311 E0.01833
G1 X86.181 Y97.978 E0.01239
G1 X85.998 Y97.628 E0.01239
G1 X85.796 Y97.104 E0.01762
G1 X85.688 Y96.700 E0.01310
G1 X85.623 Y96.312 E0.01233
G1 X85.592 Y95.918 E0.01239
G1 X85.612 Y95.334 E0.01833
G1 X85.679 Y94.898 E0.01384
M204 S1250
G1 X85.476 Y94.652 F9000.000
G1 E-2.24000 F4200.000
;WIPE_START
G1 F7200.000
G1 X85.760 Y94.561 E-0.19208
G1 X85.884 Y94.188 E-0.21775
G1 X86.042 Y93.828 E-0.21775
G1 X86.232 Y93.481 E-0.21904
G1 X86.300 Y93.385 E-0.06538
;WIPE_END
G1 E-0.04800 F4200.000
G1 Z0.400 F9000.000
G1 X89.442 Y74.381
G1 Z0.200
G1 E3.20000 F2400.000
M204 S800
;TYPE:Perimeter
M73 P7 R7
G1 F1200.000
G1 X89.037 Y74.189 E0.01405
G1 X88.767 Y73.978 E0.01074
G1 X88.483 Y73.631 E0.01405
G1 X88.335 Y73.336 E0.01033
G1 X88.246 Y73.033 E0.00992
G1 X88.211 Y72.719 E0.00992
G1 X88.232 Y72.403 E0.00992
G1 X88.308 Y72.096 E0.00992
G1 X88.442 Y71.795 E0.01033
G1 X88.711 Y71.436 E0.01405
G1 X88.961 Y71.222 E0.01033
G1 X89.234 Y71.062 E0.00992
G1 X89.541 Y70.948 E0.01028
G1 X89.965 Y70.889 E0.01340
G1 X90.312 Y70.917 E0.01093
G1 X90.620 Y71.000 E0.01001
G1 X90.918 Y71.141 E0.01033
G1 X91.271 Y71.418 E0.01405
G1 X91.480 Y71.673 E0.01033
G1 X91.634 Y71.949 E0.00992
G1 X91.740 Y72.257 E0.01022
G1 X91.791 Y72.670 E0.01304
G1 X91.755 Y73.029 E0.01133
G1 X91.664 Y73.336 E0.01004
G1 X91.523 Y73.619 E0.00992
G1 X91.326 Y73.883 E0.01033
G1 X90.985 Y74.175 E0.01405
G1 X90.694 Y74.329 E0.01033
G1 X90.393 Y74.425 E0.00992
G1 X90.079 Y74.467 E0.00992
G1 X89.763 Y74.453 E0.00992
G1 X89.500 Y74.394 E0.00845
M204 S1250
G1 X89.583 Y74.026 F9000.000
M204 S800
;TYPE:External perimeter
G1 F1200.000
G1 X89.236 Y73.866 E0.01198
G1 X89.032 Y73.706 E0.00811
G1 X88.801 Y73.425 E0.01142
G1 X88.688 Y73.197 E0.00797
G1 X88.617 Y72.958 E0.00782
G1 X88.589 Y72.710 E0.00782
G1 X88.606 Y72.461 E0.00782
G1 X88.666 Y72.219 E0.00782
G1 X88.770 Y71.987 E0.00797
G1 X88.988 Y71.695 E0.01142
G1 X89.181 Y71.530 E0.00797
G1 X89.396 Y71.404 E0.00782
G1 X89.634 Y71.316 E0.00795
G1 X89.976 Y71.269 E0.01084
G1 X90.247 Y71.290 E0.00853
G1 X90.489 Y71.356 E0.00785
G1 X90.719 Y71.464 E0.00797
G1 X91.006 Y71.689 E0.01142
G1 X91.167 Y71.885 E0.00797
G1 X91.288 Y72.103 E0.00782
G1 X91.371 Y72.342 E0.00793
G1 X91.411 Y72.674 E0.01049
G1 X91.383 Y72.957 E0.00890
G1 X91.312 Y73.197 E0.00786
G1 X91.201 Y73.420 E0.00782
G1 X91.049 Y73.624 E0.00797
G1 X90.772 Y73.861 E0.01142
G1 X90.547 Y73.980 E0.00797
G1 X90.310 Y74.056 E0.00782
G1 X90.062 Y74.089 E0.00782
G1 X89.813 Y74.078 E0.00782
G1 X89.642 Y74.039 E0.00552
M204 S1250
G1 X89.295 Y74.277 F9000.000
G1 E-2.24000 F4200.000
;WIPE_START
G1 F7200.000
G1 X89.236 Y73.866 E-0.24433
G1 X89.032 Y73.706 E-0.14342
G1 X88.801 Y73.425 E-0.20191
G1 X88.688 Y73.197 E-0.14082
G1 X88.617 Y72.958 E-0.13822
G1 X88.608 Y72.880 E-0.04330
;WIPE_END
G1 E-0.04800 F4200.000
G1 Z0.400 F9000.000
G1 X71.029 Y105.854
G1 Z0.200
G1 E3.20000 F2400.000
M204 S800
;TYPE:Perimeter
G1 F1200.000
G1 X71.279 Y106.069 E0.01033
G1 X71.480 Y106.314 E0.00992
G1 X71.634 Y106.590 E0.00992
G1 X71.740 Y106.898 E0.01022
G1 X71.791 Y107.311 E0.01304
G1 X71.755 Y107.670 E0.01133
G1 X71.664 Y107.977 E0.01004
G1 X71.523 Y108.260 E0.00992
G1 X71.333 Y108.514 E0.00992
G1 X71.102 Y108.730 E0.00992
G1 X70.827 Y108.908 E0.01028
G1 X70.427 Y109.058 E0.01340
G1 X70.082 Y109.108 E0.01093
G1 X69.763 Y109.094 E0.01001
G1 X69.454 Y109.025 E0.00992
G1 X69.151 Y108.897 E0.01033
G1 X68.786 Y108.637 E0.01405
G1 X68.566 Y108.391 E0.01033
G1 X68.400 Y108.122 E0.00992
G1 X68.279 Y107.816 E0.01033
G1 X68.208 Y107.360 E0.01446
G1 X68.259 Y106.901 E0.01446
G1 X68.366 Y106.590 E0.01033
G1 X68.520 Y106.314 E0.00992
G1 X68.721 Y106.069 E0.00992
G1 X68.961 Y105.863 E0.00992
G1 X69.234 Y105.703 E0.00992
G1 X69.541 Y105.589 E0.01028
G1 X69.965 Y105.530 E0.01340
G1 X70.312 Y105.558 E0.01093
G1 X70.633 Y105.645 E0.01042
G1 X70.976 Y105.826 E0.01217
M204 S1250
G1 X70.800 Y106.160 F9000.000
M204 S800
;TYPE:External perimeter
G1 F1200.000
G1 X71.009 Y106.333 E0.00852
G1 X71.167 Y106.526 E0.00782
G1 X71.288 Y106.744 E0.00782
G1 X71.371 Y106.983 E0.00793
G1 X71.411 Y107.315 E0.01049
G1 X71.383 Y107.598 E0.00890
G1 X71.312 Y107.838 E0.00786
G1 X71.201 Y108.061 E0.00782
G1 X71.051 Y108.261 E0.00782
G1 X70.869 Y108.432 E0.00782
G1 X70.656 Y108.569 E0.00795
G1 X70.333 Y108.691 E0.01084
G1 X70.063 Y108.730 E0.00853
G1 X69.813 Y108.719 E0.00785
G1 X69.570 Y108.664 E0.00782
G1 X69.336 Y108.565 E0.00797
G1 X69.039 Y108.354 E0.01142
G1 X68.870 Y108.165 E0.00797
G1 X68.739 Y107.952 E0.00782
G1 X68.645 Y107.716 E0.00797
G1 X68.588 Y107.351 E0.01157
G1 X68.629 Y106.985 E0.01157
G1 X68.712 Y106.744 E0.00797
G1 X68.833 Y106.526 E0.00782
G1 X68.991 Y106.333 E0.00782
G1 X69.181 Y106.171 E0.00782
G1 X69.396 Y106.045 E0.00782
G1 X69.634 Y105.957 E0.00795
G1 X69.976 Y105.910 E0.01084
G1 X70.247 Y105.931 E0.00854
G1 X70.494 Y105.998 E0.00800
G1 X70.747 Y106.132 E0.00897
M204 S1250
G1 X71.044 Y106.041 F9000.000
G1 E-2.24000 F4200.000
;WIPE_START
G1 F7200.000
G1 X71.009 Y106.333 E-0.18330
G1 X71.167 Y106.526 E-0.13821
G1 X71.288 Y106.744 E-0.13822
G1 X71.371 Y106.983 E-0.14014
G1 X71.411 Y107.315 E-0.18534
G1 X71.389 Y107.543 E-0.12679
;WIPE_END
G1 E-0.04800 F4200.000
G1 Z0.400 F9000.000
G1 X108.208 Y107.360
G1 Z0.200
G1 E3.20000 F2400.000
M204 S800
;TYPE:Perimeter
G1 F1200.000
G1 X108.259 Y106.901 E0.01446
G1 X108.366 Y106.590 E0.01033
G1 X108.520 Y106.314 E0.00992
G1 X108.721 Y106.069 E0.00992
G1 X108.961 Y105.863 E0.00992
G1 X109.234 Y105.703 E0.00992
G1 X109.541 Y105.589 E0.01028
G1 X109.965 Y105.530 E0.01340
G1 X110.312 Y105.558 E0.01093
G1 X110.633 Y105.645 E0.01042
G1 X111.029 Y105.854 E0.01405
G1 X111.279 Y106.069 E0.01033
G1 X111.480 Y106.314 E0.00992
G1 X111.634 Y106.590 E0.00992
G1 X111.740 Y106.898 E0.01022
G1 X111.791 Y107.311 E0.01304
G1 X111.755 Y107.670 E0.01133
G1 X111.664 Y107.977 E0.01004
G1 X111.523 Y108.260 E0.00992
G1 X111.333 Y108.514 E0.00992
G1 X111.102 Y108.730 E0.00992
G1 X110.827 Y108.908 E0.01028
G1 X110.427 Y109.058 E0.01340
G1 X110.082 Y109.108 E0.01093
G1 X109.752 Y109.093 E0.01038
G1 X109.338 Y108.983 E0.01340
G1 X109.029 Y108.824 E0.01093
G1 X108.777 Y108.627 E0.01001
G1 X108.566 Y108.391 E0.00992
G1 X108.400 Y108.122 E0.00992
G1 X108.279 Y107.816 E0.01033
G1 X108.217 Y107.419 E0.01258
M204 S1250
G1 X108.590 Y107.361 F9000.000
M204 S800
;TYPE:External perimeter
G1 F1200.000
G1 X108.629 Y106.985 E0.01186
G1 X108.712 Y106.744 E0.00797
G1 X108.833 Y106.526 E0.00782
G1 X108.991 Y106.333 E0.00782
G1 X109.181 Y106.171 E0.00782
G1 X109.396 Y106.045 E0.00782
G1 X109.634 Y105.957 E0.00795
G1 X109.976 Y105.910 E0.01084
G1 X110.247 Y105.931 E0.00854
G1 X110.494 Y105.998 E0.00800
G1 X110.816 Y106.168 E0.01142
G1 X111.009 Y106.333 E0.00797
M73 P8 R7
G1 X111.167 Y106.526 E0.00782
G1 X111.288 Y106.744 E0.00782
G1 X111.371 Y106.983 E0.00793
G1 X111.411 Y107.315 E0.01049
G1 X111.383 Y107.598 E0.00890
G1 X111.312 Y107.838 E0.00786
G1 X111.201 Y108.061 E0.00782
G1 X111.051 Y108.261 E0.00782
G1 X110.869 Y108.432 E0.00782
G1 X110.656 Y108.569 E0.00795
G1 X110.333 Y108.691 E0.01084
G1 X110.063 Y108.730 E0.00853
G1 X109.809 Y108.719 E0.00798
G1 X109.475 Y108.630 E0.01084
G1 X109.233 Y108.505 E0.00853
G1 X109.036 Y108.350 E0.00785
G1 X108.870 Y108.165 E0.00782
G1 X108.739 Y107.952 E0.00782
G1 X108.645 Y107.716 E0.00797
G1 X108.599 Y107.420 E0.00939
M204 S1250
G1 X108.260 Y107.176 F9000.000
G1 E-2.24000 F4200.000
;WIPE_START
G1 F7200.000
G1 X108.629 Y106.985 E-0.24198
G1 X108.712 Y106.744 E-0.14082
G1 X108.833 Y106.526 E-0.13822
G1 X108.991 Y106.333 E-0.13822
G1 X109.181 Y106.171 E-0.13822
G1 X109.359 Y106.067 E-0.11455
;WIPE_END
G1 E-0.04800 F4200.000
G1 Z0.400 F9000.000
G1 X80.251 Y97.957
G1 Z0.200
G1 E3.20000 F2400.000
M204 S800
;TYPE:Perimeter
G1 F1200.000
G1 X82.825 Y97.912 E0.08071
G1 X82.749 Y93.589 E0.13558
G1 X80.344 Y93.631 E0.07542
G1 X80.902 Y92.900 E0.02883
G1 X81.373 Y92.216 E0.02603
G1 X82.022 Y91.167 E0.03868
M73 P8 R6
G1 X82.606 Y90.080 E0.03868
G1 X82.963 Y89.331 E0.02603
G1 X83.438 Y88.192 E0.03868
G1 X83.844 Y87.024 E0.03878
G1 X84.181 Y85.834 E0.03878
G1 X84.446 Y84.629 E0.03868
G1 X84.583 Y83.810 E0.02603
G1 X84.727 Y82.585 E0.03868
G1 X84.798 Y81.354 E0.03865
G1 X84.805 Y80.523 E0.02606
G1 X84.754 Y79.290 E0.03868
G1 X84.629 Y78.060 E0.03878
G1 X84.431 Y76.839 E0.03878
G1 X84.161 Y75.632 E0.03876
G1 X83.919 Y74.786 E0.02761
G1 X86.435 Y70.435 E0.15757
G1 X86.730 Y70.025 E0.01585
G1 X87.067 Y69.656 E0.01568
G1 X87.439 Y69.335 E0.01537
G1 X87.714 Y69.141 E0.01057
G1 X88.159 Y68.891 E0.01601
G1 X88.453 Y68.761 E0.01008
G1 X88.939 Y68.603 E0.01603
G1 X89.259 Y68.532 E0.01027
G1 X89.584 Y68.487 E0.01028
G1 X90.079 Y68.468 E0.01556
G1 X90.422 Y68.488 E0.01075
G1 X90.745 Y68.533 E0.01024
G1 X91.242 Y68.654 E0.01603
G1 X91.551 Y68.763 E0.01027
G1 X91.850 Y68.895 E0.01027
G1 X92.290 Y69.144 E0.01585
G1 X92.697 Y69.444 E0.01585
G1 X92.936 Y69.659 E0.01008
G1 X93.277 Y70.033 E0.01585
G1 X93.570 Y70.444 E0.01586
G1 X95.635 Y74.034 E0.12984
G1 X95.394 Y74.878 E0.02753
G1 X95.125 Y76.078 E0.03856
G1 X94.984 Y76.894 E0.02596
