; generated by PrusaSlicer 2.3.0+win64 on 2021-07-25 at 18:33:03 UTC


;
;

;
;
; 

; external perimeters extrusion width = 0.45mm
; perimeters extrusion width = 0.45mm
; infill extrusion width = 0.45mm
; solid infill extrusion width = 0.45mm
; top infill extrusion width = 0.40mm
; first layer extrusion width = 0.42mm

M73 P0 R25
M201 X1250 Y1250 Z400 E5000 ; sets maximum accelerations, mm/sec^2
M203 X180 Y180 Z12 E80 ; sets maximum feedrates, mm/sec
M204 P1250 R1250 T1250 ; sets acceleration (P, T) and retract acceleration (R), mm/sec^2
M205 X8.00 Y8.00 Z2.00 E10.00 ; sets the jerk limits, mm/sec
M205 S0 T0 ; sets the minimum extruding and travel feed rate, mm/sec
M107
;TYPE:Custom
G90 ; use absolute coordinates
M83 ; extruder relative mode
M104 S170 ; set extruder temp for bed leveling
M140 S60 ; set bed temp
M109 R170 ; wait for bed leveling temp
M190 S60 ; wait for bed temp
G28 ; home all without mesh bed level
G29 ; mesh bed leveling 
M104 S215 ; set extruder temp
G92 E0.0
G1 Y-2.0 X179 F2400
G1 Z3 F720
M109 S215 ; wait for extruder temp

; intro line
G1 X170 F1000
G1 Z0.2 F720
G1 X110.0 E8.0 F900
G1 X40.0 E10.0 F700
G92 E0.0

M221 S95 ; set flow
G21 ; set units to millimeters
G90 ; use absolute coordinates
M83 ; use relative distances for extrusion
M900 K0.2 ; Filament gcode LA 1.5
; ; Filament gcode LA 1.0
;LAYER_CHANGE
;Z:0.2
;HEIGHT:0.2
;BEFORE_LAYER_CHANGE
G92 E0.0
;0.2


M73 P1 R24
G1 E-3.20000 F4200.000
G1 Z0.200 F9000.000
;AFTER_LAYER_CHANGE
;0.2
G1 Z0.400
G1 X84.240 Y68.070
G1 Z0.200
G1 E3.20000 F2400.000
M204 S800
;TYPE:Skirt
;WIDTH:0.42
G1 F1200.000
G1 X84.832 Y67.415 E0.02770
G1 X85.514 Y66.823 E0.02832
G1 X86.261 Y66.320 E0.02822
G1 X87.072 Y65.908 E0.02851
G1 X88.098 Y65.552 E0.03406
G1 X88.993 Y65.371 E0.02863
G1 X89.910 Y65.303 E0.02883
G1 X90.951 Y65.364 E0.03270
G1 X91.839 Y65.535 E0.02834
G1 X92.691 Y65.810 E0.02807
G1 X93.466 Y66.167 E0.02675
G1 X94.246 Y66.646 E0.02870
G1 X94.930 Y67.191 E0.02744
G1 X95.550 Y67.819 E0.02767
G1 X96.084 Y68.508 E0.02732
G1 X116.664 Y104.155 E1.29059
G1 X117.153 Y105.518 E0.04539
G1 X117.368 Y106.962 E0.04578
G1 X117.296 Y108.407 E0.04537
G1 X116.942 Y109.814 E0.04549
G1 X116.319 Y111.127 E0.04558
G1 X115.445 Y112.297 E0.04578
G1 X114.360 Y113.271 E0.04570
G1 X113.135 Y113.998 E0.04468
G1 X111.695 Y114.500 E0.04779
G1 X110.035 Y114.697 E0.05241
G1 X69.442 Y114.676 E1.27279
G1 X68.549 Y114.553 E0.02824
G1 X67.668 Y114.319 E0.02860
G1 X66.670 Y113.903 E0.03390
G1 X65.885 Y113.443 E0.02853
G1 X65.153 Y112.881 E0.02891
G1 X64.390 Y112.110 E0.03402
G1 X63.840 Y111.378 E0.02872
G1 X63.383 Y110.581 E0.02879
G1 X62.814 Y108.989 E0.05302
G1 X62.668 Y108.136 E0.02714
G1 X62.623 Y107.283 E0.02679
G1 X62.791 Y105.757 E0.04812
G1 X63.015 Y104.948 E0.02633
G1 X63.349 Y104.129 E0.02774
G1 X83.619 Y68.977 E1.27226
G1 X84.206 Y68.120 E0.03260
M204 S1250
; printing object OnOffSupport_03.stl id:0 copy 0
G1 E-2.24000 F4200.000
;WIPE_START
G1 F7200.000
G1 X84.832 Y67.415 E-0.52248
G1 X85.363 Y66.954 E-0.38952
;WIPE_END
G1 E-0.04800 F4200.000
G1 Z0.400 F9000.000
G1 X80.626 Y97.824
G1 Z0.200
G1 E3.20000 F2400.000
M204 S800
;TYPE:External perimeter
G1 F1200.000
G1 X80.555 Y93.754 E0.12761
G1 X82.366 Y93.723 E0.05679
G1 X82.488 Y93.294 E0.01399
G1 X82.765 Y92.576 E0.02413
G1 X83.110 Y91.887 E0.02416
G1 X83.521 Y91.235 E0.02416
G1 X83.993 Y90.626 E0.02416
G1 X84.522 Y90.066 E0.02416
G1 X85.103 Y89.560 E0.02416
G1 X85.730 Y89.115 E0.02410
G1 X86.172 Y88.851 E0.01616
G1 X86.630 Y88.617 E0.01611
G1 X87.103 Y88.412 E0.01616
G1 X87.830 Y88.166 E0.02405
G1 X88.330 Y88.041 E0.01616
G1 X88.835 Y87.949 E0.01611
G1 X89.345 Y87.890 E0.01611
G1 X89.860 Y87.864 E0.01616
G1 X90.629 Y87.888 E0.02410
G1 X91.393 Y87.986 E0.02416
G1 X92.141 Y88.158 E0.02407
G1 X92.872 Y88.402 E0.02416
G1 X93.577 Y88.718 E0.02424
G1 X94.247 Y89.100 E0.02416
G1 X94.874 Y89.543 E0.02407
G1 X95.457 Y90.046 E0.02416
G1 X95.990 Y90.606 E0.02424
G1 X96.462 Y91.211 E0.02407
G1 X96.876 Y91.862 E0.02416
G1 X97.225 Y92.552 E0.02424
G1 X97.504 Y93.270 E0.02416
G1 X97.711 Y94.009 E0.02407
G1 X97.846 Y94.770 E0.02424
G1 X97.907 Y95.538 E0.02416
G1 X97.892 Y96.309 E0.02416
G1 X97.803 Y97.071 E0.02407
G1 X97.639 Y97.827 E0.02424
G1 X97.403 Y98.560 E0.02416
G1 X97.098 Y99.265 E0.02407
G1 X96.725 Y99.939 E0.02416
G1 X96.287 Y100.573 E0.02416
G1 X95.789 Y101.164 E0.02424
G1 X95.237 Y101.702 E0.02416
G1 X94.635 Y102.183 E0.02416
G1 X93.990 Y102.604 E0.02416
G1 X93.306 Y102.959 E0.02416
G1 X92.591 Y103.247 E0.02416
G1 X91.852 Y103.463 E0.02416
G1 X91.097 Y103.607 E0.02410
G1 X90.584 Y103.662 E0.01616
G1 X90.074 Y103.683 E0.01602
G1 X89.557 Y103.671 E0.01619
G1 X89.046 Y103.625 E0.01611
G1 X88.536 Y103.547 E0.01616
G1 X87.790 Y103.368 E0.02405
G1 X87.299 Y103.208 E0.01621
G1 X86.594 Y102.912 E0.02396
G1 X86.134 Y102.674 E0.01625
G1 X85.692 Y102.407 E0.01616
G1 X85.069 Y101.958 E0.02410
G1 X84.490 Y101.449 E0.02416
G1 X83.964 Y100.886 E0.02416
G1 X83.496 Y100.275 E0.02416
G1 X83.088 Y99.621 E0.02416
G1 X82.747 Y98.930 E0.02416
G1 X82.475 Y98.210 E0.02413
G1 X82.358 Y97.793 E0.01357
G1 X80.686 Y97.823 E0.05243
M204 S1250
G1 X80.226 Y97.801 F9000.000
G1 E-2.24000 F4200.000
;WIPE_START
G1 F7200.000
G1 X80.633 Y96.178 E-0.91200
;WIPE_END
G1 E-0.04800 F4200.000
G1 Z0.400 F9000.000
G1 X89.776 Y74.456
G1 Z0.200
G1 E3.20000 F2400.000
M204 S800
;TYPE:Perimeter
G1 F1200.000
G1 X89.454 Y74.383 E0.01033
G1 X89.163 Y74.261 E0.00992
G1 X88.897 Y74.089 E0.00992
G1 X88.667 Y73.873 E0.00992
G1 X88.477 Y73.619 E0.00992
G1 X88.330 Y73.325 E0.01033
G1 X88.222 Y72.890 E0.01405
G1 X88.214 Y72.561 E0.01032
G1 X88.265 Y72.235 E0.01034
G1 X88.430 Y71.818 E0.01405
G1 X88.615 Y71.546 E0.01033
G1 X88.845 Y71.310 E0.01033
G1 X89.221 Y71.066 E0.01405
G1 X89.530 Y70.952 E0.01033
G1 X89.842 Y70.896 E0.00992
G1 X90.158 Y70.896 E0.00992
G1 X90.482 Y70.954 E0.01033
G1 X90.895 Y71.128 E0.01405
G1 X91.164 Y71.320 E0.01033
G1 X91.385 Y71.546 E0.00992
G1 X91.563 Y71.807 E0.00992
G1 X91.692 Y72.096 E0.00992
G1 X91.771 Y72.416 E0.01033
G1 X91.781 Y72.864 E0.01405
G1 X91.716 Y73.187 E0.01033
G1 X91.600 Y73.481 E0.00992
G1 X91.434 Y73.750 E0.00992
G1 X91.223 Y73.986 E0.00992
G1 X90.963 Y74.189 E0.01033
G1 X90.558 Y74.381 E0.01405
G1 X90.224 Y74.456 E0.01074
G1 X89.836 Y74.456 E0.01217
M204 S1250
G1 X89.836 Y74.079 F9000.000
M204 S800
;TYPE:External perimeter
G1 F1200.000
G1 X89.570 Y74.023 E0.00852
G1 X89.340 Y73.926 E0.00782
G1 X89.131 Y73.791 E0.00782
G1 X88.949 Y73.620 E0.00782
G1 X88.799 Y73.420 E0.00782
G1 X88.685 Y73.193 E0.00797
G1 X88.598 Y72.840 E0.01142
G1 X88.592 Y72.586 E0.00796
G1 X88.631 Y72.334 E0.00797
G1 X88.765 Y71.996 E0.01142
G1 X88.908 Y71.785 E0.00797
G1 X89.086 Y71.604 E0.00797
G1 X89.391 Y71.406 E0.01142
G1 X89.630 Y71.317 E0.00797
G1 X89.875 Y71.274 E0.00782
G1 X90.125 Y71.274 E0.00782
G1 X90.375 Y71.318 E0.00797
G1 X90.711 Y71.460 E0.01142
G1 X90.918 Y71.607 E0.00797
G1 X91.092 Y71.785 E0.00782
G1 X91.232 Y71.992 E0.00782
G1 X91.334 Y72.219 E0.00782
G1 X91.395 Y72.466 E0.00797
G1 X91.403 Y72.830 E0.01142
G1 X91.353 Y73.079 E0.00797
G1 X91.261 Y73.311 E0.00782
G1 X91.130 Y73.524 E0.00782
M73 P2 R24
G1 X90.964 Y73.709 E0.00782
G1 X90.764 Y73.866 E0.00797
G1 X90.435 Y74.022 E0.01142
G1 X90.182 Y74.079 E0.00811
G1 X89.896 Y74.079 E0.00898
M204 S1250
G1 X89.676 Y74.298 F9000.000
G1 E-2.24000 F4200.000
;WIPE_START
G1 F7200.000
G1 X89.570 Y74.023 E-0.18330
G1 X89.340 Y73.926 E-0.13822
G1 X89.131 Y73.791 E-0.13822
G1 X88.949 Y73.620 E-0.13822
G1 X88.799 Y73.420 E-0.13821
G1 X88.685 Y73.193 E-0.14082
G1 X88.670 Y73.132 E-0.03503
;WIPE_END
G1 E-0.04800 F4200.000
G1 Z0.400 F9000.000
G1 X108.613 Y106.185
G1 Z0.200
G1 E3.20000 F2400.000
M204 S800
;TYPE:Perimeter
G1 F1200.000
G1 X108.950 Y105.870 E0.01446
G1 X109.234 Y105.703 E0.01033
G1 X109.530 Y105.593 E0.00992
G1 X109.842 Y105.537 E0.00992
G1 X110.171 Y105.537 E0.01033
G1 X110.608 Y105.636 E0.01405
G1 X110.906 Y105.777 E0.01033
G1 X111.164 Y105.961 E0.00992
G1 X111.385 Y106.187 E0.00992
G1 X111.563 Y106.448 E0.00992
G1 X111.697 Y106.749 E0.01033
G1 X111.786 Y107.187 E0.01401
G1 X111.779 Y107.517 E0.01037
G1 X111.713 Y107.841 E0.01034
G1 X111.531 Y108.250 E0.01405
G1 X111.333 Y108.514 E0.01033
G1 X111.102 Y108.730 E0.00992
G1 X110.826 Y108.909 E0.01033
G1 X110.406 Y109.064 E0.01405
G1 X110.079 Y109.108 E0.01033
G1 X109.763 Y109.094 E0.00992
G1 X109.442 Y109.022 E0.01033
G1 X109.037 Y108.830 E0.01405
G1 X108.777 Y108.627 E0.01033
G1 X108.566 Y108.391 E0.00992
G1 X108.400 Y108.122 E0.00992
G1 X108.284 Y107.828 E0.00992
G1 X108.221 Y107.518 E0.00992
G1 X108.214 Y107.202 E0.00991
G1 X108.263 Y106.889 E0.00993
G1 X108.370 Y106.577 E0.01033
G1 X108.581 Y106.236 E0.01258
M204 S1250
G1 X108.902 Y106.434 F9000.000
M204 S800
;TYPE:External perimeter
G1 F1200.000
G1 X109.177 Y106.174 E0.01186
G1 X109.396 Y106.045 E0.00797
G1 X109.630 Y105.958 E0.00782
G1 X109.875 Y105.915 E0.00782
G1 X110.129 Y105.915 E0.00797
G1 X110.485 Y105.995 E0.01142
G1 X110.714 Y106.103 E0.00797
G1 X110.918 Y106.248 E0.00782
G1 X111.092 Y106.426 E0.00782
G1 X111.232 Y106.633 E0.00782
G1 X111.336 Y106.865 E0.00797
G1 X111.408 Y107.221 E0.01139
G1 X111.402 Y107.476 E0.00800
G1 X111.352 Y107.725 E0.00797
G1 X111.203 Y108.058 E0.01142
G1 X111.051 Y108.261 E0.00797
G1 X110.869 Y108.432 E0.00782
G1 X110.656 Y108.570 E0.00797
G1 X110.314 Y108.696 E0.01142
G1 X110.062 Y108.730 E0.00797
G1 X109.813 Y108.719 E0.00782
G1 X109.565 Y108.663 E0.00797
G1 X109.236 Y108.507 E0.01142
G1 X109.036 Y108.350 E0.00797
G1 X108.870 Y108.165 E0.00782
G1 X108.739 Y107.952 E0.00782
G1 X108.647 Y107.720 E0.00782
G1 X108.598 Y107.476 E0.00782
G1 X108.592 Y107.227 E0.00781
G1 X108.631 Y106.980 E0.00783
G1 X108.713 Y106.740 E0.00797
G1 X108.871 Y106.485 E0.00939
M204 S1250
G1 X108.772 Y106.079 F9000.000
G1 E-2.24000 F4200.000
;WIPE_START
G1 F7200.000
G1 X109.177 Y106.174 E-0.24199
G1 X109.396 Y106.045 E-0.14081
G1 X109.630 Y105.958 E-0.13822
G1 X109.875 Y105.915 E-0.13822
G1 X110.129 Y105.915 E-0.14081
G1 X110.326 Y105.959 E-0.11195
;WIPE_END
G1 E-0.04800 F4200.000
G1 Z0.400 F9000.000
G1 X71.786 Y107.187
G1 Z0.200
G1 E3.20000 F2400.000
M204 S800
;TYPE:Perimeter
G1 F1200.000
G1 X71.779 Y107.517 E0.01037
G1 X71.713 Y107.841 E0.01034
G1 X71.531 Y108.250 E0.01405
G1 X71.333 Y108.514 E0.01033
G1 X71.102 Y108.730 E0.00992
G1 X70.826 Y108.909 E0.01033
G1 X70.406 Y109.064 E0.01405
G1 X70.079 Y109.108 E0.01033
G1 X69.750 Y109.093 E0.01033
G1 X69.318 Y108.976 E0.01405
G1 X69.026 Y108.822 E0.01033
G1 X68.777 Y108.627 E0.00992
G1 X68.566 Y108.391 E0.00992
G1 X68.400 Y108.122 E0.00992
G1 X68.284 Y107.828 E0.00992
G1 X68.221 Y107.518 E0.00992
G1 X68.214 Y107.202 E0.00991
G1 X68.263 Y106.889 E0.00993
G1 X68.370 Y106.577 E0.01033
G1 X68.613 Y106.185 E0.01446
G1 X68.950 Y105.870 E0.01446
G1 X69.234 Y105.703 E0.01033
G1 X69.530 Y105.593 E0.00992
G1 X69.842 Y105.537 E0.00992
G1 X70.171 Y105.537 E0.01033
G1 X70.608 Y105.636 E0.01405
G1 X70.906 Y105.777 E0.01033
G1 X71.164 Y105.961 E0.00992
G1 X71.385 Y106.187 E0.00992
G1 X71.563 Y106.448 E0.00992
G1 X71.697 Y106.749 E0.01033
G1 X71.774 Y107.128 E0.01213
M204 S1250
G1 X71.404 Y107.203 F9000.000
M204 S800
;TYPE:External perimeter
G1 F1200.000
G1 X71.402 Y107.476 E0.00856
G1 X71.352 Y107.725 E0.00797
G1 X71.203 Y108.058 E0.01142
G1 X71.051 Y108.261 E0.00797
G1 X70.869 Y108.432 E0.00782
G1 X70.656 Y108.570 E0.00797
G1 X70.314 Y108.696 E0.01142
G1 X70.062 Y108.730 E0.00797
G1 X69.809 Y108.718 E0.00797
G1 X69.457 Y108.623 E0.01142
G1 X69.232 Y108.504 E0.00797
G1 X69.036 Y108.350 E0.00782
G1 X68.870 Y108.165 E0.00782
G1 X68.739 Y107.952 E0.00782
G1 X68.647 Y107.720 E0.00782
G1 X68.598 Y107.476 E0.00782
G1 X68.592 Y107.227 E0.00781
G1 X68.631 Y106.980 E0.00783
G1 X68.713 Y106.740 E0.00797
G1 X68.907 Y106.426 E0.01157
G1 X69.177 Y106.174 E0.01157
G1 X69.396 Y106.045 E0.00797
G1 X69.630 Y105.958 E0.00782
G1 X69.875 Y105.915 E0.00782
G1 X70.129 Y105.915 E0.00797
G1 X70.485 Y105.995 E0.01142
G1 X70.714 Y106.103 E0.00797
G1 X70.918 Y106.248 E0.00782
G1 X71.092 Y106.426 E0.00782
G1 X71.232 Y106.633 E0.00782
G1 X71.336 Y106.865 E0.00797
G1 X71.392 Y107.144 E0.00894
M204 S1250
G1 X71.652 Y107.317 F9000.000
G1 E-2.24000 F4200.000
;WIPE_START
G1 F7200.000
G1 X71.402 Y107.476 E-0.18394
G1 X71.352 Y107.725 E-0.14086
G1 X71.203 Y108.058 E-0.20191
G1 X71.051 Y108.261 E-0.14081
G1 X70.869 Y108.432 E-0.13822
G1 X70.708 Y108.536 E-0.10626
;WIPE_END
G1 E-0.04800 F4200.000
G1 Z0.400 F9000.000
G1 X80.255 Y98.207
G1 Z0.200
G1 E3.20000 F2400.000
M204 S800
;TYPE:Perimeter
G1 F1200.000
G1 X82.073 Y98.176 E0.05701
G1 X82.401 Y99.081 E0.03018
G1 X82.759 Y99.804 E0.02531
G1 X83.185 Y100.490 E0.02531
G1 X83.676 Y101.130 E0.02531
G1 X84.227 Y101.720 E0.02531
G1 X84.833 Y102.253 E0.02531
G1 X85.484 Y102.722 E0.02516
G1 X85.949 Y103.003 E0.01703
G1 X86.434 Y103.254 E0.01711
G1 X87.167 Y103.561 E0.02492
G1 X87.688 Y103.732 E0.01717
G1 X88.463 Y103.917 E0.02501
G1 X89.000 Y104.000 E0.01703
G1 X89.536 Y104.048 E0.01688
G1 X90.077 Y104.060 E0.01696
G1 X90.612 Y104.038 E0.01679
G1 X91.152 Y103.980 E0.01703
G1 X91.940 Y103.831 E0.02516
G1 X92.715 Y103.604 E0.02531
G1 X93.464 Y103.302 E0.02531
G1 X94.180 Y102.930 E0.02531
G1 X94.856 Y102.489 E0.02531
G1 X95.487 Y101.985 E0.02531
G1 X96.065 Y101.421 E0.02531
G1 X96.587 Y100.802 E0.02540
G1 X97.045 Y100.137 E0.02531
G1 X97.437 Y99.431 E0.02531
G1 X97.756 Y98.693 E0.02522
G1 X98.004 Y97.925 E0.02531
G1 X98.175 Y97.133 E0.02540
G1 X98.269 Y96.334 E0.02522
G1 X98.284 Y95.527 E0.02531
G1 X98.221 Y94.722 E0.02531
G1 X98.079 Y93.925 E0.02540
G1 X97.862 Y93.150 E0.02522
G1 X97.569 Y92.398 E0.02531
G1 X97.204 Y91.675 E0.02540
G1 X96.771 Y90.994 E0.02531
G1 X96.276 Y90.360 E0.02522
G1 X95.717 Y89.773 E0.02540
G1 X95.106 Y89.245 E0.02531
G1 X94.450 Y88.781 E0.02522
G1 X93.748 Y88.381 E0.02531
G1 X93.009 Y88.051 E0.02540
G1 X92.243 Y87.795 E0.02531
G1 X91.459 Y87.615 E0.02522
G1 X90.659 Y87.511 E0.02531
G1 X89.857 Y87.487 E0.02516
G1 X89.314 Y87.514 E0.01703
G1 X88.780 Y87.576 E0.01688
G1 X88.250 Y87.673 E0.01688
G1 X87.723 Y87.804 E0.01703
G1 X86.968 Y88.060 E0.02501
G1 X86.469 Y88.275 E0.01702
G1 X85.990 Y88.520 E0.01688
G1 X85.523 Y88.799 E0.01703
G1 X84.870 Y89.264 E0.02516
G1 X84.261 Y89.794 E0.02531
G1 X83.706 Y90.381 E0.02531
G1 X83.212 Y91.018 E0.02531
G1 X82.781 Y91.701 E0.02531
G1 X82.419 Y92.423 E0.02531
G1 X82.130 Y93.174 E0.02523
G1 X82.080 Y93.351 E0.00576
G1 X80.538 Y93.377 E0.04836
G1 X80.902 Y92.900 E0.01883
G1 X81.373 Y92.216 E0.02604
G1 X82.020 Y91.169 E0.03859
G1 X82.423 Y90.438 E0.02616
G1 X82.962 Y89.333 E0.03856
G1 X83.438 Y88.192 E0.03877
G1 X83.844 Y87.024 E0.03878
G1 X84.181 Y85.834 E0.03878
G1 X84.446 Y84.629 E0.03868
G1 X84.583 Y83.810 E0.02603
G1 X84.727 Y82.585 E0.03868
G1 X84.798 Y81.353 E0.03868
G1 X84.805 Y80.523 E0.02603
G1 X84.754 Y79.290 E0.03868
G1 X84.629 Y78.060 E0.03878
G1 X84.431 Y76.839 E0.03878
G1 X84.161 Y75.632 E0.03876
G1 X83.919 Y74.786 E0.02761
G1 X86.435 Y70.435 E0.15757
G1 X86.730 Y70.025 E0.01585
G1 X87.067 Y69.656 E0.01567
G1 X87.446 Y69.330 E0.01567
G1 X87.714 Y69.141 E0.01027
G1 X88.154 Y68.893 E0.01584
G1 X88.453 Y68.761 E0.01027
G1 X88.939 Y68.603 E0.01602
G1 X89.259 Y68.532 E0.01027
G1 X89.583 Y68.488 E0.01027
G1 X90.089 Y68.468 E0.01585
G1 X90.421 Y68.488 E0.01045
G1 X90.745 Y68.533 E0.01026
G1 X91.242 Y68.654 E0.01603
G1 X91.551 Y68.763 E0.01027
G1 X91.850 Y68.895 E0.01027
G1 X92.290 Y69.144 E0.01585
G1 X92.697 Y69.444 E0.01585
G1 X92.936 Y69.659 E0.01008
G1 X93.277 Y70.033 E0.01585
G1 X93.570 Y70.444 E0.01586
G1 X95.635 Y74.034 E0.12984
G1 X95.394 Y74.878 E0.02753
G1 X95.125 Y76.078 E0.03856
G1 X94.984 Y76.894 E0.02596
G1 X94.835 Y78.115 E0.03858
G1 X94.758 Y79.343 E0.03858
G1 X94.747 Y80.168 E0.02587
G1 X94.770 Y80.998 E0.02603
G1 X94.863 Y82.220 E0.03842
G1 X95.029 Y83.439 E0.03858
G1 X95.181 Y84.253 E0.02596
G1 X95.466 Y85.447 E0.03849
G1 X95.700 Y86.246 E0.02609
G1 X96.101 Y87.405 E0.03845
G1 X96.571 Y88.541 E0.03858
G1 X96.926 Y89.290 E0.02596
G1 X97.505 Y90.372 E0.03849
G1 X97.931 Y91.082 E0.02596
G1 X98.616 Y92.104 E0.03858
G1 X99.361 Y93.084 E0.03858
