; generated by PrusaSlicer 2.3.0+win64 on 2021-06-07 at 11:06:03 UTC


;
;

;
;
; 

; external perimeters extrusion width = 0.45mm
; perimeters extrusion width = 0.45mm
; infill extrusion width = 0.45mm
; solid infill extrusion width = 0.45mm
; top infill extrusion width = 0.40mm
; first layer extrusion width = 0.42mm

M73 P0 R10
M201 X1250 Y1250 Z400 E5000 ; sets maximum accelerations, mm/sec^2
M203 X180 Y180 Z12 E80 ; sets maximum feedrates, mm/sec
M204 P1250 R1250 T1250 ; sets acceleration (P, T) and retract acceleration (R), mm/sec^2
M205 X8.00 Y8.00 Z2.00 E10.00 ; sets the jerk limits, mm/sec
M205 S0 T0 ; sets the minimum extruding and travel feed rate, mm/sec
M107
;TYPE:Custom
G90 ; use absolute coordinates
M83 ; extruder relative mode
M104 S170 ; set extruder temp for bed leveling
M140 S60 ; set bed temp
M109 R170 ; wait for bed leveling temp
M190 S60 ; wait for bed temp
G28 ; home all without mesh bed level
G29 ; mesh bed leveling 
M104 S215 ; set extruder temp
G92 E0.0
G1 Y-2.0 X179 F2400
G1 Z3 F720
M109 S215 ; wait for extruder temp

; intro line
G1 X170 F1000
G1 Z0.2 F720
G1 X110.0 E8.0 F900
M73 P1 R10
G1 X40.0 E10.0 F700
G92 E0.0

M221 S95 ; set flow
G21 ; set units to millimeters
G90 ; use absolute coordinates
M83 ; use relative distances for extrusion
M900 K0.2 ; Filament gcode LA 1.5
; ; Filament gcode LA 1.0
;LAYER_CHANGE
;Z:0.2
;HEIGHT:0.2
;BEFORE_LAYER_CHANGE
G92 E0.0
;0.2


M73 P2 R10
G1 E-3.20000 F4200.000
G1 Z0.200 F9000.000
;AFTER_LAYER_CHANGE
;0.2
G1 Z0.400
G1 X74.658 Y76.038
G1 Z0.200
G1 E3.20000 F2400.000
M204 S800
;TYPE:Skirt
;WIDTH:0.42
G1 F1200.000
G1 X75.668 Y75.125 E0.04271
G1 X76.778 Y74.360 E0.04225
G1 X77.968 Y73.753 E0.04188
G1 X79.256 Y73.297 E0.04286
G1 X80.790 Y72.992 E0.04903
G1 X82.151 Y72.917 E0.04273
G1 X83.807 Y73.073 E0.05215
G1 X85.188 Y73.417 E0.04464
G1 X86.690 Y74.040 E0.05099
G1 X88.126 Y74.929 E0.05294
G1 X104.814 Y89.188 E0.68825
M73 P3 R10
G1 X105.762 Y90.156 E0.04248
G1 X106.553 Y91.210 E0.04132
G1 X107.487 Y92.997 E0.06321
G1 X108.050 Y94.916 E0.06270
G1 X108.229 Y96.909 E0.06273
G1 X108.019 Y98.897 E0.06268
G1 X107.425 Y100.810 E0.06283
G1 X106.473 Y102.567 E0.06265
G1 X105.196 Y104.109 E0.06276
G1 X103.642 Y105.374 E0.06283
G1 X102.489 Y106.035 E0.04169
G1 X101.224 Y106.554 E0.04286
G1 X99.921 Y106.896 E0.04223
G1 X98.355 Y107.075 E0.04945
G1 X96.983 Y107.034 E0.04302
G1 X95.667 Y106.819 E0.04181
G1 X94.377 Y106.430 E0.04225
G1 X93.135 Y105.868 E0.04274
G1 X91.470 Y104.754 E0.06283
G1 X75.300 Y90.912 E0.66739
M73 P3 R9
G1 X74.348 Y89.969 E0.04201
G1 X73.514 Y88.890 E0.04276
G1 X72.853 Y87.756 E0.04117
G1 X72.324 Y86.493 E0.04291
G1 X71.933 Y84.985 E0.04886
G1 X71.781 Y83.629 E0.04277
G1 X71.811 Y82.262 E0.04289
G1 X72.016 Y80.940 E0.04194
G1 X72.393 Y79.651 E0.04212
G1 X72.951 Y78.394 E0.04310
G1 X73.791 Y77.058 E0.04948
G1 X74.619 Y76.084 E0.04008
M204 S1250
G1 X74.906 Y76.328 F9000.000
M204 S800
G1 F1200.000
G1 X75.904 Y75.419 E0.04233
G1 X76.970 Y74.685 E0.04057
G1 X78.116 Y74.100 E0.04033
G1 X79.357 Y73.661 E0.04129
G1 X80.839 Y73.365 E0.04737
G1 X82.150 Y73.295 E0.04118
G1 X83.746 Y73.445 E0.05024
G1 X85.068 Y73.774 E0.04272
G1 X86.518 Y74.375 E0.04921
G1 X87.900 Y75.231 E0.05098
G1 X104.563 Y89.469 E0.68720
M73 P4 R9
G1 X105.473 Y90.398 E0.04078
G1 X106.232 Y91.407 E0.03958
G1 X107.137 Y93.138 E0.06123
G1 X107.679 Y94.986 E0.06040
G1 X107.852 Y96.907 E0.06047
G1 X107.649 Y98.820 E0.06032
G1 X107.077 Y100.663 E0.06052
G1 X106.161 Y102.356 E0.06035
G1 X104.931 Y103.840 E0.06044
G1 X103.448 Y105.051 E0.06004
G1 X102.324 Y105.696 E0.04062
G1 X101.104 Y106.197 E0.04136
G1 X99.610 Y106.569 E0.04825
G1 X98.306 Y106.700 E0.04110
G1 X97.009 Y106.658 E0.04069
G1 X95.716 Y106.443 E0.04110
G1 X94.477 Y106.065 E0.04061
G1 X93.094 Y105.415 E0.04794
G1 X91.524 Y104.307 E0.06024
G1 X75.543 Y90.624 E0.65965
G1 X74.631 Y89.720 E0.04025
G1 X73.836 Y88.694 E0.04069
G1 X73.192 Y87.592 E0.04003
G1 X72.682 Y86.375 E0.04136
G1 X72.303 Y84.914 E0.04732
G1 X72.158 Y83.612 E0.04108
G1 X72.187 Y82.292 E0.04141
G1 X72.384 Y81.023 E0.04027
G1 X72.747 Y79.781 E0.04057
G1 X73.280 Y78.578 E0.04125
G1 X74.088 Y77.292 E0.04764
G1 X74.867 Y76.373 E0.03775
M204 S1250
; printing object outsideMagnetHolder01.stl id:0 copy 1
G1 E-2.24000 F4200.000
;WIPE_START
G1 F7200.000
G1 X75.904 Y75.419 E-0.78111
G1 X76.099 Y75.285 E-0.13089
;WIPE_END
G1 E-0.04800 F4200.000
G1 Z0.400 F9000.000
G1 X94.688 Y93.541
G1 Z0.200
G1 E3.20000 F2400.000
M204 S800
;TYPE:Perimeter
G1 F1200.000
G1 X101.262 Y93.541 E0.20613
G1 X101.262 Y100.115 E0.20613
G1 X94.688 Y100.115 E0.20613
G1 X94.688 Y93.601 E0.20425
M204 S1250
G1 X95.065 Y93.918 F9000.000
M204 S800
;TYPE:External perimeter
G1 F1200.000
G1 X100.885 Y93.918 E0.18248
G1 X100.885 Y99.738 E0.18248
M73 P5 R9
G1 X95.065 Y99.738 E0.18248
G1 X95.065 Y93.978 E0.18060
M204 S1250
G1 X94.962 Y93.532 F9000.000
G1 E-2.24000 F4200.000
;WIPE_START
G1 F7200.000
G1 X96.711 Y93.961 E-0.91200
;WIPE_END
G1 E-0.04800 F4200.000
G1 Z0.400 F9000.000
G1 X93.327 Y91.987
G1 Z0.200
G1 E3.20000 F2400.000
M204 S800
;TYPE:Perimeter
G1 F1200.000
G1 X93.821 Y91.556 E0.02055
G1 X94.355 Y91.176 E0.02055
G1 X94.923 Y90.850 E0.02055
G1 X95.521 Y90.581 E0.02055
G1 X96.141 Y90.372 E0.02055
G1 X96.780 Y90.223 E0.02055
G1 X97.434 Y90.138 E0.02070
G1 X97.866 Y90.117 E0.01355
G1 X98.297 Y90.124 E0.01350
G1 X98.955 Y90.188 E0.02075
G1 X99.598 Y90.315 E0.02054
G1 X100.225 Y90.505 E0.02055
G1 X100.831 Y90.754 E0.02055
G1 X101.410 Y91.061 E0.02055
G1 X101.956 Y91.424 E0.02055
G1 X102.464 Y91.838 E0.02055
G1 X102.929 Y92.299 E0.02055
G1 X103.347 Y92.804 E0.02055
G1 X103.714 Y93.347 E0.02055
G1 X104.026 Y93.923 E0.02055
G1 X104.281 Y94.527 E0.02055
G1 X104.475 Y95.153 E0.02055
G1 X104.607 Y95.795 E0.02055
G1 X104.677 Y96.446 E0.02055
G1 X104.682 Y97.101 E0.02055
G1 X104.623 Y97.754 E0.02055
G1 X104.501 Y98.398 E0.02055
G1 X104.317 Y99.027 E0.02055
G1 X104.073 Y99.635 E0.02055
G1 X103.770 Y100.216 E0.02055
G1 X103.412 Y100.765 E0.02055
G1 X103.002 Y101.276 E0.02055
G1 X102.545 Y101.745 E0.02055
G1 X102.043 Y102.167 E0.02055
G1 X101.503 Y102.539 E0.02055
G1 X100.930 Y102.855 E0.02055
G1 X100.328 Y103.115 E0.02055
G1 X99.704 Y103.314 E0.02055
G1 X99.063 Y103.452 E0.02055
G1 X98.412 Y103.526 E0.02055
G1 X97.757 Y103.537 E0.02055
G1 X97.104 Y103.484 E0.02055
G1 X96.459 Y103.367 E0.02055
G1 X95.828 Y103.188 E0.02055
G1 X95.219 Y102.948 E0.02055
G1 X94.635 Y102.650 E0.02055
G1 X94.083 Y102.297 E0.02055
G1 X93.568 Y101.891 E0.02055
G1 X93.096 Y101.437 E0.02055
G1 X92.670 Y100.940 E0.02055
G1 X92.294 Y100.403 E0.02055
G1 X91.972 Y99.832 E0.02055
G1 X91.708 Y99.232 E0.02055
G1 X91.504 Y98.610 E0.02055
G1 X91.361 Y97.970 E0.02055
G1 X91.281 Y97.320 E0.02055
G1 X91.265 Y96.664 E0.02055
G1 X91.313 Y96.011 E0.02055
G1 X91.424 Y95.365 E0.02055
G1 X91.598 Y94.733 E0.02055
G1 X91.833 Y94.122 E0.02055
G1 X92.126 Y93.536 E0.02055
G1 X92.475 Y92.981 E0.02055
G1 X92.877 Y92.463 E0.02055
G1 X93.285 Y92.030 E0.01867
M204 S1250
G1 X93.011 Y91.771 F9000.000
M204 S800
;TYPE:External perimeter
G1 F1200.000
G1 X93.587 Y91.260 E0.02415
G1 X94.151 Y90.858 E0.02170
G1 X94.751 Y90.514 E0.02170
G1 X95.383 Y90.230 E0.02170
G1 X96.038 Y90.008 E0.02170
G1 X96.713 Y89.852 E0.02170
G1 X97.401 Y89.762 E0.02176
G1 X97.860 Y89.739 E0.01442
G1 X98.318 Y89.747 E0.01437
G1 X99.010 Y89.815 E0.02181
G1 X99.689 Y89.949 E0.02170
G1 X100.352 Y90.149 E0.02170
G1 X100.992 Y90.412 E0.02170
G1 X101.603 Y90.737 E0.02170
G1 X102.180 Y91.120 E0.02170
G1 X102.716 Y91.557 E0.02170
G1 X103.208 Y92.045 E0.02170
G1 X103.649 Y92.578 E0.02170
G1 X104.037 Y93.151 E0.02170
G1 X104.366 Y93.760 E0.02170
G1 X104.635 Y94.398 E0.02170
G1 X104.841 Y95.059 E0.02170
G1 X104.980 Y95.736 E0.02170
G1 X105.053 Y96.425 E0.02170
G1 X105.059 Y97.117 E0.02170
G1 X104.997 Y97.806 E0.02170
G1 X104.868 Y98.486 E0.02170
G1 X104.674 Y99.150 E0.02170
G1 X104.416 Y99.793 E0.02170
G1 X104.096 Y100.406 E0.02170
G1 X103.718 Y100.986 E0.02170
G1 X103.285 Y101.526 E0.02170
G1 X102.802 Y102.022 E0.02170
G1 X102.272 Y102.468 E0.02170
G1 X101.702 Y102.860 E0.02170
G1 X101.096 Y103.194 E0.02170
G1 X100.460 Y103.468 E0.02170
G1 X99.801 Y103.679 E0.02170
G1 X99.124 Y103.824 E0.02170
G1 X98.437 Y103.903 E0.02170
G1 X97.744 Y103.914 E0.02170
G1 X97.055 Y103.858 E0.02170
G1 X96.374 Y103.735 E0.02170
G1 X95.708 Y103.546 E0.02170
G1 X95.064 Y103.293 E0.02170
G1 X94.447 Y102.978 E0.02170
G1 X93.864 Y102.604 E0.02170
G1 X93.321 Y102.176 E0.02170
G1 X92.821 Y101.697 E0.02170
G1 X92.371 Y101.171 E0.02170
G1 X91.974 Y100.604 E0.02170
G1 X91.635 Y100.001 E0.02170
G1 X91.356 Y99.367 E0.02170
G1 X91.140 Y98.710 E0.02170
G1 X90.989 Y98.034 E0.02170
G1 X90.905 Y97.347 E0.02170
G1 X90.888 Y96.655 E0.02170
G1 X90.938 Y95.965 E0.02170
G1 X91.056 Y95.283 E0.02170
G1 X91.240 Y94.616 E0.02170
G1 X91.488 Y93.969 E0.02170
G1 X91.797 Y93.350 E0.02170
G1 X92.166 Y92.764 E0.02170
G1 X92.590 Y92.217 E0.02170
G1 X92.970 Y91.815 E0.01736
M204 S1250
G1 X93.396 Y91.880 F9000.000
G1 E-2.24000 F4200.000
;WIPE_START
G1 F7200.000
G1 X93.587 Y91.260 E-0.45997
G1 X94.151 Y90.858 E-0.38357
G1 X94.258 Y90.797 E-0.06846
;WIPE_END
G1 E-0.04800 F4200.000
G1 Z0.400 F9000.000
G1 X101.459 Y91.230
G1 Z0.200
G1 E3.20000 F2400.000
M204 S800
;TYPE:Solid infill
;WIDTH:0.420815
G1 F1200.000
G1 X102.723 Y92.494 E0.05616
M73 P6 R9
G1 X103.121 Y92.974 E0.01958
G1 X103.472 Y93.494 E0.01972
G1 X103.793 Y94.098 E0.02151
G1 X100.701 Y91.006 E0.13739
G1 X100.130 Y90.771 E0.01940
G1 X99.846 Y90.685 E0.00934
G1 X104.118 Y94.958 E0.18986
G1 X104.201 Y95.223 E0.00874
G1 X104.292 Y95.666 E0.01420
G1 X99.139 Y90.513 E0.22901
G1 X98.914 Y90.468 E0.00720
G1 X98.521 Y90.430 E0.01239
G1 X104.375 Y96.283 E0.26012
G1 X104.397 Y96.840 E0.01750
G1 X101.545 Y93.988 E0.12673
G1 X101.545 Y94.522 E0.01679
G1 X104.375 Y97.353 E0.12577
G1 X104.321 Y97.832 E0.01517
G1 X101.545 Y95.057 E0.12334
G1 X101.545 Y95.591 E0.01679
G1 X104.236 Y98.282 E0.11956
G1 X104.119 Y98.699 E0.01362
G1 X101.545 Y96.126 E0.11435
G1 X101.545 Y96.660 E0.01679
G1 X103.984 Y99.099 E0.10836
G1 X103.830 Y99.480 E0.01291
G1 X101.545 Y97.195 E0.10154
G1 X101.545 Y97.729 E0.01679
G1 X103.650 Y99.834 E0.09354
G1 X103.458 Y100.176 E0.01234
G1 X101.545 Y98.263 E0.08501
G1 X101.545 Y98.798 E0.01679
G1 X103.247 Y100.500 E0.07563
G1 X103.183 Y100.599 E0.00371
G1 X103.018 Y100.805 E0.00829
G1 X101.545 Y99.332 E0.06543
G1 X101.545 Y99.867 E0.01679
G1 X102.779 Y101.100 E0.05482
G1 X102.515 Y101.371 E0.01188
G1 X101.542 Y100.398 E0.04322
G1 X101.008 Y100.398 E0.01679
G1 X102.241 Y101.631 E0.05479
G1 X101.951 Y101.876 E0.01192
G1 X100.473 Y100.398 E0.06565
G1 X99.939 Y100.398 E0.01679
G1 X101.641 Y102.101 E0.07565
G1 X101.322 Y102.316 E0.01210
G1 X99.405 Y100.398 E0.08520
G1 X98.870 Y100.398 E0.01679
G1 X100.978 Y102.506 E0.09365
G1 X100.619 Y102.681 E0.01255
G1 X98.336 Y100.398 E0.10146
G1 X97.801 Y100.398 E0.01679
G1 X100.245 Y102.842 E0.10861
G1 X99.842 Y102.973 E0.01333
G1 X97.267 Y100.398 E0.11442
G1 X96.732 Y100.398 E0.01679
G1 X99.420 Y103.086 E0.11943
G1 X98.977 Y103.177 E0.01422
G1 X96.198 Y100.398 E0.12348
M73 P7 R9
G1 X95.664 Y100.398 E0.01679
G1 X98.497 Y103.232 E0.12592
G1 X97.981 Y103.251 E0.01622
G1 X94.960 Y100.229 E0.13429
M204 S1250
G1 E-2.24000 F4200.000
;WIPE_START
G1 F7200.000
G1 X96.123 Y101.392 E-0.91200
;WIPE_END
G1 E-0.04800 F4200.000
G1 Z0.400 F9000.000
G1 X100.985 Y93.428
G1 Z0.200
G1 E3.20000 F2400.000
M204 S800
G1 F1200.000
G1 X97.958 Y90.401 E0.13452
G1 X97.444 Y90.422 E0.01616
G1 X100.281 Y93.258 E0.12606
G1 X99.747 Y93.258 E0.01679
G1 X96.972 Y90.484 E0.12331
G1 X96.526 Y90.573 E0.01427
G1 X99.212 Y93.258 E0.11936
G1 X98.678 Y93.258 E0.01679
G1 X96.103 Y90.683 E0.11444
G1 X95.703 Y90.818 E0.01325
G1 X98.143 Y93.258 E0.10845
G1 X97.609 Y93.258 E0.01679
G1 X95.328 Y90.978 E0.10135
G1 X94.967 Y91.151 E0.01259
G1 X97.075 Y93.258 E0.09365
G1 X96.540 Y93.258 E0.01679
G1 X94.628 Y91.346 E0.08499
G1 X94.306 Y91.558 E0.01212
G1 X96.006 Y93.258 E0.07555
G1 X95.471 Y93.258 E0.01679
G1 X93.994 Y91.781 E0.06566
G1 X93.708 Y92.029 E0.01190
G1 X94.937 Y93.258 E0.05461
G1 X94.405 Y93.261 E0.01670
G1 X93.431 Y92.287 E0.04328
G1 X93.172 Y92.562 E0.01188
G1 X94.405 Y93.796 E0.05482
G1 X94.405 Y94.330 E0.01679
G1 X92.930 Y92.855 E0.06555
G1 X92.707 Y93.143 E0.01145
G1 X92.698 Y93.157 E0.00053
G1 X94.405 Y94.865 E0.07586
G1 X94.405 Y95.399 E0.01679
G1 X92.492 Y93.486 E0.08503
G1 X92.297 Y93.825 E0.01231
G1 X94.405 Y95.933 E0.09367
G1 X94.405 Y96.468 E0.01679
G1 X92.119 Y94.182 E0.10159
G1 X91.966 Y94.563 E0.01292
G1 X94.405 Y97.002 E0.10838
G1 X94.405 Y97.537 E0.01679
G1 X91.829 Y94.961 E0.11448
G1 X91.714 Y95.380 E0.01366
G1 X94.405 Y98.071 E0.11961
G1 X94.405 Y98.606 E0.01679
G1 X91.631 Y95.831 E0.12329
G1 X91.575 Y96.309 E0.01513
G1 X94.405 Y99.140 E0.12579
G1 X94.405 Y99.674 E0.01679
G1 X91.552 Y96.821 E0.12681
G1 X91.573 Y97.376 E0.01747
G1 X97.423 Y103.226 E0.25994
M73 P8 R9
G1 X97.140 Y103.203 E0.00889
G1 X96.804 Y103.142 E0.01074
G1 X91.656 Y97.994 E0.22878
G1 X91.777 Y98.534 E0.01740
G1 X91.833 Y98.705 E0.00565
G1 X96.098 Y102.971 E0.18955
G1 X95.919 Y102.920 E0.00586
G1 X95.230 Y102.637 E0.02341
G1 X92.168 Y99.575 E0.13604
G1 X92.534 Y100.252 E0.02416
G1 X92.893 Y100.766 E0.01972
G1 X93.300 Y101.241 E0.01964
G1 X94.468 Y102.409 E0.05190
M204 S1250
; stop printing object outsideMagnetHolder01.stl id:0 copy 1
; printing object outsideMagnetHolder01.stl id:0 copy 0
G1 E-2.24000 F4200.000
;WIPE_START
G1 F7200.000
G1 X93.304 Y101.245 E-0.91200
;WIPE_END
G1 E-0.04800 F4200.000
G1 Z0.400 F9000.000
G1 X85.312 Y86.458
G1 Z0.200
G1 E3.20000 F2400.000
M204 S800
;TYPE:Perimeter
;WIDTH:0.42
G1 F1200.000
G1 X78.737 Y86.458 E0.20613
G1 X78.737 Y79.884 E0.20613
G1 X85.312 Y79.884 E0.20613
G1 X85.312 Y86.398 E0.20425
M204 S1250
G1 X84.935 Y86.081 F9000.000
M204 S800
;TYPE:External perimeter
G1 F1200.000
G1 X79.115 Y86.081 E0.18248
G1 X79.115 Y80.261 E0.18248
G1 X84.935 Y80.261 E0.18248
G1 X84.935 Y86.021 E0.18060
M204 S1250
G1 X85.038 Y86.467 F9000.000
G1 E-2.24000 F4200.000
;WIPE_START
G1 F7200.000
G1 X83.289 Y86.038 E-0.91200
;WIPE_END
G1 E-0.04800 F4200.000
G1 Z0.400 F9000.000
G1 X86.594 Y88.087
G1 Z0.200
G1 E3.20000 F2400.000
M204 S800
;TYPE:Perimeter
G1 F1200.000
G1 X86.093 Y88.510 E0.02055
G1 X85.553 Y88.881 E0.02055
G1 X84.979 Y89.198 E0.02055
G1 X84.377 Y89.457 E0.02055
G1 X83.753 Y89.656 E0.02055
G1 X83.112 Y89.794 E0.02055
G1 X82.461 Y89.869 E0.02055
G1 X81.806 Y89.879 E0.02055
G1 X81.153 Y89.826 E0.02055
G1 X80.508 Y89.709 E0.02055
G1 X79.878 Y89.530 E0.02055
G1 X79.268 Y89.291 E0.02055
G1 X78.684 Y88.993 E0.02055
G1 X78.132 Y88.639 E0.02055
G1 X77.618 Y88.234 E0.02055
G1 X77.145 Y87.780 E0.02055
G1 X76.719 Y87.282 E0.02055
G1 X76.343 Y86.745 E0.02055
G1 X76.022 Y86.174 E0.02055
G1 X75.758 Y85.574 E0.02055
G1 X75.553 Y84.952 E0.02055
G1 X75.410 Y84.312 E0.02055
G1 X75.330 Y83.662 E0.02055
G1 X75.314 Y83.007 E0.02055
G1 X75.362 Y82.353 E0.02055
G1 X75.474 Y81.707 E0.02055
G1 X75.648 Y81.076 E0.02055
M73 P9 R9
G1 X75.882 Y80.464 E0.02055
G1 X76.176 Y79.878 E0.02055
G1 X76.525 Y79.323 E0.02055
G1 X76.926 Y78.805 E0.02055
G1 X77.376 Y78.329 E0.02055
G1 X77.870 Y77.899 E0.02055
G1 X78.404 Y77.519 E0.02055
G1 X78.972 Y77.193 E0.02055
G1 X79.570 Y76.923 E0.02055
G1 X80.191 Y76.714 E0.02055
G1 X80.829 Y76.566 E0.02055
G1 X81.484 Y76.480 E0.02070
G1 X81.915 Y76.459 E0.01355
G1 X82.346 Y76.466 E0.01350
G1 X83.004 Y76.530 E0.02075
G1 X83.647 Y76.658 E0.02054
G1 X84.275 Y76.847 E0.02055
G1 X84.880 Y77.096 E0.02055
G1 X85.459 Y77.404 E0.02055
G1 X86.005 Y77.766 E0.02055
G1 X86.513 Y78.180 E0.02055
G1 X86.978 Y78.642 E0.02055
G1 X87.396 Y79.146 E0.02055
G1 X87.763 Y79.689 E0.02055
G1 X88.075 Y80.265 E0.02055
G1 X88.330 Y80.869 E0.02055
G1 X88.524 Y81.495 E0.02055
G1 X88.657 Y82.137 E0.02055
G1 X88.726 Y82.788 E0.02055
G1 X88.731 Y83.444 E0.02055
G1 X88.673 Y84.096 E0.02055
G1 X88.551 Y84.740 E0.02055
G1 X88.367 Y85.369 E0.02055
G1 X88.122 Y85.977 E0.02055
G1 X87.819 Y86.558 E0.02055
G1 X87.461 Y87.107 E0.02055
G1 X87.051 Y87.619 E0.02055
G1 X86.636 Y88.045 E0.01866
M204 S1250
