; generated by PrusaSlicer 2.2.0+win64 on 2020-10-21 at 17:43:14 UTC


;
;

;
;
; 

; external perimeters extrusion width = 0.45mm
; perimeters extrusion width = 0.45mm
; infill extrusion width = 0.45mm
; solid infill extrusion width = 0.45mm
; top infill extrusion width = 0.40mm
; first layer extrusion width = 0.42mm

M73 P0 R20
M201 X1250 Y1250 Z400 E5000 ; sets maximum accelerations, mm/sec^2
M203 X180 Y180 Z12 E80 ; sets maximum feedrates, mm/sec
M204 P1250 R1250 T1250 ; sets acceleration (P, T) and retract acceleration (R), mm/sec^2
M205 X8.00 Y8.00 Z2.00 E10.00 ; sets the jerk limits, mm/sec
M205 S0 T0 ; sets the minimum extruding and travel feed rate, mm/sec
M107
G90 ; use absolute coordinates
M83 ; extruder relative mode
M104 S170 ; set extruder temp for bed leveling
M140 S60 ; set bed temp
M109 R170 ; wait for bed leveling temp
M190 S60 ; wait for bed temp
G28 ; home all without mesh bed level
G29 ; mesh bed leveling 
M104 S215 ; set extruder temp
G92 E0.0
G1 Y-2.0 X179 F2400
G1 Z3 F720
M109 S215 ; wait for extruder temp

; intro line
G1 X170 F1000
G1 Z0.2 F720
G1 X110.0 E8.0 F900
M73 P0 R20
G1 X40.0 E10.0 F700
G92 E0.0

M221 S95 ; set flow
G21 ; set units to millimeters
G90 ; use absolute coordinates
M83 ; use relative distances for extrusion
M900 K0.2 ; Filament gcode LA 1.5
; ; Filament gcode LA 1.0
;BEFORE_LAYER_CHANGE
G92 E0.0
;0.2


G1 Z0.200 F9000.000
;AFTER_LAYER_CHANGE
;0.2
G1 E-3.20000 F4200.00000
G1 Z0.400 F9000.000
G1 X79.940 Y73.724
G1 Z0.200
G1 E3.20000 F2400.00000
M204 S800
G1 F1120
G1 X80.311 Y73.070 E0.02358
G1 X80.841 Y72.542 E0.02345
G1 X81.498 Y72.176 E0.02358
G1 X82.229 Y72.000 E0.02358
G1 X97.504 Y71.987 E0.47894
G1 X98.513 Y72.180 E0.03221
G1 X99.384 Y72.732 E0.03233
G1 X99.989 Y73.562 E0.03221
G1 X100.248 Y74.560 E0.03233
G1 X100.254 Y109.704 E1.10192
G1 X100.060 Y110.704 E0.03195
G1 X99.682 Y111.369 E0.02396
G1 X99.139 Y111.901 E0.02383
G1 X98.472 Y112.265 E0.02383
G1 X97.726 Y112.432 E0.02396
G1 X82.467 Y112.442 E0.47843
G1 X81.483 Y112.247 E0.03145
G1 X80.800 Y111.854 E0.02473
G1 X80.253 Y111.280 E0.02485
G1 X79.892 Y110.574 E0.02485
G1 X79.748 Y109.799 E0.02473
G1 X79.746 Y74.724 E1.09974
G1 X79.929 Y73.783 E0.03007
M204 S1250
G1 X80.295 Y73.855 F9000.000
M204 S800
G1 F1120
G1 X80.620 Y73.286 E0.02054
G1 X81.087 Y72.829 E0.02048
G1 X81.657 Y72.518 E0.02036
G1 X82.293 Y72.373 E0.02048
G1 X97.504 Y72.364 E0.47691
G1 X98.381 Y72.533 E0.02802
G1 X99.134 Y73.015 E0.02802
G1 X99.654 Y73.736 E0.02790
G1 X99.873 Y74.603 E0.02802
G1 X99.877 Y109.699 E1.10042
G1 X99.705 Y110.576 E0.02802
G1 X99.375 Y111.148 E0.02071
G1 X98.901 Y111.608 E0.02071
G1 X98.318 Y111.919 E0.02071
G1 X97.672 Y112.058 E0.02071
G1 X82.473 Y112.065 E0.47655
G1 X81.612 Y111.892 E0.02755
G1 X81.021 Y111.549 E0.02142
G1 X80.553 Y111.051 E0.02142
G1 X80.245 Y110.441 E0.02142
G1 X80.124 Y109.769 E0.02142
G1 X80.123 Y74.729 E1.09863
G1 X80.283 Y73.914 E0.02607
M204 S1250
G1 E-2.24000 F4200.00000
G1 F7200.000
G1 X80.620 Y73.286 E-0.39474
G1 X81.087 Y72.829 E-0.36191
G1 X81.333 Y72.695 E-0.15534
G1 E-0.04800 F4200.00000
G1 Z0.400 F9000.000
G1 X83.287 Y96.342
G1 Z0.200
G1 E3.20000 F2400.00000
M204 S800
G1 F1120
G1 X83.933 Y96.342 E0.02028
G1 X83.284 Y101.329 E0.15769
G1 X83.287 Y96.402 E0.15449
M204 S1250
G1 X82.910 Y95.965 F9000.000
M204 S800
G1 F1120
G1 X84.363 Y95.965 E0.04556
G1 X83.343 Y103.791 E0.24745
G1 X83.251 Y104.777 E0.03105
G1 X83.090 Y107.230 E0.07709
G1 X82.840 Y109.147 E0.06062
G1 X82.756 Y109.355 E0.00702
G1 X82.710 Y109.174 E0.00584
G1 X82.710 Y107.258 E0.06009
G1 X82.865 Y104.825 E0.07642
G1 X82.905 Y103.844 E0.03079
G1 X82.910 Y96.025 E0.24516
M204 S1250
G1 X83.256 Y96.166 F9000.000
G1 X83.596 Y96.531
M204 S800
G1 F1120
G1 X83.572 Y96.909 E0.00718
M204 S1250
M204 S800
G1
G1 X83.547 Y97.287 E0.00578
M204 S1250
M204 S800
G1
G1 X83.522 Y97.666 E0.00439
M204 S1250
M204 S800
G1
G1 X83.498 Y98.044 E0.00299
M204 S1250
G1 E-2.24000 F4200.00000
G1 F7200.000
G1 X83.522 Y97.666 E-0.21010
G1 E-0.74990 F4200.00000
G1 Z0.400 F9000.000
G1 X83.271 Y101.518
G1 Z0.200
G1 E3.20000 F2400.00000
M204 S800
G1 F1120
G1 X83.247 Y101.892 E0.01035
M204 S1250
M204 S800
G1
G1 X83.222 Y102.267 E0.00895
M204 S1250
M204 S800
G1
G1 X83.198 Y102.642 E0.00755
M204 S1250
M204 S800
G1
G1 X83.174 Y103.016 E0.00615
M204 S1250
M204 S800
G1
G1 X83.149 Y103.391 E0.00475
M204 S1250
M204 S800
G1
G1 X83.125 Y103.766 E0.00335
M204 S1250
M204 S800
G1
G1 X83.121 Y103.848 E0.00043
M204 S1250
M204 S800
G1
G1 X83.113 Y103.959 E0.00051
M204 S1250
G1 E-2.24000 F4200.00000
G1 F7200.000
G1 X83.121 Y103.848 E-0.06149
G1 E-0.89851 F4200.00000
G1 Z0.400 F9000.000
G1 X96.713 Y101.302
G1 Z0.200
G1 E3.20000 F2400.00000
M204 S800
G1 F1120
G1 X96.067 Y96.342 E0.15683
G1 X96.713 Y96.342 E0.02027
G1 X96.713 Y101.242 E0.15364
M204 S1250
G1 E-2.24000 F4200.00000
G1 F7200.000
G1 X96.498 Y99.611 E-0.91200
G1 E-0.04800 F4200.00000
G1 Z0.400 F9000.000
G1 X97.090 Y95.965
G1 Z0.200
G1 E3.20000 F2400.00000
M204 S800
G1 F1120
G1 X97.090 Y102.379 E0.20110
G1 X97.109 Y104.334 E0.06133
G1 X97.290 Y107.257 E0.09182
G1 X97.290 Y109.174 E0.06010
G1 X97.244 Y109.355 E0.00584
G1 X97.160 Y109.147 E0.00702
G1 X96.910 Y107.230 E0.06062
G1 X96.749 Y104.777 E0.07709
G1 X96.657 Y103.791 E0.03105
G1 X95.637 Y95.965 E0.24745
G1 X97.030 Y95.965 E0.04367
M204 S1250
G1 X97.083 Y96.365 F9000.000
G1 X96.403 Y96.531
M204 S800
G1 F1120
G1 X96.428 Y96.906 E0.00711
M204 S1250
M204 S800
G1
G1 X96.501 Y98.033 E0.00888
M204 S1250
G1 E-2.24000 F4200.00000
G1 F7200.000
G1 X96.428 Y96.906 E-0.62570
G1 E-0.33430 F4200.00000
G1 Z0.400 F9000.000
G1 X96.725 Y101.490
G1 Z0.200
G1 E3.20000 F2400.00000
M204 S800
G1 F1120
G1 X96.754 Y101.935 E0.01227
M204 S1250
M204 S800
G1
G1 X96.831 Y103.073 E0.01856
M204 S1250
M204 S800
G1
G1 X96.894 Y104.041 E0.00573
M204 S1250
M106 S255
;BEFORE_LAYER_CHANGE
G92 E0.0
;0.4


G1 Z0.400 F9000.000
;AFTER_LAYER_CHANGE
;0.4
G1 E-3.20000 F4200.00000
G1 Z0.600 F9000.000
G1 X100.060 Y110.704
G1 Z0.400
G1 E3.20000 F2400.00000
G1 X99.682 Y111.369 E0.02396
G1 X99.139 Y111.901 E0.02383
G1 X98.472 Y112.265 E0.02383
G1 X97.726 Y112.432 E0.02396
G1 X82.467 Y112.442 E0.47843
G1 X81.483 Y112.247 E0.03145
G1 X80.800 Y111.854 E0.02473
G1 X80.253 Y111.280 E0.02485
G1 X79.892 Y110.574 E0.02485
G1 X79.748 Y109.799 E0.02473
G1 X79.746 Y74.724 E1.09974
G1 X79.940 Y73.724 E0.03195
G1 X80.311 Y73.070 E0.02358
G1 X80.841 Y72.542 E0.02345
G1 X81.498 Y72.176 E0.02358
G1 X82.229 Y72.000 E0.02358
G1 X97.504 Y71.987 E0.47894
G1 X98.513 Y72.180 E0.03221
G1 X99.384 Y72.732 E0.03233
G1 X99.989 Y73.562 E0.03221
G1 X100.248 Y74.560 E0.03233
G1 X100.254 Y109.704 E1.10192
G1 X100.071 Y110.645 E0.03007
G1 X99.705 Y110.574 F9000.000
G1 F2400.000
G1 X99.375 Y111.148 E0.02078
G1 X98.901 Y111.608 E0.02071
G1 X98.318 Y111.919 E0.02071
G1 X97.672 Y112.058 E0.02071
G1 X82.473 Y112.065 E0.47655
G1 X81.612 Y111.892 E0.02755
G1 X81.021 Y111.549 E0.02142
G1 X80.553 Y111.051 E0.02142
G1 X80.245 Y110.441 E0.02142
G1 X80.124 Y109.769 E0.02142
G1 X80.123 Y74.729 E1.09863
G1 X80.295 Y73.853 E0.02802
G1 X80.620 Y73.286 E0.02048
G1 X81.087 Y72.829 E0.02048
G1 X81.657 Y72.518 E0.02036
G1 X82.293 Y72.373 E0.02048
G1 X97.504 Y72.364 E0.47691
G1 X98.381 Y72.533 E0.02802
G1 X99.134 Y73.015 E0.02802
G1 X99.654 Y73.736 E0.02790
G1 X99.873 Y74.603 E0.02802
G1 X99.877 Y109.699 E1.10042
G1 X99.717 Y110.515 E0.02607
G1 E-2.24000 F4200.00000
G1 F7200.000
G1 X99.375 Y111.148 E-0.39891
G1 X98.901 Y111.608 E-0.36610
G1 X98.667 Y111.733 E-0.14700
G1 E-0.04800 F4200.00000
G1 Z0.600 F9000.000
G1 X96.868 Y103.904
G1 Z0.400
G1 E3.20000 F2400.00000
M204 S800
G1 X94.233 Y83.755 E0.68784
G1 X94.233 Y82.553 E0.04068
G1 X85.767 Y82.553 E0.28655
G1 X85.767 Y83.755 E0.04068
G1 X83.132 Y103.904 E0.68784
G1 X83.132 Y75.538 E0.96015
G1 X88.607 Y75.538 E0.18530
G1 X88.795 Y75.705 E0.00852
G1 X89.183 Y75.940 E0.01533
G1 X89.548 Y76.071 E0.01315
G1 X90.000 Y76.128 E0.01542
G1 X90.461 Y76.070 E0.01573
G1 X90.894 Y75.903 E0.01570
G1 X91.284 Y75.643 E0.01587
G1 X91.391 Y75.538 E0.00507
G1 X96.868 Y75.538 E0.18538
G1 X96.868 Y103.844 E0.95812
M204 S1250
G1 E-2.24000 F4200.00000
G1 F7200.000
G1 X96.654 Y102.213 E-0.91200
G1 E-0.04800 F4200.00000
G1 Z0.600 F9000.000
G1 X97.275 Y109.297
G1 Z0.400
G1 E3.20000 F2400.00000
M204 S800
G1 F1800.000
G1 X97.163 Y109.297 E0.00380
G1 X93.826 Y83.781 E0.87103
G1 X93.826 Y82.960 E0.02780
G1 X86.174 Y82.960 E0.25899
G1 X86.174 Y83.781 E0.02780
G1 X82.837 Y109.297 E0.87103
G1 X82.725 Y109.297 E0.00380
G1 X82.725 Y75.131 E1.15647
G1 X88.768 Y75.131 E0.20455
G1 X89.037 Y75.376 E0.01231
G1 X89.358 Y75.571 E0.01271
G1 X89.643 Y75.673 E0.01025
G1 X90.000 Y75.718 E0.01217
G1 X90.361 Y75.672 E0.01232
G1 X90.706 Y75.539 E0.01250
G1 X91.027 Y75.326 E0.01304
G1 X91.225 Y75.131 E0.00939
G1 X97.275 Y75.131 E0.20480
G1 X97.275 Y109.237 E1.15444
M204 S1250
G1 X97.175 Y109.247 F9000.000
G1 E-2.24000 F4200.00000
G1 F7200.000
G1 X97.163 Y109.297 E-0.07059
G1 X96.966 Y107.792 E-0.84141
G1 E-0.04800 F4200.00000
G1 Z0.600 F9000.000
G1 X97.046 Y106.643
G1 Z0.400
G1 E3.20000 F2400.00000
G1 X96.975 Y105.556 E0.00881
G1 X96.905 Y104.470 E0.02059
G1 X96.881 Y104.107 E0.01079
G1 E-2.24000 F4200.00000
G1 F7200.000
G1 X96.905 Y104.470 E-0.20113
G1 E-0.75887 F4200.00000
G1 Z0.600 F9000.000
G1 X96.639 Y100.391
G1 Z0.400
G1 E3.20000 F2400.00000
G1 X96.568 Y99.304 E0.00881
G1 X96.498 Y98.218 E0.02059
G1 X96.474 Y97.855 E0.01079
G1 X96.109 Y97.144 F9000.000
M204 S1000
G1 F1800.000
G1 X96.546 Y97.088 E0.02254
G1 X96.546 Y96.639 E0.02295
G1 X96.247 Y96.677 E0.01540
G1 X96.189 Y96.235 E0.02277
G1 X96.546 Y96.190 E0.01838
G1 X96.546 Y95.741 E0.02295
G1 X96.132 Y95.793 E0.02136
G1 X96.074 Y95.352 E0.02277
G1 X96.546 Y95.292 E0.02433
G1 X96.546 Y94.843 E0.02295
G1 X96.016 Y94.910 E0.02731
G1 X95.958 Y94.468 E0.02277
G1 X96.546 Y94.393 E0.03029
G1 X96.546 Y93.944 E0.02295
G1 X95.900 Y94.026 E0.03326
G1 X95.843 Y93.584 E0.02277
G1 X96.546 Y93.495 E0.03624
G1 X96.546 Y93.046 E0.02295
G1 X95.785 Y93.142 E0.03922
G1 X95.727 Y92.700 E0.02277
G1 X96.546 Y92.597 E0.04219
G1 X96.546 Y92.148 E0.02295
G1 X95.669 Y92.259 E0.04517
G1 X95.612 Y91.817 E0.02277
G1 X96.546 Y91.698 E0.04815
G1 X96.546 Y91.249 E0.02295
G1 X95.554 Y91.375 E0.05112
G1 X95.496 Y90.933 E0.02277
G1 X96.546 Y90.800 E0.05410
G1 X96.546 Y90.351 E0.02295
G1 X95.438 Y90.491 E0.05708
G1 X95.380 Y90.049 E0.02277
G1 X96.546 Y89.902 E0.06005
G1 X96.546 Y89.453 E0.02295
G1 X95.323 Y89.607 E0.06303
G1 X95.265 Y89.166 E0.02277
G1 X96.546 Y89.004 E0.06601
G1 X96.546 Y88.554 E0.02295
G1 X95.207 Y88.724 E0.06898
G1 X95.149 Y88.282 E0.02277
G1 X96.546 Y88.105 E0.07196
G1 X96.546 Y87.656 E0.02295
G1 X95.092 Y87.840 E0.07494
G1 X95.034 Y87.398 E0.02277
G1 X96.546 Y87.207 E0.07791
G1 X96.546 Y86.758 E0.02295
G1 X94.976 Y86.956 E0.08089
G1 X94.918 Y86.514 E0.02277
G1 X96.546 Y86.309 E0.08387
G1 X96.546 Y85.859 E0.02295
G1 X94.860 Y86.073 E0.08684
G1 X94.803 Y85.631 E0.02277
G1 X96.546 Y85.410 E0.08982
G1 X96.546 Y84.961 E0.02295
G1 X94.745 Y85.189 E0.09280
G1 X94.687 Y84.747 E0.02277
G1 X96.546 Y84.512 E0.09577
G1 X96.546 Y84.063 E0.02295
G1 X94.629 Y84.305 E0.09875
G1 X94.571 Y83.863 E0.02277
G1 X96.546 Y83.614 E0.10172
G1 X96.546 Y83.164 E0.02295
G1 X94.555 Y83.416 E0.10260
G1 X94.555 Y82.967 E0.02295
G1 X96.546 Y82.715 E0.10260
G1 X96.546 Y82.266 E0.02295
G1 X94.555 Y82.518 E0.10260
G1 X94.555 Y82.231 E0.01464
G1 X93.268 Y82.231 E0.06574
G1 X96.546 Y81.817 E0.16886
G1 X96.546 Y81.368 E0.02295
G1 X88.151 Y82.429 E0.43244
M204 S1250
G1 E-2.24000 F4200.00000
G1 F7200.000
G1 X89.784 Y82.223 E-0.91200
G1 E-0.04800 F4200.00000
G1 Z0.600 F9000.000
G1 X83.256 Y76.760
G1 Z0.400
G1 E3.20000 F2400.00000
M204 S1000
G1 F1800.000
G1 X88.766 Y76.063 E0.28383
G1 X88.604 Y75.965 E0.00968
G1 X88.485 Y75.860 E0.00811
G1 X86.822 Y75.860 E0.08497
G1 X83.256 Y76.311 E0.18371
M204 S1250
G1 E-2.24000 F4200.00000
G1 F7200.000
G1 X84.889 Y76.105 E-0.91200
G1 E-0.04800 F4200.00000
G1 Z0.600 F9000.000
G1 X95.491 Y75.662
G1 Z0.400
G1 E3.20000 F2400.00000
M204 S1000
G1 F1800.000
G1 X83.454 Y77.184 E0.62005
G1 X83.454 Y77.634 E0.02295
G1 X96.546 Y75.978 E0.67442
G1 X96.546 Y76.427 E0.02295
G1 X83.454 Y78.083 E0.67442
G1 X83.454 Y78.532 E0.02295
G1 X96.546 Y76.876 E0.67442
G1 X96.546 Y77.325 E0.02295
G1 X83.454 Y78.981 E0.67442
G1 X83.454 Y79.430 E0.02295
G1 X96.546 Y77.774 E0.67442
G1 X96.546 Y78.224 E0.02295
G1 X83.454 Y79.879 E0.67442
G1 X83.454 Y80.329 E0.02295
G1 X96.546 Y78.673 E0.67442
G1 X96.546 Y79.122 E0.02295
G1 X83.454 Y80.778 E0.67442
G1 X83.454 Y81.227 E0.02295
G1 X96.546 Y79.571 E0.67442
G1 X96.546 Y80.020 E0.02295
G1 X83.454 Y81.676 E0.67442
G1 X83.454 Y82.125 E0.02295
G1 X96.546 Y80.469 E0.67442
G1 X96.546 Y80.919 E0.02295
G1 X83.256 Y82.599 E0.68461
M204 S1250
G1 E-2.24000 F4200.00000
G1 F7200.000
G1 X84.889 Y82.393 E-0.91200
G1 E-0.04800 F4200.00000
G1 Z0.600 F9000.000
G1 X85.643 Y82.747
G1 Z0.400
G1 E3.20000 F2400.00000
M204 S1000
G1 F1800.000
G1 X83.454 Y83.023 E0.11279
G1 X83.454 Y83.473 E0.02295
G1 X85.445 Y83.221 E0.10260
G1 X85.445 Y83.670 E0.02295
G1 X83.454 Y83.922 E0.10260
G1 X83.454 Y84.371 E0.02295
G1 X85.394 Y84.126 E0.09996
G1 X85.335 Y84.582 E0.02354
G1 X83.454 Y84.820 E0.09688
G1 X83.454 Y85.269 E0.02295
G1 X85.275 Y85.039 E0.09380
G1 X85.215 Y85.496 E0.02354
G1 X83.454 Y85.718 E0.09073
G1 X83.454 Y86.168 E0.02295
G1 X85.155 Y85.952 E0.08765
G1 X85.096 Y86.409 E0.02354
G1 X83.454 Y86.617 E0.08457
G1 X83.454 Y87.066 E0.02295
G1 X85.036 Y86.866 E0.08150
G1 X84.976 Y87.323 E0.02354
G1 X83.454 Y87.515 E0.07842
G1 X83.454 Y87.964 E0.02295
G1 X84.916 Y87.779 E0.07534
G1 X84.857 Y88.236 E0.02354
G1 X83.454 Y88.413 E0.07227
G1 X83.454 Y88.863 E0.02295
G1 X84.797 Y88.693 E0.06919
G1 X84.737 Y89.149 E0.02354
G1 X83.454 Y89.312 E0.06611
G1 X83.454 Y89.761 E0.02295
G1 X84.678 Y89.606 E0.06304
G1 X84.618 Y90.063 E0.02354
G1 X83.454 Y90.210 E0.05996
G1 X83.454 Y90.659 E0.02295
G1 X84.558 Y90.520 E0.05688
G1 X84.498 Y90.976 E0.02354
G1 X83.454 Y91.108 E0.05381
G1 X83.454 Y91.558 E0.02295
G1 X84.439 Y91.433 E0.05073
G1 X84.379 Y91.890 E0.02354
G1 X83.454 Y92.007 E0.04765
G1 X83.454 Y92.456 E0.02295
G1 X84.319 Y92.346 E0.04458
G1 X84.259 Y92.803 E0.02354
G1 X83.454 Y92.905 E0.04150
G1 X83.454 Y93.354 E0.02295
G1 X84.200 Y93.260 E0.03842
G1 X84.140 Y93.717 E0.02354
G1 X83.454 Y93.803 E0.03535
G1 X83.454 Y94.253 E0.02295
G1 X84.080 Y94.173 E0.03227
G1 X84.021 Y94.630 E0.02354
G1 X83.454 Y94.702 E0.02919
G1 X83.454 Y95.151 E0.02295
G1 X83.961 Y95.087 E0.02612
G1 X83.901 Y95.543 E0.02354
G1 X83.454 Y95.600 E0.02304
G1 X83.454 Y96.049 E0.02295
G1 X83.841 Y96.000 E0.01996
G1 X83.782 Y96.457 E0.02354
G1 X83.454 Y96.498 E0.01689
G1 X83.454 Y96.947 E0.02295
G1 X83.722 Y96.914 E0.01381
G1 X83.662 Y97.370 E0.02354
G1 X83.256 Y97.422 E0.02093
M204 S1250
G1 X83.526 Y97.855 F9000.000
G1 F2400.000
G1 X83.502 Y98.218 E0.01079
G1 X83.479 Y98.580 E0.00948
G1 X83.455 Y98.942 E0.00817
G1 X83.432 Y99.304 E0.00686
G1 X83.408 Y99.666 E0.00555
G1 X83.384 Y100.028 E0.00425
G1 X83.361 Y100.391 E0.00294
G1 E-2.24000 F4200.00000
G1 F7200.000
G1 X83.384 Y100.028 E-0.20113
G1 E-0.75887 F4200.00000
G1 Z0.600 F9000.000
G1 X83.119 Y104.107
G1 Z0.400
G1 E3.20000 F2400.00000
G1 X83.095 Y104.470 E0.01079
G1 X83.072 Y104.832 E0.00948
G1 X83.048 Y105.194 E0.00817
G1 X83.025 Y105.556 E0.00686
G1 X83.001 Y105.918 E0.00555
G1 X82.977 Y106.280 E0.00425
G1 X82.954 Y106.643 E0.00294
;BEFORE_LAYER_CHANGE
G92 E0.0
;0.6


G1 Z0.600 F9000.000
;AFTER_LAYER_CHANGE
;0.6
G1 E-3.20000 F4200.00000
G1 Z0.800 F9000.000
G1 X81.483 Y112.247
G1 Z0.600
G1 E3.20000 F2400.00000
G1 X80.800 Y111.854 E0.02473
G1 X80.253 Y111.280 E0.02485
G1 X79.892 Y110.574 E0.02485
G1 X79.748 Y109.799 E0.02473
G1 X79.746 Y74.724 E1.09974
G1 X79.940 Y73.724 E0.03195
G1 X80.311 Y73.070 E0.02358
G1 X80.841 Y72.542 E0.02345
G1 X81.498 Y72.176 E0.02358
G1 X82.229 Y72.000 E0.02358
G1 X97.504 Y71.987 E0.47894
G1 X98.513 Y72.180 E0.03221
G1 X99.384 Y72.732 E0.03233
G1 X99.989 Y73.562 E0.03221
G1 X100.248 Y74.560 E0.03233
G1 X100.254 Y109.704 E1.10192
M73 P5 R19
G1 X100.060 Y110.704 E0.03195
