; generated by PrusaSlicer 2.2.0+win64 on 2020-12-10 at 13:05:48 UTC


;
;

;
;
; 

; external perimeters extrusion width = 0.45mm
; perimeters extrusion width = 0.45mm
; infill extrusion width = 0.45mm
; solid infill extrusion width = 0.45mm
; top infill extrusion width = 0.40mm
; first layer extrusion width = 0.42mm

M73 P0 R19
M201 X1250 Y1250 Z400 E5000 ; sets maximum accelerations, mm/sec^2
M203 X180 Y180 Z12 E80 ; sets maximum feedrates, mm/sec
M204 P1250 R1250 T1250 ; sets acceleration (P, T) and retract acceleration (R), mm/sec^2
M205 X8.00 Y8.00 Z2.00 E10.00 ; sets the jerk limits, mm/sec
M205 S0 T0 ; sets the minimum extruding and travel feed rate, mm/sec
M107
G90 ; use absolute coordinates
M83 ; extruder relative mode
M104 S170 ; set extruder temp for bed leveling
M140 S60 ; set bed temp
M109 R170 ; wait for bed leveling temp
M190 S60 ; wait for bed temp
G28 ; home all without mesh bed level
G29 ; mesh bed leveling 
M104 S215 ; set extruder temp
G92 E0.0
G1 Y-2.0 X179 F2400
G1 Z3 F720
M109 S215 ; wait for extruder temp

; intro line
G1 X170 F1000
G1 Z0.2 F720
G1 X110.0 E8.0 F900
M73 P0 R19
G1 X40.0 E10.0 F700
G92 E0.0

M221 S95 ; set flow
G21 ; set units to millimeters
G90 ; use absolute coordinates
M83 ; use relative distances for extrusion
M900 K0.2 ; Filament gcode LA 1.5
; ; Filament gcode LA 1.0
;BEFORE_LAYER_CHANGE
G92 E0.0
;0.2


G1 Z0.200 F9000.000
;AFTER_LAYER_CHANGE
;0.2
G1 E-3.20000 F4200.00000
G1 Z0.400 F9000.000
G1 X71.436 Y70.125
G1 Z0.200
G1 E3.20000 F2400.00000
M204 S800
G1 F1200.000
G1 X71.983 Y69.551 E0.02486
G1 X72.673 Y69.081 E0.02616
G1 X73.434 Y68.773 E0.02575
G1 X74.287 Y68.629 E0.02714
G1 X105.504 Y68.623 E0.97877
G1 X106.252 Y68.697 E0.02358
G1 X106.897 Y68.884 E0.02106
G1 X107.581 Y69.229 E0.02400
G1 X108.171 Y69.691 E0.02351
G1 X108.630 Y70.213 E0.02178
G1 X109.013 Y70.859 E0.02355
G1 X109.238 Y71.474 E0.02055
G1 X109.367 Y72.219 E0.02369
G1 X109.377 Y107.550 E1.10776
G1 X109.306 Y108.233 E0.02156
G1 X109.153 Y108.797 E0.01832
G1 X108.564 Y109.875 E0.03851
G1 X107.979 Y110.481 E0.02641
G1 X107.182 Y110.993 E0.02969
G1 X106.373 Y111.277 E0.02690
G1 X105.545 Y111.377 E0.02613
G1 X74.443 Y111.376 E0.97519
G1 X73.767 Y111.306 E0.02132
G1 X73.199 Y111.152 E0.01844
G1 X72.125 Y110.564 E0.03839
G1 X71.519 Y109.979 E0.02641
G1 X71.007 Y109.182 E0.02969
G1 X70.723 Y108.373 E0.02690
G1 X70.623 Y107.541 E0.02625
G1 X70.623 Y72.450 E1.10025
G1 X70.694 Y71.767 E0.02156
G1 X70.847 Y71.203 E0.01832
G1 X71.408 Y70.178 E0.03663
M204 S1250
G1 E-2.24000 F4200.00000
G1 F7200.000
G1 X71.983 Y69.551 E-0.47167
G1 X72.640 Y69.103 E-0.44033
G1 E-0.04800 F4200.00000
G1 Z0.400 F9000.000
G1 X102.686 Y75.663
G1 Z0.200
G1 E3.20000 F2400.00000
M204 S800
G1 F1200.000
G1 X93.325 Y75.667 E0.29351
G1 X92.855 Y75.754 E0.01499
G1 X92.549 Y75.868 E0.01025
G1 X92.253 Y76.030 E0.01056
G1 X91.880 Y76.330 E0.01502
G1 X91.573 Y76.712 E0.01535
G1 X91.359 Y77.140 E0.01502
G1 X91.264 Y77.464 E0.01057
G1 X91.216 Y77.795 E0.01050
G1 X91.232 Y78.374 E0.01816
G1 X91.351 Y78.840 E0.01509
G1 X91.491 Y79.147 E0.01057
G1 X91.673 Y79.430 E0.01057
G1 X91.993 Y79.773 E0.01469
G1 X92.263 Y79.975 E0.01057
G1 X92.558 Y80.137 E0.01057
G1 X93.013 Y80.288 E0.01502
G1 X93.465 Y80.337 E0.01425
G1 X102.616 Y80.337 E0.28692
G1 X102.799 Y80.287 E0.00597
G1 X105.465 Y80.287 E0.08359
G1 X105.651 Y80.307 E0.00586
G1 X105.795 Y80.355 E0.00475
G1 X105.925 Y80.432 E0.00476
G1 X106.044 Y80.543 E0.00509
G1 X106.142 Y80.695 E0.00569
G1 X106.193 Y80.849 E0.00508
G1 X106.213 Y81.035 E0.00586
G1 X106.213 Y83.476 E0.07653
G1 X106.165 Y83.748 E0.00867
G1 X106.044 Y83.957 E0.00758
G1 X105.841 Y84.124 E0.00824
G1 X105.591 Y84.205 E0.00823
G1 X93.475 Y84.213 E0.37988
G1 X93.174 Y84.235 E0.00947
G1 X92.855 Y84.304 E0.01023
G1 X92.549 Y84.418 E0.01024
G1 X92.253 Y84.580 E0.01057
G1 X91.879 Y84.881 E0.01506
G1 X91.574 Y85.263 E0.01532
G1 X91.418 Y85.550 E0.01025
G1 X91.300 Y85.865 E0.01056
G1 X91.217 Y86.326 E0.01469
G1 X91.217 Y93.664 E0.23009
G1 X91.268 Y94.008 E0.01088
G1 X91.417 Y94.452 E0.01470
G1 X91.661 Y94.864 E0.01501
G1 X91.882 Y95.118 E0.01057
G1 X92.128 Y95.332 E0.01024
G1 X92.412 Y95.514 E0.01057
G1 X92.845 Y95.694 E0.01469
G1 X93.174 Y95.765 E0.01056
G1 X93.475 Y95.787 E0.00947
G1 X105.476 Y95.787 E0.37626
G1 X105.758 Y95.838 E0.00900
G1 X105.917 Y95.925 E0.00569
G1 X106.044 Y96.043 E0.00542
G1 X106.147 Y96.205 E0.00602
G1 X106.200 Y96.380 E0.00573
G1 X106.213 Y98.967 E0.08112
G1 X106.193 Y99.151 E0.00581
G1 X106.142 Y99.305 E0.00508
G1 X106.038 Y99.466 E0.00602
G1 X105.885 Y99.598 E0.00635
G1 X105.710 Y99.679 E0.00602
G1 X105.540 Y99.710 E0.00543
G1 X102.799 Y99.713 E0.08594
G1 X102.616 Y99.663 E0.00596
G1 X93.475 Y99.663 E0.28659
G1 X93.173 Y99.685 E0.00950
G1 X92.834 Y99.760 E0.01087
G1 X92.402 Y99.940 E0.01470
G1 X92.009 Y100.213 E0.01501
G1 X91.769 Y100.452 E0.01061
G1 X91.563 Y100.731 E0.01088
G1 X91.354 Y101.150 E0.01470
G1 X91.234 Y101.620 E0.01521
G1 X91.211 Y102.071 E0.01415
G1 X91.261 Y102.527 E0.01438
G1 X91.359 Y102.860 E0.01089
G1 X91.568 Y103.279 E0.01469
G1 X91.770 Y103.549 E0.01057
G1 X92.009 Y103.787 E0.01057
G1 X92.402 Y104.060 E0.01502
G1 X92.845 Y104.244 E0.01502
G1 X93.174 Y104.315 E0.01057
G1 X93.475 Y104.337 E0.00947
G1 X102.686 Y104.337 E0.28880
G1 X102.871 Y104.087 E0.00974
G1 X105.465 Y104.087 E0.08135
G1 X105.651 Y104.107 E0.00586
G1 X105.805 Y104.158 E0.00508
G1 X105.966 Y104.262 E0.00602
G1 X106.098 Y104.415 E0.00635
G1 X106.179 Y104.590 E0.00602
G1 X106.209 Y104.760 E0.00542
G1 X106.209 Y107.551 E0.08751
G1 X106.142 Y107.805 E0.00824
G1 X106.044 Y107.957 E0.00569
G1 X105.925 Y108.068 E0.00509
G1 X105.795 Y108.145 E0.00476
G1 X105.651 Y108.193 E0.00475
G1 X105.465 Y108.213 E0.00586
G1 X74.524 Y108.213 E0.97013
G1 X74.242 Y108.162 E0.00900
G1 X74.027 Y108.030 E0.00791
G1 X73.877 Y107.840 E0.00758
G1 X73.796 Y107.601 E0.00790
G1 X73.790 Y104.750 E0.08942
G1 X73.834 Y104.551 E0.00636
G1 X73.931 Y104.374 E0.00635
G1 X74.074 Y104.231 E0.00635
G1 X74.242 Y104.138 E0.00602
G1 X74.524 Y104.087 E0.00900
G1 X77.129 Y104.087 E0.08167
G1 X77.314 Y104.337 E0.00975
G1 X86.674 Y104.333 E0.29348
G1 X87.135 Y104.250 E0.01469
G1 X87.451 Y104.132 E0.01057
G1 X87.747 Y103.970 E0.01057
G1 X88.120 Y103.670 E0.01502
G1 X88.420 Y103.297 E0.01502
G1 X88.582 Y103.001 E0.01057
G1 X88.700 Y102.685 E0.01057
G1 X88.784 Y102.216 E0.01495
G1 X88.768 Y101.626 E0.01849
G1 X88.646 Y101.150 E0.01543
G1 X88.432 Y100.721 E0.01502
G1 X88.230 Y100.451 E0.01057
G1 X87.999 Y100.220 E0.01024
G1 X87.737 Y100.025 E0.01024
G1 X87.442 Y99.863 E0.01057
G1 X86.987 Y99.712 E0.01502
G1 X86.535 Y99.663 E0.01425
G1 X77.384 Y99.663 E0.28692
G1 X77.201 Y99.713 E0.00597
G1 X74.535 Y99.713 E0.08359
G1 X74.349 Y99.693 E0.00586
G1 X74.205 Y99.645 E0.00475
G1 X74.075 Y99.568 E0.00476
G1 X73.956 Y99.457 E0.00509
G1 X73.858 Y99.305 E0.00569
G1 X73.807 Y99.151 E0.00508
G1 X73.787 Y98.965 E0.00586
G1 X73.787 Y96.524 E0.07653
G1 X73.835 Y96.252 E0.00867
G1 X73.956 Y96.043 E0.00758
G1 X74.159 Y95.876 E0.00824
G1 X74.409 Y95.795 E0.00823
G1 X86.525 Y95.787 E0.37988
G1 X86.826 Y95.765 E0.00947
G1 X87.145 Y95.696 E0.01023
G1 X87.451 Y95.582 E0.01024
G1 X87.747 Y95.420 E0.01057
G1 X88.120 Y95.120 E0.01502
G1 X88.420 Y94.747 E0.01502
G1 X88.582 Y94.451 E0.01057
G1 X88.700 Y94.135 E0.01057
G1 X88.783 Y93.674 E0.01469
G1 X88.787 Y86.465 E0.22604
G1 X88.739 Y86.023 E0.01392
G1 X88.641 Y85.690 E0.01089
G1 X88.432 Y85.271 E0.01469
G1 X88.223 Y84.993 E0.01090
G1 X87.880 Y84.673 E0.01469
G1 X87.596 Y84.491 E0.01061
G1 X87.280 Y84.348 E0.01088
G1 X86.836 Y84.235 E0.01436
G1 X86.525 Y84.213 E0.00978
G1 X74.524 Y84.213 E0.37626
G1 X74.242 Y84.162 E0.00900
G1 X74.083 Y84.075 E0.00569
G1 X73.956 Y83.957 E0.00542
G1 X73.853 Y83.795 E0.00602
G1 X73.800 Y83.620 E0.00573
G1 X73.787 Y81.033 E0.08112
G1 X73.807 Y80.849 E0.00581
G1 X73.858 Y80.695 E0.00508
G1 X73.962 Y80.534 E0.00602
G1 X74.115 Y80.402 E0.00635
G1 X74.290 Y80.321 E0.00602
G1 X74.460 Y80.290 E0.00543
G1 X77.201 Y80.287 E0.08594
G1 X77.384 Y80.337 E0.00596
G1 X86.525 Y80.337 E0.28659
G1 X86.827 Y80.315 E0.00950
G1 X87.166 Y80.240 E0.01087
G1 X87.588 Y80.064 E0.01436
G1 X87.880 Y79.877 E0.01088
G1 X88.223 Y79.557 E0.01469
G1 X88.432 Y79.279 E0.01090
G1 X88.646 Y78.850 E0.01502
G1 X88.766 Y78.380 E0.01522
G1 X88.789 Y77.929 E0.01415
G1 X88.739 Y77.473 E0.01438
G1 X88.641 Y77.140 E0.01089
G1 X88.432 Y76.721 E0.01469
G1 X88.223 Y76.443 E0.01090
G1 X87.880 Y76.123 E0.01469
G1 X87.588 Y75.936 E0.01090
G1 X87.155 Y75.756 E0.01469
G1 X86.826 Y75.685 E0.01057
G1 X86.525 Y75.663 E0.00947
G1 X77.314 Y75.663 E0.28880
G1 X77.129 Y75.913 E0.00974
G1 X74.535 Y75.913 E0.08135
G1 X74.349 Y75.893 E0.00586
G1 X74.195 Y75.842 E0.00508
G1 X74.034 Y75.738 E0.00602
G1 X73.902 Y75.585 E0.00635
G1 X73.821 Y75.410 E0.00602
G1 X73.791 Y75.240 E0.00542
G1 X73.791 Y72.449 E0.08751
G1 X73.858 Y72.195 E0.00824
G1 X73.956 Y72.043 E0.00569
G1 X74.075 Y71.932 E0.00509
G1 X74.205 Y71.855 E0.00476
G1 X74.349 Y71.807 E0.00475
G1 X74.535 Y71.787 E0.00586
G1 X105.551 Y71.791 E0.97248
G1 X105.795 Y71.855 E0.00791
G1 X105.934 Y71.937 E0.00509
G1 X106.103 Y72.125 E0.00791
G1 X106.142 Y72.195 E0.00252
G1 X106.210 Y72.450 E0.00825
G1 X106.213 Y75.166 E0.08516
G1 X106.193 Y75.351 E0.00585
G1 X106.142 Y75.505 E0.00508
G1 X106.044 Y75.657 E0.00569
G1 X105.925 Y75.768 E0.00509
G1 X105.795 Y75.845 E0.00476
G1 X105.651 Y75.893 E0.00475
G1 X105.465 Y75.913 E0.00586
G1 X102.871 Y75.913 E0.08135
G1 X102.722 Y75.711 E0.00787
M204 S1250
G1 X102.496 Y76.040 F9000.000
M204 S800
G1 F1200.000
G1 X93.359 Y76.044 E0.28646
G1 X92.956 Y76.118 E0.01287
G1 X92.706 Y76.212 E0.00836
G1 X92.464 Y76.344 E0.00866
G1 X92.148 Y76.598 E0.01269
G1 X91.892 Y76.917 E0.01281
G1 X91.711 Y77.279 E0.01269
G1 X91.633 Y77.544 E0.00867
G1 X91.594 Y77.817 E0.00864
G1 X91.608 Y78.321 E0.01583
G1 X91.708 Y78.714 E0.01272
G1 X91.823 Y78.966 E0.00867
G1 X91.972 Y79.198 E0.00867
G1 X92.246 Y79.492 E0.01258
G1 X92.467 Y79.657 E0.00867
G1 X92.710 Y79.790 E0.00866
G1 X93.094 Y79.918 E0.01269
G1 X93.485 Y79.960 E0.01235
G1 X102.565 Y79.960 E0.28470
G1 X102.749 Y79.910 E0.00597
G1 X105.485 Y79.910 E0.08580
G1 X105.732 Y79.936 E0.00776
G1 X105.952 Y80.010 E0.00729
G1 X106.152 Y80.128 E0.00730
G1 X106.326 Y80.290 E0.00742
G1 X106.489 Y80.544 E0.00949
G1 X106.564 Y80.768 E0.00741
G1 X106.590 Y81.015 E0.00776
G1 X106.590 Y83.489 E0.07758
G1 X106.578 Y83.651 E0.00510
G1 X106.520 Y83.880 E0.00741
G1 X106.414 Y84.092 E0.00742
G1 X106.326 Y84.210 E0.00464
G1 X106.150 Y84.374 E0.00753
G1 X106.022 Y84.456 E0.00475
G1 X105.884 Y84.519 E0.00475
G1 X105.651 Y84.579 E0.00753
G1 X93.489 Y84.590 E0.38135
G1 X93.228 Y84.609 E0.00820
G1 X92.962 Y84.667 E0.00855
G1 X92.706 Y84.762 E0.00855
G1 X92.464 Y84.894 E0.00867
G1 X92.148 Y85.149 E0.01271
G1 X91.889 Y85.472 E0.01299
G1 X91.762 Y85.706 E0.00836
G1 X91.665 Y85.965 E0.00866
G1 X91.594 Y86.360 E0.01257
G1 X91.594 Y93.637 E0.22816
G1 X91.636 Y93.919 E0.00896
G1 X91.761 Y94.294 E0.01239
G1 X91.968 Y94.642 E0.01269
G1 X92.149 Y94.851 E0.00867
G1 X92.355 Y95.030 E0.00855
G1 X92.587 Y95.179 E0.00867
G1 X92.958 Y95.332 E0.01257
G1 X93.228 Y95.391 E0.00866
G1 X93.489 Y95.410 E0.00820
G1 X105.489 Y95.410 E0.37626
G1 X105.651 Y95.421 E0.00510
G1 X105.884 Y95.481 E0.00753
G1 X106.150 Y95.626 E0.00949
G1 X106.326 Y95.790 E0.00753
G1 X106.491 Y96.047 E0.00960
G1 X106.577 Y96.338 E0.00950
G1 X106.590 Y98.986 E0.08302
G1 X106.564 Y99.232 E0.00775
G1 X106.489 Y99.456 E0.00741
G1 X106.323 Y99.713 E0.00960
G1 X106.089 Y99.916 E0.00972
G1 X105.810 Y100.044 E0.00960
G1 X105.574 Y100.087 E0.00754
G1 X102.749 Y100.090 E0.08858
G1 X102.565 Y100.040 E0.00596
G1 X93.489 Y100.040 E0.28458
G1 X93.228 Y100.059 E0.00821
G1 X92.949 Y100.121 E0.00896
G1 X92.584 Y100.273 E0.01239
G1 X92.251 Y100.503 E0.01269
G1 X92.056 Y100.699 E0.00868
G1 X91.885 Y100.929 E0.00896
G1 X91.709 Y101.282 E0.01239
G1 X91.608 Y101.677 E0.01276
G1 X91.589 Y102.060 E0.01203
G1 X91.632 Y102.453 E0.01239
G1 X91.711 Y102.721 E0.00878
G1 X91.890 Y103.080 E0.01257
G1 X92.056 Y103.301 E0.00867
G1 X92.251 Y103.497 E0.00867
G1 X92.584 Y103.728 E0.01269
G1 X92.958 Y103.882 E0.01269
G1 X93.228 Y103.941 E0.00866
G1 X93.489 Y103.960 E0.00820
G1 X102.496 Y103.960 E0.28241
G1 X102.665 Y103.730 E0.00895
G1 X102.739 Y103.710 E0.00238
G1 X105.485 Y103.710 E0.08612
G1 X105.732 Y103.736 E0.00776
G1 X105.956 Y103.811 E0.00741
G1 X106.213 Y103.977 E0.00960
G1 X106.416 Y104.211 E0.00972
G1 X106.544 Y104.490 E0.00960
G1 X106.587 Y104.726 E0.00753
G1 X106.587 Y107.578 E0.08941
G1 X106.565 Y107.728 E0.00475
G1 X106.489 Y107.956 E0.00753
G1 X106.326 Y108.210 E0.00949
G1 X106.152 Y108.372 E0.00742
G1 X105.952 Y108.490 E0.00730
G1 X105.732 Y108.564 E0.00729
G1 X105.485 Y108.590 E0.00776
G1 X74.511 Y108.590 E0.97118
G1 X74.349 Y108.578 E0.00510
G1 X74.116 Y108.519 E0.00753
G1 X73.981 Y108.458 E0.00464
G1 X73.784 Y108.321 E0.00753
G1 X73.679 Y108.216 E0.00464
G1 X73.545 Y108.022 E0.00742
G1 X73.454 Y107.803 E0.00742
G1 X73.422 Y107.655 E0.00475
G1 X73.413 Y104.722 E0.09195
G1 X73.479 Y104.419 E0.00973
G1 X73.628 Y104.147 E0.00972
G1 X73.847 Y103.928 E0.00972
G1 X74.116 Y103.781 E0.00960
G1 X74.349 Y103.721 E0.00753
G1 X74.511 Y103.710 E0.00510
G1 X77.261 Y103.710 E0.08624
G1 X77.335 Y103.730 E0.00238
G1 X77.504 Y103.960 E0.00895
G1 X86.640 Y103.956 E0.28645
G1 X87.035 Y103.885 E0.01257
G1 X87.294 Y103.788 E0.00867
G1 X87.536 Y103.656 E0.00867
G1 X87.852 Y103.402 E0.01269
G1 X88.106 Y103.086 E0.01269
G1 X88.238 Y102.844 E0.00867
G1 X88.335 Y102.585 E0.00867
G1 X88.406 Y102.187 E0.01267
G1 X88.392 Y101.679 E0.01595
G1 X88.291 Y101.282 E0.01284
G1 X88.110 Y100.920 E0.01269
G1 X87.944 Y100.699 E0.00867
G1 X87.751 Y100.506 E0.00855
G1 X87.533 Y100.343 E0.00855
G1 X87.290 Y100.210 E0.00867
G1 X86.906 Y100.082 E0.01269
G1 X86.515 Y100.040 E0.01235
G1 X77.435 Y100.040 E0.28470
G1 X77.251 Y100.090 E0.00597
G1 X74.515 Y100.090 E0.08580
G1 X74.268 Y100.064 E0.00776
G1 X74.048 Y99.990 E0.00729
G1 X73.848 Y99.872 E0.00730
G1 X73.674 Y99.710 E0.00742
G1 X73.511 Y99.456 E0.00949
G1 X73.436 Y99.232 E0.00741
G1 X73.410 Y98.985 E0.00776
G1 X73.410 Y96.511 E0.07758
G1 X73.422 Y96.349 E0.00510
G1 X73.480 Y96.120 E0.00741
G1 X73.586 Y95.908 E0.00742
G1 X73.674 Y95.790 E0.00464
G1 X73.850 Y95.626 E0.00753
G1 X73.978 Y95.544 E0.00475
G1 X74.116 Y95.481 E0.00475
G1 X74.349 Y95.421 E0.00753
G1 X86.511 Y95.410 E0.38135
G1 X86.772 Y95.391 E0.00820
G1 X87.038 Y95.333 E0.00855
G1 X87.294 Y95.238 E0.00855
G1 X87.536 Y95.106 E0.00867
G1 X87.852 Y94.852 E0.01269
G1 X88.106 Y94.536 E0.01269
G1 X88.238 Y94.294 E0.00867
G1 X88.335 Y94.035 E0.00867
G1 X88.406 Y93.640 E0.01257
G1 X88.410 Y86.485 E0.22434
G1 X88.368 Y86.097 E0.01223
G1 X88.289 Y85.829 E0.00878
G1 X88.110 Y85.470 E0.01257
G1 X87.942 Y85.246 E0.00878
G1 X87.648 Y84.972 E0.01257
G1 X87.415 Y84.823 E0.00868
G1 X87.155 Y84.705 E0.00896
G1 X86.776 Y84.609 E0.01227
G1 X86.511 Y84.590 E0.00831
G1 X74.511 Y84.590 E0.37626
G1 X74.349 Y84.579 E0.00510
G1 X74.116 Y84.519 E0.00753
G1 X73.850 Y84.374 E0.00949
G1 X73.674 Y84.210 E0.00753
G1 X73.509 Y83.953 E0.00960
G1 X73.423 Y83.662 E0.00950
G1 X73.410 Y81.014 E0.08302
G1 X73.436 Y80.768 E0.00775
G1 X73.511 Y80.544 E0.00741
G1 X73.677 Y80.287 E0.00960
G1 X73.911 Y80.084 E0.00972
G1 X74.190 Y79.956 E0.00960
G1 X74.426 Y79.913 E0.00754
G1 X77.251 Y79.910 E0.08858
G1 X77.435 Y79.960 E0.00596
G1 X86.511 Y79.960 E0.28458
G1 X86.772 Y79.941 E0.00821
G1 X87.051 Y79.879 E0.00896
G1 X87.413 Y79.729 E0.01227
G1 X87.648 Y79.578 E0.00878
G1 X87.942 Y79.304 E0.01257
G1 X88.110 Y79.080 E0.00878
G1 X88.291 Y78.718 E0.01269
G1 X88.392 Y78.323 E0.01277
G1 X88.411 Y77.940 E0.01203
G1 X88.368 Y77.547 E0.01239
G1 X88.289 Y77.279 E0.00878
G1 X88.110 Y76.920 E0.01257
G1 X87.942 Y76.696 E0.00878
G1 X87.648 Y76.422 E0.01257
G1 X87.413 Y76.271 E0.00878
G1 X87.042 Y76.118 E0.01257
G1 X86.772 Y76.059 E0.00866
G1 X86.511 Y76.040 E0.00820
G1 X77.504 Y76.040 E0.28241
G1 X77.335 Y76.270 E0.00895
G1 X77.261 Y76.290 E0.00238
G1 X74.515 Y76.290 E0.08612
G1 X74.268 Y76.264 E0.00776
G1 X74.044 Y76.189 E0.00741
