; generated by PrusaSlicer 2.2.0+win64 on 2020-12-15 at 11:35:39 UTC


;
;

;
;
; 

; external perimeters extrusion width = 0.45mm
; perimeters extrusion width = 0.45mm
; infill extrusion width = 0.45mm
; solid infill extrusion width = 0.45mm
; top infill extrusion width = 0.40mm
; first layer extrusion width = 0.42mm

M73 P0 R24
M201 X1250 Y1250 Z400 E5000 ; sets maximum accelerations, mm/sec^2
M203 X180 Y180 Z12 E80 ; sets maximum feedrates, mm/sec
M204 P1250 R1250 T1250 ; sets acceleration (P, T) and retract acceleration (R), mm/sec^2
M205 X8.00 Y8.00 Z2.00 E10.00 ; sets the jerk limits, mm/sec
M205 S0 T0 ; sets the minimum extruding and travel feed rate, mm/sec
M107
G90 ; use absolute coordinates
M83 ; extruder relative mode
M104 S170 ; set extruder temp for bed leveling
M140 S60 ; set bed temp
M109 R170 ; wait for bed leveling temp
M190 S60 ; wait for bed temp
G28 ; home all without mesh bed level
G29 ; mesh bed leveling 
M104 S215 ; set extruder temp
G92 E0.0
G1 Y-2.0 X179 F2400
G1 Z3 F720
M109 S215 ; wait for extruder temp

; intro line
G1 X170 F1000
G1 Z0.2 F720
G1 X110.0 E8.0 F900
M73 P0 R24
G1 X40.0 E10.0 F700
G92 E0.0

M221 S95 ; set flow
G21 ; set units to millimeters
G90 ; use absolute coordinates
M83 ; use relative distances for extrusion
M900 K0.2 ; Filament gcode LA 1.5
; ; Filament gcode LA 1.0
;BEFORE_LAYER_CHANGE
G92 E0.0
;0.2


G1 Z0.200 F9000.000
;AFTER_LAYER_CHANGE
;0.2
G1 E-3.20000 F4200.00000
G1 Z0.400 F9000.000
G1 X86.662 Y62.593
G1 Z0.200
G1 E3.20000 F2400.00000
M204 S800
G1 F1200.000
G1 X87.312 Y62.358 E0.02166
G1 X90.002 Y62.214 E0.08447
G1 X92.643 Y62.350 E0.08290
G1 X93.256 Y62.551 E0.02024
G1 X93.790 Y62.907 E0.02012
G1 X116.993 Y86.105 E1.02874
G1 X117.407 Y86.662 E0.02178
G1 X117.642 Y87.312 E0.02166
G1 X117.786 Y89.998 E0.08435
G1 X117.642 Y92.688 E0.08444
G1 X117.406 Y93.341 E0.02178
G1 X116.993 Y93.895 E0.02167
G1 X93.790 Y117.092 E1.02873
G1 X93.253 Y117.450 E0.02024
G1 X92.643 Y117.650 E0.02012
G1 X90.002 Y117.786 E0.08293
G1 X87.312 Y117.642 E0.08444
G1 X86.659 Y117.406 E0.02178
G1 X86.105 Y116.993 E0.02167
G1 X62.908 Y93.790 E1.02873
G1 X62.550 Y93.253 E0.02024
G1 X62.350 Y92.643 E0.02012
G1 X62.214 Y90.002 E0.08293
G1 X62.350 Y87.357 E0.08302
G1 X62.549 Y86.747 E0.02012
G1 X62.907 Y86.210 E0.02024
G1 X86.105 Y63.007 E1.02874
G1 X86.614 Y62.629 E0.01990
M204 S1250
G1 E-2.24000 F4200.00000
G1 F7200.000
G1 X87.312 Y62.358 E-0.41476
G1 X88.208 Y62.310 E-0.49724
G1 E-0.04800 F4200.00000
G1 Z0.400 F9000.000
G1 X89.631 Y86.733
G1 Z0.200
G1 E3.20000 F2400.00000
M204 S800
G1 F1200.000
G1 X89.997 Y86.712 E0.01149
G1 X90.543 Y86.757 E0.01717
G1 X90.909 Y86.840 E0.01178
G1 X91.258 Y86.962 E0.01158
G1 X91.589 Y87.121 E0.01153
G1 X91.909 Y87.322 E0.01183
G1 X92.325 Y87.673 E0.01708
G1 X92.677 Y88.089 E0.01707
G1 X92.878 Y88.409 E0.01184
G1 X93.041 Y88.748 E0.01180
G1 X93.204 Y89.261 E0.01689
G1 X93.267 Y89.631 E0.01176
G1 X93.288 Y89.999 E0.01158
G1 X93.268 Y90.367 E0.01154
G1 X93.205 Y90.739 E0.01182
G1 X93.039 Y91.258 E0.01708
G1 X92.790 Y91.742 E0.01708
G1 X92.571 Y92.050 E0.01184
G1 X92.320 Y92.330 E0.01180
G1 X91.909 Y92.678 E0.01688
G1 X91.591 Y92.877 E0.01176
G1 X91.259 Y93.038 E0.01158
G1 X90.912 Y93.159 E0.01154
G1 X90.544 Y93.243 E0.01183
G1 X90.001 Y93.289 E0.01708
G1 X89.458 Y93.244 E0.01708
G1 X89.090 Y93.160 E0.01184
G1 X88.735 Y93.035 E0.01181
G1 X88.256 Y92.788 E0.01689
G1 X87.951 Y92.571 E0.01175
G1 X87.675 Y92.325 E0.01158
G1 X87.430 Y92.051 E0.01154
G1 X87.212 Y91.744 E0.01182
G1 X86.962 Y91.260 E0.01708
G1 X86.796 Y90.741 E0.01708
G1 X86.733 Y90.369 E0.01184
G1 X86.711 Y89.992 E0.01182
G1 X86.757 Y89.456 E0.01688
G1 X86.840 Y89.091 E0.01174
G1 X86.962 Y88.742 E0.01158
G1 X87.122 Y88.410 E0.01156
G1 X87.322 Y88.091 E0.01181
G1 X87.668 Y87.681 E0.01682
G1 X87.951 Y87.429 E0.01188
G1 X88.256 Y87.212 E0.01176
G1 X88.740 Y86.962 E0.01708
G1 X89.259 Y86.796 E0.01708
G1 X89.572 Y86.743 E0.00995
M204 S1250
G1 X88.885 Y87.311 F9000.000
M204 S800
G1 F1200.000
G1 X89.349 Y87.163 E0.01525
G1 X89.674 Y87.108 E0.01034
G1 X89.992 Y87.090 E0.01001
G1 X90.485 Y87.130 E0.01551
G1 X90.805 Y87.203 E0.01028
G1 X91.113 Y87.311 E0.01025
G1 X91.407 Y87.452 E0.01021
G1 X91.686 Y87.627 E0.01033
G1 X92.058 Y87.941 E0.01525
G1 X92.371 Y88.312 E0.01525
G1 X92.547 Y88.592 E0.01034
G1 X92.690 Y88.888 E0.01031
G1 X92.837 Y89.350 E0.01522
G1 X92.892 Y89.673 E0.01026
G1 X92.910 Y89.999 E0.01025
G1 X92.892 Y90.325 E0.01021
G1 X92.837 Y90.650 E0.01033
G1 X92.690 Y91.113 E0.01525
G1 X92.467 Y91.545 E0.01525
G1 X92.276 Y91.814 E0.01034
G1 X92.057 Y92.059 E0.01031
G1 X91.686 Y92.373 E0.01522
G1 X91.409 Y92.547 E0.01026
G1 X91.114 Y92.689 E0.01025
G1 X90.807 Y92.796 E0.01021
G1 X90.486 Y92.870 E0.01033
G1 X90.001 Y92.911 E0.01525
G1 X89.516 Y92.870 E0.01525
G1 X89.195 Y92.797 E0.01034
G1 X88.884 Y92.688 E0.01031
G1 X88.453 Y92.465 E0.01522
G1 X88.186 Y92.276 E0.01026
G1 X87.942 Y92.058 E0.01025
G1 X87.725 Y91.815 E0.01022
G1 X87.535 Y91.547 E0.01033
G1 X87.311 Y91.115 E0.01525
G1 X87.163 Y90.652 E0.01525
G1 X87.108 Y90.326 E0.01034
G1 X87.089 Y89.998 E0.01032
G1 X87.130 Y89.514 E0.01522
G1 X87.203 Y89.195 E0.01025
G1 X87.311 Y88.887 E0.01025
G1 X87.452 Y88.593 E0.01023
G1 X87.627 Y88.314 E0.01031
G1 X87.939 Y87.945 E0.01516
G1 X88.186 Y87.724 E0.01038
G1 X88.453 Y87.535 E0.01027
G1 X88.832 Y87.339 E0.01337
M204 S1250
G1 X88.941 Y86.915 F9000.000
G1 E-2.24000 F4200.00000
G1 F7200.000
G1 X89.349 Y87.163 E-0.30239
G1 X89.674 Y87.108 E-0.18273
G1 X89.992 Y87.090 E-0.17691
G1 X90.442 Y87.127 E-0.24997
G1 E-0.04800 F4200.00000
G1 Z0.400 F9000.000
G1 X90.000 Y83.093
G1 Z0.200
G1 E3.20000 F2400.00000
M204 S800
G1 F1200.000
G1 X91.026 Y83.211 E0.03239
G1 X91.672 Y83.341 E0.02064
G1 X92.298 Y83.530 E0.02051
G1 X92.902 Y83.777 E0.02047
G1 X93.480 Y84.081 E0.02049
G1 X94.029 Y84.440 E0.02055
G1 X94.369 Y84.703 E0.01348
G1 X94.855 Y85.145 E0.02061
G1 X95.298 Y85.632 E0.02063
G1 X95.559 Y85.970 E0.01342
G1 X95.919 Y86.520 E0.02059
G1 X96.223 Y87.098 E0.02049
G1 X96.470 Y87.703 E0.02049
G1 X96.659 Y88.328 E0.02049
G1 X96.789 Y88.974 E0.02065
G1 X96.907 Y90.000 E0.03239
G1 X96.789 Y91.028 E0.03242
G1 X96.660 Y91.672 E0.02059
G1 X96.470 Y92.299 E0.02055
G1 X96.223 Y92.902 E0.02042
G1 X95.919 Y93.480 E0.02049
G1 X95.560 Y94.030 E0.02058
G1 X95.296 Y94.370 E0.01348
G1 X94.855 Y94.855 E0.02057
G1 X94.372 Y95.295 E0.02049
G1 X93.846 Y95.688 E0.02059
G1 X93.482 Y95.918 E0.01348
G1 X92.902 Y96.223 E0.02056
G1 X92.297 Y96.470 E0.02049
G1 X91.673 Y96.659 E0.02045
G1 X91.028 Y96.789 E0.02063
G1 X90.000 Y96.907 E0.03244
G1 X88.972 Y96.789 E0.03244
G1 X88.326 Y96.659 E0.02066
G1 X87.703 Y96.470 E0.02042
G1 X87.098 Y96.223 E0.02049
G1 X86.517 Y95.917 E0.02059
G1 X86.153 Y95.688 E0.01348
G1 X85.628 Y95.295 E0.02056
G1 X85.145 Y94.855 E0.02049
G1 X84.704 Y94.370 E0.02054
G1 X84.440 Y94.029 E0.01354
G1 X84.081 Y93.480 E0.02056
G1 X83.777 Y92.902 E0.02049
G1 X83.530 Y92.297 E0.02049
G1 X83.341 Y91.673 E0.02043
G1 X83.211 Y91.028 E0.02065
G1 X83.093 Y90.000 E0.03244
G1 X83.211 Y88.972 E0.03244
G1 X83.341 Y88.327 E0.02065
G1 X83.530 Y87.703 E0.02043
G1 X83.777 Y87.098 E0.02049
G1 X84.082 Y86.517 E0.02058
G1 X84.312 Y86.154 E0.01348
G1 X84.705 Y85.628 E0.02057
G1 X85.145 Y85.145 E0.02049
G1 X85.631 Y84.703 E0.02058
G1 X85.971 Y84.440 E0.01348
G1 X86.520 Y84.081 E0.02057
G1 X87.098 Y83.777 E0.02049
G1 X87.701 Y83.530 E0.02044
G1 X88.328 Y83.341 E0.02054
G1 X88.975 Y83.211 E0.02066
G1 X89.940 Y83.100 E0.03048
M204 S1250
G1 E-2.24000 F4200.00000
G1 F7200.000
G1 X91.026 Y83.211 E-0.60493
G1 X91.570 Y83.320 E-0.30707
G1 E-0.04800 F4200.00000
G1 Z0.400 F9000.000
G1 X80.969 Y90.000
G1 Z0.200
G1 E3.20000 F2400.00000
M204 S800
G1 F1200.000
G1 X65.422 Y91.360 E0.48932
G1 X65.393 Y90.860 E0.01570
G1 X65.382 Y89.572 E0.04040
G1 X65.428 Y88.640 E0.02924
G1 X80.910 Y89.995 E0.48727
M204 S1250
G1 E-2.24000 F4200.00000
G1 F7200.000
G1 X79.270 Y90.139 E-0.91200
G1 E-0.04800 F4200.00000
G1 Z0.400 F9000.000
G1 X90.000 Y80.969
G1 Z0.200
G1 E3.20000 F2400.00000
M204 S800
G1 F1200.000
G1 X88.640 Y65.422 E0.48932
G1 X89.140 Y65.393 E0.01570
G1 X90.424 Y65.382 E0.04027
G1 X91.361 Y65.417 E0.02938
G1 X90.005 Y80.910 E0.48762
M204 S1250
G1 E-2.24000 F4200.00000
G1 F7200.000
G1 X89.861 Y79.270 E-0.91200
G1 E-0.04800 F4200.00000
G1 Z0.400 F9000.000
G1 X99.031 Y90.000
G1 Z0.200
G1 E3.20000 F2400.00000
M204 S800
G1 F1200.000
G1 X114.578 Y88.640 E0.48932
G1 X114.607 Y89.140 E0.01570
G1 X114.618 Y90.428 E0.04040
G1 X114.572 Y91.360 E0.02924
G1 X99.090 Y90.005 E0.48727
M204 S1250
G1 E-2.24000 F4200.00000
G1 F7200.000
G1 X100.730 Y89.861 E-0.91200
G1 E-0.04800 F4200.00000
G1 Z0.400 F9000.000
G1 X90.000 Y99.031
G1 Z0.200
G1 E3.20000 F2400.00000
M204 S800
G1 F1200.000
G1 X91.360 Y114.578 E0.48932
G1 X90.860 Y114.607 E0.01570
G1 X89.572 Y114.618 E0.04040
G1 X88.640 Y114.572 E0.02924
G1 X89.995 Y99.090 E0.48727
M204 S1250
G1 E-2.24000 F4200.00000
G1 F7200.000
G1 X90.139 Y100.730 E-0.91200
G1 E-0.04800 F4200.00000
G1 Z0.400 F9000.000
G1 X90.224 Y82.739
G1 Z0.200
G1 E3.20000 F2400.00000
M204 S800
G1 F1200.000
G1 X91.085 Y82.838 E0.02718
G1 X91.764 Y82.974 E0.02170
G1 X92.424 Y83.174 E0.02164
G1 X93.061 Y83.435 E0.02159
G1 X93.671 Y83.756 E0.02161
G1 X94.247 Y84.132 E0.02158
G1 X94.611 Y84.414 E0.01442
G1 X95.122 Y84.878 E0.02164
G1 X95.587 Y85.389 E0.02167
G1 X95.867 Y85.751 E0.01436
G1 X96.244 Y86.329 E0.02162
G1 X96.565 Y86.939 E0.02161
G1 X96.826 Y87.577 E0.02161
G1 X97.026 Y88.236 E0.02161
G1 X97.162 Y88.915 E0.02171
G1 X97.261 Y89.776 E0.02717
G1 X114.932 Y88.230 E0.55617
G1 X114.984 Y89.127 E0.02817
G1 X114.995 Y90.436 E0.04103
G1 X114.930 Y91.769 E0.04187
G1 X97.261 Y90.224 E0.55611
G1 X97.162 Y91.087 E0.02723
G1 X97.026 Y91.764 E0.02165
G1 X96.826 Y92.425 E0.02168
G1 X96.565 Y93.061 E0.02155
G1 X96.244 Y93.671 E0.02161
G1 X95.867 Y94.249 E0.02162
G1 X95.585 Y94.612 E0.01442
G1 X95.122 Y95.122 E0.02160
G1 X94.612 Y95.586 E0.02161
G1 X94.060 Y95.999 E0.02162
G1 X93.671 Y96.245 E0.01442
G1 X93.061 Y96.565 E0.02160
G1 X92.423 Y96.826 E0.02161
G1 X91.765 Y97.025 E0.02157
G1 X91.087 Y97.162 E0.02169
G1 X90.224 Y97.261 E0.02723
G1 X91.770 Y114.932 E0.55617
G1 X90.873 Y114.984 E0.02817
G1 X89.564 Y114.995 E0.04103
G1 X88.231 Y114.930 E0.04187
G1 X89.776 Y97.261 E0.55611
G1 X88.913 Y97.162 E0.02723
G1 X88.234 Y97.025 E0.02172
G1 X87.577 Y96.826 E0.02155
G1 X86.939 Y96.565 E0.02161
G1 X86.328 Y96.244 E0.02162
G1 X85.939 Y95.998 E0.01442
G1 X85.388 Y95.586 E0.02159
G1 X84.878 Y95.122 E0.02161
G1 X84.415 Y94.613 E0.02157
G1 X84.133 Y94.248 E0.01448
G1 X83.756 Y93.671 E0.02159
G1 X83.435 Y93.061 E0.02161
G1 X83.174 Y92.423 E0.02161
G1 X82.975 Y91.765 E0.02156
G1 X82.838 Y91.087 E0.02171
G1 X82.739 Y90.224 E0.02723
G1 X65.068 Y91.770 E0.55617
G1 X65.016 Y90.873 E0.02817
G1 X65.005 Y89.564 E0.04103
G1 X65.070 Y88.231 E0.04187
G1 X82.739 Y89.776 E0.55611
G1 X82.838 Y88.913 E0.02723
G1 X82.975 Y88.235 E0.02171
G1 X83.174 Y87.577 E0.02156
G1 X83.435 Y86.939 E0.02161
G1 X83.756 Y86.329 E0.02161
G1 X84.001 Y85.940 E0.01442
G1 X84.414 Y85.388 E0.02161
G1 X84.878 Y84.878 E0.02161
G1 X85.388 Y84.414 E0.02161
G1 X85.752 Y84.133 E0.01442
G1 X86.329 Y83.756 E0.02160
G1 X86.939 Y83.435 E0.02161
G1 X87.575 Y83.174 E0.02156
G1 X88.236 Y82.974 E0.02166
G1 X88.916 Y82.838 E0.02173
G1 X89.776 Y82.739 E0.02716
G1 X88.230 Y65.068 E0.55617
G1 X89.127 Y65.016 E0.02817
G1 X90.429 Y65.005 E0.04082
G1 X91.770 Y65.066 E0.04208
G1 X90.229 Y82.679 E0.55435
M204 S1250
G1 X90.192 Y83.138 F9000.000
G1 X90.000 Y82.583
M204 S800
G1 F1200.000
G1 X90.000 Y82.298 E0.00330
M204 S1250
M204 S800
G1 X90.000 Y82.013 E0.00435
M204 S1250
M204 S800
G1 X90.000 Y81.728 E0.00540
M204 S1250
M204 S800
G1 X90.000 Y81.443 E0.00645
M204 S1250
M204 S800
G1 X90.000 Y81.158 E0.00751
M204 S1250
G1 X90.000 Y82.583 F9000.000
M204 S800
G1 F1200.000
G1 X90.000 Y82.869 E0.00225
M204 S1250
G1 E-2.24000 F4200.00000
G1 F7200.000
G1 X90.000 Y82.583 E-0.15801
G1 E-0.80199 F4200.00000
G1 Z0.400 F9000.000
G1 X90.000 Y78.542
G1 Z0.200
G1 E3.20000 F2400.00000
M204 S800
G1 F1200.000
G1 X90.000 Y78.257 E0.00225
M204 S1250
M204 S800
G1 X90.000 Y77.972 E0.00330
M204 S1250
M204 S800
G1 X90.000 Y77.687 E0.00435
M204 S1250
M204 S800
G1 X90.000 Y77.402 E0.00540
M204 S1250
M204 S800
G1 X90.000 Y77.116 E0.00645
M204 S1250
M204 S800
G1 X90.000 Y76.831 E0.00751
M204 S1250
G1 X89.665 Y75.846 F9000.000
M204 S800
G1 F1200.000
G1 X90.124 Y76.304 E0.02118
G1 X90.169 Y75.794 E0.01672
G1 X89.799 Y75.424 E0.01708
G1 X89.745 Y74.816 E0.01993
G1 X90.214 Y75.284 E0.02160
G1 X90.258 Y74.773 E0.01672
G1 X89.692 Y74.207 E0.02612
G1 X89.639 Y73.599 E0.01993
G1 X90.303 Y74.263 E0.03063
G1 X90.348 Y73.753 E0.01672
G1 X89.586 Y72.991 E0.03515
G1 X89.533 Y72.383 E0.01993
G1 X90.392 Y73.242 E0.03967
G1 X90.437 Y72.732 E0.01672
G1 X89.479 Y71.774 E0.04418
G1 X89.426 Y71.166 E0.01993
G1 X90.481 Y72.221 E0.04870
G1 X90.526 Y71.711 E0.01672
G1 X89.373 Y70.558 E0.05322
G1 X89.320 Y69.950 E0.01993
G1 X90.571 Y71.201 E0.05773
G1 X90.615 Y70.690 E0.01672
G1 X89.267 Y69.341 E0.06225
G1 X89.213 Y68.733 E0.01993
G1 X90.660 Y70.180 E0.06677
G1 X90.705 Y69.670 E0.01672
G1 X89.160 Y68.125 E0.07129
G1 X89.107 Y67.517 E0.01993
G1 X90.749 Y69.159 E0.07580
G1 X90.794 Y68.649 E0.01672
G1 X89.054 Y66.908 E0.08032
G1 X89.000 Y66.300 E0.01993
G1 X90.839 Y68.138 E0.08484
G1 X90.883 Y67.628 E0.01672
G1 X88.947 Y65.688 E0.08945
G1 X89.484 Y65.673 E0.01752
G1 X90.928 Y67.118 E0.06666
G1 X90.973 Y66.607 E0.01672
G1 X90.034 Y65.668 E0.04333
G1 X90.591 Y65.671 E0.01819
G1 X91.174 Y66.253 E0.02689
M204 S1250
G1 E-2.24000 F4200.00000
G1 F7200.000
G1 X90.591 Y65.671 E-0.45668
G1 X90.034 Y65.668 E-0.30897
G1 X90.220 Y65.855 E-0.14635
G1 E-0.04800 F4200.00000
G1 Z0.400 F9000.000
G1 X95.710 Y86.407
G1 Z0.200
G1 E3.20000 F2400.00000
M204 S800
G1 F1200.000
G1 X94.581 Y85.278 E0.05138
G1 X94.187 Y84.920 E0.01712
G1 X93.864 Y84.670 E0.01311
G1 X93.337 Y84.325 E0.02029
G1 X92.798 Y84.042 E0.01959
G1 X95.958 Y87.202 E0.14380
G1 X96.204 Y87.798 E0.02073
G1 X96.289 Y88.081 E0.00951
G1 X91.919 Y83.711 E0.19884
G1 X91.603 Y83.615 E0.01064
G1 X91.194 Y83.533 E0.01340
G1 X96.467 Y88.806 E0.23992
G1 X96.558 Y89.444 E0.02076
G1 X90.556 Y83.442 E0.27315
G1 X89.950 Y83.383 E0.01956
G1 X96.617 Y90.050 E0.30334
G1 X96.560 Y90.541 E0.01590
G1 X89.459 Y83.440 E0.32311
G1 X88.972 Y83.500 E0.01580
G1 X96.500 Y91.028 E0.34256
G1 X96.409 Y91.484 E0.01495
G1 X88.516 Y83.591 E0.35913
G1 X88.087 Y83.709 E0.01433
G1 X90.933 Y86.556 E0.12953
G1 X90.586 Y86.476 E0.01146
G1 X90.282 Y86.451 E0.00982
G1 X87.677 Y83.846 E0.11856
G1 X87.288 Y84.005 E0.01350
G1 X89.727 Y86.444 E0.11098
G1 X89.247 Y86.511 E0.01560
G1 X86.924 Y84.188 E0.10570
G1 X86.663 Y84.325 E0.00949
G1 X86.573 Y84.384 E0.00347
G1 X88.826 Y86.637 E0.10252
G1 X88.632 Y86.699 E0.00657
G1 X88.440 Y86.798 E0.00693
G1 X86.242 Y84.601 E0.10001
G1 X85.926 Y84.832 E0.01260
G1 X88.083 Y86.988 E0.09811
G1 X87.764 Y87.216 E0.01262
G1 X85.632 Y85.085 E0.09701
G1 X85.345 Y85.345 E0.01246
G1 X87.475 Y87.475 E0.09690
G1 X87.223 Y87.770 E0.01249
G1 X85.085 Y85.632 E0.09730
G1 X84.924 Y85.809 E0.00769
G1 X84.834 Y85.929 E0.00482
G1 X86.991 Y88.086 E0.09817
G1 X86.795 Y88.437 E0.01294
G1 X84.600 Y86.241 E0.09990
G1 X84.545 Y86.314 E0.00292
G1 X84.383 Y86.572 E0.00980
G1 X86.634 Y88.823 E0.10245
G1 X86.514 Y89.250 E0.01427
G1 X84.188 Y86.924 E0.10582
G1 X84.005 Y87.288 E0.01311
G1 X86.450 Y89.733 E0.11124
G1 X86.428 Y89.988 E0.00825
G1 X86.444 Y90.275 E0.00923
G1 X83.846 Y87.677 E0.11823
G1 X83.709 Y88.087 E0.01392
G1 X86.825 Y91.202 E0.14177
M204 S1250
G1 E-2.24000 F4200.00000
G1 F7200.000
G1 X85.661 Y90.039 E-0.91200
G1 E-0.04800 F4200.00000
G1 Z0.400 F9000.000
G1 X88.800 Y93.178
G1 Z0.200
G1 E3.20000 F2400.00000
M204 S800
G1 F1200.000
G1 X91.913 Y96.291 E0.14165
G1 X92.323 Y96.154 E0.01392
G1 X89.719 Y93.549 E0.11853
G1 X90.001 Y93.573 E0.00912
G1 X90.267 Y93.551 E0.00858
G1 X92.712 Y95.995 E0.11123
G1 X93.076 Y95.812 E0.01311
G1 X90.750 Y93.486 E0.10583
G1 X91.177 Y93.366 E0.01427
G1 X93.428 Y95.617 E0.10245
G1 X93.759 Y95.400 E0.01271
G1 X91.563 Y93.205 E0.09990
