; generated by PrusaSlicer 2.2.0+win64 on 2020-12-14 at 19:30:57 UTC


;
;

;
;
; 

; external perimeters extrusion width = 0.45mm
; perimeters extrusion width = 0.45mm
; infill extrusion width = 0.45mm
; solid infill extrusion width = 0.45mm
; top infill extrusion width = 0.40mm
; first layer extrusion width = 0.42mm

M73 P0 R14
M201 X1250 Y1250 Z400 E5000 ; sets maximum accelerations, mm/sec^2
M203 X180 Y180 Z12 E80 ; sets maximum feedrates, mm/sec
M204 P1250 R1250 T1250 ; sets acceleration (P, T) and retract acceleration (R), mm/sec^2
M205 X8.00 Y8.00 Z2.00 E10.00 ; sets the jerk limits, mm/sec
M205 S0 T0 ; sets the minimum extruding and travel feed rate, mm/sec
M107
G90 ; use absolute coordinates
M83 ; extruder relative mode
M104 S170 ; set extruder temp for bed leveling
M140 S60 ; set bed temp
M109 R170 ; wait for bed leveling temp
M190 S60 ; wait for bed temp
G28 ; home all without mesh bed level
G29 ; mesh bed leveling 
M104 S215 ; set extruder temp
G92 E0.0
G1 Y-2.0 X179 F2400
G1 Z3 F720
M109 S215 ; wait for extruder temp

; intro line
G1 X170 F1000
G1 Z0.2 F720
G1 X110.0 E8.0 F900
M73 P1 R13
G1 X40.0 E10.0 F700
G92 E0.0

M221 S95 ; set flow
G21 ; set units to millimeters
G90 ; use absolute coordinates
M83 ; use relative distances for extrusion
M900 K0.2 ; Filament gcode LA 1.5
; ; Filament gcode LA 1.0
;BEFORE_LAYER_CHANGE
G92 E0.0
;0.2


G1 Z0.200 F9000.000
;AFTER_LAYER_CHANGE
;0.2
G1 E-3.20000 F4200.00000
G1 Z0.400 F9000.000
G1 X94.998 Y74.433
G1 Z0.200
G1 E3.20000 F2400.00000
M204 S800
G1 F1200.000
G1 X95.857 Y74.966 E0.03170
G1 X104.962 Y84.067 E0.40365
G1 X105.394 Y84.638 E0.02243
G1 X105.653 Y85.261 E0.02116
G1 X105.753 Y85.928 E0.02116
G1 X105.754 Y94.033 E0.25412
G1 X105.654 Y94.737 E0.02231
G1 X105.391 Y95.367 E0.02141
G1 X104.978 Y95.917 E0.02154
G1 X95.930 Y104.965 E0.40121
G1 X95.301 Y105.427 E0.02447
G1 X94.700 Y105.664 E0.02026
G1 X94.064 Y105.753 E0.02014
G1 X85.967 Y105.754 E0.25387
G1 X85.263 Y105.654 E0.02231
G1 X84.633 Y105.391 E0.02141
G1 X84.083 Y104.978 E0.02154
G1 X75.035 Y95.930 E0.40121
G1 X74.573 Y95.301 E0.02447
G1 X74.336 Y94.700 E0.02026
G1 X74.247 Y94.064 E0.02014
G1 X74.246 Y85.967 E0.25387
G1 X74.346 Y85.263 E0.02231
G1 X74.609 Y84.633 E0.02141
G1 X75.019 Y84.086 E0.02141
G1 X84.067 Y75.038 E0.40121
G1 X84.652 Y74.598 E0.02294
G1 X85.253 Y74.349 E0.02039
G1 X85.895 Y74.248 E0.02039
G1 X94.004 Y74.246 E0.25425
G1 X94.939 Y74.422 E0.02982
M204 S1250
G1 X94.867 Y74.787 F9000.000
M204 S800
G1 F1200.000
G1 X95.612 Y75.253 E0.02755
G1 X104.692 Y84.330 E0.40255
G1 X105.071 Y84.833 E0.01977
G1 X105.292 Y85.371 E0.01823
G1 X105.376 Y85.946 E0.01823
G1 X105.377 Y94.023 E0.25324
G1 X105.288 Y94.643 E0.01965
G1 X105.060 Y95.186 E0.01846
G1 X104.703 Y95.659 E0.01858
G1 X95.667 Y104.694 E0.40064
G1 X95.120 Y105.097 E0.02130
G1 X94.600 Y105.300 E0.01752
G1 X94.046 Y105.377 E0.01752
G1 X85.977 Y105.377 E0.25300
G1 X85.357 Y105.288 E0.01965
G1 X84.814 Y105.060 E0.01846
G1 X84.341 Y104.703 E0.01858
G1 X75.306 Y95.667 E0.40064
G1 X74.903 Y95.120 E0.02130
G1 X74.700 Y94.600 E0.01752
G1 X74.623 Y94.046 E0.01752
G1 X74.623 Y85.977 E0.25300
G1 X74.712 Y85.357 E0.01965
G1 X74.940 Y84.814 E0.01846
G1 X75.295 Y84.344 E0.01846
G1 X84.330 Y75.308 E0.40064
G1 X84.843 Y74.923 E0.02012
G1 X85.367 Y74.709 E0.01775
G1 X85.923 Y74.624 E0.01763
G1 X94.004 Y74.623 E0.25336
G1 X94.808 Y74.775 E0.02567
M204 S1250
G1 E-2.24000 F4200.00000
G1 F7200.000
G1 X95.612 Y75.253 E-0.51802
G1 X96.115 Y75.755 E-0.39398
G1 E-0.04800 F4200.00000
G1 Z0.400 F9000.000
G1 X93.213 Y77.787
G1 Z0.200
G1 E3.20000 F2400.00000
M204 S800
G1 F1200.000
G1 X93.213 Y86.787 E0.28219
G1 X102.213 Y86.787 E0.28219
G1 X102.213 Y93.213 E0.20148
G1 X93.213 Y93.213 E0.28219
G1 X93.213 Y102.213 E0.28219
G1 X86.787 Y102.213 E0.20148
G1 X86.787 Y93.213 E0.28219
G1 X77.787 Y93.213 E0.28219
G1 X77.787 Y86.787 E0.20148
G1 X86.787 Y86.787 E0.28219
G1 X86.787 Y77.787 E0.28219
G1 X93.153 Y77.787 E0.19960
M204 S1250
G1 E-2.24000 F4200.00000
G1 F7200.000
G1 X93.164 Y79.433 E-0.91200
G1 E-0.04800 F4200.00000
G1 Z0.400 F9000.000
G1 X93.590 Y86.410
G1 Z0.200
G1 E3.20000 F2400.00000
M204 S800
G1 F1200.000
G1 X102.590 Y86.410 E0.28219
G1 X102.590 Y93.590 E0.22512
G1 X93.590 Y93.590 E0.28219
G1 X93.590 Y102.590 E0.28219
G1 X86.410 Y102.590 E0.22512
G1 X86.410 Y93.590 E0.28219
G1 X77.410 Y93.590 E0.28219
G1 X77.410 Y86.410 E0.22512
G1 X86.410 Y86.410 E0.28219
G1 X86.410 Y77.410 E0.28219
G1 X93.590 Y77.410 E0.22512
G1 X93.590 Y86.350 E0.28031
M204 S1250
G1 X93.679 Y86.800 F9000.000
G1 E-2.24000 F4200.00000
G1 F7200.000
G1 X95.236 Y86.361 E-0.91200
G1 E-0.04800 F4200.00000
G1 Z0.400 F9000.000
G1 X98.446 Y93.100
G1 Z0.200
G1 E3.20000 F2400.00000
M204 S800
G1 F1200.000
G1 X87.070 Y81.724 E0.50574
G1 X87.070 Y82.258 E0.01681
G1 X97.742 Y92.930 E0.47443
G1 X97.207 Y92.930 E0.01681
G1 X87.070 Y82.793 E0.45066
G1 X87.070 Y83.327 E0.01681
G1 X96.673 Y92.930 E0.42689
G1 X96.138 Y92.930 E0.01681
G1 X87.070 Y83.862 E0.40313
G1 X87.070 Y84.397 E0.01681
G1 X95.603 Y92.930 E0.37936
G1 X95.069 Y92.930 E0.01681
G1 X87.070 Y84.931 E0.35559
G1 X87.070 Y85.466 E0.01681
G1 X94.534 Y92.930 E0.33182
G1 X93.999 Y92.930 E0.01681
G1 X87.070 Y86.001 E0.30805
G1 X87.070 Y86.535 E0.01681
G1 X93.465 Y92.930 E0.28429
G1 X92.930 Y92.930 E0.01680
G1 X87.070 Y87.070 E0.26052
G1 X86.535 Y87.070 E0.01681
G1 X92.930 Y93.465 E0.28429
G1 X92.930 Y93.999 E0.01681
G1 X86.001 Y87.070 E0.30806
G1 X85.466 Y87.070 E0.01681
G1 X92.930 Y94.534 E0.33183
G1 X92.930 Y95.069 E0.01681
G1 X84.931 Y87.070 E0.35559
G1 X84.397 Y87.070 E0.01681
G1 X92.930 Y95.603 E0.37936
G1 X92.930 Y96.138 E0.01681
G1 X83.862 Y87.070 E0.40313
G1 X83.327 Y87.070 E0.01681
G1 X92.930 Y96.673 E0.42690
G1 X92.930 Y97.207 E0.01681
G1 X82.793 Y87.070 E0.45067
G1 X82.258 Y87.070 E0.01681
G1 X92.930 Y97.742 E0.47443
G1 X92.930 Y98.277 E0.01681
G1 X81.723 Y87.070 E0.49820
G1 X81.189 Y87.070 E0.01681
G1 X92.930 Y98.811 E0.52197
G1 X92.930 Y99.346 E0.01681
G1 X87.070 Y93.486 E0.26052
G1 X87.070 Y94.020 E0.01681
G1 X92.930 Y99.881 E0.26052
G1 X92.930 Y100.415 E0.01681
G1 X87.070 Y94.555 E0.26052
G1 X87.070 Y95.090 E0.01681
G1 X92.930 Y100.950 E0.26052
G1 X92.930 Y101.484 E0.01681
G1 X87.070 Y95.624 E0.26052
G1 X87.070 Y96.159 E0.01681
G1 X92.841 Y101.930 E0.25657
G1 X92.307 Y101.930 E0.01681
G1 X87.070 Y96.693 E0.23280
G1 X87.070 Y97.228 E0.01681
G1 X91.772 Y101.930 E0.20903
G1 X91.237 Y101.930 E0.01681
G1 X87.070 Y97.763 E0.18526
G1 X87.070 Y98.297 E0.01681
G1 X90.703 Y101.930 E0.16149
G1 X90.168 Y101.930 E0.01681
G1 X87.070 Y98.832 E0.13773
G1 X87.070 Y99.367 E0.01681
G1 X89.633 Y101.930 E0.11396
G1 X89.099 Y101.930 E0.01681
G1 X87.070 Y99.901 E0.09019
G1 X87.070 Y100.436 E0.01681
G1 X88.564 Y101.930 E0.06642
G1 X88.029 Y101.930 E0.01681
G1 X87.070 Y100.971 E0.04266
G1 X87.070 Y101.505 E0.01681
G1 X87.664 Y102.100 E0.02643
M204 S1250
G1 E-2.24000 F4200.00000
G1 F7200.000
G1 X87.070 Y101.505 E-0.46595
G1 X87.070 Y100.971 E-0.29628
G1 X87.261 Y101.162 E-0.14976
G1 E-0.04800 F4200.00000
G1 Z0.400 F9000.000
G1 X86.684 Y93.100
G1 Z0.200
G1 E3.20000 F2400.00000
M204 S800
G1 F1200.000
G1 X80.654 Y87.070 E0.26806
G1 X80.119 Y87.070 E0.01681
G1 X85.980 Y92.930 E0.26052
G1 X85.445 Y92.930 E0.01681
G1 X79.585 Y87.070 E0.26052
G1 X79.050 Y87.070 E0.01681
G1 X84.910 Y92.930 E0.26052
G1 X84.376 Y92.930 E0.01681
G1 X78.516 Y87.070 E0.26052
G1 X78.070 Y87.070 E0.01401
G1 X78.070 Y87.159 E0.00280
G1 X83.841 Y92.930 E0.25657
G1 X83.307 Y92.930 E0.01681
G1 X78.070 Y87.693 E0.23280
G1 X78.070 Y88.228 E0.01681
G1 X82.772 Y92.930 E0.20903
G1 X82.237 Y92.930 E0.01681
G1 X78.070 Y88.763 E0.18526
G1 X78.070 Y89.297 E0.01681
G1 X81.703 Y92.930 E0.16149
G1 X81.168 Y92.930 E0.01681
G1 X78.070 Y89.832 E0.13773
G1 X78.070 Y90.367 E0.01681
G1 X80.633 Y92.930 E0.11396
G1 X80.099 Y92.930 E0.01681
G1 X78.070 Y90.901 E0.09019
G1 X78.070 Y91.436 E0.01681
G1 X79.564 Y92.930 E0.06642
G1 X79.029 Y92.930 E0.01681
G1 X78.070 Y91.971 E0.04266
G1 X78.070 Y92.505 E0.01681
G1 X78.664 Y93.100 E0.02643
M204 S1250
G1 E-2.24000 F4200.00000
G1 F7200.000
G1 X78.070 Y92.505 E-0.46595
G1 X78.070 Y91.971 E-0.29628
G1 X78.261 Y92.162 E-0.14976
G1 E-0.04800 F4200.00000
G1 Z0.400 F9000.000
G1 X92.335 Y77.900
G1 Z0.200
G1 E3.20000 F2400.00000
M204 S800
G1 F1200.000
G1 X92.930 Y78.495 E0.02644
G1 X92.930 Y79.029 E0.01681
G1 X91.971 Y78.070 E0.04266
G1 X91.436 Y78.070 E0.01681
G1 X92.930 Y79.564 E0.06643
G1 X92.930 Y80.099 E0.01681
G1 X90.901 Y78.070 E0.09020
G1 X90.367 Y78.070 E0.01681
G1 X92.930 Y80.633 E0.11396
G1 X92.930 Y81.168 E0.01681
G1 X89.832 Y78.070 E0.13773
G1 X89.297 Y78.070 E0.01681
G1 X92.930 Y81.703 E0.16150
G1 X92.930 Y82.237 E0.01681
G1 X88.763 Y78.070 E0.18527
G1 X88.228 Y78.070 E0.01681
G1 X92.930 Y82.772 E0.20903
G1 X92.930 Y83.307 E0.01681
G1 X87.693 Y78.070 E0.23280
G1 X87.159 Y78.070 E0.01681
G1 X92.930 Y83.841 E0.25657
G1 X92.930 Y84.376 E0.01681
G1 X87.070 Y78.516 E0.26052
G1 X87.070 Y79.050 E0.01681
G1 X92.930 Y84.911 E0.26052
G1 X92.930 Y85.445 E0.01681
G1 X87.070 Y79.585 E0.26052
G1 X87.070 Y80.120 E0.01681
G1 X92.930 Y85.980 E0.26052
G1 X92.930 Y86.514 E0.01681
G1 X87.070 Y80.654 E0.26052
G1 X87.070 Y81.189 E0.01681
G1 X98.811 Y92.930 E0.52197
M73 P8 R12
G1 X99.346 Y92.930 E0.01681
G1 X93.486 Y87.070 E0.26052
G1 X94.020 Y87.070 E0.01681
G1 X99.880 Y92.930 E0.26052
G1 X100.415 Y92.930 E0.01681
G1 X94.555 Y87.070 E0.26052
G1 X95.089 Y87.070 E0.01681
G1 X100.950 Y92.930 E0.26052
G1 X101.484 Y92.930 E0.01681
G1 X95.624 Y87.070 E0.26052
G1 X96.159 Y87.070 E0.01681
G1 X101.930 Y92.841 E0.25657
G1 X101.930 Y92.307 E0.01681
G1 X96.693 Y87.070 E0.23280
G1 X97.228 Y87.070 E0.01681
G1 X101.930 Y91.772 E0.20903
G1 X101.930 Y91.237 E0.01681
G1 X97.763 Y87.070 E0.18527
G1 X98.297 Y87.070 E0.01681
G1 X101.930 Y90.703 E0.16150
G1 X101.930 Y90.168 E0.01681
G1 X98.832 Y87.070 E0.13773
G1 X99.367 Y87.070 E0.01681
G1 X101.930 Y89.633 E0.11396
G1 X101.930 Y89.099 E0.01681
G1 X99.901 Y87.070 E0.09020
G1 X100.436 Y87.070 E0.01681
G1 X101.930 Y88.564 E0.06643
G1 X101.930 Y88.029 E0.01681
G1 X100.971 Y87.070 E0.04266
G1 X101.505 Y87.070 E0.01681
G1 X102.100 Y87.665 E0.02644
M204 S1250
M106 S255
;BEFORE_LAYER_CHANGE
G92 E0.0
;0.4


G1 Z0.400 F9000.000
;AFTER_LAYER_CHANGE
;0.4
G1 E-3.20000 F4200.00000
G1 Z0.600 F9000.000
G1 X94.998 Y74.433
G1 Z0.400
G1 E3.20000 F2400.00000
G1 X95.857 Y74.966 E0.03170
G1 X104.962 Y84.067 E0.40365
G1 X105.394 Y84.638 E0.02243
G1 X105.653 Y85.261 E0.02116
G1 X105.753 Y85.928 E0.02116
G1 X105.754 Y94.033 E0.25412
G1 X105.654 Y94.737 E0.02231
G1 X105.391 Y95.367 E0.02141
G1 X104.978 Y95.917 E0.02154
G1 X95.930 Y104.965 E0.40121
G1 X95.301 Y105.427 E0.02447
G1 X94.700 Y105.664 E0.02026
G1 X94.064 Y105.753 E0.02014
G1 X85.967 Y105.754 E0.25387
G1 X85.263 Y105.654 E0.02231
G1 X84.633 Y105.391 E0.02141
G1 X84.083 Y104.978 E0.02154
G1 X75.035 Y95.930 E0.40121
G1 X74.573 Y95.301 E0.02447
G1 X74.336 Y94.700 E0.02026
G1 X74.247 Y94.064 E0.02014
G1 X74.246 Y85.967 E0.25387
G1 X74.346 Y85.263 E0.02231
G1 X74.609 Y84.633 E0.02141
G1 X75.019 Y84.086 E0.02141
G1 X84.067 Y75.038 E0.40121
G1 X84.652 Y74.598 E0.02294
G1 X85.253 Y74.349 E0.02039
G1 X85.895 Y74.248 E0.02039
G1 X94.004 Y74.246 E0.25425
G1 X94.939 Y74.422 E0.02982
G1 X94.867 Y74.787 F9000.000
G1 F2400.000
G1 X95.612 Y75.253 E0.02755
G1 X104.692 Y84.330 E0.40255
G1 X105.071 Y84.833 E0.01977
G1 X105.292 Y85.371 E0.01823
G1 X105.376 Y85.946 E0.01823
G1 X105.377 Y94.023 E0.25324
G1 X105.288 Y94.643 E0.01965
G1 X105.060 Y95.186 E0.01846
G1 X104.703 Y95.659 E0.01858
G1 X95.667 Y104.694 E0.40064
G1 X95.120 Y105.097 E0.02130
G1 X94.600 Y105.300 E0.01752
G1 X94.046 Y105.377 E0.01752
G1 X85.977 Y105.377 E0.25300
G1 X85.357 Y105.288 E0.01965
G1 X84.814 Y105.060 E0.01846
G1 X84.341 Y104.703 E0.01858
G1 X75.306 Y95.667 E0.40064
G1 X74.903 Y95.120 E0.02130
G1 X74.700 Y94.600 E0.01752
G1 X74.623 Y94.046 E0.01752
G1 X74.623 Y85.977 E0.25300
G1 X74.712 Y85.357 E0.01965
G1 X74.940 Y84.814 E0.01846
G1 X75.295 Y84.344 E0.01846
G1 X84.330 Y75.308 E0.40064
G1 X84.843 Y74.923 E0.02012
G1 X85.367 Y74.709 E0.01775
G1 X85.923 Y74.624 E0.01763
G1 X94.004 Y74.623 E0.25336
G1 X94.808 Y74.775 E0.02567
G1 E-2.24000 F4200.00000
G1 F7200.000
G1 X95.612 Y75.253 E-0.51802
G1 X96.115 Y75.755 E-0.39398
G1 E-0.04800 F4200.00000
G1 Z0.600 F9000.000
G1 X93.368 Y77.632
G1 Z0.400
G1 E3.20000 F2400.00000
M204 S800
G1 X93.368 Y86.632 E0.30464
G1 X102.368 Y86.632 E0.30464
G1 X102.368 Y93.368 E0.22800
G1 X93.368 Y93.368 E0.30464
G1 X93.368 Y102.368 E0.30464
G1 X86.632 Y102.368 E0.22800
G1 X86.632 Y93.368 E0.30464
G1 X77.632 Y93.368 E0.30464
G1 X77.632 Y86.632 E0.22800
G1 X86.632 Y86.632 E0.30464
G1 X86.632 Y77.632 E0.30464
G1 X93.308 Y77.632 E0.22597
M204 S1250
G1 E-2.24000 F4200.00000
G1 F7200.000
G1 X93.319 Y79.278 E-0.91200
G1 E-0.04800 F4200.00000
G1 Z0.600 F9000.000
G1 X93.775 Y86.225
G1 Z0.400
G1 E3.20000 F2400.00000
M204 S800
G1 F1800.000
G1 X102.775 Y86.225 E0.30464
G1 X102.775 Y93.775 E0.25556
G1 X93.775 Y93.775 E0.30464
G1 X93.775 Y102.775 E0.30464
G1 X86.225 Y102.775 E0.25556
G1 X86.225 Y93.775 E0.30464
G1 X77.225 Y93.775 E0.30464
G1 X77.225 Y86.225 E0.25556
G1 X86.225 Y86.225 E0.30464
G1 X86.225 Y77.225 E0.30464
G1 X93.775 Y77.225 E0.25556
G1 X93.775 Y86.165 E0.30261
M204 S1250
G1 X93.867 Y86.614 F9000.000
G1 E-2.24000 F4200.00000
G1 F7200.000
G1 X95.421 Y86.176 E-0.91200
G1 E-0.04800 F4200.00000
G1 Z0.600 F9000.000
G1 X93.788 Y93.246
G1 Z0.400
G1 E3.20000 F2400.00000
M204 S1000
G1 F4800.000
G1 X100.096 Y86.937 E0.30745
G1 X100.682 Y86.937 E0.02020
G1 X94.557 Y93.063 E0.29852
G1 X95.143 Y93.063 E0.02020
G1 X101.268 Y86.937 E0.29852
G1 X101.854 Y86.937 E0.02020
G1 X95.729 Y93.063 E0.29852
G1 X96.315 Y93.063 E0.02020
G1 X102.063 Y87.315 E0.28010
G1 X102.063 Y87.901 E0.02020
G1 X96.901 Y93.063 E0.25154
G1 X97.488 Y93.063 E0.02020
G1 X102.063 Y88.488 E0.22297
G1 X102.063 Y89.074 E0.02020
G1 X98.074 Y93.063 E0.19441
G1 X98.660 Y93.063 E0.02020
G1 X102.063 Y89.660 E0.16584
G1 X102.063 Y90.246 E0.02020
G1 X99.246 Y93.063 E0.13727
G1 X99.832 Y93.063 E0.02020
G1 X102.063 Y90.832 E0.10871
G1 X102.063 Y91.418 E0.02020
G1 X100.418 Y93.063 E0.08014
G1 X101.004 Y93.063 E0.02020
G1 X102.063 Y92.004 E0.05158
G1 X102.063 Y92.590 E0.02020
G1 X101.407 Y93.246 E0.03194
M204 S1250
G1 E-2.24000 F4200.00000
G1 F7200.000
G1 X102.063 Y92.590 E-0.51361
G1 X102.063 Y92.004 E-0.32481
G1 X101.969 Y92.098 E-0.07358
G1 E-0.04800 F4200.00000
G1 Z0.600 F9000.000
G1 X92.407 Y102.246
G1 Z0.400
G1 E3.20000 F2400.00000
M204 S1000
G1 F4800.000
G1 X93.063 Y101.590 E0.03194
G1 X93.063 Y101.004 E0.02020
G1 X92.004 Y102.063 E0.05158
G1 X91.418 Y102.063 E0.02020
G1 X93.063 Y100.418 E0.08014
G1 X93.063 Y99.832 E0.02020
G1 X90.832 Y102.063 E0.10871
G1 X90.246 Y102.063 E0.02020
G1 X93.063 Y99.246 E0.13727
G1 X93.063 Y98.660 E0.02020
G1 X89.660 Y102.063 E0.16584
G1 X89.074 Y102.063 E0.02020
G1 X93.063 Y98.074 E0.19441
G1 X93.063 Y97.488 E0.02020
G1 X88.488 Y102.063 E0.22297
G1 X87.901 Y102.063 E0.02020
G1 X93.063 Y96.901 E0.25154
G1 X93.063 Y96.315 E0.02020
G1 X87.315 Y102.063 E0.28010
G1 X86.937 Y102.063 E0.01302
G1 X86.937 Y101.854 E0.00717
G1 X93.063 Y95.729 E0.29852
G1 X93.063 Y95.143 E0.02020
G1 X86.937 Y101.268 E0.29852
G1 X86.937 Y100.682 E0.02020
G1 X93.063 Y94.557 E0.29852
G1 X93.063 Y93.971 E0.02020
G1 X86.937 Y100.096 E0.29852
G1 X86.937 Y99.510 E0.02020
G1 X99.510 Y86.937 E0.61274
G1 X98.924 Y86.937 E0.02020
G1 X86.937 Y98.924 E0.58417
G1 X86.937 Y98.338 E0.02020
G1 X98.338 Y86.937 E0.55561
G1 X97.752 Y86.937 E0.02020
G1 X86.937 Y97.752 E0.52704
G1 X86.937 Y97.165 E0.02020
G1 X97.165 Y86.937 E0.49848
G1 X96.579 Y86.937 E0.02020
G1 X86.937 Y96.579 E0.46991
G1 X86.937 Y95.993 E0.02020
G1 X95.993 Y86.937 E0.44135
G1 X95.407 Y86.937 E0.02020
G1 X86.937 Y95.407 E0.41278
G1 X86.937 Y94.821 E0.02020
G1 X94.821 Y86.937 E0.38422
G1 X94.235 Y86.937 E0.02020
G1 X86.937 Y94.235 E0.35565
G1 X86.937 Y93.649 E0.02020
G1 X93.649 Y86.937 E0.32708
G1 X93.063 Y86.937 E0.02020
G1 X86.937 Y93.063 E0.29852
G1 X86.351 Y93.063 E0.02020
G1 X93.063 Y86.351 E0.32709
G1 X93.063 Y85.765 E0.02020
