; generated by PrusaSlicer 2.2.0+win64 on 2020-12-07 at 10:08:38 UTC


;
;

;
;
; 

; external perimeters extrusion width = 0.45mm
; perimeters extrusion width = 0.45mm
; infill extrusion width = 0.45mm
; solid infill extrusion width = 0.45mm
; top infill extrusion width = 0.40mm
; first layer extrusion width = 0.42mm

M73 P0 R26
M201 X1250 Y1250 Z400 E5000 ; sets maximum accelerations, mm/sec^2
M203 X180 Y180 Z12 E80 ; sets maximum feedrates, mm/sec
M204 P1250 R1250 T1250 ; sets acceleration (P, T) and retract acceleration (R), mm/sec^2
M205 X8.00 Y8.00 Z2.00 E10.00 ; sets the jerk limits, mm/sec
M205 S0 T0 ; sets the minimum extruding and travel feed rate, mm/sec
M107
G90 ; use absolute coordinates
M83 ; extruder relative mode
M104 S170 ; set extruder temp for bed leveling
M140 S60 ; set bed temp
M109 R170 ; wait for bed leveling temp
M190 S60 ; wait for bed temp
G28 ; home all without mesh bed level
G29 ; mesh bed leveling 
M104 S215 ; set extruder temp
G92 E0.0
G1 Y-2.0 X179 F2400
G1 Z3 F720
M109 S215 ; wait for extruder temp

; intro line
G1 X170 F1000
G1 Z0.2 F720
G1 X110.0 E8.0 F900
M73 P0 R26
G1 X40.0 E10.0 F700
G92 E0.0

M221 S95 ; set flow
G21 ; set units to millimeters
G90 ; use absolute coordinates
M83 ; use relative distances for extrusion
M900 K0.2 ; Filament gcode LA 1.5
; ; Filament gcode LA 1.0
;BEFORE_LAYER_CHANGE
G92 E0.0
;0.2


G1 Z0.200 F9000.000
;AFTER_LAYER_CHANGE
;0.2
G1 E-3.20000 F4200.00000
G1 Z0.400 F9000.000
G1 X65.793 Y68.726
G1 Z0.200
G1 E3.20000 F2400.00000
M204 S800
G1 F1200.000
G1 X66.363 Y68.265 E0.02298
G1 X66.963 Y67.941 E0.02139
G1 X67.672 Y67.713 E0.02334
G1 X68.440 Y67.624 E0.02423
G1 X111.504 Y67.623 E1.35025
G1 X112.252 Y67.697 E0.02358
G1 X112.901 Y67.886 E0.02118
G1 X113.584 Y68.231 E0.02401
G1 X114.180 Y68.699 E0.02375
G1 X114.635 Y69.219 E0.02166
G1 X115.019 Y69.873 E0.02379
G1 X115.266 Y70.583 E0.02358
G1 X115.369 Y71.246 E0.02102
G1 X115.376 Y108.569 E1.17023
G1 X115.289 Y109.319 E0.02370
G1 X115.051 Y110.056 E0.02429
G1 X114.659 Y110.746 E0.02487
G1 X114.207 Y111.274 E0.02179
G1 X113.637 Y111.735 E0.02298
G1 X113.037 Y112.059 E0.02139
G1 X112.328 Y112.287 E0.02334
G1 X111.560 Y112.376 E0.02423
G1 X68.496 Y112.377 E1.35025
G1 X67.703 Y112.294 E0.02501
G1 X66.961 Y112.058 E0.02441
G1 X66.343 Y111.721 E0.02208
G1 X65.726 Y111.207 E0.02518
G1 X65.265 Y110.637 E0.02298
G1 X64.942 Y110.040 E0.02128
G1 X64.714 Y109.332 E0.02334
G1 X64.624 Y108.568 E0.02411
G1 X64.623 Y71.496 E1.16236
G1 X64.706 Y70.703 E0.02501
G1 X64.942 Y69.961 E0.02441
G1 X65.279 Y69.343 E0.02208
G1 X65.754 Y68.772 E0.02329
M204 S1250
G1 E-2.24000 F4200.00000
G1 F7200.000
G1 X66.363 Y68.265 E-0.43880
G1 X66.963 Y67.941 E-0.37813
G1 X67.127 Y67.888 E-0.09507
G1 E-0.04800 F4200.00000
G1 Z0.400 F9000.000
G1 X108.741 Y75.213
G1 Z0.200
G1 E3.20000 F2400.00000
M204 S800
G1 F1200.000
G1 X93.465 Y75.213 E0.47897
G1 X93.013 Y75.262 E0.01425
G1 X92.548 Y75.416 E0.01535
G1 X92.127 Y75.666 E0.01535
G1 X91.777 Y75.993 E0.01502
G1 X91.575 Y76.263 E0.01057
G1 X91.418 Y76.549 E0.01024
G1 X91.304 Y76.855 E0.01024
G1 X91.235 Y77.174 E0.01023
G1 X91.213 Y77.475 E0.00947
G1 X91.213 Y78.535 E0.03323
G1 X91.262 Y78.987 E0.01425
G1 X91.413 Y79.442 E0.01502
G1 X91.575 Y79.737 E0.01057
G1 X91.770 Y79.999 E0.01024
G1 X92.001 Y80.230 E0.01024
G1 X92.271 Y80.432 E0.01057
G1 X92.690 Y80.641 E0.01469
G1 X93.023 Y80.739 E0.01089
G1 X93.465 Y80.787 E0.01392
G1 X108.741 Y80.787 E0.47897
G1 X108.771 Y80.289 E0.01563
G1 X111.601 Y80.296 E0.08875
G1 X111.795 Y80.353 E0.00634
G1 X111.885 Y80.402 E0.00318
G1 X112.038 Y80.534 E0.00635
G1 X112.147 Y80.705 E0.00635
G1 X112.204 Y80.899 E0.00634
G1 X112.213 Y83.476 E0.08080
G1 X112.162 Y83.758 E0.00900
G1 X112.036 Y83.965 E0.00758
G1 X111.850 Y84.119 E0.00758
G1 X111.700 Y84.181 E0.00509
G1 X111.540 Y84.209 E0.00509
G1 X93.465 Y84.213 E0.56674
G1 X93.013 Y84.262 E0.01425
G1 X92.547 Y84.417 E0.01538
G1 X92.128 Y84.668 E0.01532
G1 X91.881 Y84.882 E0.01025
G1 X91.668 Y85.128 E0.01023
G1 X91.491 Y85.403 E0.01024
G1 X91.351 Y85.710 E0.01057
G1 X91.235 Y86.164 E0.01469
G1 X91.213 Y86.475 E0.00980
G1 X91.213 Y93.535 E0.22136
G1 X91.262 Y93.987 E0.01425
G1 X91.416 Y94.452 E0.01535
G1 X91.661 Y94.864 E0.01502
G1 X91.889 Y95.126 E0.01090
G1 X92.253 Y95.420 E0.01469
G1 X92.549 Y95.582 E0.01057
G1 X92.865 Y95.700 E0.01057
G1 X93.326 Y95.783 E0.01469
G1 X111.476 Y95.787 E0.56906
G1 X111.700 Y95.818 E0.00711
G1 X111.885 Y95.902 E0.00635
G1 X112.038 Y96.034 E0.00635
G1 X112.147 Y96.205 E0.00635
G1 X112.204 Y96.399 E0.00634
G1 X112.210 Y99.040 E0.08281
G1 X112.179 Y99.210 E0.00543
G1 X112.103 Y99.375 E0.00569
G1 X111.995 Y99.510 E0.00542
G1 X111.841 Y99.624 E0.00602
G1 X111.662 Y99.692 E0.00601
G1 X111.465 Y99.713 E0.00618
G1 X108.771 Y99.711 E0.08448
G1 X108.741 Y99.213 E0.01563
G1 X93.475 Y99.213 E0.47864
G1 X93.164 Y99.235 E0.00980
G1 X92.699 Y99.354 E0.01505
G1 X92.262 Y99.574 E0.01532
G1 X92.001 Y99.771 E0.01025
G1 X91.763 Y100.009 E0.01056
G1 X91.496 Y100.394 E0.01469
G1 X91.351 Y100.710 E0.01090
G1 X91.235 Y101.164 E0.01469
G1 X91.213 Y101.475 E0.00980
G1 X91.213 Y102.535 E0.03323
G1 X91.262 Y102.987 E0.01425
G1 X91.416 Y103.452 E0.01535
G1 X91.661 Y103.864 E0.01502
G1 X91.882 Y104.118 E0.01057
G1 X92.136 Y104.339 E0.01057
G1 X92.540 Y104.579 E0.01473
G1 X92.876 Y104.702 E0.01121
G1 X93.327 Y104.783 E0.01436
G1 X108.741 Y104.787 E0.48330
G1 X108.771 Y104.289 E0.01564
G1 X111.476 Y104.287 E0.08481
G1 X111.758 Y104.338 E0.00899
G1 X111.926 Y104.431 E0.00602
G1 X112.069 Y104.574 E0.00635
G1 X112.166 Y104.751 E0.00635
G1 X112.209 Y104.949 E0.00635
G1 X112.209 Y108.551 E0.11292
G1 X112.145 Y108.795 E0.00791
G1 X112.068 Y108.925 E0.00476
G1 X111.965 Y109.036 E0.00476
G1 X111.758 Y109.162 E0.00758
G1 X111.476 Y109.213 E0.00900
G1 X68.535 Y109.213 E1.34638
G1 X68.349 Y109.193 E0.00586
G1 X68.205 Y109.145 E0.00475
G1 X68.075 Y109.068 E0.00476
G1 X67.964 Y108.965 E0.00476
G1 X67.834 Y108.749 E0.00791
G1 X67.790 Y108.550 E0.00636
G1 X67.796 Y104.899 E0.11450
G1 X67.853 Y104.705 E0.00634
G1 X67.962 Y104.534 E0.00635
G1 X68.115 Y104.402 E0.00635
G1 X68.300 Y104.318 E0.00635
G1 X68.524 Y104.287 E0.00710
G1 X71.229 Y104.289 E0.08481
G1 X71.259 Y104.787 E0.01564
G1 X86.674 Y104.783 E0.48332
G1 X87.135 Y104.700 E0.01469
G1 X87.461 Y104.578 E0.01090
G1 X87.864 Y104.339 E0.01469
G1 X88.126 Y104.111 E0.01090
G1 X88.420 Y103.747 E0.01469
G1 X88.587 Y103.442 E0.01090
G1 X88.738 Y102.987 E0.01501
G1 X88.787 Y102.535 E0.01425
G1 X88.787 Y101.475 E0.03323
G1 X88.765 Y101.174 E0.00947
G1 X88.694 Y100.845 E0.01057
G1 X88.510 Y100.402 E0.01502
G1 X88.231 Y100.000 E0.01535
G1 X87.872 Y99.666 E0.01539
G1 X87.451 Y99.418 E0.01532
G1 X87.144 Y99.304 E0.01025
G1 X86.826 Y99.235 E0.01022
G1 X86.525 Y99.213 E0.00947
G1 X71.259 Y99.213 E0.47864
G1 X71.229 Y99.711 E0.01563
G1 X68.535 Y99.713 E0.08448
G1 X68.338 Y99.692 E0.00618
G1 X68.159 Y99.624 E0.00601
G1 X68.005 Y99.510 E0.00602
G1 X67.897 Y99.375 E0.00542
G1 X67.821 Y99.210 E0.00569
G1 X67.790 Y99.040 E0.00543
G1 X67.796 Y96.399 E0.08281
G1 X67.853 Y96.205 E0.00634
G1 X67.962 Y96.034 E0.00635
G1 X68.115 Y95.902 E0.00635
G1 X68.300 Y95.818 E0.00635
G1 X68.524 Y95.787 E0.00711
G1 X86.674 Y95.783 E0.56906
G1 X87.135 Y95.700 E0.01469
G1 X87.451 Y95.582 E0.01057
G1 X87.747 Y95.420 E0.01057
G1 X88.120 Y95.120 E0.01502
G1 X88.420 Y94.747 E0.01502
G1 X88.587 Y94.442 E0.01090
G1 X88.738 Y93.987 E0.01502
G1 X88.787 Y93.535 E0.01425
G1 X88.787 Y86.475 E0.22136
G1 X88.765 Y86.164 E0.00980
G1 X88.649 Y85.710 E0.01469
G1 X88.509 Y85.403 E0.01057
G1 X88.332 Y85.128 E0.01024
G1 X88.118 Y84.882 E0.01024
G1 X87.864 Y84.661 E0.01057
G1 X87.452 Y84.416 E0.01502
G1 X86.987 Y84.262 E0.01535
G1 X86.535 Y84.213 E0.01425
G1 X68.460 Y84.209 E0.56674
G1 X68.300 Y84.181 E0.00509
G1 X68.150 Y84.119 E0.00509
G1 X67.964 Y83.965 E0.00758
G1 X67.838 Y83.758 E0.00758
G1 X67.787 Y83.476 E0.00900
G1 X67.796 Y80.899 E0.08080
G1 X67.853 Y80.705 E0.00634
G1 X67.962 Y80.534 E0.00635
G1 X68.115 Y80.402 E0.00635
G1 X68.205 Y80.353 E0.00318
G1 X68.399 Y80.296 E0.00634
G1 X71.229 Y80.289 E0.08875
G1 X71.259 Y80.787 E0.01563
G1 X86.535 Y80.787 E0.47897
G1 X86.977 Y80.739 E0.01392
G1 X87.300 Y80.644 E0.01056
G1 X87.597 Y80.509 E0.01024
G1 X87.880 Y80.326 E0.01057
G1 X88.231 Y80.000 E0.01502
G1 X88.504 Y79.606 E0.01502
G1 X88.644 Y79.300 E0.01057
G1 X88.739 Y78.977 E0.01056
G1 X88.787 Y78.535 E0.01392
G1 X88.787 Y77.475 E0.03323
G1 X88.765 Y77.174 E0.00947
G1 X88.696 Y76.855 E0.01023
G1 X88.582 Y76.549 E0.01024
G1 X88.425 Y76.263 E0.01024
G1 X88.223 Y75.993 E0.01057
G1 X87.873 Y75.666 E0.01502
G1 X87.452 Y75.416 E0.01535
G1 X86.987 Y75.262 E0.01535
G1 X86.535 Y75.213 E0.01425
G1 X71.259 Y75.213 E0.47897
G1 X71.229 Y75.711 E0.01563
G1 X68.524 Y75.713 E0.08481
G1 X68.300 Y75.682 E0.00710
G1 X68.115 Y75.598 E0.00635
G1 X67.962 Y75.466 E0.00635
G1 X67.858 Y75.305 E0.00602
G1 X67.791 Y75.051 E0.00824
G1 X67.791 Y71.449 E0.11292
G1 X67.855 Y71.205 E0.00791
G1 X67.932 Y71.075 E0.00476
G1 X68.035 Y70.964 E0.00476
G1 X68.242 Y70.838 E0.00758
G1 X68.524 Y70.787 E0.00900
G1 X111.551 Y70.791 E1.34906
G1 X111.795 Y70.855 E0.00791
G1 X111.934 Y70.937 E0.00509
G1 X112.063 Y71.066 E0.00569
G1 X112.145 Y71.205 E0.00509
G1 X112.210 Y71.450 E0.00792
G1 X112.213 Y74.966 E0.11024
G1 X112.193 Y75.151 E0.00585
G1 X112.098 Y75.385 E0.00790
G1 X112.038 Y75.466 E0.00318
G1 X111.885 Y75.598 E0.00635
G1 X111.795 Y75.647 E0.00318
G1 X111.601 Y75.704 E0.00634
G1 X108.771 Y75.711 E0.08875
G1 X108.745 Y75.273 E0.01375
M204 S1250
G1 X108.386 Y75.590 F9000.000
M204 S800
G1 F1200.000
G1 X93.485 Y75.590 E0.46721
G1 X93.094 Y75.632 E0.01235
G1 X92.706 Y75.761 E0.01281
G1 X92.355 Y75.970 E0.01281
G1 X92.058 Y76.246 E0.01269
G1 X91.893 Y76.467 E0.00867
G1 X91.762 Y76.706 E0.00855
G1 X91.667 Y76.962 E0.00855
G1 X91.609 Y77.228 E0.00855
G1 X91.590 Y77.489 E0.00820
G1 X91.590 Y78.515 E0.03217
G1 X91.632 Y78.906 E0.01235
G1 X91.760 Y79.290 E0.01269
G1 X91.893 Y79.533 E0.00867
G1 X92.056 Y79.751 E0.00855
G1 X92.249 Y79.944 E0.00855
G1 X92.470 Y80.110 E0.00867
G1 X92.829 Y80.289 E0.01257
G1 X93.097 Y80.368 E0.00878
G1 X93.485 Y80.410 E0.01223
G1 X108.386 Y80.410 E0.46721
G1 X108.411 Y80.002 E0.01282
G1 X108.453 Y79.931 E0.00258
G1 X108.502 Y79.913 E0.00167
G1 X111.655 Y79.922 E0.09885
G1 X111.953 Y80.009 E0.00972
G1 X112.213 Y80.177 E0.00972
G1 X112.416 Y80.411 E0.00972
G1 X112.545 Y80.693 E0.00972
G1 X112.590 Y81.011 E0.01007
G1 X112.590 Y83.489 E0.07770
G1 X112.578 Y83.651 E0.00510
G1 X112.519 Y83.884 E0.00753
G1 X112.458 Y84.019 E0.00464
G1 X112.323 Y84.213 E0.00742
G1 X112.150 Y84.374 E0.00742
G1 X112.025 Y84.454 E0.00464
G1 X111.807 Y84.545 E0.00742
G1 X111.574 Y84.587 E0.00742
G1 X93.485 Y84.590 E0.56716
G1 X93.094 Y84.632 E0.01234
G1 X92.706 Y84.762 E0.01282
G1 X92.350 Y84.974 E0.01299
G1 X92.149 Y85.149 E0.00836
G1 X91.970 Y85.355 E0.00854
G1 X91.823 Y85.584 E0.00855
G1 X91.708 Y85.836 E0.00867
G1 X91.609 Y86.224 E0.01257
G1 X91.590 Y86.489 E0.00832
G1 X91.590 Y93.515 E0.22030
G1 X91.632 Y93.906 E0.01234
G1 X91.761 Y94.294 E0.01281
G1 X91.968 Y94.642 E0.01269
G1 X92.151 Y94.854 E0.00878
G1 X92.464 Y95.106 E0.01257
G1 X92.706 Y95.238 E0.00867
G1 X92.965 Y95.335 E0.00867
G1 X93.360 Y95.406 E0.01257
G1 X111.489 Y95.410 E0.56842
G1 X111.807 Y95.455 E0.01007
G1 X112.089 Y95.584 E0.00972
G1 X112.323 Y95.787 E0.00972
G1 X112.491 Y96.047 E0.00972
G1 X112.578 Y96.345 E0.00972
G1 X112.587 Y99.074 E0.08556
G1 X112.544 Y99.310 E0.00754
G1 X112.418 Y99.586 E0.00949
G1 X112.267 Y99.773 E0.00753
G1 X112.022 Y99.956 E0.00960
G1 X111.735 Y100.063 E0.00960
G1 X111.485 Y100.090 E0.00788
G1 X108.502 Y100.087 E0.09353
G1 X108.453 Y100.069 E0.00167
G1 X108.411 Y99.998 E0.00258
G1 X108.386 Y99.590 E0.01282
G1 X93.489 Y99.590 E0.46709
G1 X93.224 Y99.609 E0.00832
G1 X92.832 Y99.709 E0.01270
G1 X92.462 Y99.896 E0.01299
G1 X92.249 Y100.056 E0.00836
G1 X92.053 Y100.251 E0.00866
G1 X91.825 Y100.581 E0.01257
G1 X91.708 Y100.836 E0.00878
G1 X91.609 Y101.224 E0.01257
G1 X91.590 Y101.489 E0.00832
G1 X91.590 Y102.515 E0.03217
G1 X91.632 Y102.906 E0.01235
G1 X91.761 Y103.294 E0.01281
G1 X91.968 Y103.642 E0.01269
G1 X92.149 Y103.851 E0.00867
G1 X92.358 Y104.032 E0.00867
G1 X92.703 Y104.237 E0.01259
G1 X92.975 Y104.337 E0.00908
G1 X93.360 Y104.406 E0.01227
G1 X108.386 Y104.410 E0.47113
G1 X108.411 Y104.002 E0.01282
G1 X108.453 Y103.931 E0.00258
G1 X108.502 Y103.913 E0.00167
G1 X111.489 Y103.910 E0.09364
G1 X111.651 Y103.921 E0.00510
G1 X111.884 Y103.981 E0.00753
G1 X112.153 Y104.128 E0.00960
G1 X112.372 Y104.347 E0.00972
G1 X112.521 Y104.619 E0.00972
G1 X112.587 Y104.922 E0.00972
G1 X112.587 Y108.578 E0.11461
G1 X112.565 Y108.728 E0.00475
G1 X112.490 Y108.952 E0.00742
G1 X112.372 Y109.152 E0.00730
G1 X112.213 Y109.323 E0.00730
G1 X112.019 Y109.458 E0.00742
G1 X111.884 Y109.519 E0.00464
G1 X111.651 Y109.578 E0.00753
G1 X111.489 Y109.590 E0.00510
G1 X68.515 Y109.590 E1.34743
G1 X68.268 Y109.564 E0.00776
G1 X68.048 Y109.490 E0.00729
G1 X67.848 Y109.372 E0.00730
G1 X67.677 Y109.213 E0.00730
G1 X67.542 Y109.019 E0.00742
G1 X67.479 Y108.881 E0.00475
G1 X67.413 Y108.578 E0.00972
G1 X67.422 Y104.845 E0.11704
G1 X67.509 Y104.547 E0.00972
G1 X67.677 Y104.287 E0.00972
G1 X67.911 Y104.084 E0.00972
G1 X68.193 Y103.955 E0.00972
G1 X68.511 Y103.910 E0.01006
G1 X71.498 Y103.913 E0.09364
G1 X71.547 Y103.931 E0.00167
G1 X71.589 Y104.002 E0.00258
G1 X71.614 Y104.410 E0.01282
G1 X86.640 Y104.406 E0.47113
G1 X87.035 Y104.335 E0.01257
G1 X87.297 Y104.237 E0.00878
G1 X87.642 Y104.032 E0.01257
G1 X87.854 Y103.849 E0.00878
G1 X88.106 Y103.536 E0.01257
G1 X88.240 Y103.290 E0.00878
G1 X88.368 Y102.906 E0.01269
G1 X88.410 Y102.515 E0.01235
G1 X88.410 Y101.489 E0.03217
G1 X88.391 Y101.228 E0.00820
G1 X88.332 Y100.958 E0.00866
G1 X88.178 Y100.584 E0.01269
G1 X87.944 Y100.248 E0.01281
G1 X87.645 Y99.970 E0.01282
G1 X87.288 Y99.760 E0.01299
G1 X87.038 Y99.667 E0.00836
G1 X86.772 Y99.609 E0.00854
G1 X86.511 Y99.590 E0.00820
G1 X71.614 Y99.590 E0.46709
G1 X71.589 Y99.998 E0.01282
G1 X71.547 Y100.069 E0.00258
G1 X71.498 Y100.087 E0.00167
G1 X68.515 Y100.090 E0.09353
G1 X68.265 Y100.063 E0.00788
G1 X67.978 Y99.956 E0.00960
G1 X67.733 Y99.773 E0.00960
G1 X67.582 Y99.586 E0.00753
G1 X67.456 Y99.310 E0.00949
G1 X67.413 Y99.074 E0.00754
G1 X67.422 Y96.345 E0.08556
G1 X67.509 Y96.047 E0.00972
G1 X67.677 Y95.787 E0.00972
G1 X67.911 Y95.584 E0.00972
G1 X68.193 Y95.455 E0.00972
G1 X68.511 Y95.410 E0.01007
G1 X86.640 Y95.406 E0.56842
G1 X87.035 Y95.335 E0.01257
G1 X87.294 Y95.238 E0.00867
G1 X87.536 Y95.106 E0.00867
G1 X87.852 Y94.852 E0.01269
G1 X88.106 Y94.536 E0.01269
G1 X88.240 Y94.290 E0.00878
G1 X88.368 Y93.906 E0.01269
G1 X88.410 Y93.515 E0.01235
G1 X88.410 Y86.489 E0.22030
G1 X88.391 Y86.224 E0.00832
G1 X88.292 Y85.836 E0.01257
G1 X88.177 Y85.584 E0.00867
G1 X88.030 Y85.355 E0.00855
G1 X87.851 Y85.149 E0.00855
G1 X87.642 Y84.968 E0.00867
G1 X87.294 Y84.761 E0.01269
G1 X86.906 Y84.632 E0.01281
G1 X86.515 Y84.590 E0.01234
G1 X68.426 Y84.587 E0.56716
G1 X68.193 Y84.545 E0.00742
G1 X67.975 Y84.454 E0.00742
G1 X67.850 Y84.374 E0.00464
G1 X67.677 Y84.213 E0.00742
G1 X67.542 Y84.019 E0.00742
G1 X67.481 Y83.884 E0.00464
G1 X67.422 Y83.651 E0.00753
G1 X67.410 Y83.489 E0.00510
G1 X67.410 Y81.011 E0.07770
G1 X67.455 Y80.693 E0.01007
G1 X67.584 Y80.411 E0.00972
G1 X67.787 Y80.177 E0.00972
G1 X68.047 Y80.009 E0.00972
G1 X68.345 Y79.922 E0.00972
G1 X71.498 Y79.913 E0.09885
G1 X71.547 Y79.931 E0.00167
G1 X71.589 Y80.002 E0.00258
G1 X71.614 Y80.410 E0.01282
G1 X86.515 Y80.410 E0.46721
G1 X86.903 Y80.368 E0.01223
G1 X87.168 Y80.290 E0.00866
G1 X87.416 Y80.177 E0.00855
G1 X87.648 Y80.028 E0.00867
G1 X87.944 Y79.752 E0.01269
G1 X88.175 Y79.419 E0.01269
G1 X88.290 Y79.168 E0.00867
G1 X88.368 Y78.903 E0.00866
G1 X88.410 Y78.515 E0.01223
G1 X88.410 Y77.489 E0.03217
G1 X88.391 Y77.228 E0.00820
G1 X88.333 Y76.962 E0.00855
G1 X88.238 Y76.706 E0.00855
G1 X88.107 Y76.467 E0.00855
G1 X87.942 Y76.246 E0.00867
G1 X87.645 Y75.970 E0.01269
G1 X87.294 Y75.761 E0.01281
G1 X86.906 Y75.632 E0.01281
G1 X86.515 Y75.590 E0.01235
G1 X71.614 Y75.590 E0.46721
