; generated by PrusaSlicer 2.2.0+win64 on 2020-12-06 at 20:12:52 UTC


;
;

;
;
; 

; external perimeters extrusion width = 0.45mm
; perimeters extrusion width = 0.45mm
; infill extrusion width = 0.45mm
; solid infill extrusion width = 0.45mm
; top infill extrusion width = 0.40mm
; first layer extrusion width = 0.42mm

M73 P0 R14
M201 X1250 Y1250 Z400 E5000 ; sets maximum accelerations, mm/sec^2
M203 X180 Y180 Z12 E80 ; sets maximum feedrates, mm/sec
M204 P1250 R1250 T1250 ; sets acceleration (P, T) and retract acceleration (R), mm/sec^2
M205 X8.00 Y8.00 Z2.00 E10.00 ; sets the jerk limits, mm/sec
M205 S0 T0 ; sets the minimum extruding and travel feed rate, mm/sec
M107
G90 ; use absolute coordinates
M83 ; extruder relative mode
M104 S170 ; set extruder temp for bed leveling
M140 S60 ; set bed temp
M109 R170 ; wait for bed leveling temp
M190 S60 ; wait for bed temp
G28 ; home all without mesh bed level
G29 ; mesh bed leveling 
M104 S215 ; set extruder temp
G92 E0.0
G1 Y-2.0 X179 F2400
G1 Z3 F720
M109 S215 ; wait for extruder temp

; intro line
G1 X170 F1000
G1 Z0.2 F720
G1 X110.0 E8.0 F900
M73 P1 R14
G1 X40.0 E10.0 F700
G92 E0.0

M221 S95 ; set flow
G21 ; set units to millimeters
G90 ; use absolute coordinates
M83 ; use relative distances for extrusion
M900 K0.2 ; Filament gcode LA 1.5
; ; Filament gcode LA 1.0
;BEFORE_LAYER_CHANGE
G92 E0.0
;0.2


G1 Z0.200 F9000.000
;AFTER_LAYER_CHANGE
;0.2
G1 E-3.20000 F4200.00000
G1 Z0.400 F9000.000
G1 X72.785 Y70.392
G1 Z0.200
G1 E3.20000 F2400.00000
M204 S800
G1 F1200.000
G1 X73.251 Y69.385 E0.03479
G1 X73.802 Y68.716 E0.02717
G1 X74.576 Y68.135 E0.03034
G1 X75.391 Y67.785 E0.02781
G1 X76.257 Y67.631 E0.02757
G1 X103.504 Y67.623 E0.85432
G1 X104.253 Y67.697 E0.02361
G1 X104.907 Y67.888 E0.02136
G1 X105.584 Y68.231 E0.02379
G1 X106.171 Y68.691 E0.02340
G1 X106.628 Y69.209 E0.02165
G1 X107.010 Y69.855 E0.02351
G1 X107.238 Y70.474 E0.02071
G1 X107.367 Y71.215 E0.02356
G1 X107.377 Y108.538 E1.17025
G1 X107.215 Y109.608 E0.03394
G1 X106.749 Y110.615 E0.03479
G1 X106.101 Y111.374 E0.03129
G1 X105.381 Y111.890 E0.02777
G1 X104.547 Y112.233 E0.02829
G1 X103.592 Y112.375 E0.03028
G1 X76.451 Y112.377 E0.85100
G1 X75.388 Y112.214 E0.03370
G1 X74.381 Y111.746 E0.03482
G1 X73.624 Y111.099 E0.03122
G1 X73.103 Y110.369 E0.02812
G1 X72.764 Y109.533 E0.02829
G1 X72.624 Y108.562 E0.03076
G1 X72.623 Y71.462 E1.16324
G1 X72.776 Y70.451 E0.03205
M204 S1250
G1 E-2.24000 F4200.00000
G1 F7200.000
G1 X73.251 Y69.385 E-0.64680
G1 X73.555 Y69.016 E-0.26520
G1 E-0.04800 F4200.00000
G1 Z0.400 F9000.000
G1 X79.213 Y105.787
G1 Z0.200
G1 E3.20000 F2400.00000
M204 S800
G1 F1200.000
G1 X98.535 Y105.787 E0.60584
G1 X98.987 Y105.738 E0.01425
G1 X99.443 Y105.587 E0.01505
G1 X99.756 Y105.414 E0.01121
G1 X100.112 Y105.126 E0.01436
G1 X100.333 Y104.871 E0.01059
G1 X100.519 Y104.578 E0.01088
G1 X100.694 Y104.155 E0.01436
G1 X100.765 Y103.826 E0.01055
G1 X100.787 Y103.525 E0.00947
G1 X100.787 Y101.475 E0.06426
G1 X100.765 Y101.174 E0.00947
G1 X100.696 Y100.855 E0.01023
G1 X100.582 Y100.549 E0.01024
G1 X100.425 Y100.263 E0.01024
G1 X100.230 Y100.001 E0.01024
G1 X99.999 Y99.770 E0.01024
G1 X99.729 Y99.568 E0.01057
G1 X99.310 Y99.359 E0.01469
G1 X98.977 Y99.261 E0.01089
G1 X98.535 Y99.213 E0.01392
G1 X79.213 Y99.213 E0.60584
G1 X79.213 Y99.713 E0.01568
G1 X76.399 Y99.704 E0.08824
G1 X76.205 Y99.647 E0.00634
G1 X76.115 Y99.598 E0.00318
G1 X75.962 Y99.466 E0.00635
G1 X75.853 Y99.295 E0.00635
G1 X75.796 Y99.101 E0.00634
G1 X75.787 Y96.524 E0.08080
G1 X75.838 Y96.242 E0.00900
G1 X75.964 Y96.035 E0.00758
G1 X76.075 Y95.932 E0.00476
G1 X76.205 Y95.855 E0.00476
G1 X76.449 Y95.791 E0.00791
G1 X98.535 Y95.787 E0.69249
G1 X98.977 Y95.739 E0.01392
G1 X99.300 Y95.644 E0.01056
G1 X99.597 Y95.509 E0.01024
G1 X99.881 Y95.326 E0.01060
G1 X100.230 Y94.999 E0.01499
G1 X100.426 Y94.737 E0.01025
G1 X100.582 Y94.451 E0.01023
G1 X100.696 Y94.145 E0.01024
G1 X100.765 Y93.826 E0.01023
G1 X100.787 Y93.525 E0.00947
G1 X100.787 Y86.465 E0.22136
G1 X100.738 Y86.013 E0.01425
G1 X100.587 Y85.557 E0.01505
G1 X100.414 Y85.244 E0.01121
G1 X100.119 Y84.880 E0.01470
G1 X99.747 Y84.580 E0.01501
G1 X99.450 Y84.418 E0.01061
G1 X99.124 Y84.298 E0.01088
G1 X98.673 Y84.217 E0.01436
G1 X76.535 Y84.213 E0.69414
G1 X76.338 Y84.192 E0.00619
G1 X76.159 Y84.124 E0.00601
G1 X75.997 Y84.003 E0.00635
G1 X75.881 Y83.850 E0.00602
G1 X75.796 Y83.601 E0.00823
G1 X75.790 Y80.950 E0.08314
G1 X75.834 Y80.751 E0.00636
G1 X75.925 Y80.583 E0.00602
G1 X76.043 Y80.456 E0.00542
G1 X76.195 Y80.358 E0.00569
G1 X76.349 Y80.307 E0.00508
G1 X76.535 Y80.287 E0.00586
G1 X79.213 Y80.287 E0.08397
G1 X79.213 Y80.787 E0.01568
G1 X98.525 Y80.787 E0.60551
G1 X98.826 Y80.765 E0.00947
G1 X99.145 Y80.696 E0.01023
G1 X99.451 Y80.582 E0.01024
G1 X99.737 Y80.425 E0.01024
G1 X99.999 Y80.230 E0.01024
G1 X100.230 Y79.999 E0.01024
G1 X100.432 Y79.729 E0.01057
G1 X100.641 Y79.310 E0.01469
G1 X100.736 Y78.987 E0.01057
G1 X100.783 Y78.664 E0.01022
G1 X100.787 Y76.465 E0.06893
G1 X100.738 Y76.013 E0.01427
G1 X100.587 Y75.557 E0.01505
G1 X100.414 Y75.244 E0.01121
G1 X100.126 Y74.888 E0.01436
G1 X99.864 Y74.661 E0.01088
G1 X99.460 Y74.421 E0.01473
G1 X99.124 Y74.298 E0.01121
G1 X98.673 Y74.217 E0.01436
G1 X79.213 Y74.213 E0.61017
G1 X79.213 Y74.713 E0.01568
G1 X76.535 Y74.713 E0.08397
G1 X76.338 Y74.692 E0.00619
G1 X76.107 Y74.592 E0.00790
G1 X75.962 Y74.466 E0.00602
G1 X75.853 Y74.295 E0.00635
G1 X75.796 Y74.101 E0.00634
G1 X75.790 Y71.450 E0.08314
G1 X75.834 Y71.251 E0.00636
G1 X75.925 Y71.083 E0.00602
G1 X76.043 Y70.956 E0.00542
G1 X76.195 Y70.858 E0.00569
G1 X76.349 Y70.807 E0.00508
G1 X76.535 Y70.787 E0.00586
G1 X103.551 Y70.791 E0.84707
G1 X103.795 Y70.855 E0.00791
G1 X103.925 Y70.932 E0.00476
G1 X104.036 Y71.035 E0.00476
G1 X104.129 Y71.169 E0.00509
G1 X104.205 Y71.409 E0.00791
G1 X104.213 Y71.524 E0.00362
G1 X104.213 Y108.476 E1.15858
G1 X104.182 Y108.700 E0.00711
G1 X104.068 Y108.925 E0.00791
G1 X103.957 Y109.044 E0.00509
G1 X103.805 Y109.142 E0.00569
G1 X103.651 Y109.193 E0.00508
G1 X103.465 Y109.213 E0.00586
G1 X76.524 Y109.213 E0.84471
G1 X76.310 Y109.185 E0.00678
G1 X76.150 Y109.119 E0.00542
G1 X75.964 Y108.965 E0.00758
G1 X75.877 Y108.840 E0.00476
G1 X75.815 Y108.690 E0.00509
G1 X75.787 Y108.476 E0.00677
G1 X75.790 Y105.950 E0.07921
G1 X75.831 Y105.762 E0.00603
G1 X75.908 Y105.607 E0.00542
G1 X76.034 Y105.462 E0.00602
G1 X76.262 Y105.331 E0.00824
G1 X76.535 Y105.287 E0.00867
G1 X79.213 Y105.287 E0.08397
G1 X79.213 Y105.727 E0.01380
M204 S1250
G1 X79.590 Y105.410 F9000.000
M204 S800
G1 F1200.000
G1 X98.515 Y105.410 E0.59338
G1 X98.906 Y105.368 E0.01235
G1 X99.291 Y105.240 E0.01270
G1 X99.544 Y105.100 E0.00908
G1 X99.849 Y104.854 E0.01227
G1 X100.030 Y104.645 E0.00867
G1 X100.183 Y104.404 E0.00896
G1 X100.333 Y104.042 E0.01227
G1 X100.391 Y103.772 E0.00866
G1 X100.410 Y103.511 E0.00820
G1 X100.410 Y101.489 E0.06341
G1 X100.391 Y101.228 E0.00820
G1 X100.333 Y100.962 E0.00855
G1 X100.238 Y100.706 E0.00855
G1 X100.107 Y100.467 E0.00855
G1 X99.944 Y100.249 E0.00855
G1 X99.751 Y100.056 E0.00855
G1 X99.530 Y99.890 E0.00867
G1 X99.171 Y99.711 E0.01257
G1 X98.903 Y99.632 E0.00878
G1 X98.515 Y99.590 E0.01223
G1 X79.590 Y99.590 E0.59338
G1 X79.590 Y100.090 E0.01568
G1 X76.345 Y100.078 E0.10175
G1 X76.047 Y99.991 E0.00972
G1 X75.787 Y99.823 E0.00972
G1 X75.584 Y99.589 E0.00972
G1 X75.455 Y99.307 E0.00972
G1 X75.410 Y98.989 E0.01007
G1 X75.410 Y96.511 E0.07770
G1 X75.421 Y96.349 E0.00510
G1 X75.481 Y96.116 E0.00753
G1 X75.542 Y95.981 E0.00464
G1 X75.677 Y95.787 E0.00742
G1 X75.848 Y95.628 E0.00730
G1 X76.048 Y95.510 E0.00730
G1 X76.272 Y95.435 E0.00742
G1 X76.422 Y95.413 E0.00476
G1 X98.515 Y95.410 E0.69270
G1 X98.903 Y95.368 E0.01223
G1 X99.168 Y95.290 E0.00866
G1 X99.416 Y95.177 E0.00855
G1 X99.649 Y95.027 E0.00868
G1 X99.948 Y94.747 E0.01287
G1 X100.107 Y94.533 E0.00836
G1 X100.238 Y94.294 E0.00854
G1 X100.333 Y94.038 E0.00855
G1 X100.391 Y93.772 E0.00855
G1 X100.410 Y93.511 E0.00820
G1 X100.410 Y86.485 E0.22030
G1 X100.368 Y86.094 E0.01235
G1 X100.240 Y85.709 E0.01270
G1 X100.100 Y85.456 E0.00908
G1 X99.851 Y85.148 E0.01239
G1 X99.536 Y84.894 E0.01269
G1 X99.293 Y84.762 E0.00868
G1 X99.025 Y84.663 E0.00896
G1 X98.640 Y84.594 E0.01227
G1 X76.515 Y84.590 E0.69372
G1 X76.265 Y84.563 E0.00788
G1 X75.978 Y84.456 E0.00960
G1 X75.730 Y84.270 E0.00972
G1 X75.546 Y84.025 E0.00960
G1 X75.454 Y83.803 E0.00753
G1 X75.422 Y83.655 E0.00475
G1 X75.413 Y80.922 E0.08568
G1 X75.479 Y80.619 E0.00973
G1 X75.626 Y80.350 E0.00960
G1 X75.790 Y80.174 E0.00753
G1 X75.911 Y80.084 E0.00475
G1 X76.044 Y80.011 E0.00476
G1 X76.268 Y79.936 E0.00741
G1 X76.515 Y79.910 E0.00776
G1 X79.590 Y79.910 E0.09642
G1 X79.590 Y80.410 E0.01568
G1 X98.511 Y80.410 E0.59326
G1 X98.772 Y80.391 E0.00820
G1 X99.038 Y80.333 E0.00855
G1 X99.294 Y80.238 E0.00855
G1 X99.533 Y80.107 E0.00855
G1 X99.751 Y79.944 E0.00855
G1 X99.944 Y79.751 E0.00855
G1 X100.110 Y79.530 E0.00867
G1 X100.289 Y79.171 E0.01257
G1 X100.367 Y78.906 E0.00867
G1 X100.406 Y78.637 E0.00854
G1 X100.410 Y76.485 E0.06745
G1 X100.368 Y76.094 E0.01235
G1 X100.240 Y75.709 E0.01270
G1 X100.100 Y75.456 E0.00908
G1 X99.854 Y75.151 E0.01227
G1 X99.642 Y74.968 E0.00878
G1 X99.297 Y74.763 E0.01259
G1 X99.025 Y74.663 E0.00908
G1 X98.640 Y74.594 E0.01227
G1 X79.590 Y74.590 E0.59730
G1 X79.590 Y75.090 E0.01568
G1 X76.515 Y75.090 E0.09642
G1 X76.265 Y75.063 E0.00788
G1 X76.123 Y75.022 E0.00463
G1 X75.908 Y74.914 E0.00753
G1 X75.677 Y74.713 E0.00960
G1 X75.509 Y74.453 E0.00972
G1 X75.422 Y74.155 E0.00972
G1 X75.413 Y71.422 E0.08568
G1 X75.479 Y71.119 E0.00973
G1 X75.626 Y70.850 E0.00960
G1 X75.790 Y70.674 E0.00753
G1 X76.044 Y70.511 E0.00949
G1 X76.268 Y70.436 E0.00741
G1 X76.515 Y70.410 E0.00776
G1 X103.578 Y70.413 E0.84854
G1 X103.728 Y70.435 E0.00476
G1 X103.952 Y70.510 E0.00742
G1 X104.152 Y70.628 E0.00730
G1 X104.323 Y70.787 E0.00730
G1 X104.458 Y70.981 E0.00742
G1 X104.519 Y71.116 E0.00464
G1 X104.579 Y71.349 E0.00753
G1 X104.590 Y71.511 E0.00510
G1 X104.590 Y108.489 E1.15942
G1 X104.545 Y108.807 E0.01007
G1 X104.492 Y108.949 E0.00476
G1 X104.372 Y109.152 E0.00742
G1 X104.210 Y109.326 E0.00742
G1 X103.956 Y109.489 E0.00949
G1 X103.732 Y109.564 E0.00741
G1 X103.485 Y109.590 E0.00776
G1 X76.511 Y109.590 E0.84576
G1 X76.197 Y109.546 E0.00995
G1 X75.975 Y109.454 E0.00753
G1 X75.850 Y109.374 E0.00464
G1 X75.677 Y109.213 E0.00742
G1 X75.545 Y109.022 E0.00730
G1 X75.454 Y108.803 E0.00742
G1 X75.422 Y108.655 E0.00475
G1 X75.413 Y105.922 E0.08568
G1 X75.478 Y105.623 E0.00961
G1 X75.586 Y105.408 E0.00753
G1 X75.787 Y105.177 E0.00960
G1 X75.908 Y105.086 E0.00476
G1 X76.123 Y104.978 E0.00753
G1 X76.265 Y104.937 E0.00463
G1 X76.515 Y104.910 E0.00788
G1 X79.590 Y104.910 E0.09642
G1 X79.590 Y105.350 E0.01380
M204 S1250
G1 X79.771 Y105.767 F9000.000
G1 E-2.24000 F4200.00000
G1 F7200.000
G1 X81.236 Y105.355 E-0.91200
G1 E-0.04800 F4200.00000
G1 Z0.400 F9000.000
G1 X75.908 Y107.973
G1 Z0.200
G1 E3.20000 F2400.00000
M204 S800
G1 F1200.000
G1 X76.865 Y108.930 E0.04253
G1 X77.399 Y108.930 E0.01679
G1 X76.077 Y107.608 E0.05877
G1 X76.076 Y107.072 E0.01683
G1 X77.934 Y108.930 E0.08257
G1 X78.468 Y108.930 E0.01679
G1 X76.074 Y106.536 E0.10637
G1 X76.073 Y106.001 E0.01683
G1 X79.003 Y108.930 E0.13016
G1 X79.537 Y108.930 E0.01679
G1 X76.258 Y105.651 E0.14570
G1 X76.411 Y105.585 E0.00524
G1 X76.711 Y105.570 E0.00944
G1 X80.071 Y108.930 E0.14932
G1 X80.606 Y108.930 E0.01679
G1 X77.246 Y105.570 E0.14932
G1 X77.780 Y105.570 E0.01679
G1 X81.140 Y108.930 E0.14932
G1 X81.675 Y108.930 E0.01679
G1 X78.314 Y105.570 E0.14932
G1 X78.849 Y105.570 E0.01679
G1 X78.930 Y105.651 E0.00361
G1 X78.930 Y106.070 E0.01316
G1 X79.349 Y106.070 E0.01316
G1 X82.209 Y108.930 E0.12710
G1 X82.743 Y108.930 E0.01679
G1 X79.883 Y106.070 E0.12710
G1 X80.418 Y106.070 E0.01679
G1 X83.278 Y108.930 E0.12710
G1 X83.812 Y108.930 E0.01679
G1 X80.952 Y106.070 E0.12710
G1 X81.486 Y106.070 E0.01679
G1 X84.347 Y108.930 E0.12710
G1 X84.881 Y108.930 E0.01679
G1 X82.021 Y106.070 E0.12710
G1 X82.555 Y106.070 E0.01679
G1 X85.416 Y108.930 E0.12710
G1 X85.950 Y108.930 E0.01679
G1 X83.090 Y106.070 E0.12710
G1 X83.624 Y106.070 E0.01679
G1 X86.484 Y108.930 E0.12710
G1 X87.019 Y108.930 E0.01679
G1 X84.159 Y106.070 E0.12710
G1 X84.693 Y106.070 E0.01679
G1 X87.553 Y108.930 E0.12710
G1 X88.088 Y108.930 E0.01679
G1 X85.227 Y106.070 E0.12710
G1 X85.762 Y106.070 E0.01679
G1 X88.622 Y108.930 E0.12710
G1 X89.157 Y108.930 E0.01679
G1 X86.296 Y106.070 E0.12710
G1 X86.831 Y106.070 E0.01679
G1 X89.691 Y108.930 E0.12710
G1 X90.225 Y108.930 E0.01679
G1 X87.365 Y106.070 E0.12710
G1 X87.900 Y106.070 E0.01679
G1 X90.760 Y108.930 E0.12710
G1 X91.294 Y108.930 E0.01679
G1 X88.434 Y106.070 E0.12710
G1 X88.968 Y106.070 E0.01679
G1 X91.829 Y108.930 E0.12710
G1 X92.363 Y108.930 E0.01679
G1 X89.503 Y106.070 E0.12710
G1 X90.037 Y106.070 E0.01679
G1 X92.897 Y108.930 E0.12710
G1 X93.432 Y108.930 E0.01679
G1 X90.572 Y106.070 E0.12710
G1 X91.106 Y106.070 E0.01679
G1 X93.966 Y108.930 E0.12710
G1 X94.501 Y108.930 E0.01679
G1 X91.640 Y106.070 E0.12710
G1 X92.175 Y106.070 E0.01679
G1 X95.035 Y108.930 E0.12710
G1 X95.570 Y108.930 E0.01679
G1 X92.709 Y106.070 E0.12710
G1 X93.244 Y106.070 E0.01679
G1 X96.104 Y108.930 E0.12710
G1 X96.638 Y108.930 E0.01679
G1 X93.778 Y106.070 E0.12710
G1 X94.313 Y106.070 E0.01679
G1 X97.173 Y108.930 E0.12710
G1 X97.707 Y108.930 E0.01679
G1 X94.847 Y106.070 E0.12710
G1 X95.381 Y106.070 E0.01679
G1 X98.242 Y108.930 E0.12710
G1 X98.776 Y108.930 E0.01679
G1 X95.916 Y106.070 E0.12710
G1 X96.450 Y106.070 E0.01679
G1 X99.310 Y108.930 E0.12710
G1 X99.845 Y108.930 E0.01679
G1 X96.985 Y106.070 E0.12710
G1 X97.519 Y106.070 E0.01679
G1 X100.379 Y108.930 E0.12710
G1 X100.914 Y108.930 E0.01679
G1 X98.054 Y106.070 E0.12710
G1 X98.584 Y106.066 E0.01668
G1 X101.448 Y108.930 E0.12726
G1 X101.983 Y108.930 E0.01679
G1 X99.063 Y106.011 E0.12972
G1 X99.464 Y105.877 E0.01328
G1 X102.517 Y108.930 E0.13565
G1 X103.051 Y108.930 E0.01679
G1 X99.822 Y105.700 E0.14352
G1 X99.914 Y105.650 E0.00331
G1 X100.130 Y105.475 E0.00874
G1 X103.573 Y108.917 E0.15297
G1 X103.682 Y108.885 E0.00357
G1 X103.775 Y108.825 E0.00347
G1 X103.874 Y108.684 E0.00543
G1 X100.407 Y105.217 E0.15404
G1 X100.560 Y105.040 E0.00735
G1 X100.640 Y104.915 E0.00465
G1 X103.930 Y108.206 E0.14621
G1 X103.930 Y107.671 E0.01679
G1 X100.829 Y104.570 E0.13782
G1 X100.977 Y104.184 E0.01300
G1 X103.930 Y107.137 E0.13123
G1 X103.930 Y106.602 E0.01679
G1 X101.056 Y103.728 E0.12772
G1 X101.070 Y103.208 E0.01636
G1 X103.930 Y106.068 E0.12710
G1 X103.930 Y105.533 E0.01679
G1 X101.070 Y102.673 E0.12710
G1 X101.070 Y102.139 E0.01679
G1 X103.930 Y104.999 E0.12710
G1 X103.930 Y104.465 E0.01679
G1 X101.070 Y101.604 E0.12710
G1 X101.046 Y101.134 E0.01481
G1 X101.022 Y101.022 E0.00360
G1 X103.930 Y103.930 E0.12925
G1 X103.930 Y103.396 E0.01679
G1 X96.605 Y96.070 E0.32553
G1 X97.139 Y96.070 E0.01679
G1 X103.930 Y102.861 E0.30178
G1 X103.930 Y102.327 E0.01679
G1 X97.673 Y96.070 E0.27804
M73 P8 R13
G1 X98.208 Y96.070 E0.01679
G1 X103.930 Y101.793 E0.25430
G1 X103.930 Y101.258 E0.01679
G1 X98.723 Y96.051 E0.23138
G1 X99.032 Y96.018 E0.00976
G1 X99.181 Y95.974 E0.00486
G1 X103.930 Y100.724 E0.21106
G1 X103.930 Y100.189 E0.01679
G1 X99.572 Y95.831 E0.19367
G1 X99.733 Y95.758 E0.00556
G1 X99.915 Y95.640 E0.00682
G1 X103.930 Y99.655 E0.17840
G1 X103.930 Y99.120 E0.01679
G1 X100.213 Y95.403 E0.16519
G1 X100.480 Y95.136 E0.01187
G1 X103.930 Y98.586 E0.15329
G1 X103.930 Y98.052 E0.01679
G1 X100.701 Y94.823 E0.14349
G1 X100.878 Y94.465 E0.01253
G1 X103.930 Y97.517 E0.13562
G1 X103.930 Y96.983 E0.01679
G1 X101.004 Y94.057 E0.13001
G1 X101.046 Y93.866 E0.00614
G1 X101.066 Y93.584 E0.00888
G1 X103.930 Y96.448 E0.12726
G1 X103.930 Y95.914 E0.01679
G1 X101.070 Y93.054 E0.12710
G1 X101.070 Y92.519 E0.01679
G1 X103.930 Y95.379 E0.12710
G1 X103.930 Y94.845 E0.01679
G1 X101.070 Y91.985 E0.12710
G1 X101.070 Y91.450 E0.01679
G1 X103.930 Y94.311 E0.12710
G1 X103.930 Y93.776 E0.01679
G1 X101.070 Y90.916 E0.12710
G1 X101.070 Y90.382 E0.01679
