; generated by PrusaSlicer 2.2.0+win64 on 2020-12-10 at 13:40:41 UTC


;
;

;
;
; 

; external perimeters extrusion width = 0.45mm
; perimeters extrusion width = 0.45mm
; infill extrusion width = 0.45mm
; solid infill extrusion width = 0.45mm
; top infill extrusion width = 0.40mm
; first layer extrusion width = 0.42mm

M73 P0 R23
M201 X1250 Y1250 Z400 E5000 ; sets maximum accelerations, mm/sec^2
M203 X180 Y180 Z12 E80 ; sets maximum feedrates, mm/sec
M204 P1250 R1250 T1250 ; sets acceleration (P, T) and retract acceleration (R), mm/sec^2
M205 X8.00 Y8.00 Z2.00 E10.00 ; sets the jerk limits, mm/sec
M205 S0 T0 ; sets the minimum extruding and travel feed rate, mm/sec
M107
G90 ; use absolute coordinates
M83 ; extruder relative mode
M104 S170 ; set extruder temp for bed leveling
M140 S60 ; set bed temp
M109 R170 ; wait for bed leveling temp
M190 S60 ; wait for bed temp
G28 ; home all without mesh bed level
G29 ; mesh bed leveling 
M104 S215 ; set extruder temp
G92 E0.0
G1 Y-2.0 X179 F2400
G1 Z3 F720
M109 S215 ; wait for extruder temp

; intro line
G1 X170 F1000
G1 Z0.2 F720
G1 X110.0 E8.0 F900
M73 P0 R23
G1 X40.0 E10.0 F700
G92 E0.0

M221 S95 ; set flow
G21 ; set units to millimeters
G90 ; use absolute coordinates
M83 ; use relative distances for extrusion
M900 K0.2 ; Filament gcode LA 1.5
; ; Filament gcode LA 1.0
;BEFORE_LAYER_CHANGE
G92 E0.0
;0.2


G1 Z0.200 F9000.000
;AFTER_LAYER_CHANGE
;0.2
G1 E-3.20000 F4200.00000
G1 Z0.400 F9000.000
G1 X66.796 Y69.723
G1 Z0.200
G1 E3.20000 F2400.00000
M204 S800
G1 F1200.000
G1 X67.366 Y69.263 E0.02298
G1 X67.963 Y68.941 E0.02128
G1 X68.672 Y68.713 E0.02334
G1 X69.440 Y68.624 E0.02423
G1 X110.504 Y68.623 E1.28754
G1 X111.252 Y68.697 E0.02358
G1 X111.901 Y68.886 E0.02118
G1 X112.584 Y69.231 E0.02401
G1 X113.177 Y69.696 E0.02363
G1 X113.632 Y70.216 E0.02166
G1 X114.017 Y70.869 E0.02379
G1 X114.265 Y71.579 E0.02358
G1 X114.368 Y72.238 E0.02090
G1 X114.376 Y107.572 E1.10788
G1 X114.288 Y108.323 E0.02370
G1 X114.051 Y109.056 E0.02417
G1 X113.659 Y109.746 E0.02487
G1 X113.204 Y110.277 E0.02191
G1 X112.634 Y110.737 E0.02298
G1 X112.037 Y111.059 E0.02128
G1 X111.328 Y111.287 E0.02334
G1 X110.560 Y111.376 E0.02423
G1 X69.496 Y111.377 E1.28754
G1 X68.703 Y111.294 E0.02501
G1 X67.961 Y111.058 E0.02441
G1 X67.340 Y110.719 E0.02220
G1 X66.723 Y110.204 E0.02518
G1 X66.265 Y109.637 E0.02286
G1 X65.942 Y109.040 E0.02128
G1 X65.714 Y108.332 E0.02334
G1 X65.624 Y107.572 E0.02399
G1 X65.623 Y72.496 E1.09977
G1 X65.706 Y71.703 E0.02501
G1 X65.942 Y70.961 E0.02441
G1 X66.281 Y70.340 E0.02220
G1 X66.757 Y69.769 E0.02329
M204 S1250
G1 E-2.24000 F4200.00000
G1 F7200.000
G1 X67.366 Y69.263 E-0.43880
G1 X67.963 Y68.941 E-0.37602
G1 X68.130 Y68.887 E-0.09718
G1 E-0.04800 F4200.00000
G1 Z0.400 F9000.000
G1 X107.782 Y75.663
G1 Z0.200
G1 E3.20000 F2400.00000
M204 S800
G1 F1200.000
G1 X93.465 Y75.663 E0.44889
G1 X93.013 Y75.712 E0.01425
G1 X92.548 Y75.866 E0.01535
G1 X92.127 Y76.116 E0.01535
G1 X91.777 Y76.443 E0.01502
G1 X91.575 Y76.713 E0.01057
G1 X91.418 Y76.999 E0.01024
G1 X91.304 Y77.305 E0.01024
G1 X91.232 Y77.637 E0.01064
G1 X91.216 Y78.205 E0.01782
G1 X91.264 Y78.536 E0.01050
G1 X91.356 Y78.850 E0.01024
G1 X91.491 Y79.147 E0.01024
G1 X91.674 Y79.431 E0.01060
G1 X92.001 Y79.780 E0.01499
G1 X92.263 Y79.976 E0.01025
G1 X92.549 Y80.132 E0.01023
G1 X92.855 Y80.246 E0.01024
G1 X93.174 Y80.315 E0.01023
G1 X93.475 Y80.337 E0.00947
G1 X107.642 Y80.337 E0.44420
G1 X107.829 Y80.187 E0.00750
G1 X110.591 Y80.195 E0.08661
G1 X110.758 Y80.238 E0.00541
G1 X110.917 Y80.325 E0.00569
G1 X111.098 Y80.515 E0.00824
G1 X111.193 Y80.749 E0.00790
G1 X111.213 Y80.935 E0.00586
G1 X111.213 Y83.476 E0.07967
G1 X111.162 Y83.758 E0.00900
G1 X111.036 Y83.965 E0.00758
G1 X110.850 Y84.119 E0.00758
G1 X110.700 Y84.181 E0.00509
G1 X110.540 Y84.209 E0.00509
G1 X93.465 Y84.213 E0.53539
G1 X93.013 Y84.262 E0.01425
G1 X92.548 Y84.416 E0.01535
G1 X92.136 Y84.661 E0.01502
G1 X91.882 Y84.882 E0.01057
G1 X91.668 Y85.128 E0.01024
G1 X91.491 Y85.403 E0.01024
G1 X91.351 Y85.710 E0.01057
G1 X91.235 Y86.164 E0.01469
G1 X91.213 Y86.475 E0.00980
G1 X91.213 Y93.535 E0.22136
G1 X91.262 Y93.987 E0.01425
G1 X91.416 Y94.452 E0.01535
G1 X91.661 Y94.864 E0.01502
G1 X91.889 Y95.126 E0.01090
G1 X92.253 Y95.420 E0.01469
G1 X92.549 Y95.582 E0.01057
G1 X92.865 Y95.700 E0.01057
G1 X93.326 Y95.783 E0.01469
G1 X110.476 Y95.787 E0.53771
G1 X110.700 Y95.818 E0.00711
G1 X110.885 Y95.902 E0.00635
G1 X111.038 Y96.034 E0.00635
G1 X111.147 Y96.205 E0.00635
G1 X111.204 Y96.399 E0.00634
G1 X111.210 Y99.140 E0.08595
G1 X111.179 Y99.310 E0.00543
G1 X111.103 Y99.475 E0.00569
G1 X110.995 Y99.610 E0.00542
G1 X110.841 Y99.724 E0.00602
G1 X110.662 Y99.792 E0.00601
G1 X110.465 Y99.813 E0.00619
G1 X107.829 Y99.813 E0.08267
G1 X107.642 Y99.663 E0.00750
G1 X93.475 Y99.663 E0.44420
G1 X93.173 Y99.685 E0.00950
G1 X92.834 Y99.760 E0.01087
G1 X92.402 Y99.940 E0.01470
G1 X92.009 Y100.213 E0.01501
G1 X91.769 Y100.452 E0.01061
G1 X91.563 Y100.731 E0.01088
G1 X91.354 Y101.150 E0.01470
G1 X91.234 Y101.620 E0.01521
G1 X91.211 Y102.071 E0.01415
G1 X91.262 Y102.537 E0.01471
G1 X91.416 Y103.002 E0.01535
G1 X91.661 Y103.414 E0.01502
G1 X91.889 Y103.676 E0.01090
G1 X92.253 Y103.970 E0.01469
G1 X92.550 Y104.132 E0.01061
G1 X92.876 Y104.252 E0.01088
G1 X93.327 Y104.333 E0.01436
G1 X107.781 Y104.337 E0.45322
G1 X107.913 Y103.989 E0.01167
G1 X110.476 Y103.987 E0.08035
G1 X110.700 Y104.018 E0.00710
G1 X110.885 Y104.102 E0.00635
G1 X111.038 Y104.234 E0.00635
G1 X111.142 Y104.395 E0.00602
G1 X111.210 Y104.650 E0.00825
G1 X111.213 Y107.476 E0.08862
G1 X111.185 Y107.690 E0.00677
G1 X111.123 Y107.840 E0.00509
G1 X110.973 Y108.030 E0.00758
G1 X110.758 Y108.162 E0.00791
G1 X110.476 Y108.213 E0.00900
G1 X69.535 Y108.213 E1.28367
G1 X69.349 Y108.193 E0.00586
G1 X69.205 Y108.145 E0.00475
G1 X69.075 Y108.068 E0.00476
G1 X68.964 Y107.965 E0.00476
G1 X68.834 Y107.749 E0.00791
G1 X68.790 Y107.550 E0.00636
G1 X68.796 Y104.599 E0.09255
G1 X68.853 Y104.405 E0.00634
G1 X68.962 Y104.234 E0.00635
G1 X69.115 Y104.102 E0.00635
G1 X69.300 Y104.018 E0.00635
G1 X69.524 Y103.987 E0.00710
G1 X72.087 Y103.989 E0.08035
G1 X72.219 Y104.337 E0.01167
G1 X86.674 Y104.333 E0.45324
G1 X87.135 Y104.250 E0.01469
G1 X87.461 Y104.128 E0.01090
G1 X87.864 Y103.889 E0.01469
G1 X88.126 Y103.661 E0.01090
G1 X88.420 Y103.297 E0.01469
G1 X88.587 Y102.992 E0.01090
G1 X88.738 Y102.537 E0.01501
G1 X88.789 Y102.071 E0.01471
G1 X88.766 Y101.620 E0.01415
G1 X88.646 Y101.150 E0.01522
G1 X88.432 Y100.721 E0.01502
G1 X88.223 Y100.443 E0.01090
G1 X87.880 Y100.123 E0.01469
G1 X87.588 Y99.936 E0.01090
G1 X87.155 Y99.756 E0.01469
G1 X86.826 Y99.685 E0.01056
G1 X86.525 Y99.663 E0.00947
G1 X72.358 Y99.663 E0.44420
G1 X72.171 Y99.813 E0.00750
G1 X69.535 Y99.813 E0.08267
G1 X69.338 Y99.792 E0.00619
G1 X69.159 Y99.724 E0.00601
G1 X69.005 Y99.610 E0.00602
G1 X68.897 Y99.475 E0.00542
G1 X68.821 Y99.310 E0.00569
G1 X68.790 Y99.140 E0.00543
G1 X68.796 Y96.399 E0.08595
G1 X68.853 Y96.205 E0.00634
G1 X68.962 Y96.034 E0.00635
G1 X69.115 Y95.902 E0.00635
G1 X69.300 Y95.818 E0.00635
G1 X69.524 Y95.787 E0.00711
G1 X86.674 Y95.783 E0.53771
G1 X87.135 Y95.700 E0.01469
G1 X87.451 Y95.582 E0.01057
G1 X87.747 Y95.420 E0.01057
G1 X88.120 Y95.120 E0.01502
G1 X88.420 Y94.747 E0.01502
G1 X88.587 Y94.442 E0.01090
G1 X88.738 Y93.987 E0.01502
G1 X88.787 Y93.535 E0.01425
G1 X88.787 Y86.475 E0.22136
G1 X88.765 Y86.164 E0.00980
G1 X88.649 Y85.710 E0.01469
G1 X88.509 Y85.403 E0.01057
G1 X88.332 Y85.128 E0.01024
G1 X88.118 Y84.882 E0.01024
G1 X87.864 Y84.661 E0.01057
G1 X87.452 Y84.416 E0.01502
G1 X86.987 Y84.262 E0.01535
G1 X86.535 Y84.213 E0.01425
G1 X69.460 Y84.209 E0.53539
G1 X69.300 Y84.181 E0.00509
G1 X69.150 Y84.119 E0.00509
G1 X68.964 Y83.965 E0.00758
G1 X68.838 Y83.758 E0.00758
G1 X68.787 Y83.476 E0.00900
G1 X68.787 Y80.935 E0.07967
G1 X68.807 Y80.749 E0.00586
G1 X68.902 Y80.515 E0.00790
G1 X69.083 Y80.325 E0.00824
G1 X69.242 Y80.238 E0.00569
G1 X69.409 Y80.195 E0.00541
G1 X72.171 Y80.187 E0.08661
G1 X72.358 Y80.337 E0.00750
G1 X86.525 Y80.337 E0.44420
G1 X86.826 Y80.315 E0.00947
G1 X87.145 Y80.246 E0.01023
G1 X87.461 Y80.128 E0.01057
G1 X87.864 Y79.889 E0.01469
G1 X88.118 Y79.668 E0.01057
G1 X88.332 Y79.422 E0.01024
G1 X88.509 Y79.147 E0.01024
G1 X88.644 Y78.850 E0.01024
G1 X88.736 Y78.536 E0.01024
G1 X88.784 Y78.205 E0.01050
G1 X88.768 Y77.637 E0.01782
G1 X88.696 Y77.305 E0.01064
G1 X88.582 Y76.999 E0.01024
G1 X88.425 Y76.713 E0.01024
G1 X88.223 Y76.443 E0.01057
G1 X87.873 Y76.116 E0.01502
G1 X87.452 Y75.866 E0.01535
G1 X86.987 Y75.712 E0.01535
G1 X86.535 Y75.663 E0.01425
G1 X72.218 Y75.663 E0.44889
G1 X72.087 Y76.011 E0.01166
G1 X69.524 Y76.013 E0.08035
G1 X69.300 Y75.982 E0.00710
G1 X69.115 Y75.898 E0.00635
G1 X68.962 Y75.766 E0.00635
G1 X68.858 Y75.605 E0.00602
G1 X68.790 Y75.350 E0.00825
G1 X68.787 Y72.524 E0.08862
G1 X68.815 Y72.310 E0.00677
G1 X68.877 Y72.160 E0.00509
G1 X69.027 Y71.970 E0.00758
G1 X69.242 Y71.838 E0.00791
G1 X69.524 Y71.787 E0.00900
G1 X110.551 Y71.791 E1.28635
G1 X110.795 Y71.855 E0.00791
G1 X110.934 Y71.937 E0.00509
G1 X111.063 Y72.066 E0.00569
G1 X111.145 Y72.205 E0.00509
G1 X111.210 Y72.450 E0.00792
G1 X111.213 Y75.266 E0.08829
G1 X111.193 Y75.451 E0.00585
G1 X111.142 Y75.605 E0.00508
G1 X111.038 Y75.766 E0.00602
G1 X110.885 Y75.898 E0.00635
G1 X110.795 Y75.947 E0.00318
G1 X110.601 Y76.004 E0.00634
G1 X107.913 Y76.011 E0.08428
G1 X107.803 Y75.719 E0.00978
M204 S1250
G1 X107.521 Y76.040 F9000.000
M204 S800
G1 F1200.000
G1 X93.485 Y76.040 E0.44009
G1 X93.094 Y76.082 E0.01235
G1 X92.706 Y76.211 E0.01281
G1 X92.355 Y76.420 E0.01281
G1 X92.058 Y76.696 E0.01269
G1 X91.893 Y76.917 E0.00867
G1 X91.762 Y77.156 E0.00855
G1 X91.667 Y77.412 E0.00855
G1 X91.608 Y77.683 E0.00869
G1 X91.594 Y78.183 E0.01571
G1 X91.633 Y78.456 E0.00864
G1 X91.710 Y78.718 E0.00855
G1 X91.823 Y78.966 E0.00855
G1 X91.973 Y79.199 E0.00868
G1 X92.253 Y79.498 E0.01287
G1 X92.467 Y79.657 E0.00836
G1 X92.706 Y79.788 E0.00854
G1 X92.962 Y79.883 E0.00855
G1 X93.228 Y79.941 E0.00855
G1 X93.489 Y79.960 E0.00820
G1 X107.509 Y79.960 E0.43961
G1 X107.677 Y79.825 E0.00675
G1 X107.744 Y79.810 E0.00215
G1 X110.489 Y79.810 E0.08607
G1 X110.651 Y79.822 E0.00510
G1 X110.884 Y79.881 E0.00753
G1 X111.150 Y80.026 E0.00949
G1 X111.326 Y80.190 E0.00753
G1 X111.489 Y80.444 E0.00949
G1 X111.564 Y80.668 E0.00741
G1 X111.590 Y80.915 E0.00776
G1 X111.590 Y83.489 E0.08071
G1 X111.578 Y83.651 E0.00510
G1 X111.519 Y83.884 E0.00753
G1 X111.458 Y84.019 E0.00464
G1 X111.323 Y84.213 E0.00742
G1 X111.150 Y84.374 E0.00742
G1 X111.025 Y84.454 E0.00464
G1 X110.807 Y84.545 E0.00742
G1 X110.574 Y84.587 E0.00742
G1 X93.485 Y84.590 E0.53581
G1 X93.094 Y84.632 E0.01234
G1 X92.706 Y84.761 E0.01281
G1 X92.358 Y84.968 E0.01269
G1 X92.149 Y85.149 E0.00867
G1 X91.970 Y85.355 E0.00855
G1 X91.823 Y85.584 E0.00855
G1 X91.708 Y85.836 E0.00867
G1 X91.609 Y86.224 E0.01257
G1 X91.590 Y86.489 E0.00832
G1 X91.590 Y93.515 E0.22030
G1 X91.632 Y93.906 E0.01234
G1 X91.761 Y94.294 E0.01281
G1 X91.968 Y94.642 E0.01269
G1 X92.151 Y94.854 E0.00878
G1 X92.464 Y95.106 E0.01257
G1 X92.706 Y95.238 E0.00867
G1 X92.965 Y95.335 E0.00867
G1 X93.360 Y95.406 E0.01257
G1 X110.489 Y95.410 E0.53707
G1 X110.807 Y95.455 E0.01007
G1 X111.089 Y95.584 E0.00972
G1 X111.323 Y95.787 E0.00972
G1 X111.491 Y96.047 E0.00972
G1 X111.578 Y96.345 E0.00972
G1 X111.587 Y99.174 E0.08870
G1 X111.544 Y99.410 E0.00754
G1 X111.418 Y99.686 E0.00949
G1 X111.267 Y99.873 E0.00753
G1 X111.022 Y100.056 E0.00960
G1 X110.735 Y100.163 E0.00960
G1 X110.485 Y100.190 E0.00788
G1 X107.744 Y100.190 E0.08595
G1 X107.677 Y100.175 E0.00215
G1 X107.509 Y100.040 E0.00675
G1 X93.489 Y100.040 E0.43961
G1 X93.228 Y100.059 E0.00821
G1 X92.949 Y100.121 E0.00896
G1 X92.584 Y100.273 E0.01239
G1 X92.251 Y100.503 E0.01269
G1 X92.056 Y100.699 E0.00868
G1 X91.885 Y100.929 E0.00896
G1 X91.709 Y101.282 E0.01239
G1 X91.608 Y101.677 E0.01276
G1 X91.589 Y102.060 E0.01203
G1 X91.632 Y102.456 E0.01251
G1 X91.761 Y102.844 E0.01281
G1 X91.968 Y103.192 E0.01269
G1 X92.151 Y103.404 E0.00878
G1 X92.464 Y103.656 E0.01257
G1 X92.707 Y103.788 E0.00868
G1 X92.975 Y103.887 E0.00896
G1 X93.360 Y103.956 E0.01227
G1 X107.521 Y103.960 E0.44401
G1 X107.629 Y103.675 E0.00956
G1 X107.653 Y103.640 E0.00132
G1 X107.711 Y103.612 E0.00203
G1 X110.489 Y103.610 E0.08710
G1 X110.807 Y103.655 E0.01006
G1 X111.089 Y103.784 E0.00972
G1 X111.323 Y103.987 E0.00972
G1 X111.489 Y104.244 E0.00960
G1 X111.565 Y104.472 E0.00753
G1 X111.587 Y104.622 E0.00476
G1 X111.578 Y107.655 E0.09509
G1 X111.546 Y107.803 E0.00475
G1 X111.455 Y108.022 E0.00742
G1 X111.321 Y108.216 E0.00742
G1 X111.216 Y108.321 E0.00464
G1 X111.019 Y108.458 E0.00753
G1 X110.884 Y108.519 E0.00464
G1 X110.651 Y108.578 E0.00753
G1 X110.489 Y108.590 E0.00510
G1 X69.515 Y108.590 E1.28472
G1 X69.268 Y108.564 E0.00776
G1 X69.048 Y108.490 E0.00729
G1 X68.848 Y108.372 E0.00730
G1 X68.677 Y108.213 E0.00730
G1 X68.542 Y108.019 E0.00742
G1 X68.479 Y107.881 E0.00475
G1 X68.413 Y107.578 E0.00973
G1 X68.422 Y104.545 E0.09509
G1 X68.509 Y104.247 E0.00972
G1 X68.677 Y103.987 E0.00972
G1 X68.911 Y103.784 E0.00972
G1 X69.193 Y103.655 E0.00972
G1 X69.511 Y103.610 E0.01006
G1 X72.289 Y103.612 E0.08710
G1 X72.347 Y103.640 E0.00203
G1 X72.371 Y103.675 E0.00132
G1 X72.479 Y103.960 E0.00956
G1 X86.640 Y103.956 E0.44402
G1 X87.035 Y103.885 E0.01257
G1 X87.297 Y103.787 E0.00878
G1 X87.642 Y103.582 E0.01257
G1 X87.854 Y103.399 E0.00878
G1 X88.106 Y103.086 E0.01257
G1 X88.240 Y102.840 E0.00878
G1 X88.368 Y102.456 E0.01269
G1 X88.411 Y102.060 E0.01251
G1 X88.392 Y101.677 E0.01203
G1 X88.291 Y101.282 E0.01277
G1 X88.110 Y100.920 E0.01269
G1 X87.942 Y100.696 E0.00878
G1 X87.648 Y100.422 E0.01257
G1 X87.413 Y100.271 E0.00878
G1 X87.042 Y100.118 E0.01257
G1 X86.772 Y100.059 E0.00866
G1 X86.511 Y100.040 E0.00820
G1 X72.491 Y100.040 E0.43961
G1 X72.323 Y100.175 E0.00675
G1 X72.256 Y100.190 E0.00215
G1 X69.515 Y100.190 E0.08595
G1 X69.265 Y100.163 E0.00788
G1 X68.978 Y100.056 E0.00960
G1 X68.733 Y99.873 E0.00960
G1 X68.582 Y99.686 E0.00753
G1 X68.456 Y99.410 E0.00949
G1 X68.413 Y99.174 E0.00754
G1 X68.422 Y96.345 E0.08870
G1 X68.509 Y96.047 E0.00972
G1 X68.677 Y95.787 E0.00972
G1 X68.911 Y95.584 E0.00972
G1 X69.193 Y95.455 E0.00972
G1 X69.511 Y95.410 E0.01007
G1 X86.640 Y95.406 E0.53707
G1 X87.035 Y95.335 E0.01257
G1 X87.294 Y95.238 E0.00867
G1 X87.536 Y95.106 E0.00867
G1 X87.852 Y94.852 E0.01269
G1 X88.106 Y94.536 E0.01269
G1 X88.240 Y94.290 E0.00878
G1 X88.368 Y93.906 E0.01269
G1 X88.410 Y93.515 E0.01235
G1 X88.410 Y86.489 E0.22030
G1 X88.391 Y86.224 E0.00832
G1 X88.292 Y85.836 E0.01257
G1 X88.177 Y85.584 E0.00867
G1 X88.030 Y85.355 E0.00855
G1 X87.851 Y85.149 E0.00855
G1 X87.642 Y84.968 E0.00867
G1 X87.294 Y84.761 E0.01269
G1 X86.906 Y84.632 E0.01281
G1 X86.515 Y84.590 E0.01234
G1 X69.426 Y84.587 E0.53581
G1 X69.193 Y84.545 E0.00742
G1 X68.975 Y84.454 E0.00742
G1 X68.850 Y84.374 E0.00464
G1 X68.677 Y84.213 E0.00742
G1 X68.542 Y84.019 E0.00742
G1 X68.481 Y83.884 E0.00464
G1 X68.422 Y83.651 E0.00753
G1 X68.410 Y83.489 E0.00510
G1 X68.410 Y80.915 E0.08071
G1 X68.436 Y80.668 E0.00776
G1 X68.511 Y80.444 E0.00741
G1 X68.674 Y80.190 E0.00949
G1 X68.850 Y80.026 E0.00753
G1 X69.116 Y79.881 E0.00949
G1 X69.349 Y79.822 E0.00753
G1 X69.511 Y79.810 E0.00510
G1 X72.256 Y79.810 E0.08607
G1 X72.323 Y79.825 E0.00215
G1 X72.491 Y79.960 E0.00675
G1 X86.511 Y79.960 E0.43961
G1 X86.772 Y79.941 E0.00820
G1 X87.038 Y79.883 E0.00855
G1 X87.297 Y79.787 E0.00867
G1 X87.642 Y79.582 E0.01257
G1 X87.851 Y79.401 E0.00867
G1 X88.030 Y79.195 E0.00855
G1 X88.177 Y78.966 E0.00855
G1 X88.290 Y78.718 E0.00855
G1 X88.367 Y78.456 E0.00855
G1 X88.406 Y78.183 E0.00864
G1 X88.392 Y77.683 E0.01571
G1 X88.333 Y77.412 E0.00869
G1 X88.238 Y77.156 E0.00855
G1 X88.107 Y76.917 E0.00855
G1 X87.942 Y76.696 E0.00867
G1 X87.645 Y76.420 E0.01269
G1 X87.294 Y76.211 E0.01281
G1 X86.906 Y76.082 E0.01281
G1 X86.515 Y76.040 E0.01235
G1 X72.479 Y76.040 E0.44009
G1 X72.371 Y76.325 E0.00956
G1 X72.347 Y76.360 E0.00132
G1 X72.289 Y76.388 E0.00203
