; generated by PrusaSlicer 2.3.0+win64 on 2021-04-05 at 08:17:45 UTC


;
;

;
;
; 

; external perimeters extrusion width = 0.45mm
; perimeters extrusion width = 0.45mm
; infill extrusion width = 0.45mm
; solid infill extrusion width = 0.45mm
; top infill extrusion width = 0.40mm
; first layer extrusion width = 0.42mm

M73 P0 R3
M201 X1250 Y1250 Z400 E5000 ; sets maximum accelerations, mm/sec^2
M203 X180 Y180 Z12 E80 ; sets maximum feedrates, mm/sec
M204 P1250 R1250 T1250 ; sets acceleration (P, T) and retract acceleration (R), mm/sec^2
M205 X8.00 Y8.00 Z2.00 E10.00 ; sets the jerk limits, mm/sec
M205 S0 T0 ; sets the minimum extruding and travel feed rate, mm/sec
M107
;TYPE:Custom
G90 ; use absolute coordinates
M83 ; extruder relative mode
M104 S170 ; set extruder temp for bed leveling
M140 S60 ; set bed temp
M109 R170 ; wait for bed leveling temp
M190 S60 ; wait for bed temp
G28 ; home all without mesh bed level
G29 ; mesh bed leveling 
M104 S215 ; set extruder temp
G92 E0.0
G1 Y-2.0 X179 F2400
M73 P2 R3
G1 Z3 F720
M109 S215 ; wait for extruder temp

; intro line
G1 X170 F1000
M73 P3 R3
G1 Z0.2 F720
G1 X110.0 E8.0 F900
M73 P5 R3
G1 X40.0 E10.0 F700
G92 E0.0

M221 S95 ; set flow
G21 ; set units to millimeters
G90 ; use absolute coordinates
M83 ; use relative distances for extrusion
M900 K0.2 ; Filament gcode LA 1.5
; ; Filament gcode LA 1.0
;LAYER_CHANGE
;Z:0.2
;HEIGHT:0.2
;BEFORE_LAYER_CHANGE
G92 E0.0
;0.2


M73 P8 R3
G1 E-3.20000 F4200.000
G1 Z0.200 F9000.000
;AFTER_LAYER_CHANGE
;0.2
G1 Z0.400
G1 X77.392 Y53.863
M73 P9 R3
G1 Z0.200
G1 E3.20000 F2400.000
M204 S800
;TYPE:Skirt
;WIDTH:0.42
G1 F1200.000
G1 X78.077 Y52.999 E0.03457
G1 X78.745 Y52.360 E0.02896
G1 X79.641 Y51.713 E0.03469
G1 X80.449 Y51.284 E0.02867
G1 X81.471 Y50.908 E0.03415
G1 X82.383 Y50.708 E0.02926
G1 X83.453 Y50.623 E0.03367
G1 X96.504 Y50.623 E0.40919
G1 X97.901 Y50.757 E0.04401
G1 X99.092 Y51.093 E0.03880
G1 X100.354 Y51.709 E0.04403
M73 P10 R3
G1 X101.479 Y52.557 E0.04415
G1 X102.318 Y53.465 E0.03880
G1 X103.073 Y54.650 E0.04403
G1 X103.589 Y55.960 E0.04415
G1 X103.831 Y57.177 E0.03891
G1 X103.877 Y122.004 E2.03259
M73 P12 R3
G1 X103.742 Y123.405 E0.04412
G1 X103.503 Y124.318 E0.02962
G1 X103.075 Y125.345 E0.03487
G1 X102.608 Y126.137 E0.02884
G1 X101.918 Y127.007 E0.03481
G1 X101.104 Y127.764 E0.03486
G1 X100.352 Y128.291 E0.02878
G1 X99.363 Y128.799 E0.03487
G1 X98.478 Y129.107 E0.02938
G1 X97.413 Y129.320 E0.03403
G1 X96.520 Y129.377 E0.02807
G1 X83.477 Y129.377 E0.40895
G1 X82.095 Y129.242 E0.04353
G1 X80.951 Y128.923 E0.03725
G1 X79.896 Y128.437 E0.03641
G1 X78.928 Y127.789 E0.03653
G1 X78.055 Y126.977 E0.03737
G1 X77.235 Y125.894 E0.04261
G1 X76.700 Y124.859 E0.03653
M73 P13 R3
G1 X76.329 Y123.731 E0.03725
G1 X76.146 Y122.584 E0.03642
G1 X76.123 Y57.996 E2.02509
M73 P14 R2
G1 X76.258 Y56.595 E0.04412
G1 X76.497 Y55.682 E0.02962
G1 X76.925 Y54.655 E0.03487
M73 P15 R2
G1 X77.362 Y53.915 E0.02696
M204 S1250
; printing object pickup_surround_v3.stl id:0 copy 0
G1 E-2.24000 F4200.000
;WIPE_START
G1 F7200.000
G1 X78.077 Y52.999 E-0.64395
G1 X78.427 Y52.664 E-0.26805
;WIPE_END
G1 E-0.04800 F4200.000
G1 Z0.400 F9000.000
G1 X81.451 Y57.138
G1 Z0.200
G1 E3.20000 F2400.000
M204 S800
;TYPE:Perimeter
G1 F1200.000
G1 X81.568 Y56.989 E0.00595
G1 X82.058 Y56.479 E0.02217
G1 X82.441 Y56.152 E0.01577
G1 X83.021 Y55.748 E0.02217
G1 X83.451 Y55.507 E0.01548
G1 X83.891 Y55.304 E0.01518
G1 X84.354 Y55.134 E0.01547
G1 X85.038 Y54.955 E0.02217
G1 X85.535 Y54.876 E0.01577
G1 X86.220 Y54.836 E0.02152
G1 X93.992 Y54.840 E0.24370
G1 X94.475 Y54.878 E0.01517
G1 X94.953 Y54.954 E0.01518
G1 X95.423 Y55.067 E0.01518
G1 X95.884 Y55.216 E0.01518
G1 X96.329 Y55.401 E0.01512
G1 X96.705 Y55.590 E0.01318
G1 X97.363 Y56.004 E0.02440
G1 X97.754 Y56.312 E0.01560
G1 X98.116 Y56.647 E0.01547
G1 X98.592 Y57.183 E0.02247
G1 X99.002 Y57.771 E0.02246
G1 X99.243 Y58.201 E0.01547
G1 X99.446 Y58.641 E0.01518
G1 X99.613 Y59.095 E0.01518
G1 X99.747 Y59.570 E0.01547
G1 X99.873 Y60.275 E0.02246
G1 X99.914 Y60.970 E0.02181
G1 X99.914 Y119.021 E1.82016
M73 P17 R2
G1 X99.896 Y119.484 E0.01452
G1 X99.839 Y119.964 E0.01518
G1 X99.745 Y120.439 E0.01518
G1 X99.613 Y120.905 E0.01518
G1 X99.446 Y121.359 E0.01518
G1 X99.243 Y121.799 E0.01518
G1 X99.002 Y122.229 E0.01547
G1 X98.598 Y122.809 E0.02217
G1 X98.277 Y123.185 E0.01548
G1 X97.935 Y123.527 E0.01518
G1 X97.559 Y123.848 E0.01548
G1 X96.979 Y124.252 E0.02217
G1 X96.549 Y124.493 E0.01547
G1 X96.109 Y124.696 E0.01518
G1 X95.655 Y124.863 E0.01518
G1 X95.180 Y124.997 E0.01548
G1 X94.475 Y125.123 E0.02246
G1 X93.780 Y125.164 E0.02182
G1 X85.998 Y125.160 E0.24400
M73 P18 R2
G1 X85.295 Y125.091 E0.02216
G1 X84.811 Y124.995 E0.01548
G1 X84.345 Y124.863 E0.01518
G1 X83.891 Y124.696 E0.01518
G1 X83.443 Y124.489 E0.01547
G1 X82.833 Y124.132 E0.02217
G1 X82.433 Y123.841 E0.01548
G1 X82.058 Y123.521 E0.01548
G1 X81.568 Y123.011 E0.02217
G1 X81.262 Y122.624 E0.01547
G1 X80.994 Y122.221 E0.01518
G1 X80.757 Y121.799 E0.01518
G1 X80.554 Y121.359 E0.01518
G1 X80.387 Y120.905 E0.01518
G1 X80.253 Y120.430 E0.01547
G1 X80.127 Y119.725 E0.02246
G1 X80.086 Y119.030 E0.02181
G1 X80.086 Y60.979 E1.82016
M73 P20 R2
G1 X80.104 Y60.507 E0.01482
G1 X80.201 Y59.807 E0.02217
G1 X80.317 Y59.327 E0.01547
G1 X80.468 Y58.859 E0.01540
G1 X80.719 Y58.278 E0.01986
G1 X80.991 Y57.782 E0.01772
G1 X81.262 Y57.376 E0.01531
G1 X81.413 Y57.185 E0.00764
M204 S1250
G1 X81.853 Y57.237 F9000.000
M204 S800
G1 F1200.000
G1 X82.317 Y56.754 E0.02101
G1 X82.671 Y56.451 E0.01461
G1 X83.221 Y56.068 E0.02101
G1 X83.623 Y55.843 E0.01443
G1 X84.035 Y55.653 E0.01425
G1 X84.467 Y55.494 E0.01443
G1 X85.115 Y55.325 E0.02101
G1 X85.575 Y55.252 E0.01461
G1 X86.231 Y55.213 E0.02059
G1 X93.977 Y55.217 E0.24289
G1 X94.430 Y55.253 E0.01424
G1 X94.879 Y55.324 E0.01425
G1 X95.321 Y55.430 E0.01425
G1 X95.753 Y55.570 E0.01425
G1 X96.172 Y55.744 E0.01421
G1 X96.519 Y55.919 E0.01218
G1 X97.145 Y56.313 E0.02321
G1 X97.509 Y56.599 E0.01450
G1 X97.847 Y56.911 E0.01443
G1 X98.296 Y57.417 E0.02119
G1 X98.682 Y57.971 E0.02119
G1 X98.907 Y58.372 E0.01443
G1 X99.097 Y58.785 E0.01425
G1 X99.254 Y59.212 E0.01425
G1 X99.379 Y59.654 E0.01443
G1 X99.498 Y60.320 E0.02119
G1 X99.537 Y60.981 E0.02076
G1 X99.537 Y119.014 E1.81958
M73 P22 R2
G1 X99.520 Y119.454 E0.01383
G1 X99.466 Y119.905 E0.01425
G1 X99.378 Y120.351 E0.01425
G1 X99.254 Y120.788 E0.01425
G1 X99.097 Y121.215 E0.01425
G1 X98.907 Y121.628 E0.01425
G1 X98.682 Y122.029 E0.01443
G1 X98.299 Y122.579 E0.02101
G1 X98.000 Y122.929 E0.01443
G1 X97.679 Y123.250 E0.01425
G1 X97.329 Y123.549 E0.01443
G1 X96.779 Y123.932 E0.02101
G1 X96.377 Y124.157 E0.01443
G1 X95.965 Y124.347 E0.01425
G1 X95.538 Y124.504 E0.01425
G1 X95.096 Y124.629 E0.01443
G1 X94.430 Y124.748 E0.02119
G1 X93.769 Y124.787 E0.02077
G1 X86.017 Y124.783 E0.24307
G1 X85.350 Y124.717 E0.02100
G1 X84.899 Y124.628 E0.01443
G1 X84.462 Y124.504 E0.01425
G1 X84.035 Y124.347 E0.01425
G1 X83.617 Y124.154 E0.01443
G1 X83.039 Y123.816 E0.02101
G1 X82.667 Y123.545 E0.01443
G1 X82.317 Y123.246 E0.01443
M73 P23 R2
G1 X81.853 Y122.763 E0.02101
G1 X81.568 Y122.402 E0.01443
G1 X81.315 Y122.024 E0.01425
G1 X81.093 Y121.628 E0.01425
G1 X80.903 Y121.215 E0.01425
G1 X80.746 Y120.788 E0.01425
G1 X80.621 Y120.346 E0.01443
G1 X80.502 Y119.680 E0.02119
G1 X80.463 Y119.019 E0.02076
G1 X80.463 Y60.986 E1.81958
M73 P24 R2
G1 X80.481 Y60.540 E0.01401
G1 X80.572 Y59.877 E0.02100
G1 X80.680 Y59.429 E0.01443
G1 X80.821 Y58.993 E0.01438
G1 X81.058 Y58.444 E0.01875
G1 X81.314 Y57.978 E0.01665
G1 X81.568 Y57.598 E0.01433
G1 X81.816 Y57.284 E0.01255
M204 S1250
G1 X82.112 Y57.517 F9000.000
M204 S800
;TYPE:External perimeter
G1 F1200.000
G1 X82.576 Y57.029 E0.02114
G1 X82.902 Y56.750 E0.01345
G1 X83.421 Y56.388 E0.01984
G1 X83.794 Y56.179 E0.01338
G1 X84.180 Y56.002 E0.01332
M73 P25 R2
G1 X84.580 Y55.854 E0.01338
G1 X85.192 Y55.694 E0.01984
G1 X85.616 Y55.627 E0.01345
G1 X86.242 Y55.590 E0.01965
G1 X93.962 Y55.594 E0.24207
G1 X94.386 Y55.627 E0.01332
G1 X94.805 Y55.694 E0.01332
G1 X95.219 Y55.793 E0.01332
G1 X95.623 Y55.924 E0.01332
G1 X96.015 Y56.087 E0.01331
G1 X96.333 Y56.247 E0.01118
G1 X96.928 Y56.621 E0.02203
G1 X97.264 Y56.886 E0.01341
G1 X97.577 Y57.176 E0.01338
G1 X97.999 Y57.650 E0.01991
G1 X98.362 Y58.171 E0.01991
G1 X98.571 Y58.544 E0.01338
G1 X98.748 Y58.930 E0.01332
G1 X98.895 Y59.328 E0.01332
G1 X99.011 Y59.739 E0.01338
G1 X99.123 Y60.364 E0.01991
G1 X99.160 Y60.992 E0.01972
G1 X99.160 Y119.006 E1.81900
M73 P27 R2
G1 X99.144 Y119.424 E0.01313
G1 X99.094 Y119.846 E0.01332
G1 X99.011 Y120.263 E0.01332
G1 X98.895 Y120.672 E0.01332
G1 X98.748 Y121.070 E0.01332
G1 X98.571 Y121.456 E0.01332
G1 X98.362 Y121.829 E0.01338
G1 X98.000 Y122.348 E0.01984
G1 X97.723 Y122.672 E0.01338
G1 X97.422 Y122.973 E0.01332
G1 X97.098 Y123.250 E0.01338
G1 X96.579 Y123.612 E0.01984
G1 X96.206 Y123.821 E0.01338
G1 X95.820 Y123.998 E0.01332
G1 X95.422 Y124.145 E0.01332
G1 X95.011 Y124.261 E0.01338
G1 X94.386 Y124.373 E0.01991
G1 X93.758 Y124.410 E0.01972
G1 X86.035 Y124.406 E0.24214
G1 X85.406 Y124.344 E0.01984
G1 X84.987 Y124.261 E0.01338
G1 X84.578 Y124.145 E0.01332
G1 X84.180 Y123.998 E0.01332
G1 X83.792 Y123.820 E0.01338
G1 X83.246 Y123.500 E0.01984
G1 X82.901 Y123.249 E0.01338
G1 X82.576 Y122.971 E0.01338
G1 X82.137 Y122.515 E0.01984
G1 X81.873 Y122.180 E0.01338
G1 X81.637 Y121.827 E0.01332
G1 X81.429 Y121.456 E0.01332
G1 X81.252 Y121.070 E0.01332
G1 X81.105 Y120.672 E0.01332
G1 X80.989 Y120.261 E0.01338
G1 X80.877 Y119.636 E0.01991
G1 X80.840 Y119.008 E0.01972
G1 X80.840 Y60.994 E1.81900
M73 P29 R2
G1 X80.857 Y60.573 E0.01319
G1 X80.943 Y59.947 E0.01984
G1 X81.043 Y59.531 E0.01338
G1 X81.175 Y59.126 E0.01337
G1 X81.398 Y58.609 E0.01764
G1 X81.637 Y58.174 E0.01557
G1 X81.873 Y57.820 E0.01335
G1 X82.075 Y57.564 E0.01020
M204 S1250
G1 X81.981 Y57.139 F9000.000
G1 E-2.24000 F4200.000
;WIPE_START
G1 F7200.000
G1 X82.576 Y57.029 E-0.40673
G1 X82.902 Y56.750 E-0.23770
G1 X83.298 Y56.474 E-0.26757
;WIPE_END
G1 E-0.04800 F4200.000
G1 Z0.400 F9000.000
G1 X79.847 Y56.841
G1 Z0.200
G1 E3.20000 F2400.000
M204 S800
;TYPE:Perimeter
G1 F1200.000
G1 X80.017 Y56.394 E0.01498
G1 X80.154 Y56.126 E0.00944
G1 X80.483 Y55.633 E0.01857
G1 X80.789 Y55.289 E0.01445
G1 X81.133 Y54.983 E0.01445
G1 X81.626 Y54.654 E0.01857
G1 X82.173 Y54.402 E0.01887
G1 X82.743 Y54.241 E0.01857
G1 X83.209 Y54.176 E0.01475
M73 P30 R2
G1 X83.521 Y54.164 E0.00980
G1 X96.593 Y54.167 E0.40987
G1 X96.955 Y54.192 E0.01137
G1 X97.239 Y54.237 E0.00902
G1 X97.694 Y54.356 E0.01475
G1 X98.241 Y54.583 E0.01857
G1 X98.496 Y54.725 E0.00914
G1 X98.881 Y54.994 E0.01475
G1 X99.096 Y55.178 E0.00885
G1 X99.422 Y55.517 E0.01475
G1 X99.597 Y55.738 E0.00885
G1 X99.850 Y56.135 E0.01475
G1 X100.094 Y56.664 E0.01827
G1 X100.231 Y57.114 E0.01475
G1 X100.323 Y57.699 E0.01857
G1 X100.336 Y58.021 E0.01010
G1 X100.324 Y122.291 E2.01516
M73 P32 R2
G1 X100.259 Y122.757 E0.01475
G1 X100.098 Y123.327 E0.01857
G1 X99.846 Y123.874 E0.01887
G1 X99.517 Y124.367 E0.01857
G1 X99.211 Y124.711 E0.01445
G1 X98.867 Y125.017 E0.01445
G1 X98.631 Y125.189 E0.00914
G1 X98.106 Y125.483 E0.01887
G1 X97.541 Y125.691 E0.01887
G1 X97.257 Y125.759 E0.00914
G1 X96.791 Y125.824 E0.01475
G1 X96.479 Y125.836 E0.00980
G1 X83.521 Y125.836 E0.40630
G1 X83.209 Y125.824 E0.00980
G1 X82.743 Y125.759 E0.01475
G1 X82.173 Y125.598 E0.01857
G1 X81.903 Y125.486 E0.00914
G1 X81.488 Y125.265 E0.01475
G1 X81.009 Y124.916 E0.01857
M73 P33 R2
G1 X80.788 Y124.712 E0.00944
G1 X80.590 Y124.498 E0.00914
G1 X80.306 Y124.123 E0.01475
G1 X80.154 Y123.874 E0.00914
G1 X79.902 Y123.327 E0.01887
G1 X79.809 Y123.041 E0.00944
G1 X79.692 Y122.451 E0.01887
G1 X79.668 Y122.151 E0.00944
G1 X79.664 Y58.021 E2.01074
M73 P34 R2
G1 X79.676 Y57.709 E0.00980
G1 X79.741 Y57.243 E0.01475
G1 X79.829 Y56.898 E0.01115
M204 S1250
G1 E-2.24000 F4200.000
;WIPE_START
G1 F7200.000
G1 X80.017 Y56.394 E-0.29790
M73 P35 R2
G1 X80.154 Y56.126 E-0.16688
G1 X80.483 Y55.633 E-0.32824
G1 X80.625 Y55.473 E-0.11898
;WIPE_END
G1 E-0.04800 F4200.000
G1 Z0.400 F9000.000
G1 X80.522 Y55.022
G1 Z0.200
G1 E3.20000 F2400.000
M204 S800
G1 F1200.000
G1 X80.897 Y54.689 E0.01573
G1 X81.160 Y54.497 E0.01019
G1 X81.442 Y54.325 E0.01037
G1 X81.736 Y54.175 E0.01037
G1 X82.042 Y54.048 E0.01037
G1 X82.357 Y53.946 E0.01037
G1 X82.673 Y53.870 E0.01019
G1 X83.175 Y53.800 E0.01591
G1 X83.513 Y53.787 E0.01061
G1 X96.606 Y53.790 E0.41052
G1 X96.998 Y53.817 E0.01230
G1 X97.316 Y53.868 E0.01011
G1 X97.807 Y53.996 E0.01591
G1 X98.112 Y54.108 E0.01019
G1 X98.412 Y54.247 E0.01037
G1 X98.696 Y54.405 E0.01019
G1 X99.112 Y54.696 E0.01591
G1 X99.355 Y54.903 E0.01001
G1 X99.707 Y55.269 E0.01591
G1 X99.904 Y55.519 E0.01001
G1 X100.178 Y55.947 E0.01591
G1 X100.325 Y56.236 E0.01019
G1 X100.450 Y56.537 E0.01019
G1 X100.597 Y57.022 E0.01591
G1 X100.661 Y57.341 E0.01019
G1 X100.699 Y57.669 E0.01037
G1 X100.713 Y58.013 E0.01079
G1 X100.713 Y121.987 E2.00583
M73 P37 R2
G1 X100.700 Y122.325 E0.01061
G1 X100.630 Y122.827 E0.01591
G1 X100.554 Y123.143 E0.01019
G1 X100.452 Y123.458 E0.01037
G1 X100.325 Y123.764 E0.01037
G1 X100.175 Y124.058 E0.01037
G1 X100.003 Y124.340 E0.01037
G1 X99.811 Y124.603 E0.01019
G1 X99.478 Y124.978 E0.01573
G1 X99.103 Y125.311 E0.01573
G1 X98.840 Y125.503 E0.01019
G1 X98.558 Y125.675 E0.01037
G1 X98.264 Y125.825 E0.01037
G1 X97.958 Y125.952 E0.01037
G1 X97.643 Y126.054 E0.01037
G1 X97.327 Y126.130 E0.01019
G1 X96.825 Y126.200 E0.01591
G1 X96.487 Y126.213 E0.01061
G1 X83.513 Y126.213 E0.40676
M73 P38 R2
G1 X83.175 Y126.200 E0.01061
G1 X82.673 Y126.130 E0.01591
G1 X82.357 Y126.054 E0.01019
G1 X82.042 Y125.952 E0.01037
G1 X81.742 Y125.828 E0.01019
G1 X81.294 Y125.588 E0.01591
G1 X81.024 Y125.408 E0.01019
G1 X80.764 Y125.203 E0.01037
G1 X80.521 Y124.979 E0.01037
G1 X80.301 Y124.740 E0.01019
G1 X79.994 Y124.335 E0.01591
G1 X79.825 Y124.058 E0.01019
G1 X79.675 Y123.764 E0.01037
G1 X79.548 Y123.458 E0.01037
G1 X79.446 Y123.143 E0.01037
G1 X79.369 Y122.822 E0.01037
G1 X79.317 Y122.495 E0.01037
G1 X79.291 Y122.165 E0.01037
G1 X79.287 Y58.013 E2.01144
M73 P40 R2
G1 X79.300 Y57.675 E0.01061
G1 X79.370 Y57.173 E0.01591
G1 X79.446 Y56.857 E0.01019
G1 X79.548 Y56.542 E0.01037
G1 X79.675 Y56.236 E0.01037
G1 X79.825 Y55.942 E0.01037
G1 X79.997 Y55.660 E0.01037
G1 X80.189 Y55.397 E0.01019
G1 X80.482 Y55.067 E0.01385
M204 S1250
G1 X80.200 Y54.816 F9000.000
M204 S800
;TYPE:External perimeter
G1 F1200.000
G1 X80.660 Y54.394 E0.01957
G1 X80.950 Y54.184 E0.01123
G1 X81.257 Y53.995 E0.01130
G1 X81.578 Y53.832 E0.01130
G1 X81.911 Y53.694 E0.01130
G1 X82.254 Y53.583 E0.01130
G1 X82.603 Y53.499 E0.01123
G1 X83.142 Y53.424 E0.01707
G1 X83.506 Y53.410 E0.01143
G1 X96.620 Y53.413 E0.41116
G1 X97.040 Y53.442 E0.01323
G1 X97.393 Y53.498 E0.01121
G1 X97.920 Y53.636 E0.01707
G1 X98.256 Y53.760 E0.01124
G1 X98.584 Y53.910 E0.01130
G1 X98.896 Y54.086 E0.01123
G1 X99.343 Y54.397 E0.01707
G1 X99.614 Y54.628 E0.01117
G1 X99.991 Y55.021 E0.01707
G1 X100.212 Y55.301 E0.01117
G1 X100.506 Y55.759 E0.01707
G1 X100.668 Y56.078 E0.01124
G1 X100.805 Y56.409 E0.01123
G1 X100.963 Y56.931 E0.01707
G1 X101.033 Y57.282 E0.01123
G1 X101.076 Y57.640 E0.01130
G1 X101.090 Y58.006 E0.01149
G1 X101.090 Y121.994 E2.00629
M73 P42 R2
G1 X101.076 Y122.358 E0.01143
G1 X101.001 Y122.897 E0.01707
G1 X100.917 Y123.246 E0.01123
G1 X100.806 Y123.589 E0.01130
G1 X100.668 Y123.922 E0.01130
G1 X100.505 Y124.243 E0.01130
G1 X100.316 Y124.550 E0.01130
G1 X100.106 Y124.840 E0.01124
G1 X99.745 Y125.245 E0.01701
G1 X99.340 Y125.606 E0.01701
G1 X99.050 Y125.816 E0.01123
G1 X98.743 Y126.005 E0.01130
G1 X98.422 Y126.168 E0.01130
G1 X98.089 Y126.306 E0.01130
G1 X97.746 Y126.417 E0.01130
G1 X97.397 Y126.501 E0.01123
G1 X96.858 Y126.576 E0.01707
M73 P43 R2
G1 X96.494 Y126.590 E0.01143
G1 X83.506 Y126.590 E0.40722
G1 X83.142 Y126.576 E0.01143
G1 X82.603 Y126.501 E0.01707
G1 X82.254 Y126.417 E0.01123
G1 X81.911 Y126.306 E0.01130
G1 X81.580 Y126.169 E0.01124
G1 X81.100 Y125.912 E0.01707
G1 X80.802 Y125.713 E0.01124
G1 X80.519 Y125.490 E0.01130
G1 X80.255 Y125.245 E0.01130
