; generated by PrusaSlicer 2.3.0+win64 on 2021-03-25 at 10:22:53 UTC


;
;

;
;
; 

; external perimeters extrusion width = 0.45mm
; perimeters extrusion width = 0.45mm
; infill extrusion width = 0.45mm
; solid infill extrusion width = 0.45mm
; top infill extrusion width = 0.40mm
; first layer extrusion width = 0.42mm

M73 P0 R5
M201 X1250 Y1250 Z400 E5000 ; sets maximum accelerations, mm/sec^2
M203 X180 Y180 Z12 E80 ; sets maximum feedrates, mm/sec
M204 P1250 R1250 T1250 ; sets acceleration (P, T) and retract acceleration (R), mm/sec^2
M205 X8.00 Y8.00 Z2.00 E10.00 ; sets the jerk limits, mm/sec
M205 S0 T0 ; sets the minimum extruding and travel feed rate, mm/sec
M107
;TYPE:Custom
G90 ; use absolute coordinates
M83 ; extruder relative mode
M104 S170 ; set extruder temp for bed leveling
M140 S60 ; set bed temp
M109 R170 ; wait for bed leveling temp
M190 S60 ; wait for bed temp
G28 ; home all without mesh bed level
G29 ; mesh bed leveling 
M104 S215 ; set extruder temp
G92 E0.0
G1 Y-2.0 X179 F2400
M73 P1 R5
G1 Z3 F720
M109 S215 ; wait for extruder temp

; intro line
G1 X170 F1000
G1 Z0.2 F720
G1 X110.0 E8.0 F900
M73 P3 R5
G1 X40.0 E10.0 F700
G92 E0.0

M221 S95 ; set flow
G21 ; set units to millimeters
G90 ; use absolute coordinates
M83 ; use relative distances for extrusion
M900 K0.2 ; Filament gcode LA 1.5
; ; Filament gcode LA 1.0
;LAYER_CHANGE
;Z:0.2
;HEIGHT:0.2
;BEFORE_LAYER_CHANGE
G92 E0.0
;0.2


M73 P4 R5
G1 E-3.20000 F4200.000
M73 P5 R5
G1 Z0.200 F9000.000
;AFTER_LAYER_CHANGE
;0.2
G1 Z0.400
G1 X78.784 Y46.270
G1 Z0.200
G1 E3.20000 F2400.000
M204 S800
;TYPE:Skirt
;WIDTH:0.42
G1 F1200.000
G1 X80.234 Y46.123 E0.04570
G1 X99.754 Y46.123 E0.61204
G1 X101.151 Y46.257 E0.04401
G1 X102.347 Y46.595 E0.03897
G1 X103.610 Y47.213 E0.04409
G1 X104.754 Y48.080 E0.04499
G1 X105.693 Y49.129 E0.04415
G1 X106.341 Y50.188 E0.03891
G1 X106.851 Y51.500 E0.04415
G1 X107.103 Y52.901 E0.04463
G1 X107.127 Y126.508 E2.30788
M73 P6 R5
G1 X107.076 Y127.370 E0.02708
G1 X106.922 Y128.229 E0.02735
G1 X106.580 Y129.287 E0.03487
G1 X106.166 Y130.140 E0.02974
M73 P7 R5
G1 X105.544 Y131.066 E0.03499
G1 X104.789 Y131.888 E0.03499
G1 X104.056 Y132.490 E0.02974
G1 X103.103 Y133.071 E0.03499
G1 X102.070 Y133.502 E0.03510
G1 X101.171 Y133.739 E0.02914
G1 X99.766 Y133.877 E0.04427
G1 X80.242 Y133.877 E0.61216
G1 X79.380 Y133.826 E0.02708
G1 X78.521 Y133.672 E0.02735
G1 X77.424 Y133.314 E0.03618
G1 X76.393 Y132.789 E0.03629
G1 X75.457 Y132.108 E0.03630
G1 X74.636 Y131.286 E0.03641
G1 X73.959 Y130.352 E0.03618
G1 X73.432 Y129.317 E0.03641
G1 X73.075 Y128.216 E0.03629
G1 X72.894 Y127.049 E0.03701
G1 X72.873 Y53.492 E2.30633
M73 P8 R5
G1 X72.924 Y52.630 E0.02708
G1 X73.078 Y51.771 E0.02735
G1 X73.418 Y50.717 E0.03475
G1 X73.817 Y49.890 E0.02878
G1 X74.433 Y48.964 E0.03487
G1 X75.063 Y48.255 E0.02974
G1 X75.913 Y47.532 E0.03499
G1 X76.863 Y46.947 E0.03499
G1 X77.728 Y46.568 E0.02962
G1 X78.726 Y46.286 E0.03251
M204 S1250
; printing object pickup_surround_v1.stl id:0 copy 0
G1 E-2.24000 F4200.000
;WIPE_START
G1 F7200.000
G1 X80.234 Y46.123 E-0.84047
M73 P9 R5
G1 X80.363 Y46.123 E-0.07153
;WIPE_END
G1 E-0.04800 F4200.000
G1 Z0.400 F9000.000
G1 X89.654 Y126.621
G1 Z0.200
G1 E3.20000 F2400.000
M204 S800
;TYPE:External perimeter
G1 F1200.000
G1 X89.960 Y126.590 E0.00964
G1 X90.344 Y126.620 E0.01208
G1 X90.739 Y126.737 E0.01294
G1 X91.098 Y126.936 E0.01284
G1 X91.317 Y127.115 E0.00889
G1 X91.580 Y127.424 E0.01272
G1 X91.721 Y127.670 E0.00889
G1 X91.859 Y128.055 E0.01284
G1 X91.910 Y128.459 E0.01275
G1 X91.895 Y128.745 E0.00897
G1 X91.800 Y129.143 E0.01284
G1 X91.620 Y129.515 E0.01296
G1 X91.364 Y129.839 E0.01296
G1 X91.044 Y130.101 E0.01296
G1 X90.679 Y130.286 E0.01284
G1 X90.407 Y130.367 E0.00888
G1 X90.001 Y130.411 E0.01281
G1 X89.638 Y130.375 E0.01143
G1 X89.323 Y130.287 E0.01027
G1 X88.956 Y130.101 E0.01289
G1 X88.636 Y129.839 E0.01296
G1 X88.380 Y129.515 E0.01296
G1 X88.200 Y129.143 E0.01296
G1 X88.105 Y128.745 E0.01284
G1 X88.090 Y128.466 E0.00877
G1 X88.115 Y128.187 E0.00877
G1 X88.224 Y127.793 E0.01284
G1 X88.418 Y127.427 E0.01296
G1 X88.683 Y127.115 E0.01284
G1 X88.902 Y126.936 E0.00889
G1 X89.261 Y126.737 E0.01284
G1 X89.596 Y126.638 E0.01099
M204 S1250
G1 X89.752 Y126.329 F9000.000
G1 E-2.24000 F4200.000
;WIPE_START
G1 F7200.000
G1 X89.960 Y126.590 E-0.20309
G1 X90.344 Y126.620 E-0.21348
G1 X90.739 Y126.737 E-0.22870
G1 X91.098 Y126.936 E-0.22692
G1 X91.153 Y126.981 E-0.03981
;WIPE_END
G1 E-0.04800 F4200.000
G1 Z0.400 F9000.000
G1 X90.001 Y53.411
G1 Z0.200
G1 E3.20000 F2400.000
M204 S800
G1 F1200.000
G1 X89.638 Y53.375 E0.01143
G1 X89.323 Y53.287 E0.01027
G1 X88.956 Y53.101 E0.01289
G1 X88.636 Y52.839 E0.01296
G1 X88.380 Y52.515 E0.01296
G1 X88.200 Y52.143 E0.01296
G1 X88.105 Y51.745 E0.01284
G1 X88.090 Y51.466 E0.00877
G1 X88.115 Y51.187 E0.00877
G1 X88.224 Y50.793 E0.01284
G1 X88.418 Y50.427 E0.01296
G1 X88.683 Y50.115 E0.01284
G1 X88.902 Y49.936 E0.00889
G1 X89.261 Y49.737 E0.01284
G1 X89.654 Y49.621 E0.01287
G1 X89.960 Y49.590 E0.00964
G1 X90.344 Y49.620 E0.01208
G1 X90.736 Y49.736 E0.01282
G1 X90.988 Y49.865 E0.00889
G1 X91.314 Y50.112 E0.01284
G1 X91.580 Y50.424 E0.01284
G1 X91.721 Y50.670 E0.00889
G1 X91.859 Y51.055 E0.01284
G1 X91.910 Y51.459 E0.01275
G1 X91.895 Y51.745 E0.00897
G1 X91.800 Y52.143 E0.01284
G1 X91.620 Y52.515 E0.01296
G1 X91.364 Y52.839 E0.01296
G1 X91.044 Y53.101 E0.01296
G1 X90.679 Y53.286 E0.01284
G1 X90.407 Y53.367 E0.00888
G1 X90.061 Y53.405 E0.01093
M204 S1250
G1 X89.817 Y53.726 F9000.000
G1 E-2.24000 F4200.000
;WIPE_START
G1 F7200.000
G1 X89.638 Y53.375 E-0.23466
G1 X89.323 Y53.287 E-0.18149
G1 X88.956 Y53.101 E-0.22788
G1 X88.636 Y52.839 E-0.22904
M73 P10 R5
G1 X88.593 Y52.784 E-0.03892
;WIPE_END
G1 E-0.04800 F4200.000
G1 Z0.400 F9000.000
G1 X90.060 Y55.215
G1 Z0.200
G1 E3.20000 F2400.000
M204 S800
;TYPE:Perimeter
G1 F1200.000
G1 X93.977 Y55.217 E0.12283
G1 X94.430 Y55.253 E0.01424
G1 X94.879 Y55.324 E0.01425
G1 X95.321 Y55.430 E0.01425
G1 X95.753 Y55.570 E0.01425
G1 X96.172 Y55.744 E0.01421
G1 X96.519 Y55.919 E0.01218
G1 X97.145 Y56.313 E0.02321
G1 X97.509 Y56.599 E0.01450
G1 X97.847 Y56.911 E0.01443
G1 X98.296 Y57.417 E0.02119
G1 X98.682 Y57.971 E0.02119
G1 X98.907 Y58.372 E0.01443
G1 X99.097 Y58.785 E0.01425
G1 X99.254 Y59.212 E0.01425
G1 X99.379 Y59.654 E0.01443
G1 X99.498 Y60.320 E0.02119
G1 X99.537 Y60.981 E0.02076
G1 X99.537 Y119.014 E1.81958
M73 P11 R5
G1 X99.520 Y119.454 E0.01383
G1 X99.466 Y119.905 E0.01425
G1 X99.378 Y120.351 E0.01425
G1 X99.254 Y120.788 E0.01425
G1 X99.097 Y121.215 E0.01425
G1 X98.907 Y121.628 E0.01425
G1 X98.682 Y122.029 E0.01443
G1 X98.299 Y122.579 E0.02101
G1 X98.000 Y122.929 E0.01443
G1 X97.679 Y123.250 E0.01425
G1 X97.329 Y123.549 E0.01443
G1 X96.779 Y123.932 E0.02101
G1 X96.377 Y124.157 E0.01443
G1 X95.965 Y124.347 E0.01425
G1 X95.538 Y124.504 E0.01425
G1 X95.096 Y124.629 E0.01443
G1 X94.430 Y124.748 E0.02119
G1 X93.769 Y124.787 E0.02077
G1 X86.017 Y124.783 E0.24307
G1 X85.350 Y124.717 E0.02100
G1 X84.899 Y124.628 E0.01443
G1 X84.462 Y124.504 E0.01425
G1 X84.035 Y124.347 E0.01425
G1 X83.617 Y124.154 E0.01443
G1 X83.039 Y123.816 E0.02101
G1 X82.667 Y123.545 E0.01443
G1 X82.317 Y123.246 E0.01443
G1 X81.853 Y122.763 E0.02101
G1 X81.568 Y122.402 E0.01443
G1 X81.315 Y122.024 E0.01425
G1 X81.093 Y121.628 E0.01425
G1 X80.903 Y121.215 E0.01425
G1 X80.746 Y120.788 E0.01425
G1 X80.621 Y120.346 E0.01443
G1 X80.502 Y119.680 E0.02119
G1 X80.463 Y119.019 E0.02076
G1 X80.463 Y60.986 E1.81958
M73 P12 R5
G1 X80.481 Y60.540 E0.01401
G1 X80.572 Y59.877 E0.02100
G1 X80.680 Y59.429 E0.01443
G1 X80.821 Y58.993 E0.01438
G1 X81.058 Y58.444 E0.01875
G1 X81.314 Y57.978 E0.01665
G1 X81.568 Y57.598 E0.01433
G1 X81.853 Y57.237 E0.01443
G1 X82.317 Y56.754 E0.02101
G1 X82.671 Y56.451 E0.01461
G1 X83.221 Y56.068 E0.02101
G1 X83.623 Y55.843 E0.01443
G1 X84.035 Y55.653 E0.01425
G1 X84.467 Y55.494 E0.01443
G1 X85.115 Y55.325 E0.02101
G1 X85.575 Y55.252 E0.01461
G1 X86.231 Y55.213 E0.02059
G1 X90.000 Y55.215 E0.11817
M204 S1250
G1 X90.000 Y55.592 F9000.000
M204 S800
;TYPE:External perimeter
G1 F1200.000
G1 X93.962 Y55.594 E0.12425
G1 X94.386 Y55.627 E0.01332
G1 X94.805 Y55.694 E0.01332
G1 X95.219 Y55.793 E0.01332
G1 X95.623 Y55.924 E0.01332
G1 X96.015 Y56.087 E0.01331
G1 X96.333 Y56.247 E0.01118
G1 X96.928 Y56.621 E0.02203
G1 X97.264 Y56.886 E0.01341
G1 X97.577 Y57.176 E0.01338
G1 X97.999 Y57.650 E0.01991
G1 X98.362 Y58.171 E0.01991
G1 X98.571 Y58.544 E0.01338
G1 X98.748 Y58.930 E0.01332
G1 X98.895 Y59.328 E0.01332
G1 X99.011 Y59.739 E0.01338
G1 X99.123 Y60.364 E0.01991
G1 X99.160 Y60.992 E0.01972
G1 X99.160 Y119.006 E1.81900
M73 P13 R4
G1 X99.144 Y119.424 E0.01313
G1 X99.094 Y119.846 E0.01332
G1 X99.011 Y120.263 E0.01332
G1 X98.895 Y120.672 E0.01332
G1 X98.748 Y121.070 E0.01332
G1 X98.571 Y121.456 E0.01332
G1 X98.362 Y121.829 E0.01338
G1 X98.000 Y122.348 E0.01984
G1 X97.723 Y122.672 E0.01338
G1 X97.422 Y122.973 E0.01332
G1 X97.098 Y123.250 E0.01338
G1 X96.579 Y123.612 E0.01984
M73 P14 R4
G1 X96.206 Y123.821 E0.01338
G1 X95.820 Y123.998 E0.01332
G1 X95.422 Y124.145 E0.01332
G1 X95.011 Y124.261 E0.01338
G1 X94.386 Y124.373 E0.01991
G1 X93.758 Y124.410 E0.01972
G1 X86.035 Y124.406 E0.24214
G1 X85.406 Y124.344 E0.01984
G1 X84.987 Y124.261 E0.01338
G1 X84.578 Y124.145 E0.01332
G1 X84.180 Y123.998 E0.01332
G1 X83.792 Y123.820 E0.01338
G1 X83.246 Y123.500 E0.01984
G1 X82.901 Y123.249 E0.01338
G1 X82.576 Y122.971 E0.01338
G1 X82.137 Y122.515 E0.01984
G1 X81.873 Y122.180 E0.01338
G1 X81.637 Y121.827 E0.01332
G1 X81.429 Y121.456 E0.01332
G1 X81.252 Y121.070 E0.01332
G1 X81.105 Y120.672 E0.01332
G1 X80.989 Y120.261 E0.01338
G1 X80.877 Y119.636 E0.01991
G1 X80.840 Y119.008 E0.01972
G1 X80.840 Y60.994 E1.81900
M73 P15 R4
G1 X80.857 Y60.573 E0.01319
G1 X80.943 Y59.947 E0.01984
G1 X81.043 Y59.531 E0.01338
G1 X81.175 Y59.126 E0.01337
G1 X81.398 Y58.609 E0.01764
G1 X81.637 Y58.174 E0.01557
G1 X81.873 Y57.820 E0.01335
G1 X82.137 Y57.485 E0.01338
G1 X82.576 Y57.029 E0.01984
G1 X82.902 Y56.750 E0.01345
G1 X83.421 Y56.388 E0.01984
G1 X83.794 Y56.179 E0.01338
G1 X84.180 Y56.002 E0.01332
G1 X84.580 Y55.854 E0.01338
G1 X85.192 Y55.694 E0.01984
G1 X85.616 Y55.627 E0.01345
G1 X86.242 Y55.590 E0.01965
G1 X89.940 Y55.592 E0.11594
M204 S1250
G1 X90.199 Y55.245 F9000.000
G1 E-2.24000 F4200.000
;WIPE_START
G1 F7200.000
G1 X91.585 Y55.593 E-0.91200
;WIPE_END
G1 E-0.04800 F4200.000
G1 Z0.400 F9000.000
G1 X91.029 Y49.462
G1 Z0.200
G1 E3.20000 F2400.000
M204 S800
;TYPE:Perimeter
G1 F1200.000
G1 X91.070 Y49.288 E0.00560
G1 X99.856 Y49.290 E0.27548
G1 X100.248 Y49.317 E0.01230
G1 X100.566 Y49.368 E0.01011
G1 X101.057 Y49.496 E0.01591
G1 X101.357 Y49.606 E0.01001
G1 X101.813 Y49.828 E0.01591
G1 X102.090 Y49.997 E0.01019
G1 X102.353 Y50.189 E0.01019
G1 X102.733 Y50.526 E0.01591
G1 X102.949 Y50.760 E0.01001
G1 X103.256 Y51.165 E0.01591
G1 X103.425 Y51.442 E0.01019
G1 X103.575 Y51.736 E0.01037
G1 X103.700 Y52.037 E0.01019
G1 X103.845 Y52.517 E0.01573
G1 X103.934 Y53.011 E0.01573
G1 X103.959 Y53.335 E0.01019
G1 X103.963 Y126.481 E2.29345
M73 P17 R4
G1 X103.933 Y126.995 E0.01615
G1 X103.845 Y127.483 E0.01555
G1 X103.700 Y127.963 E0.01573
G1 X103.575 Y128.264 E0.01019
G1 X103.425 Y128.558 E0.01037
G1 X103.253 Y128.840 E0.01037
G1 X103.058 Y129.108 E0.01037
G1 X102.843 Y129.359 E0.01037
G1 X102.609 Y129.593 E0.01037
G1 X102.358 Y129.808 E0.01037
G1 X102.090 Y130.003 E0.01037
G1 X101.807 Y130.176 E0.01041
G1 X101.571 Y130.297 E0.00833
G1 X101.044 Y130.508 E0.01780
G1 X100.733 Y130.596 E0.01012
G1 X100.409 Y130.661 E0.01037
G1 X100.081 Y130.699 E0.01037
G1 X99.737 Y130.713 E0.01079
G1 X91.055 Y130.713 E0.27220
G1 X91.014 Y130.539 E0.00560
G1 X91.251 Y130.419 E0.00835
G1 X91.634 Y130.105 E0.01553
G1 X91.941 Y129.716 E0.01553
G1 X92.157 Y129.270 E0.01553
G1 X92.270 Y128.799 E0.01521
G1 X92.289 Y128.445 E0.01111
G1 X92.228 Y127.967 E0.01510
G1 X92.065 Y127.511 E0.01519
G1 X91.889 Y127.206 E0.01103
G1 X91.582 Y126.845 E0.01486
G1 X91.310 Y126.622 E0.01103
G1 X90.886 Y126.388 E0.01520
G1 X90.413 Y126.247 E0.01548
G1 X89.956 Y126.211 E0.01439
G1 X89.581 Y126.249 E0.01181
G1 X89.114 Y126.388 E0.01527
G1 X88.690 Y126.622 E0.01520
G1 X88.418 Y126.845 E0.01103
G1 X88.104 Y127.215 E0.01519
G1 X87.872 Y127.652 E0.01553
G1 X87.742 Y128.119 E0.01520
G1 X87.712 Y128.459 E0.01069
G1 X87.730 Y128.799 E0.01069
G1 X87.843 Y129.270 E0.01520
G1 X88.059 Y129.716 E0.01553
G1 X88.366 Y130.105 E0.01553
G1 X88.749 Y130.419 E0.01553
G1 X88.986 Y130.539 E0.00835
G1 X88.945 Y130.713 E0.00560
G1 X80.269 Y130.713 E0.27202
G1 X79.755 Y130.683 E0.01615
G1 X79.261 Y130.594 E0.01573
G1 X78.948 Y130.506 E0.01019
G1 X78.638 Y130.392 E0.01037
G1 X78.338 Y130.253 E0.01037
G1 X78.049 Y130.092 E0.01037
G1 X77.774 Y129.908 E0.01037
G1 X77.514 Y129.703 E0.01037
G1 X77.271 Y129.479 E0.01037
G1 X77.051 Y129.240 E0.01019
G1 X76.744 Y128.835 E0.01591
G1 X76.575 Y128.558 E0.01019
G1 X76.425 Y128.264 E0.01037
G1 X76.298 Y127.958 E0.01037
G1 X76.196 Y127.643 E0.01037
G1 X76.119 Y127.322 E0.01037
G1 X76.067 Y126.995 E0.01037
G1 X76.041 Y126.665 E0.01037
G1 X76.037 Y53.519 E2.29345
M73 P18 R4
G1 X76.067 Y53.005 E0.01615
G1 X76.155 Y52.517 E0.01555
G1 X76.300 Y52.037 E0.01573
G1 X76.425 Y51.736 E0.01019
G1 X76.575 Y51.442 E0.01037
G1 X76.747 Y51.160 E0.01037
G1 X76.942 Y50.892 E0.01037
G1 X77.157 Y50.641 E0.01037
G1 X77.391 Y50.407 E0.01037
G1 X77.642 Y50.192 E0.01037
G1 X77.910 Y49.997 E0.01037
G1 X78.429 Y49.703 E0.01873
G1 X78.956 Y49.492 E0.01780
G1 X79.267 Y49.404 E0.01012
G1 X79.591 Y49.339 E0.01037
G1 X79.919 Y49.301 E0.01037
G1 X80.263 Y49.287 E0.01079
G1 X88.943 Y49.288 E0.27215
M73 P19 R4
G1 X88.987 Y49.458 E0.00549
G1 X88.690 Y49.622 E0.01065
G1 X88.418 Y49.845 E0.01103
G1 X88.104 Y50.215 E0.01519
G1 X87.872 Y50.652 E0.01553
G1 X87.742 Y51.119 E0.01520
G1 X87.712 Y51.459 E0.01069
G1 X87.730 Y51.799 E0.01069
G1 X87.843 Y52.270 E0.01520
G1 X88.059 Y52.716 E0.01553
G1 X88.366 Y53.105 E0.01553
G1 X88.749 Y53.419 E0.01553
G1 X89.185 Y53.640 E0.01535
G1 X89.568 Y53.747 E0.01247
G1 X90.003 Y53.790 E0.01369
G1 X90.482 Y53.738 E0.01511
G1 X90.819 Y53.638 E0.01103
G1 X91.251 Y53.419 E0.01520
G1 X91.634 Y53.105 E0.01553
G1 X91.941 Y52.716 E0.01553
G1 X92.157 Y52.270 E0.01553
G1 X92.270 Y51.799 E0.01521
G1 X92.289 Y51.445 E0.01111
G1 X92.228 Y50.967 E0.01510
G1 X92.065 Y50.511 E0.01519
G1 X91.889 Y50.206 E0.01103
G1 X91.575 Y49.837 E0.01520
G1 X91.189 Y49.544 E0.01520
G1 X91.082 Y49.489 E0.00377
M204 S1250
G1 X91.082 Y48.911 F9000.000
M204 S800
;TYPE:External perimeter
G1 F1200.000
G1 X99.870 Y48.913 E0.27552
G1 X100.290 Y48.942 E0.01323
G1 X100.643 Y48.998 E0.01121
G1 X101.170 Y49.136 E0.01707
G1 X101.505 Y49.259 E0.01117
G1 X101.994 Y49.496 E0.01707
G1 X102.300 Y49.684 E0.01123
G1 X102.590 Y49.894 E0.01123
G1 X102.997 Y50.256 E0.01707
G1 X103.239 Y50.518 E0.01117
G1 X103.567 Y50.952 E0.01707
G1 X103.755 Y51.257 E0.01123
G1 X103.918 Y51.578 E0.01130
G1 X104.055 Y51.909 E0.01123
G1 X104.213 Y52.429 E0.01701
G1 X104.308 Y52.963 E0.01701
G1 X104.336 Y53.320 E0.01124
G1 X104.340 Y126.492 E2.29426
M73 P20 R4
G1 X104.308 Y127.039 E0.01720
G1 X104.213 Y127.571 E0.01694
G1 X104.055 Y128.091 E0.01701
G1 X103.918 Y128.422 E0.01123
G1 X103.755 Y128.743 E0.01130
G1 X103.566 Y129.050 E0.01130
G1 X103.354 Y129.342 E0.01130
G1 X103.120 Y129.616 E0.01130
G1 X102.866 Y129.870 E0.01130
G1 X102.592 Y130.104 E0.01130
G1 X102.300 Y130.316 E0.01130
G1 X101.992 Y130.505 E0.01131
G1 X101.728 Y130.641 E0.00933
G1 X101.166 Y130.866 E0.01898
G1 X100.821 Y130.963 E0.01121
G1 X100.468 Y131.033 E0.01130
G1 X100.110 Y131.076 E0.01130
G1 X99.744 Y131.090 E0.01149
G1 X80.258 Y131.090 E0.61096
M73 P21 R4
G1 X79.711 Y131.058 E0.01720
G1 X79.177 Y130.962 E0.01701
G1 X78.832 Y130.865 E0.01123
G1 X78.494 Y130.740 E0.01130
G1 X78.166 Y130.590 E0.01130
G1 X77.852 Y130.413 E0.01130
G1 X77.552 Y130.213 E0.01130
G1 X77.269 Y129.990 E0.01130
G1 X77.005 Y129.745 E0.01130
G1 X76.761 Y129.482 E0.01123
G1 X76.433 Y129.048 E0.01707
G1 X76.245 Y128.743 E0.01123
G1 X76.082 Y128.422 E0.01130
G1 X75.944 Y128.089 E0.01130
