; generated by PrusaSlicer 2.3.0+win64 on 2022-04-08 at 07:36:04 UTC


;
;

;
;
; 

; external perimeters extrusion width = 0.45mm
; perimeters extrusion width = 0.45mm
; infill extrusion width = 0.45mm
; solid infill extrusion width = 0.45mm
; top infill extrusion width = 0.40mm
; first layer extrusion width = 0.42mm

M73 P0 R36
M201 X1250 Y1250 Z400 E5000 ; sets maximum accelerations, mm/sec^2
M203 X180 Y180 Z12 E80 ; sets maximum feedrates, mm/sec
M204 P1250 R1250 T1250 ; sets acceleration (P, T) and retract acceleration (R), mm/sec^2
M205 X8.00 Y8.00 Z2.00 E10.00 ; sets the jerk limits, mm/sec
M205 S0 T0 ; sets the minimum extruding and travel feed rate, mm/sec
M107
;TYPE:Custom
G90 ; use absolute coordinates
M83 ; extruder relative mode
M104 S170 ; set extruder temp for bed leveling
M140 S85 ; set bed temp
M109 R170 ; wait for bed leveling temp
M190 S85 ; wait for bed temp
G28 ; home all without mesh bed level
G29 ; mesh bed leveling 
M104 S240 ; set extruder temp
G92 E0.0
G1 Y-2.0 X179 F2400
G1 Z3 F720
M109 S240 ; wait for extruder temp

; intro line
G1 X170 F1000
G1 Z0.2 F720
G1 X110.0 E8.0 F900
G1 X40.0 E10.0 F700
G92 E0.0

M221 S95 ; set flow
G21 ; set units to millimeters
G90 ; use absolute coordinates
M83 ; use relative distances for extrusion
M900 K0.2 ; Filament gcode
;LAYER_CHANGE
;Z:0.2
;HEIGHT:0.2
;BEFORE_LAYER_CHANGE
G92 E0.0
;0.2


G1 E-3.20000 F2400.000
G1 Z0.200 F9000.000
;AFTER_LAYER_CHANGE
;0.2
G1 Z0.400
G1 X48.045 Y98.206
G1 Z0.200
G1 E3.20000 F1500.000
M204 S800
;TYPE:Skirt
;WIDTH:0.42
G1 F1200.000
G1 X84.867 Y73.948 E1.38253
G1 X85.431 Y73.675 E0.01965
G1 X86.050 Y73.559 E0.01977
G1 X92.369 Y73.556 E0.19812
G1 X93.023 Y73.648 E0.02071
G1 X93.627 Y73.916 E0.02071
G1 X131.911 Y98.173 E1.42102
G1 X132.274 Y98.502 E0.01538
G1 X135.783 Y102.488 E0.16652
G1 X136.082 Y102.915 E0.01633
G1 X136.319 Y103.543 E0.02107
M73 P1 R36
G1 X136.370 Y104.213 E0.02107
G1 X136.232 Y104.871 E0.02107
G1 X135.916 Y105.464 E0.02107
G1 X135.543 Y105.865 E0.01716
G1 X135.086 Y106.172 E0.01728
G1 X134.570 Y106.366 E0.01728
G1 X134.023 Y106.435 E0.01728
G1 X45.998 Y106.435 E2.75998
G1 X45.417 Y106.363 E0.01835
G1 X44.872 Y106.150 E0.01835
G1 X44.395 Y105.811 E0.01835
G1 X44.016 Y105.365 E0.01835
G1 X43.736 Y104.779 E0.02036
G1 X43.626 Y104.139 E0.02036
G1 X43.693 Y103.494 E0.02036
G1 X43.930 Y102.893 E0.02024
G1 X44.215 Y102.490 E0.01550
G1 X48.005 Y98.251 E0.17829
M204 S1250
; printing object pinnion_top_brace_8 id:0 copy 0
G1 E-2.24000 F2400.000
;WIPE_START
G1 F7200.000
G1 X50.410 Y96.665 E-0.91200
;WIPE_END
G1 E-0.04800 F2400.000
G1 Z0.400 F9000.000
G1 X91.582 Y100.878
G1 Z0.200
G1 E3.20000 F1500.000
M204 S800
;TYPE:Perimeter
G1 F1200.000
G1 X130.151 Y100.878 E1.20930
G1 X131.831 Y102.782 E0.07964
G1 X132.356 Y103.330 E0.02378
G1 X132.044 Y103.291 E0.00986
G1 X131.508 Y103.274 E0.01681
G1 X122.499 Y103.271 E0.28248
G1 X48.996 Y103.271 E2.30463
G1 X47.960 Y103.291 E0.03248
G1 X47.644 Y103.330 E0.00999
G1 X48.169 Y102.782 E0.02378
G1 X49.849 Y100.878 E0.07964
G1 X86.961 Y100.878 E1.16362
G1 X86.961 Y76.720 E0.75745
G1 X91.582 Y76.720 E0.14489
G1 X91.582 Y100.818 E0.75557
M204 S1250
G1 X91.959 Y100.501 F9000.000
M204 S800
;TYPE:External perimeter
G1 F1200.000
G1 X130.321 Y100.501 E1.20281
G1 X132.109 Y102.527 E0.08473
G1 X132.451 Y102.884 E0.01552
G1 X132.832 Y103.215 E0.01581
G1 X133.222 Y103.494 E0.01502
G1 X133.534 Y103.848 E0.01481
G1 X133.023 Y103.848 E0.01601
G1 X132.536 Y103.732 E0.01571
G1 X132.015 Y103.668 E0.01646
G1 X131.502 Y103.651 E0.01609
G1 X122.499 Y103.648 E0.28229
G1 X48.999 Y103.649 E2.30452
M73 P2 R36
G1 X47.987 Y103.668 E0.03176
G1 X47.464 Y103.732 E0.01651
G1 X46.977 Y103.848 E0.01571
G1 X46.466 Y103.848 E0.01601
G1 X46.778 Y103.494 E0.01481
G1 X47.168 Y103.215 E0.01502
G1 X47.549 Y102.884 E0.01581
G1 X47.891 Y102.527 E0.01552
G1 X49.679 Y100.501 E0.08473
G1 X86.584 Y100.501 E1.15714
G1 X86.584 Y76.343 E0.75745
G1 X91.959 Y76.343 E0.16853
G1 X91.959 Y100.441 E0.75557
M204 S1250
G1 X91.988 Y100.900 F9000.000
G1 E-2.24000 F2400.000
;WIPE_START
G1 F7200.000
G1 X94.839 Y100.445 E-0.91200
;WIPE_END
G1 E-0.04800 F2400.000
G1 Z0.400 F9000.000
G1 X131.495 Y103.161
G1 Z0.200
G1 E3.20000 F1500.000
M204 S800
;TYPE:Solid infill
;WIDTH:0.420788
G1 F1200.000
G1 X129.495 Y101.161 E0.08887
G1 X128.961 Y101.161 E0.01679
G1 X130.791 Y102.991 E0.08132
G1 X130.257 Y102.991 E0.01679
G1 X128.427 Y101.161 E0.08131
G1 X127.892 Y101.161 E0.01679
G1 X129.722 Y102.990 E0.08131
G1 X129.188 Y102.990 E0.01679
G1 X127.358 Y101.161 E0.08130
G1 X126.823 Y101.161 E0.01679
G1 X128.653 Y102.990 E0.08130
G1 X128.118 Y102.990 E0.01679
G1 X126.289 Y101.161 E0.08129
G1 X125.755 Y101.161 E0.01679
G1 X127.584 Y102.990 E0.08128
G1 X127.049 Y102.990 E0.01679
G1 X125.220 Y101.161 E0.08128
G1 X124.686 Y101.161 E0.01679
G1 X126.515 Y102.990 E0.08127
G1 X125.980 Y102.989 E0.01679
G1 X124.152 Y101.161 E0.08127
G1 X123.617 Y101.161 E0.01679
G1 X125.446 Y102.989 E0.08126
G1 X124.911 Y102.989 E0.01679
G1 X123.083 Y101.161 E0.08125
G1 X122.548 Y101.161 E0.01679
G1 X124.377 Y102.989 E0.08125
G1 X123.842 Y102.989 E0.01679
G1 X122.014 Y101.161 E0.08124
G1 X121.480 Y101.161 E0.01679
G1 X123.308 Y102.989 E0.08123
G1 X122.773 Y102.989 E0.01679
G1 X120.945 Y101.161 E0.08123
G1 X120.411 Y101.161 E0.01679
G1 X122.239 Y102.989 E0.08122
G1 X121.704 Y102.989 E0.01679
G1 X119.876 Y101.161 E0.08122
G1 X119.342 Y101.161 E0.01679
G1 X121.170 Y102.989 E0.08122
G1 X120.636 Y102.989 E0.01679
G1 X118.808 Y101.161 E0.08122
G1 X118.273 Y101.161 E0.01679
G1 X120.101 Y102.989 E0.08122
G1 X119.567 Y102.989 E0.01679
G1 X117.739 Y101.161 E0.08122
G1 X117.204 Y101.161 E0.01679
G1 X119.032 Y102.989 E0.08122
G1 X118.498 Y102.989 E0.01679
G1 X116.670 Y101.161 E0.08123
G1 X116.136 Y101.161 E0.01679
G1 X117.964 Y102.989 E0.08123
G1 X117.429 Y102.989 E0.01679
G1 X115.601 Y101.161 E0.08123
G1 X115.067 Y101.161 E0.01679
G1 X116.895 Y102.989 E0.08123
G1 X116.361 Y102.989 E0.01679
G1 X114.533 Y101.161 E0.08123
G1 X113.998 Y101.161 E0.01679
G1 X115.826 Y102.989 E0.08123
G1 X115.292 Y102.989 E0.01679
G1 X113.464 Y101.161 E0.08123
G1 X112.929 Y101.161 E0.01679
G1 X114.757 Y102.989 E0.08123
G1 X114.223 Y102.989 E0.01679
G1 X112.395 Y101.161 E0.08123
G1 X111.861 Y101.161 E0.01679
G1 X113.689 Y102.989 E0.08123
G1 X113.154 Y102.989 E0.01679
G1 X111.326 Y101.161 E0.08123
G1 X110.792 Y101.161 E0.01679
G1 X112.620 Y102.989 E0.08123
G1 X112.085 Y102.989 E0.01679
G1 X110.257 Y101.161 E0.08123
G1 X109.723 Y101.161 E0.01679
G1 X111.551 Y102.989 E0.08123
G1 X111.017 Y102.989 E0.01679
G1 X109.189 Y101.161 E0.08123
G1 X108.654 Y101.161 E0.01679
G1 X110.482 Y102.989 E0.08123
G1 X109.948 Y102.989 E0.01679
G1 X108.120 Y101.161 E0.08123
G1 X107.586 Y101.161 E0.01679
G1 X109.414 Y102.989 E0.08123
G1 X108.879 Y102.989 E0.01679
G1 X107.051 Y101.161 E0.08123
G1 X106.517 Y101.161 E0.01679
G1 X108.345 Y102.989 E0.08123
G1 X107.810 Y102.989 E0.01679
G1 X105.982 Y101.161 E0.08123
G1 X105.448 Y101.161 E0.01679
G1 X107.276 Y102.989 E0.08123
G1 X106.742 Y102.989 E0.01679
G1 X104.914 Y101.161 E0.08123
G1 X104.379 Y101.161 E0.01679
G1 X106.207 Y102.989 E0.08123
G1 X105.673 Y102.989 E0.01679
G1 X103.845 Y101.161 E0.08123
G1 X103.310 Y101.161 E0.01679
G1 X105.138 Y102.989 E0.08123
G1 X104.604 Y102.989 E0.01679
G1 X102.776 Y101.161 E0.08123
G1 X102.242 Y101.161 E0.01679
G1 X104.070 Y102.989 E0.08123
M73 P2 R35
G1 X103.535 Y102.989 E0.01679
G1 X101.707 Y101.161 E0.08123
G1 X101.173 Y101.161 E0.01679
G1 X103.001 Y102.989 E0.08123
G1 X102.467 Y102.989 E0.01679
G1 X100.639 Y101.161 E0.08123
G1 X100.104 Y101.161 E0.01679
G1 X101.932 Y102.989 E0.08123
G1 X101.398 Y102.989 E0.01679
G1 X99.570 Y101.161 E0.08123
G1 X99.035 Y101.161 E0.01679
G1 X100.863 Y102.989 E0.08123
G1 X100.329 Y102.989 E0.01679
G1 X98.501 Y101.161 E0.08123
G1 X97.967 Y101.161 E0.01679
G1 X99.795 Y102.989 E0.08123
G1 X99.260 Y102.989 E0.01679
G1 X97.432 Y101.161 E0.08123
G1 X96.898 Y101.161 E0.01679
G1 X98.726 Y102.989 E0.08123
G1 X98.191 Y102.989 E0.01679
G1 X96.363 Y101.161 E0.08123
G1 X95.829 Y101.161 E0.01679
G1 X97.657 Y102.989 E0.08123
G1 X97.123 Y102.989 E0.01679
G1 X95.295 Y101.161 E0.08123
G1 X94.760 Y101.161 E0.01679
G1 X96.588 Y102.989 E0.08123
G1 X96.054 Y102.989 E0.01679
G1 X94.226 Y101.161 E0.08123
G1 X93.691 Y101.161 E0.01679
G1 X95.520 Y102.989 E0.08123
G1 X94.985 Y102.989 E0.01679
G1 X93.157 Y101.161 E0.08123
G1 X92.623 Y101.161 E0.01679
G1 X94.451 Y102.989 E0.08123
G1 X93.916 Y102.989 E0.01679
G1 X91.919 Y100.991 E0.08877
M204 S1250
G1 E-2.24000 F2400.000
;WIPE_START
G1 F7200.000
G1 X93.916 Y102.989 E-0.89464
G1 X93.971 Y102.989 E-0.01736
;WIPE_END
G1 E-0.04800 F2400.000
G1 Z0.400 F9000.000
G1 X91.469 Y77.563
G1 Z0.200
G1 E3.20000 F1500.000
M204 S800
G1 F1200.000
G1 X90.909 Y77.003 E0.02488
G1 X90.375 Y77.003 E0.01679
G1 X91.299 Y77.927 E0.04109
G1 X91.299 Y78.462 E0.01679
G1 X89.840 Y77.003 E0.06483
G1 X89.306 Y77.003 E0.01679
G1 X91.299 Y78.996 E0.08858
G1 X91.299 Y79.531 E0.01679
G1 X88.771 Y77.003 E0.11232
G1 X88.237 Y77.003 E0.01679
G1 X91.299 Y80.065 E0.13607
G1 X91.299 Y80.599 E0.01679
G1 X87.703 Y77.003 E0.15981
G1 X87.244 Y77.003 E0.01442
G1 X87.244 Y77.078 E0.00237
G1 X91.299 Y81.134 E0.18020
G1 X91.299 Y81.668 E0.01679
G1 X87.244 Y77.613 E0.18020
G1 X87.244 Y78.147 E0.01679
G1 X91.299 Y82.202 E0.18020
M73 P3 R35
G1 X91.299 Y82.737 E0.01679
G1 X87.244 Y78.681 E0.18020
G1 X87.244 Y79.216 E0.01679
G1 X91.299 Y83.271 E0.18020
G1 X91.299 Y83.806 E0.01679
G1 X87.244 Y79.750 E0.18020
G1 X87.244 Y80.285 E0.01679
G1 X91.299 Y84.340 E0.18020
G1 X91.299 Y84.874 E0.01679
G1 X87.244 Y80.819 E0.18020
G1 X87.244 Y81.353 E0.01679
G1 X91.299 Y85.409 E0.18020
G1 X91.299 Y85.943 E0.01679
G1 X87.244 Y81.888 E0.18020
G1 X87.244 Y82.422 E0.01679
G1 X91.299 Y86.478 E0.18020
G1 X91.299 Y87.012 E0.01679
G1 X87.244 Y82.957 E0.18020
G1 X87.244 Y83.491 E0.01679
G1 X91.299 Y87.546 E0.18020
G1 X91.299 Y88.081 E0.01679
G1 X87.244 Y84.025 E0.18020
G1 X87.244 Y84.560 E0.01679
G1 X91.299 Y88.615 E0.18020
G1 X91.299 Y89.149 E0.01679
G1 X87.244 Y85.094 E0.18020
G1 X87.244 Y85.628 E0.01679
G1 X91.299 Y89.684 E0.18020
G1 X91.299 Y90.218 E0.01679
G1 X87.244 Y86.163 E0.18020
G1 X87.244 Y86.697 E0.01679
G1 X91.299 Y90.753 E0.18020
G1 X91.299 Y91.287 E0.01679
G1 X87.244 Y87.232 E0.18020
G1 X87.244 Y87.766 E0.01679
G1 X91.299 Y91.821 E0.18020
G1 X91.299 Y92.356 E0.01679
G1 X87.244 Y88.300 E0.18020
G1 X87.244 Y88.835 E0.01679
G1 X91.299 Y92.890 E0.18020
G1 X91.299 Y93.425 E0.01679
G1 X87.244 Y89.369 E0.18020
G1 X87.244 Y89.904 E0.01679
G1 X91.299 Y93.959 E0.18020
G1 X91.299 Y94.493 E0.01679
G1 X87.244 Y90.438 E0.18020
G1 X87.244 Y90.972 E0.01679
G1 X91.299 Y95.028 E0.18020
G1 X91.299 Y95.562 E0.01679
G1 X87.244 Y91.507 E0.18020
G1 X87.244 Y92.041 E0.01679
G1 X91.299 Y96.096 E0.18020
G1 X91.299 Y96.631 E0.01679
G1 X87.244 Y92.575 E0.18020
G1 X87.244 Y93.110 E0.01679
G1 X91.299 Y97.165 E0.18020
G1 X91.299 Y97.700 E0.01679
G1 X87.244 Y93.644 E0.18020
G1 X87.244 Y94.179 E0.01679
G1 X91.299 Y98.234 E0.18020
G1 X91.299 Y98.768 E0.01679
G1 X87.244 Y94.713 E0.18020
G1 X87.244 Y95.247 E0.01679
G1 X91.299 Y99.303 E0.18020
G1 X91.299 Y99.837 E0.01679
G1 X87.244 Y95.782 E0.18020
G1 X87.244 Y96.316 E0.01679
G1 X91.469 Y100.541 E0.18774
M204 S1250
G1 E-2.24000 F2400.000
;WIPE_START
G1 F7200.000
G1 X89.433 Y98.505 E-0.91200
;WIPE_END
G1 E-0.04800 F2400.000
G1 Z0.400 F9000.000
G1 X93.552 Y103.158
G1 Z0.200
G1 E3.20000 F1500.000
M204 S800
G1 F1200.000
G1 X87.244 Y96.851 E0.28028
G1 X87.244 Y97.385 E0.01679
G1 X92.848 Y102.989 E0.24900
G1 X92.313 Y102.989 E0.01679
G1 X87.244 Y97.919 E0.22525
G1 X87.244 Y98.454 E0.01679
G1 X91.779 Y102.989 E0.20151
G1 X91.244 Y102.989 E0.01679
G1 X87.244 Y98.988 E0.17776
G1 X87.244 Y99.522 E0.01679
G1 X90.710 Y102.989 E0.15402
G1 X90.176 Y102.989 E0.01679
G1 X87.244 Y100.057 E0.13027
G1 X87.244 Y100.591 E0.01679
G1 X89.641 Y102.989 E0.10653
G1 X89.107 Y102.989 E0.01679
G1 X87.244 Y101.126 E0.08278
G1 X87.244 Y101.161 E0.00110
G1 X86.744 Y101.161 E0.01569
G1 X88.572 Y102.989 E0.08123
G1 X88.038 Y102.989 E0.01679
G1 X86.210 Y101.161 E0.08123
G1 X85.676 Y101.161 E0.01679
G1 X87.504 Y102.989 E0.08123
G1 X86.969 Y102.989 E0.01679
G1 X85.141 Y101.161 E0.08123
G1 X84.607 Y101.161 E0.01679
G1 X86.435 Y102.989 E0.08123
G1 X85.901 Y102.989 E0.01679
G1 X84.073 Y101.161 E0.08123
G1 X83.538 Y101.161 E0.01679
G1 X85.366 Y102.989 E0.08123
G1 X84.832 Y102.989 E0.01679
G1 X83.004 Y101.161 E0.08123
G1 X82.469 Y101.161 E0.01679
G1 X84.297 Y102.989 E0.08123
G1 X83.763 Y102.989 E0.01679
G1 X81.935 Y101.161 E0.08123
G1 X81.401 Y101.161 E0.01679
G1 X83.229 Y102.989 E0.08123
G1 X82.694 Y102.989 E0.01679
G1 X80.866 Y101.161 E0.08123
G1 X80.332 Y101.161 E0.01679
G1 X82.160 Y102.989 E0.08123
G1 X81.625 Y102.989 E0.01679
G1 X79.797 Y101.161 E0.08123
G1 X79.263 Y101.161 E0.01679
G1 X81.091 Y102.989 E0.08123
G1 X80.557 Y102.989 E0.01679
G1 X78.729 Y101.161 E0.08123
G1 X78.194 Y101.161 E0.01679
G1 X80.022 Y102.989 E0.08123
G1 X79.488 Y102.989 E0.01679
G1 X77.660 Y101.161 E0.08123
G1 X77.126 Y101.161 E0.01679
G1 X78.954 Y102.989 E0.08123
G1 X78.419 Y102.989 E0.01679
G1 X76.591 Y101.161 E0.08123
G1 X76.057 Y101.161 E0.01679
G1 X77.885 Y102.989 E0.08123
G1 X77.350 Y102.989 E0.01679
G1 X75.522 Y101.161 E0.08123
G1 X74.988 Y101.161 E0.01679
G1 X76.816 Y102.989 E0.08123
G1 X76.282 Y102.989 E0.01679
G1 X74.454 Y101.161 E0.08123
G1 X73.919 Y101.161 E0.01679
G1 X75.747 Y102.989 E0.08123
G1 X75.213 Y102.989 E0.01679
G1 X73.385 Y101.161 E0.08123
G1 X72.850 Y101.161 E0.01679
G1 X74.678 Y102.989 E0.08123
G1 X74.144 Y102.989 E0.01679
G1 X72.316 Y101.161 E0.08123
G1 X71.782 Y101.161 E0.01679
G1 X73.610 Y102.989 E0.08123
G1 X73.075 Y102.989 E0.01679
G1 X71.247 Y101.161 E0.08123
G1 X70.713 Y101.161 E0.01679
G1 X72.541 Y102.989 E0.08123
G1 X72.007 Y102.989 E0.01679
G1 X70.178 Y101.161 E0.08123
G1 X69.644 Y101.161 E0.01679
G1 X71.472 Y102.989 E0.08123
G1 X70.938 Y102.989 E0.01679
G1 X69.110 Y101.161 E0.08123
G1 X68.575 Y101.161 E0.01679
G1 X70.403 Y102.989 E0.08123
G1 X69.869 Y102.989 E0.01679
G1 X68.041 Y101.161 E0.08123
G1 X67.507 Y101.161 E0.01679
G1 X69.335 Y102.989 E0.08123
G1 X68.800 Y102.989 E0.01679
G1 X66.972 Y101.161 E0.08123
G1 X66.438 Y101.161 E0.01679
G1 X68.266 Y102.989 E0.08123
G1 X67.731 Y102.989 E0.01679
G1 X65.903 Y101.161 E0.08123
G1 X65.369 Y101.161 E0.01679
G1 X67.197 Y102.989 E0.08123
G1 X66.663 Y102.989 E0.01679
G1 X64.835 Y101.161 E0.08123
G1 X64.300 Y101.161 E0.01679
G1 X66.128 Y102.989 E0.08123
M73 P4 R35
G1 X65.594 Y102.989 E0.01679
G1 X63.766 Y101.161 E0.08123
G1 X63.231 Y101.161 E0.01679
G1 X65.060 Y102.989 E0.08123
G1 X64.525 Y102.989 E0.01679
G1 X62.697 Y101.161 E0.08123
G1 X62.163 Y101.161 E0.01679
G1 X63.991 Y102.989 E0.08123
G1 X63.456 Y102.989 E0.01679
G1 X61.628 Y101.161 E0.08123
G1 X61.094 Y101.161 E0.01679
G1 X62.922 Y102.989 E0.08123
G1 X62.388 Y102.989 E0.01679
G1 X60.560 Y101.161 E0.08123
G1 X60.025 Y101.161 E0.01679
G1 X61.853 Y102.989 E0.08123
G1 X61.319 Y102.989 E0.01679
G1 X59.491 Y101.161 E0.08123
G1 X58.956 Y101.161 E0.01679
G1 X60.784 Y102.989 E0.08123
G1 X60.250 Y102.989 E0.01679
G1 X58.422 Y101.161 E0.08123
G1 X57.888 Y101.161 E0.01679
G1 X59.716 Y102.989 E0.08123
G1 X59.181 Y102.989 E0.01679
G1 X57.353 Y101.161 E0.08123
G1 X56.819 Y101.161 E0.01679
G1 X58.647 Y102.989 E0.08123
G1 X58.113 Y102.989 E0.01679
G1 X56.284 Y101.161 E0.08123
G1 X55.750 Y101.161 E0.01679
G1 X57.578 Y102.989 E0.08123
G1 X57.044 Y102.989 E0.01679
G1 X55.216 Y101.161 E0.08123
G1 X54.681 Y101.161 E0.01679
G1 X56.509 Y102.989 E0.08123
G1 X55.975 Y102.989 E0.01679
G1 X54.147 Y101.161 E0.08123
G1 X53.613 Y101.161 E0.01679
G1 X55.441 Y102.989 E0.08123
G1 X54.906 Y102.989 E0.01679
G1 X53.078 Y101.161 E0.08123
G1 X52.544 Y101.161 E0.01679
G1 X54.372 Y102.989 E0.08123
G1 X53.837 Y102.989 E0.01679
G1 X52.009 Y101.161 E0.08123
G1 X51.475 Y101.161 E0.01679
G1 X53.303 Y102.989 E0.08123
G1 X52.769 Y102.989 E0.01679
G1 X50.941 Y101.161 E0.08123
G1 X50.406 Y101.161 E0.01679
G1 X52.234 Y102.989 E0.08123
G1 X51.700 Y102.989 E0.01679
G1 X49.927 Y101.216 E0.07876
