; generated by PrusaSlicer 2.2.0+win64 on 2020-12-13 at 18:37:50 UTC


;
;

;
;
; 

; external perimeters extrusion width = 0.45mm
; perimeters extrusion width = 0.45mm
; infill extrusion width = 0.45mm
; solid infill extrusion width = 0.45mm
; top infill extrusion width = 0.40mm
; first layer extrusion width = 0.42mm

M73 P0 R130
M201 X1250 Y1250 Z400 E5000 ; sets maximum accelerations, mm/sec^2
M203 X180 Y180 Z12 E80 ; sets maximum feedrates, mm/sec
M204 P1250 R1250 T1250 ; sets acceleration (P, T) and retract acceleration (R), mm/sec^2
M205 X8.00 Y8.00 Z2.00 E10.00 ; sets the jerk limits, mm/sec
M205 S0 T0 ; sets the minimum extruding and travel feed rate, mm/sec
M107
G90 ; use absolute coordinates
M83 ; extruder relative mode
M104 S170 ; set extruder temp for bed leveling
M140 S60 ; set bed temp
M109 R170 ; wait for bed leveling temp
M190 S60 ; wait for bed temp
G28 ; home all without mesh bed level
G29 ; mesh bed leveling 
M104 S215 ; set extruder temp
G92 E0.0
G1 Y-2.0 X179 F2400
G1 Z3 F720
M109 S215 ; wait for extruder temp

; intro line
G1 X170 F1000
G1 Z0.2 F720
G1 X110.0 E8.0 F900
M73 P0 R130
G1 X40.0 E10.0 F700
G92 E0.0

M221 S95 ; set flow
G21 ; set units to millimeters
G90 ; use absolute coordinates
M83 ; use relative distances for extrusion
M900 K0.2 ; Filament gcode LA 1.5
; ; Filament gcode LA 1.0
;BEFORE_LAYER_CHANGE
G92 E0.0
;0.2


G1 Z0.200 F9000.000
;AFTER_LAYER_CHANGE
;0.2
G1 E-3.20000 F4200.00000
G1 Z0.400 F9000.000
G1 X48.295 Y48.344
G1 Z0.200
G1 E3.20000 F2400.00000
M204 S800
G1 F1200.000
G1 X49.065 Y47.815 E0.02931
G1 X49.980 Y47.623 E0.02931
G1 X130.004 Y47.623 E2.50909
G1 X130.902 Y47.801 E0.02872
G1 X131.664 Y48.303 E0.02860
G1 X132.182 Y49.058 E0.02872
G1 X132.377 Y49.953 E0.02872
G1 X132.377 Y130.019 E2.51041
G1 X132.199 Y130.902 E0.02825
G1 X131.705 Y131.656 E0.02825
G1 X130.924 Y132.190 E0.02966
G1 X130.000 Y132.377 E0.02957
G1 X49.981 Y132.377 E2.50894
G1 X49.098 Y132.199 E0.02825
G1 X48.344 Y131.705 E0.02825
G1 X47.810 Y130.924 E0.02966
G1 X47.623 Y130.000 E0.02957
G1 X47.623 Y49.981 E2.50894
G1 X47.801 Y49.098 E0.02825
G1 X48.262 Y48.394 E0.02637
M204 S1250
G1 E-2.24000 F4200.00000
G1 F7200.000
G1 X49.065 Y47.815 E-0.54889
G1 X49.706 Y47.680 E-0.36311
G1 E-0.04800 F4200.00000
G1 Z0.400 F9000.000
G1 X103.801 Y95.502
G1 Z0.200
G1 E3.20000 F2400.00000
M204 S800
G1 F1200.000
G1 X128.787 Y120.488 E1.10792
G1 X128.787 Y128.787 E0.26020
G1 X96.625 Y128.787 E1.00843
G1 X96.625 Y103.258 E0.80045
G1 X97.494 Y102.771 E0.03124
G1 X98.041 Y102.434 E0.02014
G1 X98.855 Y101.868 E0.03109
G1 X99.623 Y101.254 E0.03082
G1 X100.108 Y100.821 E0.02038
G1 X100.573 Y100.367 E0.02038
G1 X101.239 Y99.640 E0.03092
G1 X101.652 Y99.138 E0.02038
G1 X102.043 Y98.615 E0.02048
G1 X102.412 Y98.076 E0.02048
G1 X102.753 Y97.524 E0.02034
G1 X103.275 Y96.560 E0.03438
G1 X103.774 Y95.556 E0.03515
M204 S1250
G1 X103.905 Y96.140 F9000.000
M204 S800
G1 F1200.000
G1 X128.410 Y120.645 E1.08659
G1 X128.410 Y128.410 E0.24348
G1 X97.002 Y128.410 E0.98478
G1 X97.002 Y103.479 E0.78170
G1 X97.685 Y103.096 E0.02456
G1 X98.248 Y102.750 E0.02071
G1 X99.081 Y102.170 E0.03181
G1 X99.866 Y101.542 E0.03154
G1 X100.365 Y101.097 E0.02097
G1 X100.844 Y100.630 E0.02097
G1 X101.524 Y99.888 E0.03157
G1 X101.948 Y99.371 E0.02097
G1 X102.350 Y98.835 E0.02100
G1 X102.728 Y98.281 E0.02100
G1 X103.080 Y97.713 E0.02095
G1 X103.609 Y96.733 E0.03493
G1 X103.878 Y96.193 E0.01892
M204 S1250
G1 X104.158 Y95.830 F9000.000
G1 E-2.24000 F4200.00000
G1 F7200.000
G1 X105.044 Y97.355 E-0.91200
G1 E-0.04800 F4200.00000
G1 Z0.400 F9000.000
G1 X95.868 Y103.650
G1 Z0.200
G1 E3.20000 F2400.00000
M204 S800
G1 F1200.000
G1 X95.868 Y128.787 E0.78816
G1 X61.956 Y128.787 E1.06329
G1 X61.554 Y127.815 E0.03298
G1 X85.310 Y104.059 E1.05339
G1 X86.269 Y104.330 E0.03124
G1 X86.894 Y104.478 E0.02014
G1 X87.869 Y104.653 E0.03109
G1 X88.859 Y104.763 E0.03120
G1 X89.495 Y104.799 E0.01999
G1 X90.149 Y104.807 E0.02048
G1 X90.801 Y104.786 E0.02048
G1 X91.450 Y104.736 E0.02038
G1 X92.427 Y104.607 E0.03092
G1 X93.066 Y104.487 E0.02038
G1 X93.698 Y104.338 E0.02034
G1 X94.748 Y104.025 E0.03438
G1 X95.811 Y103.669 E0.03515
M204 S1250
G1 X95.491 Y104.174 F9000.000
M204 S800
G1 F1200.000
G1 X95.491 Y128.410 E0.75991
G1 X62.208 Y128.410 E1.04356
G1 X61.998 Y127.904 E0.01718
G1 X85.420 Y104.482 E1.03856
G1 X86.174 Y104.695 E0.02456
G1 X86.817 Y104.847 E0.02071
G1 X87.815 Y105.027 E0.03181
G1 X88.827 Y105.139 E0.03193
G1 X89.482 Y105.176 E0.02058
G1 X90.152 Y105.184 E0.02100
G1 X90.822 Y105.162 E0.02100
G1 X91.489 Y105.112 E0.02097
G1 X92.487 Y104.980 E0.03157
G1 X93.144 Y104.856 E0.02097
G1 X93.795 Y104.703 E0.02095
G1 X94.862 Y104.385 E0.03493
G1 X95.434 Y104.193 E0.01892
M204 S1250
G1 X95.889 Y104.133 F9000.000
G1 E-2.24000 F4200.00000
G1 F7200.000
G1 X95.438 Y105.839 E-0.91200
G1 E-0.04800 F4200.00000
G1 Z0.400 F9000.000
G1 X103.662 Y84.132
G1 Z0.200
G1 E3.20000 F2400.00000
M204 S800
G1 F1200.000
G1 X128.787 Y84.132 E0.78777
G1 X128.787 Y118.044 E1.06329
G1 X127.815 Y118.446 E0.03298
G1 X104.059 Y94.690 E1.05339
G1 X104.330 Y93.731 E0.03124
G1 X104.480 Y93.095 E0.02050
G1 X104.603 Y92.453 E0.02050
G1 X104.696 Y91.810 E0.02038
G1 X104.784 Y90.828 E0.03092
G1 X104.806 Y90.178 E0.02038
G1 X104.800 Y89.528 E0.02038
G1 X104.736 Y88.544 E0.03092
G1 X104.658 Y87.899 E0.02038
G1 X104.551 Y87.254 E0.02048
G1 X104.416 Y86.615 E0.02048
G1 X104.253 Y85.986 E0.02037
G1 X103.681 Y84.189 E0.05913
M204 S1250
G1 X104.178 Y84.509 F9000.000
M204 S800
G1 F1200.000
G1 X128.410 Y84.509 E0.75977
G1 X128.410 Y117.792 E1.04356
G1 X127.904 Y118.002 E0.01718
G1 X104.482 Y94.580 E1.03856
G1 X104.695 Y93.826 E0.02456
G1 X104.849 Y93.174 E0.02101
G1 X104.975 Y92.516 E0.02102
G1 X105.071 Y91.854 E0.02097
G1 X105.161 Y90.851 E0.03157
G1 X105.184 Y90.183 E0.02097
G1 X105.177 Y89.514 E0.02097
G1 X105.111 Y88.509 E0.03157
G1 X105.031 Y87.845 E0.02097
G1 X104.921 Y87.184 E0.02100
G1 X104.783 Y86.529 E0.02100
G1 X104.616 Y85.882 E0.02096
G1 X104.197 Y84.566 E0.04329
M204 S1250
G1 X104.140 Y84.111 F9000.000
G1 E-2.24000 F4200.00000
G1 F7200.000
G1 X105.842 Y84.562 E-0.91200
G1 E-0.04800 F4200.00000
G1 Z0.400 F9000.000
G1 X128.787 Y51.213
G1 Z0.200
G1 E3.20000 F2400.00000
M204 S800
G1 F1200.000
G1 X128.787 Y83.375 E1.00843
G1 X103.258 Y83.375 E0.80045
M73 P0 R129
G1 X102.771 Y82.506 E0.03124
G1 X102.428 Y81.950 E0.02050
G1 X102.060 Y81.409 E0.02050
G1 X101.670 Y80.885 E0.02048
G1 X101.257 Y80.379 E0.02048
G1 X100.823 Y79.895 E0.02038
G1 X100.129 Y79.199 E0.03082
G1 X99.390 Y78.551 E0.03082
G1 X98.879 Y78.150 E0.02038
G1 X98.347 Y77.770 E0.02048
G1 X97.800 Y77.413 E0.02048
G1 X97.240 Y77.083 E0.02037
G1 X95.511 Y76.190 E0.06101
G1 X120.488 Y51.213 E1.10752
G1 X128.727 Y51.213 E0.25832
M204 S1250
G1 X128.410 Y51.590 F9000.000
M204 S800
G1 F1200.000
G1 X128.410 Y82.998 E0.98478
G1 X103.479 Y82.998 E0.78170
G1 X103.096 Y82.315 E0.02456
G1 X102.744 Y81.744 E0.02101
G1 X102.368 Y81.190 E0.02102
G1 X101.967 Y80.653 E0.02100
G1 X101.543 Y80.134 E0.02100
G1 X101.098 Y79.636 E0.02097
G1 X100.387 Y78.924 E0.03154
G1 X99.631 Y78.260 E0.03154
G1 X99.105 Y77.848 E0.02097
G1 X98.560 Y77.458 E0.02100
G1 X97.999 Y77.093 E0.02100
G1 X97.423 Y76.753 E0.02096
G1 X96.143 Y76.092 E0.04517
G1 X120.645 Y51.590 E1.08645
G1 X128.350 Y51.590 E0.24160
M204 S1250
G1 X128.801 Y51.504 F9000.000
G1 E-2.24000 F4200.00000
G1 F7200.000
G1 X128.353 Y53.236 E-0.91200
G1 E-0.04800 F4200.00000
G1 Z0.400 F9000.000
G1 X118.446 Y52.185
G1 Z0.200
G1 E3.20000 F2400.00000
M204 S800
G1 F1200.000
G1 X94.690 Y75.941 E1.05339
G1 X93.731 Y75.670 E0.03124
G1 X93.095 Y75.520 E0.02050
G1 X92.453 Y75.397 E0.02050
G1 X91.810 Y75.304 E0.02038
G1 X90.828 Y75.216 E0.03092
G1 X90.178 Y75.194 E0.02038
G1 X89.528 Y75.200 E0.02038
G1 X88.544 Y75.264 E0.03092
G1 X87.899 Y75.342 E0.02038
G1 X87.254 Y75.449 E0.02048
G1 X86.615 Y75.584 E0.02048
G1 X85.986 Y75.747 E0.02037
G1 X84.132 Y76.338 E0.06101
G1 X84.132 Y51.213 E0.78777
G1 X118.044 Y51.213 E1.06329
G1 X118.424 Y52.129 E0.03110
M204 S1250
G1 X118.002 Y52.096 F9000.000
M204 S800
G1 F1200.000
G1 X94.580 Y75.518 E1.03856
G1 X93.826 Y75.305 E0.02456
G1 X93.174 Y75.151 E0.02101
G1 X92.516 Y75.025 E0.02102
G1 X91.854 Y74.929 E0.02097
G1 X90.851 Y74.839 E0.03157
G1 X90.183 Y74.816 E0.02097
G1 X89.514 Y74.823 E0.02097
G1 X88.509 Y74.889 E0.03157
G1 X87.845 Y74.969 E0.02097
G1 X87.184 Y75.079 E0.02100
G1 X86.529 Y75.217 E0.02100
G1 X85.882 Y75.384 E0.02096
G1 X84.509 Y75.822 E0.04517
G1 X84.509 Y51.590 E0.75977
G1 X117.792 Y51.590 E1.04356
G1 X117.979 Y52.041 E0.01530
M204 S1250
G1 X118.347 Y52.298 F9000.000
G1 E-2.24000 F4200.00000
G1 F7200.000
G1 X116.817 Y53.206 E-0.91200
G1 E-0.04800 F4200.00000
G1 Z0.400 F9000.000
G1 X51.213 Y51.213
G1 Z0.200
G1 E3.20000 F2400.00000
M204 S800
G1 F1200.000
G1 X83.375 Y51.213 E1.00843
G1 X83.375 Y76.742 E0.80045
G1 X82.506 Y77.229 E0.03124
G1 X81.950 Y77.572 E0.02050
G1 X81.409 Y77.940 E0.02050
G1 X80.885 Y78.330 E0.02048
G1 X80.379 Y78.743 E0.02048
G1 X79.895 Y79.177 E0.02038
G1 X79.199 Y79.871 E0.03082
G1 X78.551 Y80.610 E0.03082
G1 X78.150 Y81.121 E0.02038
G1 X77.770 Y81.653 E0.02048
G1 X77.413 Y82.200 E0.02048
G1 X77.083 Y82.760 E0.02037
G1 X76.190 Y84.489 E0.06101
G1 X51.213 Y59.512 E1.10752
G1 X51.213 Y51.273 E0.25832
M204 S1250
G1 X51.590 Y51.590 F9000.000
M204 S800
G1 F1200.000
G1 X82.998 Y51.590 E0.98478
G1 X82.998 Y76.521 E0.78170
G1 X82.315 Y76.904 E0.02456
G1 X81.744 Y77.256 E0.02101
G1 X81.190 Y77.632 E0.02102
G1 X80.653 Y78.033 E0.02100
G1 X80.134 Y78.457 E0.02100
G1 X79.636 Y78.902 E0.02097
G1 X78.924 Y79.613 E0.03154
G1 X78.260 Y80.369 E0.03154
G1 X77.848 Y80.895 E0.02097
G1 X77.458 Y81.440 E0.02100
G1 X77.093 Y82.001 E0.02100
G1 X76.753 Y82.577 E0.02096
G1 X76.092 Y83.857 E0.04517
G1 X51.590 Y59.355 E1.08645
G1 X51.590 Y51.650 E0.24160
M204 S1250
G1 X51.504 Y51.199 F9000.000
G1 E-2.24000 F4200.00000
G1 F7200.000
G1 X53.236 Y51.647 E-0.91200
G1 E-0.04800 F4200.00000
G1 Z0.400 F9000.000
G1 X52.185 Y61.554
G1 Z0.200
G1 E3.20000 F2400.00000
M204 S800
G1 F1200.000
G1 X75.941 Y85.310 E1.05339
G1 X75.670 Y86.269 E0.03124
G1 X75.520 Y86.905 E0.02050
G1 X75.397 Y87.547 E0.02050
G1 X75.304 Y88.190 E0.02038
G1 X75.216 Y89.172 E0.03092
G1 X75.194 Y89.822 E0.02038
G1 X75.200 Y90.472 E0.02038
G1 X75.264 Y91.456 E0.03092
G1 X75.342 Y92.101 E0.02038
G1 X75.449 Y92.746 E0.02048
G1 X75.584 Y93.385 E0.02048
G1 X75.747 Y94.014 E0.02037
G1 X76.338 Y95.868 E0.06101
G1 X51.213 Y95.868 E0.78777
G1 X51.213 Y61.956 E1.06329
G1 X52.129 Y61.576 E0.03110
M204 S1250
G1 X52.096 Y61.998 F9000.000
M204 S800
G1 F1200.000
G1 X75.518 Y85.420 E1.03856
G1 X75.305 Y86.174 E0.02456
G1 X75.151 Y86.826 E0.02101
G1 X75.025 Y87.484 E0.02102
G1 X74.929 Y88.146 E0.02097
G1 X74.839 Y89.149 E0.03157
G1 X74.816 Y89.817 E0.02097
G1 X74.823 Y90.486 E0.02097
G1 X74.889 Y91.491 E0.03157
G1 X74.969 Y92.155 E0.02097
G1 X75.079 Y92.816 E0.02100
G1 X75.217 Y93.471 E0.02100
G1 X75.384 Y94.118 E0.02096
G1 X75.822 Y95.491 E0.04517
G1 X51.590 Y95.491 E0.75977
G1 X51.590 Y62.208 E1.04356
G1 X52.041 Y62.021 E0.01530
M204 S1250
G1 X52.298 Y61.653 F9000.000
G1 E-2.24000 F4200.00000
G1 F7200.000
G1 X53.206 Y63.183 E-0.91200
G1 E-0.04800 F4200.00000
G1 Z0.400 F9000.000
G1 X51.213 Y128.787
G1 Z0.200
G1 E3.20000 F2400.00000
M204 S800
G1 F1200.000
G1 X51.213 Y96.625 E1.00843
G1 X76.742 Y96.625 E0.80045
G1 X77.229 Y97.494 E0.03124
G1 X77.572 Y98.050 E0.02050
G1 X77.940 Y98.591 E0.02050
G1 X78.330 Y99.115 E0.02048
G1 X78.743 Y99.621 E0.02048
G1 X79.177 Y100.105 E0.02038
G1 X79.871 Y100.801 E0.03082
G1 X80.610 Y101.449 E0.03082
G1 X81.121 Y101.850 E0.02038
G1 X81.653 Y102.230 E0.02048
G1 X82.200 Y102.587 E0.02048
G1 X82.760 Y102.917 E0.02037
G1 X84.489 Y103.810 E0.06101
G1 X59.512 Y128.787 E1.10752
G1 X51.273 Y128.787 E0.25832
M204 S1250
G1 X51.590 Y128.410 F9000.000
M204 S800
G1 F1200.000
G1 X51.590 Y97.002 E0.98478
G1 X76.521 Y97.002 E0.78170
G1 X76.904 Y97.685 E0.02456
G1 X77.256 Y98.256 E0.02101
G1 X77.632 Y98.810 E0.02102
G1 X78.033 Y99.347 E0.02100
G1 X78.457 Y99.866 E0.02100
G1 X78.902 Y100.364 E0.02097
G1 X79.613 Y101.076 E0.03154
G1 X80.369 Y101.740 E0.03154
G1 X80.895 Y102.152 E0.02097
G1 X81.440 Y102.542 E0.02100
G1 X82.001 Y102.907 E0.02100
G1 X82.577 Y103.247 E0.02096
G1 X83.857 Y103.908 E0.04517
G1 X59.355 Y128.410 E1.08645
G1 X51.650 Y128.410 E0.24160
M204 S1250
G1 X51.199 Y128.496 F9000.000
G1 X50.787 Y129.213
M204 S800
G1 F1200.000
G1 X50.787 Y50.787 E2.45899
G1 X129.213 Y50.787 E2.45899
M73 P1 R128
G1 X129.213 Y129.213 E2.45899
G1 X50.847 Y129.213 E2.45711
M204 S1250
G1 X50.410 Y129.590 F9000.000
M204 S800
G1 F1200.000
G1 X50.410 Y50.410 E2.48263
G1 X129.590 Y50.410 E2.48263
G1 X129.590 Y129.590 E2.48263
G1 X50.470 Y129.590 E2.48075
M204 S1250
G1 X50.514 Y129.204 F9000.000
G1 E-2.24000 F4200.00000
G1 F7200.000
G1 X50.469 Y127.944 E-0.91200
G1 E-0.04800 F4200.00000
G1 Z0.400 F9000.000
G1 X60.208 Y129.100
G1 Z0.200
G1 E3.20000 F2400.00000
M204 S800
G1 F1200.000
G1 X59.904 Y128.795 E0.01354
G1 X60.171 Y128.528 E0.01186
G1 X60.573 Y128.930 E0.01786
G1 X61.107 Y128.930 E0.01677
G1 X60.438 Y128.261 E0.02972
G1 X60.705 Y127.994 E0.01186
G1 X61.641 Y128.930 E0.04157
G1 X61.709 Y128.930 E0.00215
G1 X61.380 Y128.135 E0.02702
G1 X60.972 Y127.727 E0.01813
G1 X61.239 Y127.460 E0.01186
G1 X61.374 Y127.595 E0.00600
G1 X61.641 Y127.328 E0.01186
G1 X61.506 Y127.193 E0.00600
G1 X61.773 Y126.926 E0.01186
G1 X61.908 Y127.061 E0.00600
G1 X62.175 Y126.794 E0.01186
G1 X62.040 Y126.659 E0.00600
G1 X62.307 Y126.392 E0.01186
G1 X62.442 Y126.527 E0.00600
G1 X62.709 Y126.260 E0.01186
G1 X62.574 Y126.125 E0.00600
G1 X62.841 Y125.858 E0.01186
G1 X62.976 Y125.993 E0.00600
G1 X63.243 Y125.726 E0.01186
G1 X63.108 Y125.591 E0.00600
G1 X63.375 Y125.324 E0.01186
G1 X63.510 Y125.459 E0.00600
G1 X63.777 Y125.192 E0.01186
G1 X63.642 Y125.057 E0.00600
G1 X63.909 Y124.790 E0.01186
G1 X64.044 Y124.925 E0.00600
G1 X64.311 Y124.658 E0.01186
G1 X64.176 Y124.523 E0.00600
G1 X64.443 Y124.256 E0.01186
G1 X64.578 Y124.391 E0.00600
G1 X64.845 Y124.124 E0.01186
G1 X64.710 Y123.989 E0.00600
G1 X64.977 Y123.722 E0.01186
G1 X65.112 Y123.857 E0.00600
G1 X65.379 Y123.590 E0.01186
G1 X65.244 Y123.455 E0.00600
G1 X65.511 Y123.188 E0.01186
G1 X65.646 Y123.323 E0.00600
G1 X65.913 Y123.056 E0.01186
G1 X65.778 Y122.921 E0.00600
G1 X66.045 Y122.654 E0.01186
G1 X66.180 Y122.789 E0.00600
G1 X66.447 Y122.522 E0.01186
G1 X66.312 Y122.386 E0.00600
G1 X66.579 Y122.119 E0.01186
G1 X66.714 Y122.255 E0.00600
G1 X66.981 Y121.988 E0.01186
G1 X66.846 Y121.852 E0.00600
G1 X67.113 Y121.585 E0.01186
G1 X67.248 Y121.721 E0.00600
G1 X67.515 Y121.454 E0.01186
G1 X67.380 Y121.318 E0.00600
G1 X67.647 Y121.051 E0.01186
G1 X67.782 Y121.187 E0.00600
G1 X68.049 Y120.920 E0.01186
G1 X67.914 Y120.784 E0.00600
G1 X68.181 Y120.517 E0.01186
G1 X68.316 Y120.653 E0.00600
G1 X68.583 Y120.385 E0.01186
G1 X68.448 Y120.250 E0.00600
G1 X68.715 Y119.983 E0.01186
G1 X68.850 Y120.118 E0.00600
G1 X69.117 Y119.851 E0.01186
G1 X68.982 Y119.716 E0.00600
G1 X69.249 Y119.449 E0.01186
G1 X69.384 Y119.584 E0.00600
G1 X69.652 Y119.317 E0.01186
G1 X69.516 Y119.182 E0.00600
G1 X69.783 Y118.915 E0.01186
G1 X69.919 Y119.050 E0.00600
G1 X70.186 Y118.783 E0.01186
G1 X70.050 Y118.648 E0.00600
G1 X70.317 Y118.381 E0.01186
G1 X70.453 Y118.516 E0.00600
G1 X70.720 Y118.249 E0.01186
G1 X70.584 Y118.114 E0.00600
G1 X70.851 Y117.847 E0.01186
G1 X70.987 Y117.982 E0.00600
G1 X71.254 Y117.715 E0.01186
G1 X71.118 Y117.580 E0.00600
G1 X71.385 Y117.313 E0.01186
G1 X71.521 Y117.448 E0.00600
G1 X71.788 Y117.181 E0.01186
G1 X71.652 Y117.046 E0.00600
G1 X71.920 Y116.779 E0.01186
G1 X72.055 Y116.914 E0.00600
G1 X72.322 Y116.647 E0.01186
G1 X72.187 Y116.512 E0.00600
G1 X72.454 Y116.245 E0.01186
G1 X72.589 Y116.380 E0.00600
G1 X72.856 Y116.113 E0.01186
G1 X72.721 Y115.978 E0.00600
G1 X72.988 Y115.711 E0.01186
G1 X73.123 Y115.846 E0.00600
G1 X73.390 Y115.579 E0.01186
G1 X73.255 Y115.444 E0.00600
G1 X73.522 Y115.177 E0.01186
G1 X73.657 Y115.312 E0.00600
G1 X73.924 Y115.045 E0.01186
G1 X73.789 Y114.910 E0.00600
G1 X74.056 Y114.643 E0.01186
