; generated by PrusaSlicer 2.3.0+win64 on 2021-04-06 at 06:47:04 UTC


;
;

;
;
; 

; external perimeters extrusion width = 0.45mm
; perimeters extrusion width = 0.45mm
; infill extrusion width = 0.45mm
; solid infill extrusion width = 0.45mm
; top infill extrusion width = 0.40mm
; first layer extrusion width = 0.42mm

M73 P0 R11
M201 X1250 Y1250 Z400 E5000 ; sets maximum accelerations, mm/sec^2
M203 X180 Y180 Z12 E80 ; sets maximum feedrates, mm/sec
M204 P1250 R1250 T1250 ; sets acceleration (P, T) and retract acceleration (R), mm/sec^2
M205 X8.00 Y8.00 Z2.00 E10.00 ; sets the jerk limits, mm/sec
M205 S0 T0 ; sets the minimum extruding and travel feed rate, mm/sec
M107
;TYPE:Custom
G90 ; use absolute coordinates
M83 ; extruder relative mode
M104 S170 ; set extruder temp for bed leveling
M140 S60 ; set bed temp
M109 R170 ; wait for bed leveling temp
M190 S60 ; wait for bed temp
G28 ; home all without mesh bed level
G29 ; mesh bed leveling 
M104 S215 ; set extruder temp
G92 E0.0
G1 Y-2.0 X179 F2400
G1 Z3 F720
M109 S215 ; wait for extruder temp

; intro line
G1 X170 F1000
G1 Z0.2 F720
G1 X110.0 E8.0 F900
M73 P1 R10
G1 X40.0 E10.0 F700
G92 E0.0

M221 S95 ; set flow
G21 ; set units to millimeters
G90 ; use absolute coordinates
M83 ; use relative distances for extrusion
M900 K0.2 ; Filament gcode LA 1.5
; ; Filament gcode LA 1.0
;LAYER_CHANGE
;Z:0.2
;HEIGHT:0.2
;BEFORE_LAYER_CHANGE
G92 E0.0
;0.2


M73 P2 R10
G1 E-3.20000 F4200.000
G1 Z0.200 F9000.000
;AFTER_LAYER_CHANGE
;0.2
G1 Z0.400
G1 X68.510 Y78.082
G1 Z0.200
G1 E3.20000 F2400.000
M204 S800
;TYPE:Skirt
;WIDTH:0.42
G1 F1200.000
G1 X69.708 Y77.126 E0.04805
G1 X71.368 Y76.078 E0.06156
G1 X73.439 Y75.129 E0.07143
G1 X75.309 Y74.558 E0.06132
G1 X77.546 Y74.190 E0.07108
G1 X79.077 Y74.123 E0.04805
G1 X100.920 Y74.123 E0.68486
G1 X102.085 Y74.160 E0.03655
G1 X103.558 Y74.330 E0.04649
G1 X105.833 Y74.876 E0.07335
G1 X106.945 Y75.278 E0.03708
G1 X108.292 Y75.897 E0.04649
G1 X110.286 Y77.121 E0.07336
G1 X111.218 Y77.848 E0.03708
G1 X112.307 Y78.855 E0.04649
G1 X113.823 Y80.637 E0.07336
G1 X114.484 Y81.618 E0.03708
G1 X115.207 Y82.912 E0.04648
G1 X116.094 Y85.077 E0.07336
M73 P3 R10
G1 X116.419 Y86.214 E0.03708
G1 X116.705 Y87.668 E0.04649
G1 X116.877 Y90.002 E0.07336
G1 X116.705 Y92.332 E0.07325
G1 X116.418 Y93.790 E0.04661
G1 X116.095 Y94.923 E0.03694
G1 X115.207 Y97.088 E0.07337
G1 X114.482 Y98.386 E0.04660
G1 X113.823 Y99.362 E0.03694
G1 X112.307 Y101.145 E0.07337
G1 X111.218 Y102.152 E0.04649
G1 X110.292 Y102.874 E0.03682
G1 X108.632 Y103.922 E0.06156
G1 X106.561 Y104.871 E0.07143
G1 X104.691 Y105.442 E0.06132
G1 X102.439 Y105.812 E0.07155
G1 X100.916 Y105.877 E0.04778
G1 X79.076 Y105.877 E0.68478
G1 X77.588 Y105.814 E0.04669
G1 X76.018 Y105.594 E0.04972
G1 X74.306 Y105.166 E0.05533
G1 X72.735 Y104.589 E0.05248
G1 X71.317 Y103.894 E0.04950
G1 X69.739 Y102.896 E0.05855
G1 X68.510 Y101.918 E0.04925
G1 X67.165 Y100.584 E0.05940
G1 X66.175 Y99.360 E0.04937
G1 X65.331 Y98.076 E0.04817
G1 X64.612 Y96.714 E0.04829
G1 X64.029 Y95.288 E0.04829
G1 X63.588 Y93.813 E0.04829
G1 X63.291 Y92.301 E0.04829
G1 X63.142 Y90.768 E0.04829
G1 X63.142 Y89.228 E0.04829
G1 X63.295 Y87.668 E0.04914
G1 X63.595 Y86.158 E0.04829
G1 X64.141 Y84.406 E0.05752
G1 X64.778 Y82.943 E0.05003
G1 X65.516 Y81.618 E0.04758
G1 X66.408 Y80.329 E0.04913
G1 X67.404 Y79.155 E0.04829
G1 X68.467 Y78.124 E0.04641
M204 S1250
; printing object pot_reenforce_01.stl id:0 copy 0
G1 E-2.24000 F4200.000
;WIPE_START
G1 F7200.000
G1 X69.708 Y77.126 E-0.88240
G1 X69.753 Y77.098 E-0.02960
;WIPE_END
G1 E-0.04800 F4200.000
G1 Z0.400 F9000.000
G1 X96.218 Y88.046
G1 Z0.200
G1 E3.20000 F2400.000
M204 S800
;TYPE:Perimeter
G1 F1200.000
G1 X96.416 Y87.619 E0.01477
G1 X96.646 Y87.221 E0.01443
G1 X96.917 Y86.836 E0.01474
G1 X97.343 Y86.353 E0.02021
G1 X97.708 Y86.020 E0.01549
G1 X98.077 Y85.742 E0.01449
G1 X98.467 Y85.498 E0.01443
G1 X98.888 Y85.286 E0.01477
G1 X99.514 Y85.053 E0.02096
G1 X99.971 Y84.938 E0.01477
G1 X100.426 Y84.867 E0.01443
G1 X100.896 Y84.835 E0.01477
G1 X101.564 Y84.865 E0.02096
G1 X102.029 Y84.938 E0.01477
G1 X102.475 Y85.050 E0.01443
G1 X102.910 Y85.201 E0.01443
G1 X103.330 Y85.390 E0.01443
G1 X103.740 Y85.621 E0.01477
G1 X104.283 Y86.011 E0.02096
G1 X104.632 Y86.327 E0.01477
G1 X104.944 Y86.665 E0.01443
G1 X105.232 Y87.037 E0.01474
G1 X105.567 Y87.588 E0.02021
G1 X105.777 Y88.035 E0.01549
G1 X105.933 Y88.470 E0.01449
G1 X106.050 Y88.915 E0.01443
G1 X106.128 Y89.377 E0.01468
G1 X106.166 Y89.993 E0.01938
G1 X106.140 Y90.514 E0.01635
G1 X106.073 Y90.972 E0.01452
G1 X105.966 Y91.420 E0.01443
G1 X105.820 Y91.856 E0.01443
G1 X105.636 Y92.278 E0.01443
G1 X105.415 Y92.682 E0.01443
G1 X105.152 Y93.073 E0.01477
G1 X104.721 Y93.583 E0.02096
G1 X104.379 Y93.907 E0.01477
G1 X104.010 Y94.198 E0.01474
G1 X103.463 Y94.540 E0.02021
G1 X103.018 Y94.755 E0.01549
G1 X102.575 Y94.920 E0.01482
G1 X101.926 Y95.082 E0.02096
G1 X101.460 Y95.145 E0.01477
G1 X101.000 Y95.165 E0.01443
G1 X100.540 Y95.145 E0.01443
G1 X100.074 Y95.082 E0.01477
G1 X99.425 Y94.920 E0.02096
G1 X98.984 Y94.755 E0.01477
G1 X98.568 Y94.557 E0.01443
M73 P4 R10
G1 X98.172 Y94.322 E0.01443
G1 X97.791 Y94.048 E0.01474
G1 X97.312 Y93.616 E0.02021
G1 X96.983 Y93.248 E0.01549
G1 X96.709 Y92.876 E0.01449
G1 X96.470 Y92.482 E0.01443
G1 X96.267 Y92.069 E0.01443
G1 X96.099 Y91.631 E0.01474
G1 X95.934 Y91.007 E0.02021
G1 X95.861 Y90.519 E0.01549
G1 X95.835 Y90.058 E0.01449
G1 X95.851 Y89.598 E0.01443
G1 X95.907 Y89.141 E0.01443
G1 X96.006 Y88.680 E0.01477
G1 X96.199 Y88.103 E0.01908
M204 S1250
G1 X96.557 Y88.223 F9000.000
M204 S800
G1 F1200.000
G1 X96.751 Y87.793 E0.01479
G1 X96.964 Y87.424 E0.01337
G1 X97.213 Y87.070 E0.01356
G1 X97.612 Y86.617 E0.01891
G1 X97.949 Y86.310 E0.01429
G1 X98.290 Y86.053 E0.01341
G1 X98.652 Y85.827 E0.01337
G1 X99.039 Y85.632 E0.01358
G1 X99.626 Y85.413 E0.01964
G1 X100.046 Y85.308 E0.01358
G1 X100.468 Y85.242 E0.01337
G1 X100.900 Y85.213 E0.01358
G1 X101.526 Y85.241 E0.01964
G1 X101.954 Y85.308 E0.01358
G1 X102.367 Y85.412 E0.01337
G1 X102.770 Y85.552 E0.01337
G1 X103.159 Y85.727 E0.01337
G1 X103.537 Y85.939 E0.01358
G1 X104.045 Y86.305 E0.01964
G1 X104.367 Y86.596 E0.01358
G1 X104.656 Y86.909 E0.01337
G1 X104.920 Y87.251 E0.01356
G1 X105.235 Y87.766 E0.01891
G1 X105.428 Y88.179 E0.01429
G1 X105.573 Y88.582 E0.01341
G1 X105.681 Y88.994 E0.01337
G1 X105.753 Y89.420 E0.01353
G1 X105.788 Y89.996 E0.01809
G1 X105.764 Y90.478 E0.01513
G1 X105.702 Y90.901 E0.01343
G1 X105.603 Y91.316 E0.01337
G1 X105.468 Y91.721 E0.01337
G1 X105.297 Y92.112 E0.01337
G1 X105.092 Y92.486 E0.01337
G1 X104.851 Y92.845 E0.01358
G1 X104.446 Y93.324 E0.01964
G1 X104.132 Y93.621 E0.01358
G1 X103.792 Y93.890 E0.01356
G1 X103.281 Y94.209 E0.01891
G1 X102.870 Y94.407 E0.01429
G1 X102.463 Y94.559 E0.01361
G1 X101.855 Y94.711 E0.01964
G1 X101.426 Y94.769 E0.01358
G1 X101.000 Y94.788 E0.01337
G1 X100.574 Y94.769 E0.01337
G1 X100.145 Y94.711 E0.01358
G1 X99.537 Y94.559 E0.01964
G1 X99.131 Y94.408 E0.01358
G1 X98.746 Y94.224 E0.01337
G1 X98.379 Y94.007 E0.01337
G1 X98.028 Y93.754 E0.01356
G1 X97.580 Y93.350 E0.01891
G1 X97.277 Y93.010 E0.01429
G1 X97.023 Y92.665 E0.01341
G1 X96.801 Y92.301 E0.01337
G1 X96.613 Y91.918 E0.01337
G1 X96.458 Y91.514 E0.01356
G1 X96.304 Y90.931 E0.01891
G1 X96.236 Y90.480 E0.01429
G1 X96.213 Y90.053 E0.01341
G1 X96.227 Y89.627 E0.01337
G1 X96.279 Y89.204 E0.01337
G1 X96.370 Y88.780 E0.01358
G1 X96.537 Y88.280 E0.01654
M204 S1250
G1 X96.895 Y88.400 F9000.000
M204 S800
;TYPE:External perimeter
G1 F1200.000
G1 X97.086 Y87.967 E0.01482
G1 X97.283 Y87.627 E0.01232
G1 X97.510 Y87.304 E0.01239
G1 X97.881 Y86.882 E0.01762
G1 X98.190 Y86.601 E0.01310
G1 X98.504 Y86.364 E0.01233
G1 X98.838 Y86.156 E0.01232
G1 X99.190 Y85.978 E0.01239
G1 X99.738 Y85.774 E0.01833
G1 X100.122 Y85.678 E0.01239
G1 X100.510 Y85.617 E0.01232
G1 X100.904 Y85.591 E0.01239
G1 X101.488 Y85.617 E0.01833
G1 X101.878 Y85.678 E0.01239
G1 X102.260 Y85.773 E0.01232
G1 X102.631 Y85.902 E0.01232
G1 X102.989 Y86.064 E0.01232
G1 X103.334 Y86.258 E0.01239
G1 X103.808 Y86.599 E0.01833
G1 X104.101 Y86.864 E0.01239
G1 X104.368 Y87.153 E0.01232
G1 X104.609 Y87.465 E0.01239
G1 X104.902 Y87.945 E0.01762
G1 X105.079 Y88.323 E0.01310
G1 X105.212 Y88.693 E0.01233
G1 X105.312 Y89.073 E0.01232
G1 X105.377 Y89.463 E0.01237
G1 X105.410 Y89.998 E0.01681
G1 X105.388 Y90.441 E0.01391
G1 X105.331 Y90.830 E0.01234
G1 X105.240 Y91.212 E0.01232
G1 X105.116 Y91.585 E0.01232
G1 X104.958 Y91.945 E0.01232
G1 X104.769 Y92.290 E0.01232
G1 X104.549 Y92.618 E0.01239
G1 X104.172 Y93.064 E0.01833
G1 X103.885 Y93.336 E0.01239
G1 X103.575 Y93.581 E0.01239
G1 X103.098 Y93.879 E0.01762
G1 X102.722 Y94.060 E0.01310
G1 X102.351 Y94.198 E0.01241
G1 X101.784 Y94.340 E0.01833
G1 X101.393 Y94.393 E0.01239
G1 X101.000 Y94.410 E0.01232
G1 X100.607 Y94.393 E0.01232
G1 X100.216 Y94.340 E0.01239
G1 X99.649 Y94.198 E0.01833
G1 X99.278 Y94.060 E0.01239
G1 X98.924 Y93.891 E0.01232
G1 X98.586 Y93.691 E0.01232
G1 X98.265 Y93.460 E0.01239
G1 X97.848 Y93.084 E0.01762
G1 X97.570 Y92.772 E0.01310
G1 X97.336 Y92.455 E0.01233
G1 X97.132 Y92.119 E0.01232
G1 X96.959 Y91.767 E0.01232
G1 X96.817 Y91.398 E0.01239
G1 X96.674 Y90.855 E0.01762
G1 X96.612 Y90.442 E0.01310
G1 X96.590 Y90.049 E0.01233
G1 X96.603 Y89.656 E0.01232
G1 X96.651 Y89.266 E0.01232
G1 X96.734 Y88.880 E0.01239
G1 X96.876 Y88.457 E0.01400
M204 S1250
G1 X96.644 Y88.088 F9000.000
G1 E-2.24000 F4200.000
;WIPE_START
G1 F7200.000
G1 X97.086 Y87.967 E-0.29514
G1 X97.283 Y87.627 E-0.21775
G1 X97.510 Y87.304 E-0.21894
G1 X97.725 Y87.060 E-0.18017
;WIPE_END
G1 E-0.04800 F4200.000
G1 Z0.400 F9000.000
G1 X84.128 Y89.377
G1 Z0.200
G1 E3.20000 F2400.000
M204 S800
;TYPE:Perimeter
G1 F1200.000
G1 X84.166 Y89.993 E0.01938
G1 X84.140 Y90.514 E0.01635
G1 X84.073 Y90.972 E0.01452
G1 X83.966 Y91.420 E0.01443
G1 X83.820 Y91.856 E0.01443
G1 X83.636 Y92.278 E0.01443
G1 X83.415 Y92.682 E0.01443
G1 X83.152 Y93.073 E0.01477
G1 X82.721 Y93.583 E0.02096
G1 X82.371 Y93.914 E0.01510
G1 X81.837 Y94.317 E0.02096
G1 X81.432 Y94.557 E0.01477
G1 X81.016 Y94.755 E0.01443
G1 X80.585 Y94.916 E0.01443
G1 X80.131 Y95.040 E0.01477
G1 X79.470 Y95.144 E0.02096
G1 X79.000 Y95.165 E0.01477
G1 X78.530 Y95.144 E0.01477
G1 X77.869 Y95.040 E0.02096
G1 X77.415 Y94.916 E0.01477
G1 X76.984 Y94.755 E0.01443
G1 X76.568 Y94.557 E0.01443
G1 X76.163 Y94.317 E0.01477
G1 X75.629 Y93.914 E0.02096
G1 X75.279 Y93.583 E0.01510
G1 X74.848 Y93.073 E0.02096
G1 X74.585 Y92.682 E0.01477
G1 X74.364 Y92.278 E0.01443
G1 X74.180 Y91.856 E0.01443
G1 X74.034 Y91.420 E0.01443
G1 X73.927 Y90.972 E0.01443
G1 X73.861 Y90.517 E0.01443
G1 X73.835 Y90.058 E0.01443
G1 X73.851 Y89.598 E0.01443
G1 X73.907 Y89.141 E0.01443
G1 X74.003 Y88.691 E0.01443
G1 X74.140 Y88.251 E0.01443
G1 X74.315 Y87.826 E0.01443
G1 X74.527 Y87.417 E0.01443
G1 X74.780 Y87.020 E0.01477
G1 X75.200 Y86.500 E0.02096
G1 X75.543 Y86.162 E0.01510
G1 X76.068 Y85.747 E0.02096
G1 X76.467 Y85.498 E0.01477
G1 X76.888 Y85.286 E0.01477
G1 X77.514 Y85.053 E0.02096
G1 X77.971 Y84.938 E0.01477
G1 X78.426 Y84.867 E0.01443
G1 X78.896 Y84.835 E0.01477
G1 X79.564 Y84.865 E0.02096
G1 X80.029 Y84.938 E0.01477
G1 X80.475 Y85.050 E0.01443
G1 X80.910 Y85.201 E0.01443
G1 X81.339 Y85.394 E0.01474
G1 X81.894 Y85.721 E0.02021
G1 X82.289 Y86.017 E0.01549
G1 X82.632 Y86.327 E0.01449
G1 X82.944 Y86.665 E0.01443
G1 X83.232 Y87.037 E0.01474
G1 X83.567 Y87.588 E0.02021
G1 X83.777 Y88.035 E0.01549
G1 X83.933 Y88.470 E0.01449
G1 X84.050 Y88.915 E0.01443
G1 X84.118 Y89.317 E0.01280
M204 S1250
G1 X83.746 Y89.380 F9000.000
M204 S800
G1 F1200.000
G1 X83.788 Y89.996 E0.01934
G1 X83.764 Y90.478 E0.01513
G1 X83.702 Y90.901 E0.01343
G1 X83.603 Y91.316 E0.01337
G1 X83.468 Y91.721 E0.01337
G1 X83.297 Y92.112 E0.01337
G1 X83.092 Y92.486 E0.01337
G1 X82.851 Y92.845 E0.01358
G1 X82.446 Y93.324 E0.01964
G1 X82.127 Y93.626 E0.01379
G1 X81.627 Y94.003 E0.01964
G1 X81.254 Y94.224 E0.01358
G1 X80.869 Y94.408 E0.01337
G1 X80.469 Y94.557 E0.01337
G1 X80.052 Y94.671 E0.01358
G1 X79.433 Y94.768 E0.01964
G1 X79.000 Y94.788 E0.01358
G1 X78.567 Y94.768 E0.01358
G1 X77.948 Y94.671 E0.01964
G1 X77.531 Y94.557 E0.01358
G1 X77.131 Y94.408 E0.01337
G1 X76.746 Y94.224 E0.01337
G1 X76.373 Y94.003 E0.01358
G1 X75.873 Y93.626 E0.01964
G1 X75.554 Y93.324 E0.01379
G1 X75.149 Y92.845 E0.01964
G1 X74.908 Y92.486 E0.01358
G1 X74.703 Y92.112 E0.01337
G1 X74.532 Y91.721 E0.01337
G1 X74.397 Y91.316 E0.01337
G1 X74.298 Y90.901 E0.01337
G1 X74.236 Y90.479 E0.01337
G1 X74.213 Y90.053 E0.01337
G1 X74.227 Y89.627 E0.01337
G1 X74.279 Y89.204 E0.01337
G1 X74.369 Y88.787 E0.01337
M73 P5 R10
G1 X74.495 Y88.379 E0.01337
G1 X74.657 Y87.985 E0.01337
G1 X74.854 Y87.606 E0.01337
G1 X75.087 Y87.241 E0.01358
G1 X75.481 Y86.754 E0.01964
G1 X75.793 Y86.445 E0.01379
G1 X76.285 Y86.056 E0.01964
G1 X76.652 Y85.827 E0.01358
G1 X77.039 Y85.632 E0.01358
G1 X77.626 Y85.413 E0.01964
G1 X78.046 Y85.308 E0.01358
G1 X78.468 Y85.242 E0.01337
G1 X78.900 Y85.213 E0.01358
G1 X79.526 Y85.241 E0.01964
G1 X79.954 Y85.308 E0.01358
G1 X80.367 Y85.412 E0.01337
G1 X80.770 Y85.552 E0.01337
G1 X81.165 Y85.729 E0.01356
G1 X81.684 Y86.036 E0.01891
G1 X82.049 Y86.309 E0.01429
G1 X82.367 Y86.596 E0.01341
G1 X82.656 Y86.909 E0.01337
G1 X82.920 Y87.251 E0.01356
G1 X83.235 Y87.766 E0.01891
G1 X83.428 Y88.179 E0.01429
G1 X83.573 Y88.582 E0.01341
G1 X83.681 Y88.994 E0.01337
G1 X83.736 Y89.321 E0.01039
M204 S1250
G1 X83.364 Y89.384 F9000.000
M204 S800
;TYPE:External perimeter
G1 F1200.000
G1 X83.410 Y89.998 E0.01931
G1 X83.388 Y90.441 E0.01391
G1 X83.331 Y90.830 E0.01234
G1 X83.240 Y91.212 E0.01232
G1 X83.116 Y91.585 E0.01232
G1 X82.958 Y91.945 E0.01232
G1 X82.769 Y92.290 E0.01232
G1 X82.549 Y92.618 E0.01239
G1 X82.172 Y93.064 E0.01833
G1 X81.883 Y93.338 E0.01247
G1 X81.416 Y93.690 E0.01833
G1 X81.076 Y93.891 E0.01239
G1 X80.722 Y94.060 E0.01232
G1 X80.353 Y94.197 E0.01232
G1 X79.972 Y94.302 E0.01239
G1 X79.395 Y94.393 E0.01833
G1 X79.000 Y94.410 E0.01239
G1 X78.605 Y94.393 E0.01239
G1 X78.028 Y94.302 E0.01833
G1 X77.647 Y94.197 E0.01239
G1 X77.278 Y94.060 E0.01232
G1 X76.924 Y93.891 E0.01232
G1 X76.584 Y93.690 E0.01239
G1 X76.117 Y93.338 E0.01833
G1 X75.828 Y93.064 E0.01247
G1 X75.451 Y92.618 E0.01833
G1 X75.231 Y92.290 E0.01239
G1 X75.042 Y91.945 E0.01232
G1 X74.884 Y91.585 E0.01232
G1 X74.760 Y91.212 E0.01232
G1 X74.669 Y90.830 E0.01232
G1 X74.612 Y90.441 E0.01232
G1 X74.590 Y90.049 E0.01232
G1 X74.603 Y89.656 E0.01232
G1 X74.651 Y89.266 E0.01232
G1 X74.734 Y88.882 E0.01232
G1 X74.850 Y88.507 E0.01232
G1 X74.999 Y88.144 E0.01232
G1 X75.181 Y87.795 E0.01232
G1 X75.393 Y87.462 E0.01239
G1 X75.761 Y87.007 E0.01833
G1 X76.043 Y86.727 E0.01247
G1 X76.502 Y86.365 E0.01833
G1 X76.838 Y86.156 E0.01239
G1 X77.190 Y85.978 E0.01239
G1 X77.738 Y85.774 E0.01833
G1 X78.122 Y85.678 E0.01239
G1 X78.510 Y85.617 E0.01232
G1 X78.904 Y85.591 E0.01239
G1 X79.488 Y85.617 E0.01833
G1 X79.878 Y85.678 E0.01239
G1 X80.260 Y85.773 E0.01232
G1 X80.631 Y85.902 E0.01232
G1 X80.991 Y86.065 E0.01239
G1 X81.475 Y86.350 E0.01762
G1 X81.809 Y86.600 E0.01310
G1 X82.101 Y86.864 E0.01233
G1 X82.368 Y87.153 E0.01232
G1 X82.609 Y87.465 E0.01239
G1 X82.902 Y87.945 E0.01762
G1 X83.079 Y88.323 E0.01310
G1 X83.212 Y88.693 E0.01233
G1 X83.312 Y89.073 E0.01232
G1 X83.354 Y89.325 E0.00798
M204 S1250
G1 X83.732 Y89.540 F9000.000
G1 E-2.24000 F4200.000
;WIPE_START
G1 F7200.000
G1 X83.410 Y89.998 E-0.37435
G1 X83.388 Y90.441 E-0.24589
G1 X83.331 Y90.830 E-0.21808
G1 X83.301 Y90.960 E-0.07367
;WIPE_END
G1 E-0.04800 F4200.000
G1 Z0.400 F9000.000
G1 X90.008 Y84.118
G1 Z0.200
G1 E3.20000 F2400.000
M204 S800
;TYPE:Perimeter
G1 F1200.000
G1 X91.305 Y82.373 E0.06818
G1 X91.892 Y81.681 E0.02846
G1 X92.298 Y81.257 E0.01840
G1 X92.962 Y80.644 E0.02834
G1 X93.644 Y80.098 E0.02740
G1 X94.153 Y79.739 E0.01952
G1 X94.653 Y79.423 E0.01856
G1 X95.445 Y78.986 E0.02834
G1 X96.239 Y78.621 E0.02740
G1 X96.814 Y78.397 E0.01935
G1 X97.651 Y78.128 E0.02756
G1 X98.249 Y77.975 E0.01935
G1 X99.112 Y77.810 E0.02756
G1 X99.729 Y77.730 E0.01952
G1 X100.320 Y77.683 E0.01857
