; generated by PrusaSlicer 2.3.0+win64 on 2021-04-06 at 07:32:50 UTC


;
;

;
;
; 

; external perimeters extrusion width = 0.45mm
; perimeters extrusion width = 0.45mm
; infill extrusion width = 0.45mm
; solid infill extrusion width = 0.45mm
; top infill extrusion width = 0.40mm
; first layer extrusion width = 0.42mm

M73 P0 R12
M201 X1250 Y1250 Z400 E5000 ; sets maximum accelerations, mm/sec^2
M203 X180 Y180 Z12 E80 ; sets maximum feedrates, mm/sec
M204 P1250 R1250 T1250 ; sets acceleration (P, T) and retract acceleration (R), mm/sec^2
M205 X8.00 Y8.00 Z2.00 E10.00 ; sets the jerk limits, mm/sec
M205 S0 T0 ; sets the minimum extruding and travel feed rate, mm/sec
M107
;TYPE:Custom
G90 ; use absolute coordinates
M83 ; extruder relative mode
M104 S170 ; set extruder temp for bed leveling
M140 S60 ; set bed temp
M109 R170 ; wait for bed leveling temp
M190 S60 ; wait for bed temp
G28 ; home all without mesh bed level
G29 ; mesh bed leveling 
M104 S215 ; set extruder temp
G92 E0.0
G1 Y-2.0 X179 F2400
G1 Z3 F720
M109 S215 ; wait for extruder temp

; intro line
G1 X170 F1000
G1 Z0.2 F720
G1 X110.0 E8.0 F900
M73 P1 R12
G1 X40.0 E10.0 F700
G92 E0.0

M221 S95 ; set flow
G21 ; set units to millimeters
G90 ; use absolute coordinates
M83 ; use relative distances for extrusion
M900 K0.2 ; Filament gcode LA 1.5
; ; Filament gcode LA 1.0
;LAYER_CHANGE
;Z:0.2
;HEIGHT:0.2
;BEFORE_LAYER_CHANGE
G92 E0.0
;0.2


M73 P2 R12
G1 E-3.20000 F4200.000
G1 Z0.200 F9000.000
;AFTER_LAYER_CHANGE
;0.2
G1 Z0.400
G1 X70.112 Y75.260
G1 Z0.200
G1 E3.20000 F2400.000
M204 S800
;TYPE:Skirt
;WIDTH:0.42
G1 F1200.000
G1 X71.939 Y74.508 E0.06195
G1 X74.144 Y73.920 E0.07156
G1 X76.092 Y73.664 E0.06161
G1 X102.733 Y73.623 E0.83529
M73 P2 R11
G1 X104.255 Y73.692 E0.04779
G1 X105.442 Y73.846 E0.03753
G1 X106.615 Y74.086 E0.03753
G1 X108.061 Y74.508 E0.04724
G1 X110.261 Y75.447 E0.07500
G1 X111.567 Y76.199 E0.04724
G1 X112.554 Y76.882 E0.03765
G1 X113.735 Y77.854 E0.04796
G1 X114.593 Y78.689 E0.03753
G1 X115.388 Y79.584 E0.03753
G1 X116.291 Y80.789 E0.04724
G1 X117.489 Y82.860 E0.07500
G1 X118.084 Y84.249 E0.04736
G1 X118.463 Y85.384 E0.03753
G1 X118.825 Y86.870 E0.04796
G1 X119.011 Y88.052 E0.03753
G1 X119.110 Y89.245 E0.03753
G1 X119.110 Y90.752 E0.04724
G1 X118.826 Y93.127 E0.07500
G1 X118.470 Y94.591 E0.04724
G1 X118.093 Y95.727 E0.03753
G1 X117.634 Y96.832 E0.03753
G1 X116.943 Y98.171 E0.04724
G1 X115.599 Y100.154 E0.07510
G1 X114.611 Y101.292 E0.04726
G1 X113.755 Y102.129 E0.03753
G1 X112.575 Y103.102 E0.04796
G1 X111.592 Y103.785 E0.03753
G1 X109.888 Y104.740 E0.06125
G1 X108.061 Y105.492 E0.06195
G1 X105.856 Y106.080 E0.07156
G1 X103.896 Y106.337 E0.06196
G1 X77.267 Y106.377 E0.83493
M73 P3 R11
G1 X75.699 Y106.303 E0.04923
G1 X73.791 Y106.008 E0.06053
G1 X71.939 Y105.492 E0.06029
G1 X70.440 Y104.894 E0.05058
G1 X68.738 Y103.991 E0.06041
G1 X67.139 Y102.883 E0.06101
G1 X65.699 Y101.609 E0.06029
G1 X64.612 Y100.416 E0.05058
G1 X63.476 Y98.860 E0.06041
G1 X62.696 Y97.509 E0.04891
G1 X62.039 Y96.069 E0.04963
G1 X61.531 Y94.594 E0.04891
G1 X61.111 Y92.779 E0.05841
G1 X60.915 Y91.175 E0.05067
G1 X60.877 Y89.615 E0.04891
G1 X60.989 Y88.055 E0.04903
G1 X61.248 Y86.517 E0.04891
G1 X61.652 Y85.010 E0.04891
G1 X62.199 Y83.545 E0.04903
G1 X62.881 Y82.142 E0.04891
G1 X63.709 Y80.789 E0.04973
G1 X64.787 Y79.377 E0.05570
G1 X65.937 Y78.158 E0.05257
G1 X67.136 Y77.119 E0.04975
G1 X68.408 Y76.215 E0.04891
G1 X70.060 Y75.290 E0.05937
M204 S1250
; printing object pot_reenforce_02.stl id:0 copy 0
G1 E-2.24000 F4200.000
;WIPE_START
G1 F7200.000
G1 X71.579 Y74.658 E-0.91200
;WIPE_END
G1 E-0.04800 F4200.000
G1 Z0.400 F9000.000
G1 X97.968 Y88.046
G1 Z0.200
G1 E3.20000 F2400.000
M204 S800
;TYPE:Perimeter
G1 F1200.000
G1 X98.171 Y87.609 E0.01510
G1 X98.518 Y87.038 E0.02096
G1 X98.806 Y86.665 E0.01477
G1 X99.118 Y86.327 E0.01443
G1 X99.459 Y86.019 E0.01443
G1 X99.827 Y85.742 E0.01443
G1 X100.217 Y85.498 E0.01443
G1 X100.638 Y85.286 E0.01477
G1 X101.264 Y85.053 E0.02096
G1 X101.721 Y84.938 E0.01477
G1 X102.176 Y84.867 E0.01443
G1 X102.646 Y84.835 E0.01477
G1 X103.314 Y84.865 E0.02096
G1 X103.779 Y84.938 E0.01477
G1 X104.225 Y85.050 E0.01443
G1 X104.660 Y85.201 E0.01443
G1 X105.080 Y85.390 E0.01443
G1 X105.490 Y85.621 E0.01477
G1 X106.033 Y86.011 E0.02096
G1 X106.382 Y86.327 E0.01477
G1 X106.694 Y86.665 E0.01443
G1 X106.982 Y87.037 E0.01474
G1 X107.317 Y87.588 E0.02021
G1 X107.527 Y88.035 E0.01549
G1 X107.683 Y88.470 E0.01449
G1 X107.800 Y88.915 E0.01443
G1 X107.878 Y89.377 E0.01468
G1 X107.916 Y89.993 E0.01938
G1 X107.890 Y90.514 E0.01635
G1 X107.823 Y90.972 E0.01452
G1 X107.716 Y91.420 E0.01443
G1 X107.570 Y91.856 E0.01443
G1 X107.386 Y92.278 E0.01443
G1 X107.165 Y92.682 E0.01443
G1 X106.902 Y93.073 E0.01477
G1 X106.471 Y93.583 E0.02096
G1 X106.129 Y93.907 E0.01477
G1 X105.760 Y94.198 E0.01474
G1 X105.213 Y94.540 E0.02021
G1 X104.768 Y94.755 E0.01549
G1 X104.325 Y94.920 E0.01482
G1 X103.676 Y95.082 E0.02096
G1 X103.210 Y95.145 E0.01477
G1 X102.750 Y95.165 E0.01443
G1 X102.290 Y95.145 E0.01443
G1 X101.824 Y95.082 E0.01477
G1 X101.175 Y94.920 E0.02096
G1 X100.723 Y94.752 E0.01510
G1 X100.127 Y94.450 E0.02096
G1 X99.733 Y94.192 E0.01477
G1 X99.371 Y93.907 E0.01443
G1 X99.037 Y93.591 E0.01443
G1 X98.732 Y93.246 E0.01443
G1 X98.453 Y92.867 E0.01477
G1 X98.119 Y92.288 E0.02096
G1 X97.930 Y91.856 E0.01477
G1 X97.784 Y91.420 E0.01443
G1 X97.677 Y90.972 E0.01443
G1 X97.611 Y90.517 E0.01443
G1 X97.585 Y90.058 E0.01443
G1 X97.601 Y89.598 E0.01443
G1 X97.657 Y89.141 E0.01443
G1 X97.756 Y88.680 E0.01477
G1 X97.949 Y88.103 E0.01908
M204 S1250
G1 X98.307 Y88.223 F9000.000
M204 S800
G1 F1200.000
G1 X98.504 Y87.787 E0.01500
G1 X98.829 Y87.252 E0.01964
G1 X99.094 Y86.909 E0.01358
G1 X99.383 Y86.596 E0.01337
G1 X99.700 Y86.310 E0.01337
G1 X100.040 Y86.053 E0.01337
G1 X100.402 Y85.827 E0.01337
G1 X100.789 Y85.632 E0.01358
G1 X101.376 Y85.413 E0.01964
G1 X101.796 Y85.308 E0.01358
G1 X102.218 Y85.242 E0.01337
G1 X102.650 Y85.213 E0.01358
G1 X103.276 Y85.241 E0.01964
G1 X103.704 Y85.308 E0.01358
G1 X104.117 Y85.412 E0.01337
G1 X104.520 Y85.552 E0.01337
G1 X104.909 Y85.727 E0.01337
G1 X105.287 Y85.939 E0.01358
G1 X105.795 Y86.305 E0.01964
G1 X106.117 Y86.596 E0.01358
G1 X106.406 Y86.909 E0.01337
G1 X106.670 Y87.251 E0.01356
G1 X106.985 Y87.766 E0.01891
G1 X107.178 Y88.179 E0.01429
G1 X107.323 Y88.582 E0.01341
G1 X107.431 Y88.994 E0.01337
G1 X107.503 Y89.420 E0.01353
G1 X107.538 Y89.996 E0.01809
G1 X107.514 Y90.478 E0.01513
G1 X107.452 Y90.901 E0.01343
G1 X107.353 Y91.316 E0.01337
G1 X107.218 Y91.721 E0.01337
G1 X107.047 Y92.112 E0.01337
G1 X106.842 Y92.486 E0.01337
G1 X106.601 Y92.845 E0.01358
G1 X106.196 Y93.324 E0.01964
G1 X105.882 Y93.621 E0.01358
G1 X105.542 Y93.890 E0.01356
G1 X105.031 Y94.209 E0.01891
G1 X104.620 Y94.407 E0.01429
G1 X104.213 Y94.559 E0.01361
G1 X103.605 Y94.711 E0.01964
G1 X103.176 Y94.769 E0.01358
G1 X102.750 Y94.788 E0.01337
G1 X102.324 Y94.769 E0.01337
G1 X101.895 Y94.711 E0.01358
G1 X101.287 Y94.559 E0.01964
G1 X100.875 Y94.406 E0.01379
G1 X100.316 Y94.123 E0.01964
G1 X99.953 Y93.886 E0.01358
G1 X99.618 Y93.621 E0.01337
G1 X99.308 Y93.328 E0.01337
G1 X99.026 Y93.009 E0.01337
G1 X98.769 Y92.660 E0.01358
G1 X98.456 Y92.118 E0.01964
G1 X98.282 Y91.721 E0.01358
G1 X98.147 Y91.316 E0.01337
G1 X98.048 Y90.901 E0.01337
G1 X97.986 Y90.479 E0.01337
G1 X97.963 Y90.053 E0.01337
G1 X97.977 Y89.627 E0.01337
G1 X98.029 Y89.204 E0.01337
G1 X98.120 Y88.780 E0.01358
G1 X98.287 Y88.280 E0.01654
M204 S1250
G1 X98.645 Y88.400 F9000.000
M204 S800
;TYPE:External perimeter
G1 F1200.000
G1 X98.837 Y87.965 E0.01490
G1 X99.141 Y87.466 E0.01833
G1 X99.382 Y87.153 E0.01239
G1 X99.649 Y86.864 E0.01232
G1 X99.940 Y86.601 E0.01232
G1 X100.254 Y86.364 E0.01232
G1 X100.588 Y86.156 E0.01232
G1 X100.940 Y85.978 E0.01239
G1 X101.488 Y85.774 E0.01833
G1 X101.872 Y85.678 E0.01239
G1 X102.260 Y85.617 E0.01232
G1 X102.654 Y85.591 E0.01239
G1 X103.238 Y85.617 E0.01833
G1 X103.628 Y85.678 E0.01239
G1 X104.010 Y85.773 E0.01232
M73 P4 R11
G1 X104.381 Y85.902 E0.01232
G1 X104.739 Y86.064 E0.01232
G1 X105.084 Y86.258 E0.01239
G1 X105.558 Y86.599 E0.01833
G1 X105.851 Y86.864 E0.01239
G1 X106.118 Y87.153 E0.01232
G1 X106.359 Y87.465 E0.01239
G1 X106.652 Y87.945 E0.01762
G1 X106.829 Y88.323 E0.01310
G1 X106.962 Y88.693 E0.01233
G1 X107.062 Y89.073 E0.01232
G1 X107.127 Y89.463 E0.01237
G1 X107.160 Y89.998 E0.01681
G1 X107.138 Y90.441 E0.01391
G1 X107.081 Y90.830 E0.01234
G1 X106.990 Y91.212 E0.01232
G1 X106.866 Y91.585 E0.01232
G1 X106.708 Y91.945 E0.01232
G1 X106.519 Y92.290 E0.01232
G1 X106.299 Y92.618 E0.01239
G1 X105.922 Y93.064 E0.01833
G1 X105.635 Y93.336 E0.01239
G1 X105.325 Y93.581 E0.01239
G1 X104.848 Y93.879 E0.01762
G1 X104.472 Y94.060 E0.01310
G1 X104.101 Y94.198 E0.01241
G1 X103.534 Y94.340 E0.01833
G1 X103.143 Y94.393 E0.01239
G1 X102.750 Y94.410 E0.01232
G1 X102.357 Y94.393 E0.01232
G1 X101.966 Y94.340 E0.01239
G1 X101.399 Y94.198 E0.01833
G1 X101.026 Y94.059 E0.01247
G1 X100.504 Y93.796 E0.01833
G1 X100.174 Y93.579 E0.01239
G1 X99.865 Y93.336 E0.01232
G1 X99.580 Y93.066 E0.01232
G1 X99.319 Y92.772 E0.01232
G1 X99.085 Y92.453 E0.01239
G1 X98.793 Y91.947 E0.01833
G1 X98.634 Y91.585 E0.01239
G1 X98.510 Y91.212 E0.01232
G1 X98.419 Y90.830 E0.01232
G1 X98.362 Y90.441 E0.01232
G1 X98.340 Y90.049 E0.01232
G1 X98.353 Y89.656 E0.01232
G1 X98.401 Y89.266 E0.01232
G1 X98.484 Y88.880 E0.01239
G1 X98.626 Y88.457 E0.01400
M204 S1250
G1 X98.394 Y88.088 F9000.000
G1 E-2.24000 F4200.000
;WIPE_START
G1 F7200.000
G1 X98.837 Y87.965 E-0.29644
G1 X99.141 Y87.466 E-0.32390
G1 X99.382 Y87.153 E-0.21905
G1 X99.471 Y87.056 E-0.07261
;WIPE_END
G1 E-0.04800 F4200.000
G1 Z0.400 F9000.000
G1 X82.383 Y89.454
G1 Z0.200
G1 E3.20000 F2400.000
M204 S800
;TYPE:Perimeter
G1 F1200.000
G1 X82.416 Y89.993 E0.01694
G1 X82.390 Y90.514 E0.01635
G1 X82.323 Y90.972 E0.01452
G1 X82.216 Y91.420 E0.01443
G1 X82.070 Y91.856 E0.01443
G1 X81.886 Y92.278 E0.01443
G1 X81.665 Y92.682 E0.01443
G1 X81.402 Y93.073 E0.01477
G1 X80.971 Y93.583 E0.02096
G1 X80.621 Y93.914 E0.01510
G1 X80.087 Y94.317 E0.02096
G1 X79.682 Y94.557 E0.01477
G1 X79.266 Y94.755 E0.01443
G1 X78.835 Y94.916 E0.01443
G1 X78.381 Y95.040 E0.01477
G1 X77.720 Y95.144 E0.02096
G1 X77.250 Y95.165 E0.01477
G1 X76.780 Y95.144 E0.01477
G1 X76.119 Y95.040 E0.02096
G1 X75.665 Y94.916 E0.01477
G1 X75.234 Y94.755 E0.01443
G1 X74.818 Y94.557 E0.01443
G1 X74.413 Y94.317 E0.01477
G1 X73.879 Y93.914 E0.02096
G1 X73.529 Y93.583 E0.01510
G1 X73.098 Y93.073 E0.02096
G1 X72.835 Y92.682 E0.01477
G1 X72.614 Y92.278 E0.01443
G1 X72.430 Y91.856 E0.01443
G1 X72.284 Y91.420 E0.01443
G1 X72.177 Y90.972 E0.01443
G1 X72.111 Y90.517 E0.01443
G1 X72.085 Y90.058 E0.01443
G1 X72.101 Y89.598 E0.01443
G1 X72.157 Y89.141 E0.01443
G1 X72.253 Y88.691 E0.01443
G1 X72.390 Y88.251 E0.01443
G1 X72.565 Y87.826 E0.01443
G1 X72.777 Y87.417 E0.01443
G1 X73.030 Y87.020 E0.01477
G1 X73.450 Y86.500 E0.02096
G1 X73.793 Y86.162 E0.01510
G1 X74.318 Y85.747 E0.02096
G1 X74.717 Y85.498 E0.01477
G1 X75.138 Y85.286 E0.01477
G1 X75.764 Y85.053 E0.02096
G1 X76.221 Y84.938 E0.01477
G1 X76.676 Y84.867 E0.01443
G1 X77.146 Y84.835 E0.01477
G1 X77.814 Y84.865 E0.02096
G1 X78.279 Y84.938 E0.01477
G1 X78.725 Y85.050 E0.01443
G1 X79.160 Y85.201 E0.01443
G1 X79.589 Y85.394 E0.01474
G1 X80.144 Y85.721 E0.02021
G1 X80.539 Y86.017 E0.01549
G1 X80.882 Y86.327 E0.01449
G1 X81.194 Y86.665 E0.01443
G1 X81.482 Y87.037 E0.01474
G1 X81.817 Y87.588 E0.02021
G1 X82.027 Y88.035 E0.01549
G1 X82.183 Y88.470 E0.01449
G1 X82.300 Y88.915 E0.01443
G1 X82.379 Y89.394 E0.01523
M204 S1250
G1 X82.003 Y89.420 F9000.000
M204 S800
G1 F1200.000
G1 X82.038 Y89.996 E0.01809
G1 X82.014 Y90.478 E0.01513
G1 X81.952 Y90.901 E0.01343
G1 X81.853 Y91.316 E0.01337
G1 X81.718 Y91.721 E0.01337
G1 X81.547 Y92.112 E0.01337
G1 X81.342 Y92.486 E0.01337
G1 X81.101 Y92.845 E0.01358
G1 X80.696 Y93.324 E0.01964
G1 X80.377 Y93.626 E0.01379
G1 X79.877 Y94.003 E0.01964
G1 X79.504 Y94.224 E0.01358
G1 X79.119 Y94.408 E0.01337
G1 X78.719 Y94.557 E0.01337
G1 X78.302 Y94.671 E0.01358
G1 X77.683 Y94.768 E0.01964
G1 X77.250 Y94.788 E0.01358
G1 X76.817 Y94.768 E0.01358
G1 X76.198 Y94.671 E0.01964
G1 X75.781 Y94.557 E0.01358
G1 X75.381 Y94.408 E0.01337
G1 X74.996 Y94.224 E0.01337
G1 X74.623 Y94.003 E0.01358
G1 X74.123 Y93.626 E0.01964
G1 X73.804 Y93.324 E0.01379
G1 X73.399 Y92.845 E0.01964
G1 X73.158 Y92.486 E0.01358
G1 X72.953 Y92.112 E0.01337
G1 X72.782 Y91.721 E0.01337
G1 X72.647 Y91.316 E0.01337
G1 X72.548 Y90.901 E0.01337
G1 X72.486 Y90.479 E0.01337
G1 X72.463 Y90.053 E0.01337
G1 X72.477 Y89.627 E0.01337
G1 X72.529 Y89.204 E0.01337
G1 X72.619 Y88.787 E0.01337
G1 X72.745 Y88.379 E0.01337
G1 X72.907 Y87.985 E0.01337
G1 X73.104 Y87.606 E0.01337
G1 X73.337 Y87.241 E0.01358
G1 X73.731 Y86.754 E0.01964
G1 X74.043 Y86.445 E0.01379
G1 X74.535 Y86.056 E0.01964
G1 X74.902 Y85.827 E0.01358
G1 X75.289 Y85.632 E0.01358
G1 X75.876 Y85.413 E0.01964
G1 X76.296 Y85.308 E0.01358
G1 X76.718 Y85.242 E0.01337
G1 X77.150 Y85.213 E0.01358
G1 X77.776 Y85.241 E0.01964
G1 X78.204 Y85.308 E0.01358
G1 X78.617 Y85.412 E0.01337
G1 X79.020 Y85.552 E0.01337
G1 X79.415 Y85.729 E0.01356
G1 X79.934 Y86.036 E0.01891
G1 X80.299 Y86.309 E0.01429
G1 X80.617 Y86.596 E0.01341
G1 X80.906 Y86.909 E0.01337
G1 X81.170 Y87.251 E0.01356
G1 X81.485 Y87.766 E0.01891
G1 X81.678 Y88.179 E0.01429
G1 X81.823 Y88.582 E0.01341
G1 X81.931 Y88.994 E0.01337
G1 X81.993 Y89.360 E0.01165
M204 S1250
G1 X81.621 Y89.423 F9000.000
M204 S800
;TYPE:External perimeter
G1 F1200.000
G1 X81.660 Y89.998 E0.01806
G1 X81.638 Y90.441 E0.01391
G1 X81.581 Y90.830 E0.01234
G1 X81.490 Y91.212 E0.01232
G1 X81.366 Y91.585 E0.01232
G1 X81.208 Y91.945 E0.01232
G1 X81.019 Y92.290 E0.01232
G1 X80.799 Y92.618 E0.01239
G1 X80.422 Y93.064 E0.01833
G1 X80.133 Y93.338 E0.01247
G1 X79.666 Y93.690 E0.01833
G1 X79.326 Y93.891 E0.01239
G1 X78.972 Y94.060 E0.01232
G1 X78.603 Y94.197 E0.01232
G1 X78.222 Y94.302 E0.01239
G1 X77.645 Y94.393 E0.01833
G1 X77.250 Y94.410 E0.01239
G1 X76.855 Y94.393 E0.01239
G1 X76.278 Y94.302 E0.01833
G1 X75.897 Y94.197 E0.01239
G1 X75.528 Y94.060 E0.01232
G1 X75.174 Y93.891 E0.01232
G1 X74.834 Y93.690 E0.01239
G1 X74.367 Y93.338 E0.01833
G1 X74.078 Y93.064 E0.01247
G1 X73.701 Y92.618 E0.01833
G1 X73.481 Y92.290 E0.01239
G1 X73.292 Y91.945 E0.01232
G1 X73.134 Y91.585 E0.01232
G1 X73.010 Y91.212 E0.01232
G1 X72.919 Y90.830 E0.01232
G1 X72.862 Y90.441 E0.01232
G1 X72.840 Y90.049 E0.01232
G1 X72.853 Y89.656 E0.01232
G1 X72.901 Y89.266 E0.01232
G1 X72.984 Y88.882 E0.01232
G1 X73.100 Y88.507 E0.01232
G1 X73.249 Y88.144 E0.01232
G1 X73.431 Y87.795 E0.01232
G1 X73.643 Y87.462 E0.01239
G1 X74.011 Y87.007 E0.01833
G1 X74.293 Y86.727 E0.01247
G1 X74.752 Y86.365 E0.01833
G1 X75.088 Y86.156 E0.01239
G1 X75.440 Y85.978 E0.01239
G1 X75.988 Y85.774 E0.01833
G1 X76.372 Y85.678 E0.01239
G1 X76.760 Y85.617 E0.01232
G1 X77.154 Y85.591 E0.01239
G1 X77.738 Y85.617 E0.01833
G1 X78.128 Y85.678 E0.01239
G1 X78.510 Y85.773 E0.01232
G1 X78.881 Y85.902 E0.01232
G1 X79.241 Y86.065 E0.01239
G1 X79.725 Y86.350 E0.01762
G1 X80.059 Y86.600 E0.01310
G1 X80.351 Y86.864 E0.01233
G1 X80.618 Y87.153 E0.01232
G1 X80.859 Y87.465 E0.01239
G1 X81.152 Y87.945 E0.01762
G1 X81.329 Y88.323 E0.01310
G1 X81.462 Y88.693 E0.01233
G1 X81.562 Y89.073 E0.01232
G1 X81.611 Y89.364 E0.00924
M204 S1250
G1 X81.988 Y89.581 F9000.000
G1 E-2.24000 F4200.000
;WIPE_START
G1 F7200.000
G1 X81.660 Y89.998 E-0.35224
G1 X81.638 Y90.441 E-0.24589
G1 X81.581 Y90.830 E-0.21808
G1 X81.541 Y90.998 E-0.09578
;WIPE_END
G1 E-0.04800 F4200.000
G1 Z0.400 F9000.000
G1 X89.266 Y85.382
G1 Z0.200
G1 E3.20000 F2400.000
M204 S800
;TYPE:Perimeter
G1 F1200.000
G1 X90.726 Y85.382 E0.04578
G1 X91.470 Y83.876 E0.05264
G1 X91.935 Y83.088 E0.02871
G1 X92.456 Y82.333 E0.02876
G1 X93.030 Y81.617 E0.02876
G1 X93.654 Y80.945 E0.02876
G1 X94.323 Y80.318 E0.02876
M73 P5 R11
G1 X95.036 Y79.741 E0.02876
G1 X95.789 Y79.217 E0.02876
G1 X96.576 Y78.747 E0.02876
G1 X97.396 Y78.335 E0.02876
G1 X98.242 Y77.982 E0.02876
G1 X99.112 Y77.691 E0.02876
