; generated by PrusaSlicer 2.3.0+win64 on 2021-08-10 at 18:17:00 UTC


;
;

;
;
; 

; external perimeters extrusion width = 0.45mm
; perimeters extrusion width = 0.45mm
; infill extrusion width = 0.45mm
; solid infill extrusion width = 0.45mm
; top infill extrusion width = 0.40mm
; first layer extrusion width = 0.42mm

M73 P0 R43
M201 X1250 Y1250 Z400 E5000 ; sets maximum accelerations, mm/sec^2
M203 X180 Y180 Z12 E80 ; sets maximum feedrates, mm/sec
M204 P1250 R1250 T1250 ; sets acceleration (P, T) and retract acceleration (R), mm/sec^2
M205 X8.00 Y8.00 Z2.00 E10.00 ; sets the jerk limits, mm/sec
M205 S0 T0 ; sets the minimum extruding and travel feed rate, mm/sec
M107
;TYPE:Custom
G90 ; use absolute coordinates
M83 ; extruder relative mode
M104 S170 ; set extruder temp for bed leveling
M140 S60 ; set bed temp
M109 R170 ; wait for bed leveling temp
M190 S60 ; wait for bed temp
G28 ; home all without mesh bed level
G29 ; mesh bed leveling 
M104 S215 ; set extruder temp
G92 E0.0
G1 Y-2.0 X179 F2400
G1 Z3 F720
M109 S215 ; wait for extruder temp

; intro line
G1 X170 F1000
G1 Z0.2 F720
G1 X110.0 E8.0 F900
G1 X40.0 E10.0 F700
G92 E0.0

M221 S95 ; set flow
G21 ; set units to millimeters
G90 ; use absolute coordinates
M83 ; use relative distances for extrusion
M900 K0.2 ; Filament gcode LA 1.5
; ; Filament gcode LA 1.0
;LAYER_CHANGE
;Z:0.2
;HEIGHT:0.2
;BEFORE_LAYER_CHANGE
G92 E0.0
;0.2


M73 P0 R42
G1 E-3.20000 F4200.000
G1 Z0.200 F9000.000
;AFTER_LAYER_CHANGE
;0.2
G1 Z0.400
G1 X60.517 Y60.481
G1 Z0.200
G1 E3.20000 F2400.000
M204 S800
;TYPE:Skirt
;WIDTH:0.42
G1 F1200.000
G1 X61.594 Y59.737 E0.04105
G1 X62.672 Y59.314 E0.03631
G1 X63.943 Y59.126 E0.04029
G1 X115.967 Y59.124 E1.63117
G1 X116.807 Y59.199 E0.02644
G1 X117.570 Y59.386 E0.02463
G1 X118.190 Y59.631 E0.02090
G1 X118.900 Y60.031 E0.02557
G1 X119.522 Y60.516 E0.02470
G1 X120.085 Y61.111 E0.02570
G1 X120.551 Y61.783 E0.02564
G1 X120.917 Y62.536 E0.02624
G1 X121.169 Y63.371 E0.02737
G1 X124.800 Y81.927 E0.59284
G1 X124.822 Y83.131 E0.03775
G1 X124.596 Y84.466 E0.04246
G1 X121.070 Y97.517 E0.42385
G1 X120.769 Y98.305 E0.02648
G1 X120.338 Y99.053 E0.02707
G1 X108.776 Y112.320 E0.55176
G1 X107.161 Y114.010 E0.07330
G1 X105.388 Y115.546 E0.07355
G1 X103.127 Y117.131 E0.08659
G1 X101.076 Y118.275 E0.07360
G1 X98.930 Y119.219 E0.07352
G1 X96.228 Y120.084 E0.08895
G1 X94.444 Y120.476 E0.05728
G1 X93.045 Y120.689 E0.04436
G1 X91.617 Y120.824 E0.04498
G1 X89.789 Y120.876 E0.05733
G1 X86.977 Y120.692 E0.08838
G1 X85.567 Y120.478 E0.04470
G1 X83.773 Y120.084 E0.05761
G1 X81.087 Y119.225 E0.08841
G1 X78.499 Y118.058 E0.08901
G1 X76.918 Y117.159 E0.05703
G1 X75.726 Y116.374 E0.04477
G1 X73.517 Y114.632 E0.08821
G1 X71.513 Y112.645 E0.08847
G1 X59.965 Y99.451 E0.54976
G1 X59.356 Y98.553 E0.03402
G1 X58.931 Y97.522 E0.03497
G1 X55.352 Y84.265 E0.43054
M73 P1 R42
G1 X55.200 Y83.386 E0.02799
G1 X55.163 Y82.517 E0.02728
G1 X55.283 Y81.369 E0.03617
G1 X58.836 Y63.347 E0.57595
G1 X59.186 Y62.292 E0.03484
G1 X59.718 Y61.369 E0.03341
G1 X60.477 Y60.526 E0.03557
M204 S1250
; printing object PotPostD_02.stl id:0 copy 1
G1 E-2.24000 F4200.000
;WIPE_START
G1 F7200.000
G1 X61.594 Y59.737 E-0.75783
G1 X61.853 Y59.636 E-0.15417
;WIPE_END
G1 E-0.04800 F4200.000
G1 Z0.400 F9000.000
G1 X114.520 Y81.367
G1 Z0.200
G1 E3.20000 F2400.000
M204 S800
;TYPE:External perimeter
G1 F1200.000
G1 X114.664 Y81.034 E0.01140
G1 X114.841 Y80.716 E0.01140
G1 X115.048 Y80.417 E0.01140
G1 X115.283 Y80.140 E0.01140
G1 X115.545 Y79.888 E0.01140
G1 X115.831 Y79.662 E0.01140
G1 X116.137 Y79.467 E0.01140
G1 X116.461 Y79.302 E0.01140
G1 X116.800 Y79.170 E0.01140
G1 X117.150 Y79.072 E0.01140
G1 X117.508 Y79.010 E0.01140
G1 X117.872 Y78.983 E0.01144
G1 X118.413 Y79.009 E0.01697
G1 X118.773 Y79.072 E0.01148
G1 X119.124 Y79.170 E0.01140
G1 X119.462 Y79.302 E0.01140
G1 X119.787 Y79.467 E0.01140
G1 X120.093 Y79.662 E0.01140
G1 X120.378 Y79.888 E0.01140
G1 X120.640 Y80.140 E0.01140
G1 X120.876 Y80.417 E0.01140
G1 X121.083 Y80.716 E0.01140
G1 X121.260 Y81.034 E0.01140
G1 X121.404 Y81.367 E0.01140
G1 X121.514 Y81.714 E0.01140
G1 X121.590 Y82.069 E0.01140
G1 X121.631 Y82.430 E0.01140
G1 X121.635 Y82.794 E0.01140
G1 X121.604 Y83.156 E0.01140
G1 X121.537 Y83.514 E0.01140
G1 X121.435 Y83.863 E0.01140
G1 X121.299 Y84.200 E0.01140
G1 X121.130 Y84.522 E0.01140
G1 X120.930 Y84.826 E0.01140
G1 X120.702 Y85.108 E0.01140
G1 X120.446 Y85.367 E0.01140
G1 X120.166 Y85.599 E0.01140
G1 X119.865 Y85.803 E0.01140
G1 X119.545 Y85.975 E0.01140
G1 X119.210 Y86.115 E0.01140
G1 X118.862 Y86.222 E0.01140
G1 X118.506 Y86.293 E0.01139
G1 X118.144 Y86.329 E0.01141
G1 X117.780 Y86.329 E0.01140
G1 X117.418 Y86.293 E0.01140
G1 X117.062 Y86.222 E0.01140
G1 X116.714 Y86.115 E0.01140
G1 X116.379 Y85.975 E0.01140
G1 X116.058 Y85.803 E0.01140
G1 X115.757 Y85.599 E0.01140
G1 X115.477 Y85.367 E0.01140
G1 X115.222 Y85.108 E0.01140
G1 X114.993 Y84.826 E0.01140
G1 X114.793 Y84.522 E0.01140
G1 X114.625 Y84.200 E0.01140
G1 X114.489 Y83.863 E0.01140
G1 X114.387 Y83.514 E0.01140
G1 X114.320 Y83.156 E0.01140
G1 X114.288 Y82.794 E0.01140
G1 X114.293 Y82.430 E0.01140
G1 X114.333 Y82.069 E0.01140
G1 X114.409 Y81.714 E0.01140
G1 X114.501 Y81.424 E0.00952
M204 S1250
G1 X114.289 Y81.086 F9000.000
G1 X114.114 Y81.281
M204 S800
G1 F1200.000
G1 X114.336 Y80.765 E0.01760
G1 X114.604 Y80.324 E0.01617
G1 X114.924 Y79.920 E0.01617
G1 X115.162 Y79.676 E0.01067
G1 X115.420 Y79.454 E0.01067
G1 X115.844 Y79.159 E0.01620
G1 X116.143 Y78.994 E0.01071
G1 X116.454 Y78.856 E0.01067
G1 X116.945 Y78.696 E0.01620
G1 X117.280 Y78.625 E0.01071
G1 X117.617 Y78.583 E0.01067
G1 X118.134 Y78.572 E0.01620
G1 X118.474 Y78.600 E0.01071
G1 X118.810 Y78.657 E0.01067
G1 X119.309 Y78.796 E0.01624
G1 X119.625 Y78.921 E0.01067
G1 X119.930 Y79.073 E0.01067
G1 X120.366 Y79.350 E0.01620
G1 X120.634 Y79.562 E0.01071
G1 X120.884 Y79.796 E0.01074
G1 X121.111 Y80.049 E0.01067
G1 X121.416 Y80.468 E0.01624
G1 X121.585 Y80.762 E0.01063
G1 X121.732 Y81.073 E0.01078
G1 X121.851 Y81.392 E0.01067
G1 X121.979 Y81.892 E0.01620
G1 X122.029 Y82.228 E0.01065
G1 X122.051 Y82.745 E0.01621
G1 X122.029 Y83.085 E0.01070
G1 X121.979 Y83.422 E0.01067
G1 X121.851 Y83.924 E0.01624
G1 X121.733 Y84.241 E0.01060
G1 X121.503 Y84.703 E0.01620
G1 X121.320 Y84.992 E0.01071
G1 X121.114 Y85.263 E0.01067
G1 X120.760 Y85.640 E0.01624
G1 X120.504 Y85.861 E0.01060
G1 X120.078 Y86.157 E0.01624
G1 X119.782 Y86.320 E0.01060
G1 X119.306 Y86.520 E0.01620
G1 X118.979 Y86.619 E0.01071
G1 X118.644 Y86.690 E0.01074
G1 X118.306 Y86.733 E0.01067
G1 X117.788 Y86.744 E0.01624
G1 X117.451 Y86.715 E0.01060
G1 X116.943 Y86.618 E0.01624
G1 X116.617 Y86.520 E0.01067
G1 X116.300 Y86.395 E0.01067
G1 X115.842 Y86.155 E0.01620
G1 X115.558 Y85.966 E0.01071
G1 X115.291 Y85.755 E0.01067
G1 X114.921 Y85.393 E0.01624
G1 X114.704 Y85.130 E0.01067
G1 X114.509 Y84.849 E0.01074
G1 X114.338 Y84.554 E0.01067
G1 X114.128 Y84.081 E0.01624
G1 X114.023 Y83.758 E0.01067
G1 X113.945 Y83.426 E0.01067
G1 X113.880 Y82.914 E0.01620
G1 X113.873 Y82.572 E0.01071
G1 X113.894 Y82.232 E0.01067
G1 X113.981 Y81.722 E0.01624
G1 X114.093 Y81.337 E0.01257
M204 S1250
G1 X114.508 Y81.210 F9000.000
; stop printing object PotPostD_02.stl id:0 copy 1
; printing object SpeakerRing02.stl id:1 copy 0
G1 E-2.24000 F4200.000
;WIPE_START
G1 F7200.000
G1 X114.336 Y80.765 E-0.34434
G1 X114.604 Y80.324 E-0.28582
G1 X114.920 Y79.925 E-0.28183
;WIPE_END
G1 E-0.04800 F4200.000
G1 Z0.400 F9000.000
G1 X111.621 Y66.714
G1 Z0.200
G1 E3.20000 F2400.000
M204 S800
;TYPE:Perimeter
G1 F1200.000
G1 X111.402 Y68.160 E0.04585
G1 X111.250 Y68.962 E0.02561
G1 X111.067 Y69.758 E0.02561
G1 X110.855 Y70.544 E0.02553
G1 X110.479 Y71.716 E0.03859
G1 X110.194 Y72.479 E0.02553
G1 X109.880 Y73.233 E0.02561
G1 X109.537 Y73.974 E0.02561
G1 X109.168 Y74.700 E0.02553
G1 X108.560 Y75.770 E0.03859
G1 X108.124 Y76.458 E0.02553
G1 X107.662 Y77.131 E0.02561
G1 X107.174 Y77.786 E0.02561
G1 X106.662 Y78.423 E0.02561
G1 X106.128 Y79.038 E0.02553
G1 X105.281 Y79.926 E0.03850
G1 X104.384 Y80.765 E0.03850
G1 X103.765 Y81.293 E0.02553
G1 X103.125 Y81.797 E0.02553
G1 X102.124 Y82.513 E0.03859
G1 X101.441 Y82.955 E0.02553
G1 X100.741 Y83.371 E0.02553
G1 X99.662 Y83.945 E0.03832
G1 X98.918 Y84.298 E0.02580
G1 X98.170 Y84.618 E0.02552
G1 X97.020 Y85.048 E0.03850
G1 X95.855 Y85.409 E0.03823
G1 X95.061 Y85.616 E0.02571
G1 X93.857 Y85.868 E0.03859
G1 X93.053 Y85.998 E0.02553
G1 X92.245 Y86.097 E0.02553
G1 X91.018 Y86.190 E0.03859
G1 X90.204 Y86.213 E0.02553
G1 X89.387 Y86.205 E0.02561
G1 X88.574 Y86.167 E0.02553
G1 X87.352 Y86.052 E0.03850
G1 X86.146 Y85.869 E0.03823
G1 X85.339 Y85.708 E0.02580
G1 X84.545 Y85.517 E0.02561
G1 X83.761 Y85.298 E0.02553
G1 X82.593 Y84.911 E0.03859
G1 X81.833 Y84.619 E0.02553
G1 X81.082 Y84.298 E0.02561
G1 X80.346 Y83.949 E0.02553
G1 X79.259 Y83.371 E0.03859
G1 X78.562 Y82.957 E0.02544
G1 X77.535 Y82.279 E0.03859
G1 X76.879 Y81.801 E0.02544
G1 X75.920 Y81.030 E0.03859
G1 X75.312 Y80.492 E0.02544
G1 X74.432 Y79.636 E0.03850
G1 X73.601 Y78.732 E0.03850
G1 X73.081 Y78.109 E0.02544
G1 X72.339 Y77.131 E0.03850
G1 X71.653 Y76.112 E0.03850
G1 X71.232 Y75.419 E0.02544
G1 X70.645 Y74.340 E0.03850
G1 X70.119 Y73.230 E0.03850
G1 X69.807 Y72.481 E0.02544
G1 X69.387 Y71.324 E0.03859
G1 X69.147 Y70.550 E0.02544
G1 X68.838 Y69.361 E0.03850
G1 X68.597 Y68.157 E0.03850
G1 X68.380 Y66.714 E0.04575
G1 X65.158 Y66.711 E0.10102
G1 X65.111 Y66.548 E0.00534
G1 X65.498 Y66.305 E0.01433
G1 X65.751 Y66.074 E0.01074
G1 X65.974 Y65.799 E0.01111
G1 X66.201 Y65.386 E0.01475
G1 X66.230 Y65.288 E0.00322
G1 X69.234 Y65.288 E0.09421
G1 X69.250 Y65.741 E0.01422
G1 X69.360 Y66.972 E0.03874
G1 X69.476 Y67.797 E0.02610
G1 X69.708 Y69.011 E0.03878
G1 X70.012 Y70.210 E0.03878
G1 X70.256 Y71.003 E0.02601
G1 X70.535 Y71.797 E0.02638
G1 X70.998 Y72.928 E0.03831
G1 X71.350 Y73.682 E0.02610
G1 X71.928 Y74.773 E0.03869
G1 X72.354 Y75.488 E0.02610
G1 X73.036 Y76.516 E0.03869
G1 X73.531 Y77.185 E0.02610
G1 X74.313 Y78.140 E0.03869
G1 X74.871 Y78.757 E0.02610
G1 X75.746 Y79.632 E0.03878
G1 X76.671 Y80.453 E0.03878
G1 X77.321 Y80.973 E0.02610
G1 X78.320 Y81.697 E0.03869
G1 X79.016 Y82.149 E0.02601
G1 X79.728 Y82.573 E0.02601
G1 X80.821 Y83.152 E0.03878
G1 X81.947 Y83.665 E0.03879
G1 X82.732 Y83.976 E0.02648
G1 X83.892 Y84.371 E0.03840
G1 X85.087 Y84.699 E0.03887
G1 X86.297 Y84.956 E0.03878
G1 X87.119 Y85.088 E0.02610
G1 X88.346 Y85.222 E0.03869
G1 X89.176 Y85.272 E0.02610
G1 X90.410 Y85.284 E0.03869
G1 X91.239 Y85.251 E0.02601
G1 X92.063 Y85.186 E0.02592
G1 X92.884 Y85.087 E0.02592
G1 X93.700 Y84.956 E0.02592
G1 X94.510 Y84.793 E0.02592
G1 X95.314 Y84.598 E0.02592
G1 X96.108 Y84.370 E0.02592
G1 X96.896 Y84.111 E0.02601
G1 X98.048 Y83.667 E0.03869
G1 X98.806 Y83.331 E0.02601
G1 X99.548 Y82.966 E0.02592
G1 X100.274 Y82.572 E0.02592
G1 X100.984 Y82.149 E0.02592
G1 X101.680 Y81.697 E0.02601
G1 X102.679 Y80.973 E0.03869
G1 X103.327 Y80.454 E0.02601
G1 X103.952 Y79.910 E0.02601
G1 X104.842 Y79.055 E0.03869
G1 X105.411 Y78.451 E0.02601
G1 X105.955 Y77.825 E0.02601
G1 X106.720 Y76.853 E0.03878
G1 X107.426 Y75.834 E0.03887
G1 X108.069 Y74.778 E0.03879
G1 X108.472 Y74.035 E0.02648
G1 X109.001 Y72.931 E0.03840
G1 X109.469 Y71.786 E0.03878
G1 X109.744 Y71.003 E0.02601
G1 X109.988 Y70.210 E0.02601
G1 X110.292 Y69.011 E0.03878
G1 X110.524 Y67.797 E0.03878
G1 X110.640 Y66.972 E0.02610
G1 X110.750 Y65.741 E0.03874
G1 X110.766 Y65.288 E0.01422
G1 X113.775 Y65.288 E0.09436
G1 X113.869 Y65.537 E0.00835
G1 X114.134 Y65.943 E0.01520
G1 X114.376 Y66.199 E0.01103
G1 X114.758 Y66.478 E0.01486
G1 X114.881 Y66.538 E0.00430
G1 X114.841 Y66.714 E0.00565
G1 X111.681 Y66.714 E0.09910
M204 S1250
G1 E-2.24000 F4200.000
;WIPE_START
G1 F7200.000
G1 X111.402 Y68.160 E-0.81596
G1 X111.370 Y68.330 E-0.09604
;WIPE_END
G1 E-0.04800 F4200.000
G1 Z0.400 F9000.000
G1 X65.968 Y64.844
G1 Z0.200
G1 E3.20000 F2400.000
M204 S800
;TYPE:External perimeter
G1 F1200.000
G1 X65.851 Y65.240 E0.01294
G1 X65.660 Y65.587 E0.01243
G1 X65.476 Y65.815 E0.00917
G1 X65.269 Y66.004 E0.00878
G1 X64.922 Y66.221 E0.01284
G1 X64.533 Y66.360 E0.01296
G1 X64.123 Y66.412 E0.01296
G1 X63.711 Y66.375 E0.01296
G1 X63.317 Y66.250 E0.01295
G1 X62.973 Y66.053 E0.01243
G1 X62.747 Y65.862 E0.00929
G1 X62.489 Y65.548 E0.01274
G1 X62.352 Y65.300 E0.00889
G1 X62.221 Y64.912 E0.01284
G1 X62.177 Y64.501 E0.01296
G1 X62.221 Y64.090 E0.01296
G1 X62.352 Y63.702 E0.01284
G1 X62.489 Y63.454 E0.00889
G1 X62.749 Y63.137 E0.01284
G1 X63.070 Y62.884 E0.01284
G1 X63.321 Y62.751 E0.00889
G1 X63.711 Y62.627 E0.01283
G1 X64.105 Y62.591 E0.01243
G1 X64.400 Y62.616 E0.00929
G1 X64.796 Y62.725 E0.01286
G1 X65.157 Y62.917 E0.01284
G1 X65.380 Y63.093 E0.00888
G1 X65.650 Y63.400 E0.01284
G1 X65.851 Y63.762 E0.01296
G1 X65.967 Y64.154 E0.01285
G1 X65.998 Y64.445 E0.00915
G1 X65.973 Y64.785 E0.01069
M204 S1250
G1 X66.270 Y65.107 F9000.000
G1 E-2.24000 F4200.000
;WIPE_START
G1 F7200.000
G1 X65.851 Y65.240 E-0.26137
G1 X65.660 Y65.587 E-0.21963
G1 X65.476 Y65.815 E-0.16203
G1 X65.269 Y66.004 E-0.15523
G1 X65.095 Y66.112 E-0.11374
;WIPE_END
G1 E-0.04800 F4200.000
G1 Z0.400 F9000.000
G1 X114.002 Y64.570
G1 Z0.200
G1 E3.20000 F2400.000
M204 S800
G1 F1200.000
G1 X114.031 Y64.162 E0.01284
G1 X114.102 Y63.887 E0.00888
G1 X114.274 Y63.516 E0.01284
G1 X114.524 Y63.187 E0.01295
G1 X114.826 Y62.929 E0.01243
G1 X115.081 Y62.780 E0.00929
G1 X115.467 Y62.642 E0.01285
G1 X115.860 Y62.591 E0.01243
G1 X116.156 Y62.606 E0.00929
G1 X116.555 Y62.701 E0.01285
G1 X116.912 Y62.873 E0.01243
G1 X117.149 Y63.044 E0.00917
G1 X117.348 Y63.241 E0.00878
G1 X117.584 Y63.575 E0.01284
G1 X117.744 Y63.956 E0.01296
G1 X117.818 Y64.363 E0.01296
G1 X117.803 Y64.776 E0.01296
G1 X117.701 Y65.173 E0.01284
G1 X117.582 Y65.430 E0.00888
G1 X117.346 Y65.764 E0.01284
G1 X117.041 Y66.043 E0.01296
G1 X116.686 Y66.248 E0.01284
G1 X116.420 Y66.343 E0.00889
G1 X116.015 Y66.410 E0.01284
G1 X115.603 Y66.387 E0.01296
G1 X115.208 Y66.278 E0.01284
G1 X114.953 Y66.154 E0.00889
G1 X114.626 Y65.914 E0.01272
G1 X114.431 Y65.709 E0.00888
G1 X114.207 Y65.366 E0.01284
G1 X114.061 Y64.979 E0.01296
G1 X114.010 Y64.629 E0.01108
M204 S1250
G1 X113.648 Y64.383 F9000.000
G1 E-2.24000 F4200.000
;WIPE_START
G1 F7200.000
G1 X114.031 Y64.162 E-0.25949
G1 X114.102 Y63.887 E-0.15704
G1 X114.274 Y63.516 E-0.22692
G1 X114.524 Y63.187 E-0.22889
G1 X114.579 Y63.140 E-0.03966
;WIPE_END
G1 E-0.04800 F4200.000
G1 Z0.400 F9000.000
G1 X66.695 Y64.911
G1 Z0.200
G1 E3.20000 F2400.000
M204 S800
G1 F1200.000
G1 X69.599 Y64.911 E0.09104
G1 X69.626 Y65.718 E0.02532
G1 X69.735 Y66.929 E0.03812
G1 X69.848 Y67.735 E0.02551
G1 X70.076 Y68.930 E0.03813
G1 X70.375 Y70.108 E0.03813
G1 X70.614 Y70.885 E0.02548
G1 X70.888 Y71.663 E0.02585
G1 X71.343 Y72.777 E0.03773
G1 X71.688 Y73.514 E0.02551
G1 X72.257 Y74.588 E0.03810
G1 X72.673 Y75.287 E0.02551
G1 X73.345 Y76.299 E0.03810
G1 X73.829 Y76.954 E0.02551
G1 X74.599 Y77.894 E0.03810
G1 X75.145 Y78.497 E0.02551
G1 X76.005 Y79.357 E0.03813
G1 X76.914 Y80.164 E0.03813
G1 X77.549 Y80.673 E0.02551
G1 X78.534 Y81.386 E0.03810
G1 X79.215 Y81.829 E0.02548
G1 X79.913 Y82.244 E0.02548
G1 X80.988 Y82.814 E0.03813
G1 X82.095 Y83.318 E0.03814
G1 X82.862 Y83.622 E0.02589
G1 X84.003 Y84.010 E0.03776
G1 X85.176 Y84.333 E0.03817
G1 X86.366 Y84.585 E0.03813
G1 X87.169 Y84.714 E0.02551
G1 X88.377 Y84.846 E0.03810
G1 X89.190 Y84.895 E0.02551
G1 X90.405 Y84.907 E0.03810
G1 X91.217 Y84.875 E0.02548
G1 X92.026 Y84.810 E0.02545
G1 X92.832 Y84.714 E0.02545
G1 X93.633 Y84.585 E0.02545
G1 X94.429 Y84.425 E0.02545
G1 X95.217 Y84.233 E0.02545
G1 X95.997 Y84.010 E0.02545
G1 X96.769 Y83.756 E0.02548
G1 X97.903 Y83.319 E0.03810
G1 X98.646 Y82.989 E0.02548
G1 X99.374 Y82.631 E0.02545
G1 X100.088 Y82.244 E0.02545
G1 X100.785 Y81.829 E0.02545
G1 X101.466 Y81.386 E0.02548
G1 X102.451 Y80.673 E0.03810
G1 X103.085 Y80.165 E0.02548
G1 X103.698 Y79.632 E0.02548
G1 X104.574 Y78.790 E0.03810
G1 X105.131 Y78.198 E0.02548
G1 X105.665 Y77.585 E0.02548
G1 X106.416 Y76.629 E0.03813
G1 X107.110 Y75.628 E0.03817
G1 X107.742 Y74.590 E0.03814
