; generated by PrusaSlicer 2.3.0+win64 on 2021-07-31 at 19:36:56 UTC


;
;

;
;
; 

; external perimeters extrusion width = 0.45mm
; perimeters extrusion width = 0.45mm
; infill extrusion width = 0.45mm
; solid infill extrusion width = 0.45mm
; top infill extrusion width = 0.40mm
; first layer extrusion width = 0.42mm

M73 P0 R26
M201 X1250 Y1250 Z400 E5000 ; sets maximum accelerations, mm/sec^2
M203 X180 Y180 Z12 E80 ; sets maximum feedrates, mm/sec
M204 P1250 R1250 T1250 ; sets acceleration (P, T) and retract acceleration (R), mm/sec^2
M205 X8.00 Y8.00 Z2.00 E10.00 ; sets the jerk limits, mm/sec
M205 S0 T0 ; sets the minimum extruding and travel feed rate, mm/sec
M107
;TYPE:Custom
G90 ; use absolute coordinates
M83 ; extruder relative mode
M104 S170 ; set extruder temp for bed leveling
M140 S60 ; set bed temp
M109 R170 ; wait for bed leveling temp
M190 S60 ; wait for bed temp
G28 ; home all without mesh bed level
G29 ; mesh bed leveling 
M104 S215 ; set extruder temp
G92 E0.0
G1 Y-2.0 X179 F2400
G1 Z3 F720
M109 S215 ; wait for extruder temp

; intro line
G1 X170 F1000
G1 Z0.2 F720
G1 X110.0 E8.0 F900
G1 X40.0 E10.0 F700
G92 E0.0

M221 S95 ; set flow
G21 ; set units to millimeters
G90 ; use absolute coordinates
M83 ; use relative distances for extrusion
M900 K0.2 ; Filament gcode LA 1.5
; ; Filament gcode LA 1.0
;LAYER_CHANGE
;Z:0.2
;HEIGHT:0.2
;BEFORE_LAYER_CHANGE
G92 E0.0
;0.2


G1 E-3.20000 F4200.000
M73 P1 R26
G1 Z0.200 F9000.000
;AFTER_LAYER_CHANGE
;0.2
G1 Z0.400
G1 X72.118 Y81.793
G1 Z0.200
G1 E3.20000 F2400.000
M204 S800
;TYPE:Skirt
;WIDTH:0.42
G1 F1200.000
G1 X72.947 Y81.230 E0.03145
G1 X80.692 Y78.030 E0.26273
G1 X98.059 Y72.916 E0.56765
G1 X98.994 Y72.733 E0.02987
G1 X99.922 Y72.673 E0.02917
G1 X100.827 Y72.730 E0.02841
G1 X101.712 Y72.898 E0.02825
G1 X102.578 Y73.178 E0.02852
G1 X103.359 Y73.541 E0.02702
G1 X104.694 Y74.465 E0.05092
G1 X105.316 Y75.079 E0.02741
G1 X105.870 Y75.777 E0.02792
G1 X106.342 Y76.554 E0.02852
G1 X106.699 Y77.346 E0.02724
G1 X107.103 Y78.911 E0.05068
G1 X107.173 Y79.781 E0.02734
G1 X107.135 Y80.685 E0.02840
G1 X106.985 Y81.575 E0.02828
G1 X106.737 Y82.408 E0.02726
G1 X106.054 Y83.800 E0.04861
G1 X105.132 Y84.973 E0.04679
G1 X90.481 Y99.495 E0.64678
G1 X90.068 Y99.831 E0.01669
G1 X89.602 Y100.079 E0.01656
G1 X82.050 Y103.207 E0.25628
G1 X81.102 Y103.394 E0.03031
G1 X80.018 Y103.333 E0.03404
G1 X78.658 Y103.121 E0.04315
G1 X76.542 Y102.477 E0.06935
G1 X75.293 Y101.895 E0.04321
G1 X74.341 Y101.332 E0.03469
G1 X73.434 Y100.684 E0.03495
G1 X72.450 Y99.826 E0.04093
G1 X72.114 Y99.414 E0.01669
G1 X71.865 Y98.948 E0.01656
G1 X68.737 Y91.394 E0.25634
G1 X68.549 Y90.446 E0.03031
G1 X68.616 Y89.305 E0.03585
G1 X68.782 Y88.202 E0.03495
G1 X69.116 Y86.873 E0.04299
G1 X69.495 Y85.816 E0.03520
G1 X69.958 Y84.811 E0.03468
G1 X70.654 Y83.620 E0.04326
G1 X71.302 Y82.724 E0.03467
G1 X72.078 Y81.838 E0.03693
M204 S1250
G1 X72.362 Y82.087 F9000.000
M204 S800
G1 F1200.000
G1 X73.107 Y81.572 E0.02839
G1 X80.811 Y78.387 E0.26140
G1 X97.980 Y73.330 E0.56119
G1 X99.012 Y73.111 E0.03308
G1 X99.923 Y73.050 E0.02860
G1 X100.780 Y73.104 E0.02693
G1 X101.619 Y73.264 E0.02679
G1 X102.440 Y73.528 E0.02703
G1 X103.188 Y73.877 E0.02589
G1 X104.442 Y74.747 E0.04785
G1 X105.036 Y75.331 E0.02612
G1 X105.565 Y75.999 E0.02670
G1 X106.010 Y76.733 E0.02693
G1 X106.350 Y77.488 E0.02596
G1 X106.730 Y78.972 E0.04803
G1 X106.796 Y79.788 E0.02566
G1 X106.759 Y80.654 E0.02717
G1 X106.615 Y81.501 E0.02694
G1 X106.367 Y82.323 E0.02694
G1 X105.729 Y83.609 E0.04501
G1 X104.855 Y84.717 E0.04424
G1 X90.202 Y99.240 E0.64686
G1 X89.455 Y99.732 E0.02805
G1 X81.921 Y102.852 E0.25570
G1 X81.092 Y103.017 E0.02649
G1 X79.791 Y102.928 E0.04090
G1 X78.733 Y102.752 E0.03363
G1 X76.686 Y102.128 E0.06709
G1 X75.471 Y101.562 E0.04203
G1 X74.547 Y101.017 E0.03363
G1 X73.669 Y100.388 E0.03387
G1 X72.705 Y99.548 E0.04009
G1 X72.211 Y98.799 E0.02813
G1 X69.091 Y91.265 E0.25570
G1 X68.926 Y90.436 E0.02649
G1 X69.151 Y88.277 E0.06806
G1 X69.477 Y86.980 E0.04192
G1 X69.845 Y85.956 E0.03411
G1 X70.291 Y84.987 E0.03346
G1 X70.970 Y83.825 E0.04221
G1 X71.597 Y82.960 E0.03347
G1 X72.322 Y82.132 E0.03452
M204 S1250
; printing object OnDiskCoupler03.stl id:1 copy 0
G1 E-2.24000 F4200.000
;WIPE_START
G1 F7200.000
G1 X73.107 Y81.572 E-0.53412
G1 X73.737 Y81.311 E-0.37788
;WIPE_END
G1 E-0.04800 F4200.000
G1 Z0.400 F9000.000
G1 X79.642 Y93.768
G1 Z0.200
G1 E3.20000 F2400.000
M204 S800
;TYPE:Perimeter
G1 F1200.000
G1 X79.946 Y93.912 E0.01055
G1 X80.263 Y94.025 E0.01055
G1 X80.263 Y99.804 E0.18119
G1 X79.367 Y99.651 E0.02847
G1 X78.614 Y99.456 E0.02441
G1 X77.879 Y99.198 E0.02441
G1 X77.169 Y98.878 E0.02441
G1 X76.489 Y98.500 E0.02441
G1 X75.839 Y98.064 E0.02454
G1 X75.562 Y97.848 E0.01102
G1 X79.600 Y93.811 E0.17901
M204 S1250
G1 X79.583 Y93.294 F9000.000
M204 S800
;TYPE:External perimeter
G1 F1200.000
G1 X79.803 Y93.427 E0.00808
G1 X80.090 Y93.564 E0.00996
G1 X80.392 Y93.671 E0.01003
G1 X80.640 Y93.727 E0.00797
G1 X80.640 Y100.204 E0.20310
G1 X80.087 Y100.157 E0.01739
G1 X79.288 Y100.020 E0.02541
G1 X78.504 Y99.817 E0.02541
G1 X77.739 Y99.548 E0.02541
G1 X77.000 Y99.216 E0.02541
G1 X76.292 Y98.822 E0.02541
G1 X75.618 Y98.369 E0.02545
G1 X75.004 Y97.873 E0.02476
G1 X79.540 Y93.337 E0.20116
M204 S1250
G1 X79.698 Y93.525 F9000.000
G1 X79.413 Y94.157
M204 S800
;TYPE:Solid infill
;WIDTH:0.430001
G1 F1200.000
G1 X79.980 Y94.724 E0.02581
G1 X79.980 Y95.272 E0.01762
G1 X79.259 Y94.551 E0.03281
G1 X78.985 Y94.825 E0.01246
G1 X79.980 Y95.819 E0.04527
G1 X79.980 Y96.367 E0.01762
G1 X78.712 Y95.098 E0.05773
G1 X78.438 Y95.372 E0.01246
G1 X79.980 Y96.914 E0.07018
G1 X79.980 Y97.461 E0.01762
G1 X78.164 Y95.646 E0.08264
G1 X77.890 Y95.920 E0.01246
G1 X79.980 Y98.009 E0.09510
G1 X79.980 Y98.556 E0.01762
G1 X77.617 Y96.193 E0.10756
G1 X77.343 Y96.467 E0.01246
G1 X79.980 Y99.104 E0.12002
G1 X79.980 Y99.469 E0.01175
G1 X79.760 Y99.431 E0.00718
G1 X77.069 Y96.741 E0.12247
G1 X76.796 Y97.014 E0.01246
G1 X79.061 Y99.280 E0.10311
M73 P2 R26
G1 X78.696 Y99.185 E0.01212
G1 X78.269 Y99.035 E0.01459
G1 X76.522 Y97.288 E0.07951
G1 X76.248 Y97.562 E0.01246
G1 X77.663 Y98.976 E0.06438
M204 S1250
G1 E-2.24000 F4200.000
;WIPE_START
G1 F7200.000
G1 X76.499 Y97.812 E-0.91200
;WIPE_END
G1 E-0.04800 F4200.000
G1 Z0.400 F9000.000
G1 X84.424 Y92.302
G1 Z0.200
G1 E3.20000 F2400.000
M204 S800
;TYPE:Perimeter
;WIDTH:0.42
G1 F1200.000
G1 X84.568 Y91.998 E0.01055
G1 X84.681 Y91.681 E0.01055
G1 X90.445 Y91.681 E0.18073
G1 X90.411 Y92.002 E0.01011
G1 X90.264 Y92.766 E0.02441
G1 X90.053 Y93.515 E0.02441
G1 X89.779 Y94.244 E0.02441
G1 X89.445 Y94.947 E0.02441
G1 X89.053 Y95.619 E0.02441
G1 X88.502 Y96.379 E0.02943
M73 P2 R25
G1 X84.467 Y92.344 E0.17894
M204 S1250
G1 X83.946 Y92.357 F9000.000
M204 S800
;TYPE:External perimeter
G1 F1200.000
G1 X84.082 Y92.142 E0.00797
G1 X84.219 Y91.853 E0.01003
G1 X84.327 Y91.552 E0.01003
G1 X84.383 Y91.304 E0.00797
G1 X90.865 Y91.304 E0.20324
G1 X90.785 Y92.057 E0.02375
G1 X90.632 Y92.853 E0.02541
G1 X90.412 Y93.633 E0.02541
G1 X90.127 Y94.391 E0.02541
G1 X89.779 Y95.123 E0.02541
G1 X89.370 Y95.823 E0.02541
G1 X88.904 Y96.486 E0.02541
G1 X88.527 Y96.937 E0.01845
G1 X83.989 Y92.399 E0.20121
M204 S1250
G1 X84.176 Y92.249 F9000.000
G1 E-2.24000 F4200.000
;WIPE_START
G1 F7200.000
G1 X84.082 Y92.142 E-0.15173
G1 X84.219 Y91.853 E-0.17725
G1 X84.327 Y91.552 E-0.17725
G1 X84.383 Y91.304 E-0.14093
G1 X84.861 Y91.304 E-0.26484
;WIPE_END
G1 E-0.04800 F4200.000
G1 Z0.400 F9000.000
G1 X89.499 Y91.794
G1 Z0.200
G1 E3.20000 F2400.000
M204 S800
;TYPE:Solid infill
;WIDTH:0.448525
G1 F1200.000
G1 X90.056 Y92.351 E0.02657
G1 X89.954 Y92.823 E0.01628
G1 X89.095 Y91.964 E0.04099
G1 X88.522 Y91.964 E0.01935
G1 X89.828 Y93.270 E0.06233
G1 X89.682 Y93.698 E0.01524
G1 X87.948 Y91.964 E0.08273
G1 X87.374 Y91.964 E0.01935
G1 X89.526 Y94.115 E0.10262
G1 X89.342 Y94.505 E0.01454
G1 X86.801 Y91.964 E0.12122
G1 X86.227 Y91.964 E0.01935
G1 X89.152 Y94.889 E0.13951
G1 X88.941 Y95.251 E0.01414
G1 X85.653 Y91.964 E0.15678
G1 X85.080 Y91.964 E0.01935
G1 X88.717 Y95.601 E0.17348
G1 X88.476 Y95.933 E0.01385
G1 X84.644 Y92.102 E0.18276
M204 S1250
G1 E-2.24000 F4200.000
;WIPE_START
G1 F7200.000
G1 X85.808 Y93.265 E-0.91200
;WIPE_END
G1 E-0.04800 F4200.000
G1 Z0.400 F9000.000
G1 X77.918 Y89.607
G1 Z0.200
G1 E3.20000 F2400.000
M204 S800
;TYPE:Perimeter
;WIDTH:0.42
G1 F1200.000
G1 X72.153 Y89.607 E0.18078
G1 X72.170 Y89.414 E0.00607
G1 X72.306 Y88.648 E0.02439
G1 X72.507 Y87.896 E0.02441
G1 X72.770 Y87.163 E0.02441
G1 X73.096 Y86.452 E0.02454
G1 X73.343 Y86.000 E0.01615
G1 X73.617 Y85.559 E0.01628
G1 X74.096 Y84.907 E0.02538
G1 X78.175 Y88.986 E0.18088
G1 X78.031 Y89.290 E0.01055
G1 X77.938 Y89.550 E0.00866
M204 S1250
G1 X78.217 Y89.984 F9000.000
M204 S800
;TYPE:External perimeter
G1 F1200.000
G1 X71.740 Y89.984 E0.20307
G1 X71.796 Y89.364 E0.01951
G1 X71.938 Y88.566 E0.02540
G1 X72.146 Y87.783 E0.02541
G1 X72.421 Y87.021 E0.02541
G1 X72.759 Y86.283 E0.02545
G1 X73.017 Y85.810 E0.01690
G1 X73.303 Y85.351 E0.01694
G1 X73.613 Y84.909 E0.01694
G1 X74.070 Y84.347 E0.02270
G1 X78.653 Y88.931 E0.20323
G1 X78.517 Y89.145 E0.00797
G1 X78.380 Y89.434 E0.01003
G1 X78.273 Y89.736 E0.01003
G1 X78.230 Y89.925 E0.00609
M204 S1250
G1 X77.891 Y89.751 F9000.000
G1 X77.955 Y89.186
M204 S800
;TYPE:Solid infill
;WIDTH:0.449211
G1 F1200.000
G1 X74.120 Y85.352 E0.18321
G1 X73.877 Y85.683 E0.01389
G1 X77.518 Y89.324 E0.17395
G1 X76.943 Y89.324 E0.01941
G1 X73.654 Y86.035 E0.15714
G1 X73.446 Y86.401 E0.01424
G1 X76.369 Y89.324 E0.13964
G1 X75.794 Y89.324 E0.01941
G1 X73.255 Y86.784 E0.12133
G1 X73.074 Y87.178 E0.01464
G1 X75.220 Y89.324 E0.10250
G1 X74.645 Y89.324 E0.01941
G1 X72.916 Y87.594 E0.08263
G1 X72.766 Y88.020 E0.01523
G1 X74.070 Y89.324 E0.06231
G1 X73.496 Y89.324 E0.01941
G1 X72.645 Y88.473 E0.04064
G1 X72.541 Y88.943 E0.01627
G1 X73.091 Y89.494 E0.02629
M204 S1250
G1 E-2.24000 F4200.000
;WIPE_START
G1 F7200.000
G1 X72.541 Y88.943 E-0.43120
G1 X72.645 Y88.473 E-0.26683
G1 X72.918 Y88.746 E-0.21397
;WIPE_END
G1 E-0.04800 F4200.000
G1 Z0.400 F9000.000
G1 X82.337 Y87.262
G1 Z0.200
G1 E3.20000 F2400.000
M204 S800
;TYPE:Perimeter
;WIDTH:0.42
G1 F1200.000
G1 X82.337 Y81.497 E0.18076
G1 X82.593 Y81.523 E0.00808
G1 X83.359 Y81.664 E0.02441
G1 X84.109 Y81.870 E0.02441
G1 X84.840 Y82.139 E0.02441
G1 X85.546 Y82.468 E0.02441
G1 X86.221 Y82.856 E0.02441
G1 X86.860 Y83.298 E0.02437
G1 X87.034 Y83.443 E0.00710
G1 X82.957 Y87.519 E0.18074
G1 X82.654 Y87.375 E0.01055
G1 X82.393 Y87.282 E0.00866
M204 S1250
G1 X81.960 Y87.561 F9000.000
M204 S800
;TYPE:External perimeter
G1 F1200.000
G1 X81.960 Y81.081 E0.20317
G1 X82.646 Y81.149 E0.02163
G1 X83.443 Y81.297 E0.02541
G1 X84.225 Y81.511 E0.02541
G1 X84.985 Y81.790 E0.02541
G1 X85.719 Y82.133 E0.02541
G1 X86.422 Y82.537 E0.02541
G1 X87.088 Y82.998 E0.02539
G1 X87.592 Y83.418 E0.02058
G1 X83.013 Y87.997 E0.20305
G1 X82.798 Y87.861 E0.00797
G1 X82.509 Y87.724 E0.01003
G1 X82.208 Y87.617 E0.01003
G1 X82.018 Y87.574 E0.00609
M204 S1250
G1 X82.192 Y87.235 F9000.000
G1 E-2.24000 F4200.000
;WIPE_START
G1 F7200.000
G1 X82.003 Y85.928 E-0.91200
;WIPE_END
G1 E-0.04800 F4200.000
G1 Z0.400 F9000.000
G1 X84.954 Y82.317
G1 Z0.200
G1 E3.20000 F2400.000
M204 S800
;TYPE:Solid infill
;WIDTH:0.430612
G1 F1200.000
G1 X86.357 Y83.720 E0.06398
G1 X86.083 Y83.994 E0.01250
G1 X84.348 Y82.259 E0.07909
G1 X84.023 Y82.140 E0.01116
G1 X83.551 Y82.010 E0.01579
G1 X85.809 Y84.268 E0.10294
G1 X85.534 Y84.542 E0.01250
G1 X82.850 Y81.858 E0.12239
G1 X82.620 Y81.815 E0.00755
G1 X82.620 Y82.176 E0.01163
G1 X85.260 Y84.817 E0.12039
G1 X84.986 Y85.091 E0.01250
G1 X82.620 Y82.724 E0.10789
G1 X82.620 Y83.272 E0.01767
G1 X84.712 Y85.365 E0.09540
G1 X84.438 Y85.639 E0.01250
G1 X82.620 Y83.821 E0.08290
G1 X82.620 Y84.369 E0.01767
G1 X84.164 Y85.913 E0.07040
G1 X83.890 Y86.187 E0.01250
G1 X82.620 Y84.917 E0.05790
G1 X82.620 Y85.465 E0.01767
G1 X83.616 Y86.461 E0.04541
G1 X83.341 Y86.736 E0.01250
G1 X82.620 Y86.014 E0.03291
G1 X82.620 Y86.562 E0.01767
G1 X83.187 Y87.130 E0.02588
M204 S1250
; stop printing object OnDiskCoupler03.stl id:1 copy 0
; printing object PotPostD_01.stl id:0 copy 0
G1 E-2.24000 F4200.000
;WIPE_START
G1 F7200.000
G1 X82.620 Y86.562 E-0.44488
G1 X82.620 Y86.014 E-0.30384
G1 X82.828 Y86.222 E-0.16328
;WIPE_END
G1 E-0.04800 F4200.000
G1 Z0.400 F9000.000
G1 X96.480 Y81.389
G1 Z0.200
G1 E3.20000 F2400.000
M204 S800
;TYPE:External perimeter
;WIDTH:0.42
G1 F1200.000
G1 X96.354 Y81.048 E0.01141
G1 X96.262 Y80.696 E0.01141
G1 X96.205 Y80.336 E0.01141
G1 X96.183 Y79.973 E0.01141
G1 X96.196 Y79.609 E0.01141
G1 X96.245 Y79.249 E0.01141
G1 X96.328 Y78.894 E0.01141
G1 X96.446 Y78.550 E0.01141
G1 X96.596 Y78.218 E0.01141
G1 X96.778 Y77.903 E0.01141
G1 X96.990 Y77.607 E0.01141
G1 X97.229 Y77.333 E0.01141
G1 X97.495 Y77.084 E0.01141
G1 X97.783 Y76.861 E0.01141
G1 X98.091 Y76.668 E0.01141
G1 X98.417 Y76.505 E0.01141
G1 X98.757 Y76.375 E0.01141
G1 X99.108 Y76.279 E0.01141
G1 X99.466 Y76.217 E0.01141
G1 X99.828 Y76.191 E0.01138
G1 X100.193 Y76.200 E0.01144
G1 X100.554 Y76.244 E0.01140
G1 X100.910 Y76.323 E0.01142
G1 X101.256 Y76.436 E0.01141
G1 X101.589 Y76.583 E0.01141
G1 X101.906 Y76.761 E0.01141
G1 X102.205 Y76.969 E0.01141
G1 X102.482 Y77.205 E0.01141
G1 X102.734 Y77.467 E0.01141
G1 X102.960 Y77.753 E0.01141
G1 X103.157 Y78.058 E0.01141
G1 X103.324 Y78.382 E0.01141
G1 X103.458 Y78.721 E0.01141
G1 X103.559 Y79.070 E0.01141
G1 X103.625 Y79.431 E0.01149
M73 P3 R25
G1 X103.658 Y79.970 E0.01695
G1 X103.636 Y80.336 E0.01149
G1 X103.578 Y80.696 E0.01141
G1 X103.486 Y81.048 E0.01141
G1 X103.360 Y81.389 E0.01141
G1 X103.202 Y81.717 E0.01141
G1 X103.012 Y82.028 E0.01141
G1 X102.793 Y82.318 E0.01141
G1 X102.547 Y82.586 E0.01141
G1 X102.276 Y82.829 E0.01141
G1 X101.983 Y83.045 E0.01141
G1 X101.670 Y83.231 E0.01141
G1 X101.340 Y83.385 E0.01141
G1 X100.997 Y83.507 E0.01141
G1 X100.644 Y83.594 E0.01141
G1 X100.284 Y83.647 E0.01141
G1 X99.920 Y83.665 E0.01141
G1 X99.557 Y83.647 E0.01141
G1 X99.197 Y83.594 E0.01141
G1 X98.843 Y83.507 E0.01141
G1 X98.500 Y83.385 E0.01141
G1 X98.171 Y83.231 E0.01141
G1 X97.858 Y83.045 E0.01141
G1 X97.564 Y82.829 E0.01141
G1 X97.293 Y82.586 E0.01141
G1 X97.047 Y82.318 E0.01141
G1 X96.828 Y82.028 E0.01141
G1 X96.639 Y81.717 E0.01141
G1 X96.506 Y81.443 E0.00953
M204 S1250
G1 X96.119 Y81.345 F9000.000
G1 X96.063 Y81.360
M204 S800
G1 F1200.000
G1 X95.958 Y81.036 E0.01067
G1 X95.850 Y80.526 E0.01635
G1 X95.814 Y80.187 E0.01068
G1 X95.807 Y79.841 E0.01085
G1 X95.828 Y79.499 E0.01074
G1 X95.914 Y78.988 E0.01627
G1 X96.065 Y78.491 E0.01627
G1 X96.197 Y78.175 E0.01074
G1 X96.356 Y77.871 E0.01076
G1 X96.540 Y77.581 E0.01078
G1 X96.864 Y77.173 E0.01635
G1 X97.104 Y76.928 E0.01073
G1 X97.363 Y76.704 E0.01073
G1 X97.790 Y76.408 E0.01630
G1 X98.091 Y76.242 E0.01078
G1 X98.403 Y76.103 E0.01073
G1 X98.898 Y75.942 E0.01630
G1 X99.234 Y75.870 E0.01078
G1 X99.574 Y75.827 E0.01073
G1 X100.093 Y75.817 E0.01630
G1 X100.434 Y75.845 E0.01071
G1 X100.946 Y75.943 E0.01633
G1 X101.271 Y76.041 E0.01067
G1 X101.752 Y76.243 E0.01633
G1 X102.050 Y76.407 E0.01067
G1 X102.478 Y76.704 E0.01635
G1 X102.737 Y76.928 E0.01073
G1 X102.978 Y77.174 E0.01080
G1 X103.196 Y77.438 E0.01074
G1 X103.484 Y77.870 E0.01627
G1 X103.714 Y78.335 E0.01627
G1 X103.834 Y78.656 E0.01074
G1 X103.926 Y78.988 E0.01080
G1 X103.990 Y79.324 E0.01073
G1 X104.034 Y79.844 E0.01637
G1 X104.027 Y80.184 E0.01064
G1 X103.961 Y80.700 E0.01633
G1 X103.883 Y81.034 E0.01074
G1 X103.777 Y81.360 E0.01076
G1 X103.644 Y81.677 E0.01077
G1 X103.393 Y82.134 E0.01635
G1 X103.199 Y82.413 E0.01067
G1 X102.858 Y82.808 E0.01633
G1 X102.609 Y83.042 E0.01074
G1 X102.339 Y83.256 E0.01081
G1 X102.052 Y83.447 E0.01079
G1 X101.752 Y83.612 E0.01074
G1 X101.273 Y83.813 E0.01630
G1 X100.944 Y83.913 E0.01077
G1 X100.609 Y83.984 E0.01074
G1 X100.092 Y84.038 E0.01630
G1 X99.748 Y84.038 E0.01077
G1 X99.407 Y84.010 E0.01074
G1 X98.895 Y83.912 E0.01635
G1 X98.567 Y83.813 E0.01073
G1 X98.249 Y83.687 E0.01074
G1 X97.788 Y83.446 E0.01630
G1 X97.502 Y83.256 E0.01077
G1 X97.234 Y83.044 E0.01074
