; generated by PrusaSlicer 2.3.0+win64 on 2021-07-25 at 15:57:09 UTC


;
;

;
;
; 

; external perimeters extrusion width = 0.45mm
; perimeters extrusion width = 0.45mm
; infill extrusion width = 0.45mm
; solid infill extrusion width = 0.45mm
; top infill extrusion width = 0.40mm
; first layer extrusion width = 0.42mm

M73 P0 R13
M201 X1250 Y1250 Z400 E5000 ; sets maximum accelerations, mm/sec^2
M203 X180 Y180 Z12 E80 ; sets maximum feedrates, mm/sec
M204 P1250 R1250 T1250 ; sets acceleration (P, T) and retract acceleration (R), mm/sec^2
M205 X8.00 Y8.00 Z2.00 E10.00 ; sets the jerk limits, mm/sec
M205 S0 T0 ; sets the minimum extruding and travel feed rate, mm/sec
M107
;TYPE:Custom
G90 ; use absolute coordinates
M83 ; extruder relative mode
M104 S170 ; set extruder temp for bed leveling
M140 S60 ; set bed temp
M109 R170 ; wait for bed leveling temp
M190 S60 ; wait for bed temp
G28 ; home all without mesh bed level
G29 ; mesh bed leveling 
M104 S215 ; set extruder temp
G92 E0.0
G1 Y-2.0 X179 F2400
G1 Z3 F720
M109 S215 ; wait for extruder temp

; intro line
G1 X170 F1000
G1 Z0.2 F720
G1 X110.0 E8.0 F900
M73 P1 R13
G1 X40.0 E10.0 F700
G92 E0.0

M221 S95 ; set flow
G21 ; set units to millimeters
G90 ; use absolute coordinates
M83 ; use relative distances for extrusion
M900 K0.2 ; Filament gcode LA 1.5
; ; Filament gcode LA 1.0
;LAYER_CHANGE
;Z:0.2
;HEIGHT:0.2
;BEFORE_LAYER_CHANGE
G92 E0.0
;0.2


G1 E-3.20000 F4200.000
M73 P2 R13
G1 Z0.200 F9000.000
;AFTER_LAYER_CHANGE
;0.2
G1 Z0.400
G1 X84.582 Y84.626
G1 Z0.200
G1 E3.20000 F2400.000
M204 S800
;TYPE:Skirt
;WIDTH:0.42
G1 F937
G1 X85.769 Y83.649 E0.04821
G1 X87.132 Y82.928 E0.04834
G1 X88.459 Y82.526 E0.04346
G1 X89.998 Y82.369 E0.04851
G1 X91.527 Y82.524 E0.04818
G1 X92.861 Y82.926 E0.04368
G1 X94.225 Y83.645 E0.04835
G1 X95.425 Y84.633 E0.04875
G1 X96.299 Y85.694 E0.04311
G1 X97.044 Y87.065 E0.04890
G1 X97.490 Y88.540 E0.04832
G1 X97.631 Y89.998 E0.04592
G1 X97.491 Y91.455 E0.04590
G1 X97.044 Y92.933 E0.04842
G1 X96.302 Y94.302 E0.04880
G1 X95.430 Y95.361 E0.04303
G1 X94.228 Y96.352 E0.04884
G1 X92.871 Y97.070 E0.04815
G1 X91.538 Y97.474 E0.04366
G1 X90.005 Y97.631 E0.04831
G1 X88.464 Y97.475 E0.04857
G1 X87.134 Y97.073 E0.04357
G1 X85.771 Y96.352 E0.04835
G1 X84.560 Y95.352 E0.04927
G1 X83.590 Y94.140 E0.04866
G1 X82.946 Y92.912 E0.04348
G1 X82.505 Y91.436 E0.04830
G1 X82.369 Y89.908 E0.04810
G1 X82.513 Y88.525 E0.04359
G1 X82.963 Y87.046 E0.04847
G1 X83.699 Y85.695 E0.04825
G1 X84.544 Y84.672 E0.04160
M204 S1250
G1 X84.833 Y84.911 F9000.000
M204 S800
G1 F937
G1 X85.981 Y83.960 E0.04674
G1 X87.278 Y83.276 E0.04598
G1 X88.530 Y82.897 E0.04101
G1 X89.997 Y82.746 E0.04625
G1 X91.456 Y82.894 E0.04596
G1 X92.715 Y83.273 E0.04123
G1 X94.015 Y83.959 E0.04610
G1 X95.159 Y84.901 E0.04648
G1 X96.090 Y86.060 E0.04659
G1 X96.695 Y87.209 E0.04074
G1 X97.120 Y88.616 E0.04608
G1 X97.254 Y90.000 E0.04358
G1 X97.121 Y91.382 E0.04355
G1 X96.696 Y92.789 E0.04606
G1 X95.988 Y94.093 E0.04653
G1 X95.162 Y95.096 E0.04075
G1 X94.019 Y96.039 E0.04644
G1 X92.725 Y96.722 E0.04591
G1 X91.467 Y97.104 E0.04119
G1 X90.006 Y97.254 E0.04607
G1 X88.540 Y97.105 E0.04620
G1 X87.281 Y96.725 E0.04125
G1 X85.980 Y96.039 E0.04610
G1 X84.828 Y95.087 E0.04684
G1 X83.904 Y93.932 E0.04640
G1 X83.296 Y92.773 E0.04104
G1 X82.875 Y91.365 E0.04606
G1 X82.746 Y89.908 E0.04588
G1 X82.881 Y88.603 E0.04112
G1 X83.311 Y87.192 E0.04624
G1 X84.010 Y85.908 E0.04587
G1 X84.795 Y84.957 E0.03864
M204 S1250
G1 X85.084 Y85.196 F9000.000
M204 S800
G1 F937
G1 X86.190 Y84.274 E0.04514
G1 X87.421 Y83.625 E0.04362
G1 X88.605 Y83.266 E0.03882
G1 X89.997 Y83.123 E0.04387
G1 X91.385 Y83.264 E0.04372
G1 X92.569 Y83.621 E0.03880
G1 X93.807 Y84.273 E0.04385
G1 X94.892 Y85.167 E0.04407
G1 X95.776 Y86.269 E0.04431
G1 X96.347 Y87.354 E0.03846
G1 X96.751 Y88.692 E0.04383
M73 P3 R13
G1 X96.877 Y89.998 E0.04112
G1 X96.751 Y91.310 E0.04133
G1 X96.348 Y92.644 E0.04370
G1 X95.674 Y93.884 E0.04425
G1 X94.897 Y94.828 E0.03835
G1 X93.810 Y95.725 E0.04416
G1 X92.578 Y96.375 E0.04367
G1 X91.392 Y96.734 E0.03887
G1 X90.006 Y96.877 E0.04370
G1 X88.611 Y96.735 E0.04395
G1 X87.426 Y96.377 E0.03881
G1 X86.189 Y95.725 E0.04385
G1 X85.095 Y94.820 E0.04453
G1 X84.220 Y93.727 E0.04389
G1 X83.645 Y92.629 E0.03886
G1 X83.245 Y91.291 E0.04381
G1 X83.123 Y89.908 E0.04353
G1 X83.251 Y88.677 E0.03879
G1 X83.659 Y87.338 E0.04388
G1 X84.324 Y86.116 E0.04362
G1 X85.046 Y85.243 E0.03554
M204 S1250
; printing object PotPostA_01.stl id:0 copy 0
G1 E-2.24000 F4200.000
;WIPE_START
G1 F7200.000
G1 X86.190 Y84.274 E-0.83049
G1 X86.320 Y84.206 E-0.08151
;WIPE_END
G1 E-0.04800 F4200.000
G1 Z0.400 F9000.000
G1 X87.334 Y87.494
G1 Z0.200
G1 E3.20000 F2400.000
M204 S800
;TYPE:External perimeter
G1 F937
G1 X87.594 Y87.243 E0.01135
G1 X87.878 Y87.019 E0.01135
G1 X88.183 Y86.824 E0.01135
G1 X88.506 Y86.660 E0.01135
G1 X88.843 Y86.529 E0.01135
G1 X89.192 Y86.432 E0.01135
G1 X89.548 Y86.369 E0.01135
G1 X89.910 Y86.342 E0.01139
G1 X90.448 Y86.369 E0.01689
G1 X90.807 Y86.432 E0.01143
G1 X91.156 Y86.529 E0.01135
G1 X91.493 Y86.660 E0.01135
G1 X91.816 Y86.824 E0.01135
G1 X92.121 Y87.019 E0.01135
G1 X92.405 Y87.243 E0.01135
G1 X92.665 Y87.494 E0.01135
G1 X92.900 Y87.770 E0.01135
G1 X93.106 Y88.067 E0.01135
G1 X93.282 Y88.384 E0.01135
G1 X93.425 Y88.716 E0.01135
G1 X93.535 Y89.060 E0.01135
G1 X93.611 Y89.414 E0.01135
G1 X93.651 Y89.774 E0.01135
G1 X93.656 Y90.136 E0.01135
G1 X93.624 Y90.496 E0.01135
G1 X93.558 Y90.852 E0.01135
G1 X93.456 Y91.199 E0.01135
G1 X93.321 Y91.535 E0.01135
G1 X93.153 Y91.855 E0.01135
G1 X92.954 Y92.158 E0.01135
G1 X92.726 Y92.439 E0.01135
G1 X92.472 Y92.697 E0.01135
G1 X92.194 Y92.928 E0.01135
G1 X91.894 Y93.130 E0.01135
G1 X91.575 Y93.302 E0.01135
G1 X91.241 Y93.441 E0.01135
G1 X90.895 Y93.547 E0.01134
G1 X90.541 Y93.618 E0.01134
G1 X90.180 Y93.654 E0.01135
G1 X89.819 Y93.654 E0.01135
G1 X89.458 Y93.618 E0.01135
G1 X89.104 Y93.547 E0.01135
G1 X88.758 Y93.441 E0.01135
G1 X88.424 Y93.302 E0.01135
G1 X88.105 Y93.130 E0.01135
G1 X87.805 Y92.928 E0.01135
G1 X87.527 Y92.697 E0.01135
G1 X87.273 Y92.439 E0.01135
G1 X87.045 Y92.158 E0.01135
G1 X86.846 Y91.855 E0.01135
G1 X86.678 Y91.535 E0.01135
G1 X86.543 Y91.199 E0.01135
G1 X86.441 Y90.852 E0.01135
G1 X86.375 Y90.496 E0.01135
G1 X86.343 Y90.136 E0.01135
G1 X86.348 Y89.774 E0.01135
G1 X86.388 Y89.414 E0.01135
G1 X86.464 Y89.060 E0.01135
G1 X86.574 Y88.716 E0.01135
G1 X86.717 Y88.384 E0.01135
G1 X86.893 Y88.067 E0.01135
G1 X87.099 Y87.770 E0.01135
G1 X87.295 Y87.540 E0.00946
M204 S1250
G1 X87.229 Y87.148 F9000.000
G1 X86.986 Y87.237
M204 S800
G1 F937
G1 X87.200 Y87.019 E0.00960
G1 X87.457 Y86.796 E0.01067
G1 X87.882 Y86.501 E0.01621
G1 X88.181 Y86.337 E0.01071
G1 X88.492 Y86.198 E0.01067
G1 X88.983 Y86.039 E0.01621
G1 X89.317 Y85.967 E0.01071
G1 X89.655 Y85.925 E0.01067
G1 X90.172 Y85.914 E0.01621
G1 X90.512 Y85.942 E0.01071
G1 X90.848 Y85.999 E0.01067
G1 X91.345 Y86.138 E0.01621
G1 X91.663 Y86.264 E0.01071
G1 X91.968 Y86.415 E0.01067
G1 X92.404 Y86.692 E0.01621
G1 X92.672 Y86.904 E0.01071
G1 X92.922 Y87.139 E0.01074
G1 X93.151 Y87.393 E0.01074
G1 X93.357 Y87.664 E0.01067
G1 X93.625 Y88.107 E0.01624
G1 X93.770 Y88.415 E0.01067
G1 X93.888 Y88.734 E0.01067
G1 X94.017 Y89.236 E0.01624
G1 X94.067 Y89.570 E0.01060
G1 X94.088 Y90.087 E0.01621
G1 X94.067 Y90.428 E0.01070
G1 X94.017 Y90.764 E0.01067
G1 X93.888 Y91.266 E0.01624
G1 X93.770 Y91.583 E0.01060
G1 X93.540 Y92.047 E0.01624
G1 X93.358 Y92.334 E0.01067
G1 X93.152 Y92.605 E0.01067
G1 X92.797 Y92.983 E0.01624
G1 X92.540 Y93.205 E0.01067
G1 X92.265 Y93.405 E0.01067
G1 X91.816 Y93.664 E0.01624
G1 X91.507 Y93.802 E0.01060
G1 X91.014 Y93.962 E0.01624
G1 X90.684 Y94.032 E0.01060
G1 X90.169 Y94.086 E0.01624
G1 X89.828 Y94.086 E0.01067
G1 X89.489 Y94.058 E0.01067
G1 X88.980 Y93.961 E0.01624
G1 X88.657 Y93.863 E0.01060
G1 X88.180 Y93.663 E0.01621
G1 X87.881 Y93.498 E0.01071
G1 X87.597 Y93.310 E0.01067
G1 X87.198 Y92.980 E0.01624
G1 X86.960 Y92.737 E0.01067
G1 X86.743 Y92.474 E0.01067
G1 X86.457 Y92.044 E0.01621
G1 X86.299 Y91.741 E0.01071
G1 X86.166 Y91.426 E0.01074
G1 X86.060 Y91.100 E0.01074
G1 X85.983 Y90.768 E0.01067
G1 X85.918 Y90.255 E0.01624
G1 X85.911 Y89.914 E0.01067
G1 X85.932 Y89.575 E0.01067
G1 X86.018 Y89.066 E0.01617
G1 X86.167 Y88.573 E0.01614
G1 X86.299 Y88.259 E0.01071
G1 X86.457 Y87.957 E0.01067
G1 X86.743 Y87.526 E0.01624
G1 X86.945 Y87.281 E0.00993
M204 S1250
G1 X87.285 Y87.299 F9000.000
G1 X87.184 Y87.305
M204 S800
;TYPE:Gap fill
;WIDTH:0.10112
G1 F937
G1 X87.715 Y86.877 E0.00330
M204 S1250
G1 X87.699 Y86.858 F9000.000
M204 S800
;WIDTH:0.101003
G1 F937
G1 X87.177 Y87.348 E0.00346
G1 X86.928 Y87.640 E0.00185
G1 X86.788 Y87.844 E0.00120
M204 S1250
G1 X86.705 Y87.967 F9000.000
M204 S800
;WIDTH:0.100687
G1 F937
G1 X86.495 Y88.351 E0.00210
G1 X86.372 Y88.641 E0.00152
G1 X86.300 Y88.872 E0.00116
M204 S1250
G1 X86.256 Y89.012 F9000.000
M204 S800
;WIDTH:0.100074
G1 F937
G1 X86.195 Y89.296 E0.00138
M204 S1250
G1 X86.103 Y90.115 F9000.000
M204 S800
;WIDTH:0.0934794
G1 F937
G1 X86.135 Y89.755 E0.00152
M204 S1250
G1 X86.135 Y89.755 F9000.000
M204 S800
;WIDTH:0.101024
G1 F937
G1 X86.171 Y89.439 E0.00153
M204 S1250
G1 X86.147 Y89.436 F9000.000
M204 S800
;WIDTH:0.0942913
G1 F937
G1 X86.129 Y90.142 E0.00302
G1 X86.155 Y90.432 E0.00124
M204 S1250
G1 X86.306 Y91.245 F9000.000
M204 S800
;WIDTH:0.0942602
G1 F937
G1 X86.173 Y90.576 E0.00291
M204 S1250
G1 X86.149 Y90.581 F9000.000
M204 S800
;WIDTH:0.0942829
G1 F937
G1 X86.370 Y91.350 E0.00342
G1 X86.495 Y91.649 E0.00139
G1 X86.643 Y91.934 E0.00137
G1 X86.778 Y92.141 E0.00105
M204 S1250
G1 X86.864 Y92.272 F9000.000
M204 S800
;WIDTH:0.093505
G1 F937
G1 X87.121 Y92.592 E0.00172
G1 X87.498 Y92.950 E0.00219
M204 S1250
G1 X87.660 Y93.086 F9000.000
M204 S800
;WIDTH:0.0989978
G1 F937
G1 X87.993 Y93.314 E0.00188
G1 X88.350 Y93.504 E0.00189
M204 S1250
G1 X88.517 Y93.572 F9000.000
M204 S800
;WIDTH:0.0951783
G1 F937
G1 X89.032 Y93.751 E0.00237
G1 X89.271 Y93.799 E0.00106
M204 S1250
G1 X89.421 Y93.828 F9000.000
M204 S800
;WIDTH:0.0943801
G1 F937
G1 X89.837 Y93.870 E0.00179
G1 X90.157 Y93.870 E0.00137
G1 X90.400 Y93.847 E0.00105
M204 S1250
G1 X90.560 Y93.831 F9000.000
M204 S800
;WIDTH:0.0969262
G1 F937
G1 X90.949 Y93.756 E0.00178
G1 X91.181 Y93.683 E0.00109
M204 S1250
G1 X91.322 Y93.638 F9000.000
M204 S800
;WIDTH:0.0987522
G1 F937
G1 X91.669 Y93.495 E0.00174
G1 X91.904 Y93.367 E0.00124
M204 S1250
G1 X92.031 Y93.294 F9000.000
M204 S800
;WIDTH:0.0982321
G1 F937
G1 X92.405 Y93.035 E0.00209
G1 X92.618 Y92.854 E0.00129
G1 X92.800 Y92.668 E0.00120
M204 S1250
G1 X92.901 Y92.562 F9000.000
M204 S800
;WIDTH:0.0976643
G1 F937
G1 X93.179 Y92.210 E0.00204
G1 X93.339 Y91.963 E0.00134
G1 X93.455 Y91.739 E0.00115
M204 S1250
G1 X93.521 Y91.607 F9000.000
M204 S800
;WIDTH:0.0993007
G1 F937
G1 X93.659 Y91.268 E0.00172
G1 X93.736 Y91.003 E0.00130
M204 S1250
G1 X93.772 Y90.862 F9000.000
M204 S800
;WIDTH:0.0988945
G1 F937
G1 X93.850 Y90.405 E0.00216
G1 X93.866 Y89.872 E0.00248
M204 S1250
G1 X93.860 Y89.728 F9000.000
M204 S800
;WIDTH:0.101086
G1 F937
G1 X93.822 Y89.381 E0.00169
M204 S1250
M204 S800
;WIDTH:0.0936614
G1
G1 X93.760 Y89.093 E0.00124
M204 S1250
G1 X93.510 Y88.306 F9000.000
M204 S800
;WIDTH:0.101069
G1 F937
G1 X93.724 Y88.952 E0.00329
M204 S1250
G1 X93.748 Y88.944 F9000.000
M204 S800
;WIDTH:0.0936333
G1 F937
G1 X93.474 Y88.290 E0.00299
G1 X93.334 Y88.039 E0.00121
M204 S1250
G1 X93.259 Y87.914 F9000.000
M204 S800
;WIDTH:0.101127
G1 F937
G1 X93.070 Y87.640 E0.00161
M204 S1250
M204 S800
;WIDTH:0.0933371
G1
G1 X92.821 Y87.346 E0.00162
G1 X92.547 Y87.082 E0.00160
G1 X92.279 Y86.869 E0.00144
G1 X92.075 Y86.736 E0.00102
M204 S1250
G1 X91.937 Y86.647 F9000.000
M204 S800
;WIDTH:0.0992225
G1 F937
G1 X91.580 Y86.463 E0.00188
G1 X91.200 Y86.318 E0.00190
M204 S1250
G1 X90.878 Y86.228 F9000.000
M204 S800
;WIDTH:0.0987538
G1 F937
G1 X90.474 Y86.155 E0.00191
G1 X89.954 Y86.131 E0.00242
M204 S1250
G1 X89.163 Y86.193 F9000.000
M204 S800
;WIDTH:0.100907
G1 F937
G1 X89.839 Y86.134 E0.00327
M204 S1250
G1 X89.837 Y86.110 F9000.000
M204 S800
;WIDTH:0.101264
G1 F937
G1 X89.146 Y86.223 E0.00340
M204 S1250
M204 S800
;WIDTH:0.0935615
G1
G1 X88.859 Y86.303 E0.00125
M204 S1250
G1 X88.091 Y86.601 F9000.000
M204 S800
;WIDTH:0.101045
G1 F937
G1 X88.722 Y86.348 E0.00329
M204 S1250
G1 X88.713 Y86.325 F9000.000
M204 S800
;WIDTH:0.0943114
G1 F937
G1 X88.078 Y86.638 E0.00302
G1 X87.834 Y86.794 E0.00124
M204 S1250
; stop printing object PotPostA_01.stl id:0 copy 0
M106 S84.15
;LAYER_CHANGE
;Z:0.4
;HEIGHT:0.2
;BEFORE_LAYER_CHANGE
G92 E0.0
;0.4


G1 E-2.24000 F4200.000
;WIPE_START
G1 F7200.000
G1 X88.078 Y86.638 E-0.16093
G1 X88.713 Y86.325 E-0.39208
;WIPE_END
G1 E-0.40699 F4200.000
G1 Z0.400 F9000.000
;AFTER_LAYER_CHANGE
;0.4
M104 S210 ; set temperature
G1 Z0.600
G1 X87.132 Y82.928
M73 P4 R13
G1 Z0.400
G1 E3.20000 F2400.000
;TYPE:Skirt
;WIDTH:0.42
G1 F900
G1 X88.459 Y82.526 E0.04346
G1 X89.998 Y82.369 E0.04851
G1 X91.527 Y82.524 E0.04818
G1 X92.861 Y82.926 E0.04368
G1 X94.225 Y83.645 E0.04835
G1 X95.425 Y84.633 E0.04875
G1 X96.299 Y85.694 E0.04311
G1 X97.044 Y87.065 E0.04890
M73 P4 R12
G1 X97.490 Y88.540 E0.04832
G1 X97.631 Y89.998 E0.04592
G1 X97.491 Y91.455 E0.04590
G1 X97.044 Y92.933 E0.04842
G1 X96.302 Y94.302 E0.04880
G1 X95.430 Y95.361 E0.04303
G1 X94.228 Y96.352 E0.04884
G1 X92.871 Y97.070 E0.04815
G1 X91.538 Y97.474 E0.04366
G1 X90.005 Y97.631 E0.04831
G1 X88.464 Y97.475 E0.04857
G1 X87.134 Y97.073 E0.04357
G1 X85.771 Y96.352 E0.04835
G1 X84.560 Y95.352 E0.04927
G1 X83.590 Y94.140 E0.04866
G1 X82.946 Y92.912 E0.04348
G1 X82.505 Y91.436 E0.04830
G1 X82.369 Y89.908 E0.04810
G1 X82.513 Y88.525 E0.04359
G1 X82.963 Y87.046 E0.04847
G1 X83.699 Y85.695 E0.04825
G1 X84.582 Y84.626 E0.04348
G1 X85.769 Y83.649 E0.04821
G1 X87.079 Y82.956 E0.04646
G1 X87.255 Y83.288 F9000.000
G1 F900
G1 X88.530 Y82.897 E0.04183
G1 X89.997 Y82.746 E0.04625
G1 X91.456 Y82.894 E0.04596
G1 X92.715 Y83.273 E0.04123
G1 X94.015 Y83.959 E0.04610
G1 X95.159 Y84.901 E0.04648
G1 X96.090 Y86.060 E0.04659
G1 X96.695 Y87.209 E0.04074
G1 X97.120 Y88.616 E0.04608
G1 X97.254 Y90.000 E0.04358
G1 X97.121 Y91.382 E0.04355
G1 X96.696 Y92.789 E0.04606
G1 X95.988 Y94.093 E0.04653
G1 X95.162 Y95.096 E0.04075
G1 X94.019 Y96.039 E0.04644
G1 X92.725 Y96.722 E0.04591
G1 X91.467 Y97.104 E0.04119
G1 X90.006 Y97.254 E0.04607
G1 X88.540 Y97.105 E0.04620
G1 X87.281 Y96.725 E0.04125
G1 X85.980 Y96.039 E0.04610
G1 X84.828 Y95.087 E0.04684
G1 X83.904 Y93.932 E0.04640
G1 X83.296 Y92.773 E0.04104
G1 X82.875 Y91.365 E0.04606
G1 X82.746 Y89.908 E0.04588
G1 X82.881 Y88.603 E0.04112
G1 X83.311 Y87.192 E0.04624
G1 X84.010 Y85.908 E0.04587
G1 X84.846 Y84.895 E0.04117
G1 X85.981 Y83.960 E0.04610
G1 X87.202 Y83.316 E0.04326
G1 X87.377 Y83.648 F9000.000
G1 F900
G1 X88.605 Y83.266 E0.04035
G1 X89.997 Y83.123 E0.04387
G1 X91.385 Y83.264 E0.04372
G1 X92.569 Y83.621 E0.03880
G1 X93.807 Y84.273 E0.04385
G1 X94.892 Y85.167 E0.04407
G1 X95.776 Y86.269 E0.04431
G1 X96.347 Y87.354 E0.03846
G1 X96.751 Y88.692 E0.04383
G1 X96.877 Y89.998 E0.04112
G1 X96.751 Y91.310 E0.04133
G1 X96.348 Y92.644 E0.04370
G1 X95.674 Y93.884 E0.04425
G1 X94.897 Y94.828 E0.03835
G1 X93.810 Y95.725 E0.04416
G1 X92.578 Y96.375 E0.04367
M73 P5 R12
G1 X91.392 Y96.734 E0.03887
G1 X90.006 Y96.877 E0.04370
G1 X88.611 Y96.735 E0.04395
G1 X87.426 Y96.377 E0.03881
G1 X86.189 Y95.725 E0.04385
G1 X85.095 Y94.820 E0.04453
G1 X84.220 Y93.727 E0.04389
G1 X83.645 Y92.629 E0.03886
G1 X83.245 Y91.291 E0.04381
G1 X83.123 Y89.908 E0.04353
G1 X83.251 Y88.677 E0.03879
G1 X83.659 Y87.338 E0.04388
G1 X84.324 Y86.116 E0.04362
G1 X85.114 Y85.161 E0.03886
G1 X86.190 Y84.274 E0.04373
G1 X87.324 Y83.676 E0.04019
; printing object PotPostA_01.stl id:0 copy 0
G1 E-2.24000 F4200.000
;WIPE_START
G1 F7200.000
G1 X88.605 Y83.266 E-0.74579
G1 X88.904 Y83.235 E-0.16621
;WIPE_END
G1 E-0.04800 F4200.000
G1 Z0.600 F9000.000
G1 X88.711 Y86.779
G1 Z0.400
G1 E3.20000 F2400.000
M204 S800
;TYPE:External perimeter
;WIDTH:0.45
G1 F900
G1 X89.067 Y86.658 E0.01272
G1 X89.406 Y86.581 E0.01176
G1 X89.995 Y86.529 E0.02004
