; generated by PrusaSlicer 2.3.0+win64 on 2021-07-24 at 20:34:49 UTC


;
;

;
;
; 

; external perimeters extrusion width = 0.45mm
; perimeters extrusion width = 0.45mm
; infill extrusion width = 0.45mm
; solid infill extrusion width = 0.45mm
; top infill extrusion width = 0.40mm
; first layer extrusion width = 0.42mm

M73 P0 R21
M201 X1250 Y1250 Z400 E5000 ; sets maximum accelerations, mm/sec^2
M203 X180 Y180 Z12 E80 ; sets maximum feedrates, mm/sec
M204 P1250 R1250 T1250 ; sets acceleration (P, T) and retract acceleration (R), mm/sec^2
M205 X8.00 Y8.00 Z2.00 E10.00 ; sets the jerk limits, mm/sec
M205 S0 T0 ; sets the minimum extruding and travel feed rate, mm/sec
M107
;TYPE:Custom
G90 ; use absolute coordinates
M83 ; extruder relative mode
M104 S170 ; set extruder temp for bed leveling
M140 S60 ; set bed temp
M109 R170 ; wait for bed leveling temp
M190 S60 ; wait for bed temp
G28 ; home all without mesh bed level
G29 ; mesh bed leveling 
M104 S215 ; set extruder temp
G92 E0.0
G1 Y-2.0 X179 F2400
G1 Z3 F720
M109 S215 ; wait for extruder temp

; intro line
G1 X170 F1000
G1 Z0.2 F720
G1 X110.0 E8.0 F900
M73 P0 R20
G1 X40.0 E10.0 F700
G92 E0.0

M221 S95 ; set flow
G21 ; set units to millimeters
G90 ; use absolute coordinates
M83 ; use relative distances for extrusion
M900 K0.2 ; Filament gcode LA 1.5
; ; Filament gcode LA 1.0
;LAYER_CHANGE
;Z:0.2
;HEIGHT:0.2
;BEFORE_LAYER_CHANGE
G92 E0.0
;0.2


M73 P1 R20
G1 E-3.20000 F4200.000
G1 Z0.200 F9000.000
;AFTER_LAYER_CHANGE
;0.2
G1 Z0.400
G1 X63.647 Y65.579
G1 Z0.200
G1 E3.20000 F2400.000
M204 S800
;TYPE:Skirt
;WIDTH:0.42
G1 F1200.000
G1 X64.354 Y65.052 E0.02764
G1 X65.136 Y64.736 E0.02646
G1 X65.980 Y64.624 E0.02669
G1 X114.004 Y64.623 E1.50575
G1 X114.597 Y64.677 E0.01867
G1 X115.183 Y64.837 E0.01905
G1 X115.724 Y65.097 E0.01881
G1 X116.233 Y65.468 E0.01976
G1 X116.649 Y65.906 E0.01893
G1 X117.018 Y66.487 E0.02159
G1 X117.247 Y67.074 E0.01976
G1 X117.358 Y67.645 E0.01822
G1 X117.377 Y91.020 E0.73290
G1 X117.321 Y91.612 E0.01867
G1 X117.154 Y92.208 E0.01941
G1 X116.814 Y92.867 E0.02326
G1 X116.391 Y93.385 E0.02095
G1 X96.934 Y112.516 E0.85556
G1 X95.948 Y113.369 E0.04089
G1 X94.662 Y114.193 E0.04786
G1 X93.461 Y114.737 E0.04136
G1 X92.201 Y115.115 E0.04124
G1 X90.924 Y115.321 E0.04056
G1 X89.399 Y115.346 E0.04782
G1 X88.090 Y115.178 E0.04140
G1 X86.845 Y114.846 E0.04037
G1 X85.655 Y114.356 E0.04037
G1 X84.520 Y113.702 E0.04108
G1 X83.064 Y112.515 E0.05889
G1 X63.618 Y93.395 E0.85508
G1 X63.051 Y92.647 E0.02942
G1 X62.737 Y91.872 E0.02622
G1 X62.623 Y91.039 E0.02634
G1 X62.629 Y67.802 E0.72859
M73 P2 R20
G1 X62.765 Y67.032 E0.02451
G1 X63.120 Y66.238 E0.02728
G1 X63.609 Y65.625 E0.02457
M204 S1250
; printing object Facia01.stl id:1 copy 0
G1 E-2.24000 F4200.000
;WIPE_START
G1 F7200.000
G1 X64.354 Y65.052 E-0.52076
G1 X65.008 Y64.787 E-0.39124
;WIPE_END
G1 E-0.04800 F4200.000
G1 Z0.400 F9000.000
G1 X96.770 Y77.799
G1 Z0.200
G1 E3.20000 F2400.000
M204 S800
;TYPE:Perimeter
G1 F1200.000
G1 X96.948 Y77.426 E0.01296
G1 X97.160 Y77.073 E0.01290
G1 X97.403 Y76.742 E0.01290
G1 X97.676 Y76.434 E0.01290
G1 X97.977 Y76.154 E0.01290
G1 X98.303 Y75.903 E0.01290
G1 X98.651 Y75.684 E0.01290
G1 X99.018 Y75.498 E0.01290
G1 X99.401 Y75.347 E0.01290
G1 X99.796 Y75.233 E0.01290
G1 X100.206 Y75.155 E0.01308
G1 X100.767 Y75.113 E0.01764
G1 X101.224 Y75.132 E0.01435
G1 X101.633 Y75.190 E0.01296
G1 X102.033 Y75.285 E0.01290
G1 X102.423 Y75.418 E0.01290
G1 X102.803 Y75.589 E0.01308
G1 X103.287 Y75.876 E0.01764
G1 X103.651 Y76.153 E0.01435
G1 X103.954 Y76.434 E0.01296
G1 X104.227 Y76.742 E0.01290
G1 X104.470 Y77.073 E0.01290
G1 X104.682 Y77.426 E0.01290
G1 X104.859 Y77.798 E0.01290
G1 X105.001 Y78.184 E0.01290
G1 X105.105 Y78.582 E0.01290
G1 X105.173 Y78.991 E0.01301
G1 X105.203 Y79.500 E0.01601
G1 X105.173 Y80.010 E0.01601
G1 X105.105 Y80.419 E0.01301
G1 X105.001 Y80.817 E0.01290
G1 X104.859 Y81.203 E0.01290
G1 X104.682 Y81.575 E0.01290
G1 X104.470 Y81.928 E0.01290
G1 X104.227 Y82.259 E0.01290
G1 X103.954 Y82.567 E0.01290
G1 X103.653 Y82.847 E0.01290
G1 X103.327 Y83.098 E0.01290
G1 X102.979 Y83.317 E0.01290
G1 X102.612 Y83.503 E0.01290
G1 X102.229 Y83.654 E0.01290
G1 X101.828 Y83.770 E0.01311
G1 X101.233 Y83.869 E0.01891
G1 X100.815 Y83.888 E0.01311
G1 X100.404 Y83.869 E0.01290
G1 X99.997 Y83.811 E0.01290
G1 X99.597 Y83.716 E0.01290
G1 X99.207 Y83.583 E0.01290
G1 X98.832 Y83.415 E0.01290
G1 X98.474 Y83.212 E0.01290
G1 X98.132 Y82.973 E0.01308
G1 X97.711 Y82.601 E0.01764
G1 X97.404 Y82.261 E0.01435
G1 X97.160 Y81.928 E0.01296
G1 X96.948 Y81.575 E0.01290
G1 X96.771 Y81.203 E0.01290
G1 X96.629 Y80.817 E0.01290
G1 X96.525 Y80.419 E0.01290
G1 X96.457 Y80.014 E0.01290
G1 X96.428 Y79.603 E0.01290
G1 X96.438 Y79.192 E0.01290
G1 X96.487 Y78.778 E0.01308
G1 X96.616 Y78.230 E0.01764
G1 X96.750 Y77.856 E0.01247
M204 S1250
G1 X97.105 Y77.983 F9000.000
M204 S800
;TYPE:External perimeter
G1 F1200.000
G1 X97.281 Y77.605 E0.01309
G1 X97.474 Y77.282 E0.01179
G1 X97.696 Y76.979 E0.01179
G1 X97.946 Y76.698 E0.01179
G1 X98.221 Y76.442 E0.01179
G1 X98.519 Y76.212 E0.01179
G1 X98.837 Y76.012 E0.01179
G1 X99.172 Y75.842 E0.01179
G1 X99.522 Y75.704 E0.01179
G1 X99.883 Y75.600 E0.01179
G1 X100.255 Y75.529 E0.01185
G1 X100.773 Y75.491 E0.01629
G1 X101.190 Y75.508 E0.01308
G1 X101.563 Y75.561 E0.01181
G1 X101.928 Y75.648 E0.01179
G1 X102.284 Y75.769 E0.01179
G1 X102.629 Y75.924 E0.01185
G1 X103.076 Y76.189 E0.01629
G1 X103.408 Y76.441 E0.01308
G1 X103.684 Y76.698 E0.01181
G1 X103.934 Y76.979 E0.01179
G1 X104.156 Y77.282 E0.01179
G1 X104.349 Y77.605 E0.01179
G1 X104.511 Y77.944 E0.01179
G1 X104.640 Y78.297 E0.01179
G1 X104.736 Y78.661 E0.01179
G1 X104.798 Y79.033 E0.01183
G1 X104.825 Y79.500 E0.01469
G1 X104.798 Y79.968 E0.01469
G1 X104.736 Y80.340 E0.01183
G1 X104.640 Y80.704 E0.01179
G1 X104.511 Y81.057 E0.01179
G1 X104.349 Y81.396 E0.01179
G1 X104.156 Y81.719 E0.01179
G1 X103.934 Y82.022 E0.01179
G1 X103.684 Y82.303 E0.01179
G1 X103.409 Y82.559 E0.01179
G1 X103.111 Y82.789 E0.01179
G1 X102.793 Y82.989 E0.01179
G1 X102.458 Y83.159 E0.01179
G1 X102.108 Y83.297 E0.01179
G1 X101.744 Y83.402 E0.01186
G1 X101.193 Y83.493 E0.01752
G1 X100.815 Y83.511 E0.01186
G1 X100.439 Y83.493 E0.01179
G1 X100.067 Y83.440 E0.01179
G1 X99.702 Y83.353 E0.01179
G1 X99.346 Y83.232 E0.01179
G1 X99.003 Y83.078 E0.01179
G1 X98.676 Y82.893 E0.01179
G1 X98.366 Y82.676 E0.01185
G1 X97.976 Y82.332 E0.01629
G1 X97.697 Y82.022 E0.01308
G1 X97.474 Y81.719 E0.01181
G1 X97.281 Y81.396 E0.01179
G1 X97.119 Y81.057 E0.01179
G1 X96.990 Y80.704 E0.01179
G1 X96.894 Y80.340 E0.01179
G1 X96.832 Y79.970 E0.01179
G1 X96.806 Y79.595 E0.01179
G1 X96.815 Y79.219 E0.01179
G1 X96.859 Y78.843 E0.01185
G1 X96.978 Y78.337 E0.01629
G1 X97.085 Y78.040 E0.00991
M204 S1250
G1 X96.858 Y77.668 F9000.000
G1 E-2.24000 F4200.000
;WIPE_START
G1 F7200.000
G1 X97.281 Y77.605 E-0.26449
G1 X97.474 Y77.282 E-0.20833
G1 X97.696 Y76.979 E-0.20833
G1 X97.946 Y76.698 E-0.20833
G1 X97.976 Y76.671 E-0.02251
;WIPE_END
G1 E-0.04800 F4200.000
G1 Z0.400 F9000.000
G1 X74.100 Y72.888
G1 Z0.200
G1 E3.20000 F2400.000
M204 S800
;TYPE:Perimeter
G1 F1200.000
G1 X81.424 Y72.888 E0.22964
G1 X81.424 Y86.113 E0.41463
G1 X74.100 Y86.113 E0.22964
G1 X74.100 Y72.948 E0.41275
M204 S1250
G1 X74.477 Y73.265 F9000.000
M204 S800
;TYPE:External perimeter
G1 F1200.000
G1 X81.047 Y73.265 E0.20600
G1 X81.047 Y85.735 E0.39099
G1 X74.477 Y85.735 E0.20600
G1 X74.477 Y73.325 E0.38911
M204 S1250
G1 X74.413 Y72.871 F9000.000
G1 E-2.24000 F4200.000
;WIPE_START
G1 F7200.000
G1 X76.123 Y73.310 E-0.91200
;WIPE_END
G1 E-0.04800 F4200.000
G1 Z0.400 F9000.000
G1 X65.925 Y67.808
G1 Z0.200
G1 E3.20000 F2400.000
M204 S800
;TYPE:Perimeter
G1 F1200.000
G1 X66.030 Y67.788 E0.00335
G1 X114.062 Y67.799 E1.50601
G1 X114.187 Y67.906 E0.00516
G1 X114.213 Y68.056 E0.00477
G1 X114.213 Y90.958 E0.71809
M73 P3 R20
G1 X114.180 Y91.104 E0.00470
G1 X114.075 Y91.193 E0.00429
G1 X113.970 Y91.213 E0.00335
G1 X66.042 Y91.213 E1.50275
G1 X65.896 Y91.180 E0.00470
G1 X65.808 Y91.076 E0.00429
G1 X65.787 Y90.971 E0.00335
G1 X65.787 Y68.043 E0.71889
G1 X65.820 Y67.897 E0.00470
G1 X65.876 Y67.843 E0.00242
M204 S1250
G1 X65.432 Y67.848 F9000.000
M204 S800
;TYPE:External perimeter
G1 F1200.000
G1 X65.491 Y67.706 E0.00481
G1 X65.581 Y67.588 E0.00467
G1 X65.756 Y67.466 E0.00668
G1 X65.902 Y67.420 E0.00481
G1 X66.013 Y67.410 E0.00350
G1 X114.043 Y67.413 E1.50595
G1 X114.240 Y67.464 E0.00637
G1 X114.419 Y67.588 E0.00683
G1 X114.512 Y67.710 E0.00481
G1 X114.549 Y67.790 E0.00278
G1 X114.590 Y68.023 E0.00740
G1 X114.590 Y90.983 E0.71988
G1 X114.568 Y91.153 E0.00538
G1 X114.509 Y91.294 E0.00481
G1 X114.419 Y91.413 E0.00467
G1 X114.244 Y91.535 E0.00668
G1 X114.098 Y91.581 E0.00481
G1 X113.987 Y91.590 E0.00350
G1 X66.018 Y91.590 E1.50402
G1 X65.848 Y91.568 E0.00538
G1 X65.706 Y91.510 E0.00481
G1 X65.588 Y91.419 E0.00467
G1 X65.466 Y91.245 E0.00668
G1 X65.420 Y91.098 E0.00481
G1 X65.410 Y90.987 E0.00350
G1 X65.410 Y68.018 E0.72017
G1 X65.424 Y67.908 E0.00350
M204 S1250
G1 X65.580 Y67.809 F9000.000
G1 E-2.24000 F4200.000
;WIPE_START
G1 F7200.000
G1 X65.491 Y67.706 E-0.11738
G1 X65.581 Y67.588 E-0.08247
G1 X65.756 Y67.466 E-0.11811
G1 X65.902 Y67.420 E-0.08497
G1 X66.013 Y67.410 E-0.06185
G1 X66.820 Y67.411 E-0.44722
;WIPE_END
G1 E-0.04800 F4200.000
G1 Z0.400 F9000.000
G1 X114.100 Y68.760
G1 Z0.200
G1 E3.20000 F2400.000
M204 S800
;TYPE:Solid infill
;WIDTH:0.42195
G1 F1200.000
G1 X113.413 Y68.073 E0.03059
G1 X112.877 Y68.073 E0.01689
G1 X113.930 Y69.126 E0.04692
G1 X113.930 Y69.662 E0.01689
G1 X112.341 Y68.073 E0.07081
G1 X111.805 Y68.073 E0.01689
G1 X113.930 Y70.198 E0.09470
M73 P4 R20
G1 X113.930 Y70.734 E0.01689
G1 X111.269 Y68.073 E0.11860
G1 X110.733 Y68.073 E0.01689
G1 X113.930 Y71.270 E0.14249
G1 X113.930 Y71.806 E0.01689
G1 X110.197 Y68.073 E0.16638
G1 X109.661 Y68.073 E0.01689
G1 X113.930 Y72.342 E0.19028
G1 X113.930 Y72.878 E0.01689
G1 X109.125 Y68.073 E0.21417
G1 X108.589 Y68.073 E0.01689
G1 X113.930 Y73.414 E0.23806
G1 X113.930 Y73.950 E0.01689
G1 X108.053 Y68.073 E0.26195
G1 X107.517 Y68.073 E0.01689
G1 X113.930 Y74.486 E0.28585
G1 X113.930 Y75.022 E0.01689
G1 X106.981 Y68.073 E0.30974
G1 X106.445 Y68.073 E0.01689
G1 X113.930 Y75.558 E0.33363
G1 X113.930 Y76.094 E0.01689
G1 X105.909 Y68.073 E0.35753
G1 X105.373 Y68.073 E0.01689
G1 X113.930 Y76.630 E0.38142
G1 X113.930 Y77.166 E0.01689
G1 X104.837 Y68.073 E0.40531
G1 X104.300 Y68.073 E0.01689
G1 X113.930 Y77.702 E0.42920
G1 X113.930 Y78.238 E0.01689
G1 X103.764 Y68.073 E0.45310
G1 X103.228 Y68.073 E0.01689
G1 X113.930 Y78.774 E0.47699
G1 X113.930 Y79.310 E0.01689
G1 X102.692 Y68.073 E0.50088
G1 X102.156 Y68.073 E0.01689
G1 X113.930 Y79.846 E0.52478
G1 X113.930 Y80.382 E0.01689
G1 X101.620 Y68.072 E0.54867
G1 X101.084 Y68.072 E0.01689
G1 X113.930 Y80.918 E0.57256
G1 X113.930 Y81.455 E0.01689
G1 X100.548 Y68.072 E0.59645
M73 P5 R20
G1 X100.012 Y68.072 E0.01689
G1 X113.930 Y81.991 E0.62035
G1 X113.930 Y82.527 E0.01689
G1 X99.476 Y68.072 E0.64424
G1 X98.940 Y68.072 E0.01689
G1 X113.930 Y83.063 E0.66813
G1 X113.930 Y83.599 E0.01689
G1 X98.404 Y68.072 E0.69202
M73 P5 R19
G1 X97.868 Y68.072 E0.01689
G1 X113.930 Y84.135 E0.71592
G1 X113.930 Y84.671 E0.01689
G1 X97.332 Y68.072 E0.73981
G1 X96.796 Y68.072 E0.01689
G1 X113.930 Y85.207 E0.76370
G1 X113.930 Y85.743 E0.01689
G1 X96.260 Y68.072 E0.78760
G1 X95.723 Y68.072 E0.01689
G1 X103.069 Y75.417 E0.32739
G1 X103.445 Y75.641 E0.01379
G1 X103.834 Y75.936 E0.01538
G1 X104.156 Y76.237 E0.01389
G1 X104.447 Y76.564 E0.01380
G1 X104.706 Y76.917 E0.01380
G1 X104.912 Y77.261 E0.01263
G1 X113.930 Y86.279 E0.40195
G1 X113.930 Y86.815 E0.01689
G1 X105.291 Y78.176 E0.38506
G1 X105.382 Y78.522 E0.01130
G1 X105.438 Y78.859 E0.01075
G1 X113.930 Y87.351 E0.37850
M73 P6 R19
G1 X113.930 Y87.887 E0.01689
G1 X105.483 Y79.440 E0.37650
G1 X105.460 Y79.953 E0.01619
G1 X113.930 Y88.423 E0.37753
G1 X113.930 Y88.959 E0.01689
G1 X105.392 Y80.421 E0.38056
G1 X105.285 Y80.849 E0.01393
G1 X113.930 Y89.495 E0.38534
G1 X113.930 Y90.031 E0.01689
G1 X105.145 Y81.246 E0.39158
G1 X104.976 Y81.613 E0.01275
G1 X113.930 Y90.567 E0.39907
G1 X113.929 Y90.931 E0.01146
G1 X113.758 Y90.931 E0.00541
G1 X104.783 Y81.956 E0.40001
G1 X104.566 Y82.275 E0.01216
G1 X113.222 Y90.931 E0.38578
G1 X112.686 Y90.931 E0.01689
G1 X104.327 Y82.572 E0.37254
G1 X104.067 Y82.848 E0.01195
G1 X112.150 Y90.931 E0.36026
G1 X111.614 Y90.931 E0.01689
G1 X103.785 Y83.102 E0.34892
G1 X103.482 Y83.335 E0.01205
G1 X111.078 Y90.931 E0.33855
G1 X110.542 Y90.931 E0.01689
G1 X103.153 Y83.542 E0.32931
G1 X102.800 Y83.725 E0.01253
G1 X110.005 Y90.931 E0.32115
G1 X109.469 Y90.931 E0.01689
G1 X102.421 Y83.882 E0.31414
G1 X102.014 Y84.011 E0.01347
G1 X108.933 Y90.931 E0.30842
G1 X108.397 Y90.931 E0.01689
G1 X101.567 Y84.100 E0.30445
G1 X101.263 Y84.150 E0.00972
G1 X101.089 Y84.159 E0.00547
G1 X107.861 Y90.931 E0.30184
G1 X107.325 Y90.931 E0.01689
G1 X100.554 Y84.159 E0.30181
G1 X99.949 Y84.090 E0.01919
G1 X106.789 Y90.931 E0.30489
G1 X106.253 Y90.931 E0.01689
G1 X98.885 Y83.562 E0.32841
M204 S1250
M73 P7 R19
G1 E-2.24000 F4200.000
;WIPE_START
G1 F7200.000
G1 X100.049 Y84.726 E-0.91200
;WIPE_END
G1 E-0.04800 F4200.000
G1 Z0.400 F9000.000
G1 X102.409 Y75.294
G1 Z0.200
G1 E3.20000 F2400.000
M204 S800
G1 F1200.000
G1 X95.187 Y68.072 E0.32187
G1 X94.651 Y68.072 E0.01689
G1 X101.459 Y74.879 E0.30341
G1 X101.249 Y74.850 E0.00666
G1 X100.878 Y74.835 E0.01171
G1 X94.115 Y68.072 E0.30142
G1 X93.579 Y68.072 E0.01689
G1 X100.367 Y74.859 E0.30252
G1 X100.169 Y74.874 E0.00626
G1 X99.897 Y74.926 E0.00872
G1 X93.043 Y68.072 E0.30548
G1 X92.507 Y68.072 E0.01689
G1 X99.468 Y75.033 E0.31026
G1 X99.072 Y75.173 E0.01325
G1 X91.971 Y68.072 E0.31648
G1 X91.435 Y68.072 E0.01689
G1 X98.703 Y75.340 E0.32395
G1 X98.360 Y75.533 E0.01241
G1 X90.899 Y68.072 E0.33254
G1 X90.363 Y68.072 E0.01689
G1 X98.040 Y75.749 E0.34217
G1 X97.742 Y75.987 E0.01202
G1 X89.827 Y68.072 E0.35278
G1 X89.291 Y68.072 E0.01689
G1 X97.465 Y76.246 E0.36434
G1 X97.213 Y76.530 E0.01197
G1 X88.755 Y68.072 E0.37699
G1 X88.219 Y68.072 E0.01689
G1 X96.983 Y76.836 E0.39064
G1 X96.775 Y77.165 E0.01225
G1 X87.683 Y68.072 E0.40528
G1 X87.146 Y68.072 E0.01689
G1 X96.592 Y77.517 E0.42099
G1 X96.435 Y77.896 E0.01293
G1 X86.610 Y68.072 E0.43789
G1 X86.074 Y68.072 E0.01689
G1 X96.308 Y78.305 E0.45610
G1 X96.207 Y78.740 E0.01408
G1 X85.538 Y68.072 E0.47550
G1 X85.002 Y68.072 E0.01689
G1 X96.154 Y79.224 E0.49707
M73 P8 R19
G1 X96.156 Y79.761 E0.01694
G1 X84.466 Y68.071 E0.52103
G1 X83.930 Y68.071 E0.01689
G1 X96.230 Y80.371 E0.54821
G1 X96.359 Y80.902 E0.01722
G1 X96.437 Y81.115 E0.00714
G1 X83.394 Y68.071 E0.58135
G1 X82.858 Y68.071 E0.01689
G1 X105.717 Y90.931 E1.01886
G1 X105.181 Y90.931 E0.01689
G1 X82.322 Y68.071 E1.01886
G1 X81.786 Y68.071 E0.01689
G1 X104.645 Y90.931 E1.01886
G1 X104.109 Y90.931 E0.01689
G1 X81.250 Y68.071 E1.01886
G1 X80.714 Y68.071 E0.01689
G1 X103.573 Y90.931 E1.01887
G1 X103.037 Y90.931 E0.01689
G1 X80.178 Y68.071 E1.01887
M73 P9 R19
G1 X79.642 Y68.071 E0.01689
G1 X102.501 Y90.931 E1.01887
G1 X101.965 Y90.931 E0.01689
G1 X79.106 Y68.071 E1.01887
G1 X78.570 Y68.071 E0.01689
G1 X101.429 Y90.931 E1.01887
G1 X100.893 Y90.931 E0.01689
G1 X78.033 Y68.071 E1.01887
G1 X77.497 Y68.071 E0.01689
G1 X100.357 Y90.931 E1.01887
G1 X99.821 Y90.931 E0.01689
G1 X76.961 Y68.071 E1.01888
G1 X76.425 Y68.071 E0.01689
G1 X80.960 Y72.606 E0.20211
G1 X80.424 Y72.606 E0.01689
G1 X75.889 Y68.071 E0.20211
G1 X75.353 Y68.071 E0.01689
G1 X79.888 Y72.606 E0.20212
G1 X79.352 Y72.606 E0.01689
G1 X74.817 Y68.071 E0.20212
G1 X74.281 Y68.071 E0.01689
G1 X78.816 Y72.606 E0.20212
M73 P10 R19
G1 X78.280 Y72.606 E0.01689
G1 X73.745 Y68.071 E0.20212
G1 X73.209 Y68.071 E0.01689
G1 X77.744 Y72.606 E0.20212
G1 X77.208 Y72.606 E0.01689
G1 X72.673 Y68.071 E0.20212
G1 X72.137 Y68.071 E0.01689
G1 X76.672 Y72.606 E0.20212
G1 X76.136 Y72.606 E0.01689
G1 X71.601 Y68.071 E0.20213
G1 X71.065 Y68.071 E0.01689
G1 X75.600 Y72.606 E0.20213
M73 P10 R18
G1 X75.064 Y72.606 E0.01689
G1 X70.529 Y68.071 E0.20213
G1 X69.993 Y68.071 E0.01689
