; generated by PrusaSlicer 2.3.0+win64 on 2021-05-22 at 12:38:31 UTC


;
;

;
;
; 

; external perimeters extrusion width = 0.45mm
; perimeters extrusion width = 0.45mm
; infill extrusion width = 0.45mm
; solid infill extrusion width = 0.45mm
; top infill extrusion width = 0.40mm
; first layer extrusion width = 0.42mm

M73 P0 R30
M201 X1250 Y1250 Z400 E5000 ; sets maximum accelerations, mm/sec^2
M203 X180 Y180 Z12 E80 ; sets maximum feedrates, mm/sec
M204 P1250 R1250 T1250 ; sets acceleration (P, T) and retract acceleration (R), mm/sec^2
M205 X8.00 Y8.00 Z2.00 E10.00 ; sets the jerk limits, mm/sec
M205 S0 T0 ; sets the minimum extruding and travel feed rate, mm/sec
M107
;TYPE:Custom
G90 ; use absolute coordinates
M83 ; extruder relative mode
M104 S170 ; set extruder temp for bed leveling
M140 S60 ; set bed temp
M109 R170 ; wait for bed leveling temp
M190 S60 ; wait for bed temp
G28 ; home all without mesh bed level
G29 ; mesh bed leveling 
M104 S215 ; set extruder temp
G92 E0.0
G1 Y-2.0 X179 F2400
G1 Z3 F720
M109 S215 ; wait for extruder temp

; intro line
G1 X170 F1000
G1 Z0.2 F720
G1 X110.0 E8.0 F900
M73 P0 R29
G1 X40.0 E10.0 F700
G92 E0.0

M221 S95 ; set flow
G21 ; set units to millimeters
G90 ; use absolute coordinates
M83 ; use relative distances for extrusion
M900 K0.2 ; Filament gcode LA 1.5
; ; Filament gcode LA 1.0
;LAYER_CHANGE
;Z:0.2
;HEIGHT:0.2
;BEFORE_LAYER_CHANGE
G92 E0.0
;0.2


G1 E-3.20000 F4200.000
G1 Z0.200 F9000.000
;AFTER_LAYER_CHANGE
;0.2
G1 Z0.400
G1 X66.054 Y49.742
G1 Z0.200
G1 E3.20000 F2400.000
M204 S800
;TYPE:Skirt
;WIDTH:0.42
G1 F1200.000
G1 X66.542 Y49.368 E0.01929
G1 X67.107 Y49.133 E0.01917
G1 X67.713 Y49.050 E0.01917
G1 X112.274 Y49.050 E1.39717
M73 P1 R29
G1 X112.887 Y49.132 E0.01941
G1 X113.459 Y49.369 E0.01941
G1 X113.950 Y49.746 E0.01941
G1 X114.328 Y50.237 E0.01941
G1 X136.628 Y88.865 E1.39849
G1 X136.845 Y89.420 E0.01870
G1 X136.917 Y90.012 E0.01870
G1 X136.838 Y90.607 E0.01882
G1 X136.614 Y91.160 E0.01870
G1 X114.319 Y129.778 E1.39813
G1 X113.936 Y130.269 E0.01953
G1 X113.438 Y130.643 E0.01953
G1 X112.875 Y130.871 E0.01906
G1 X112.270 Y130.950 E0.01912
G1 X67.715 Y130.950 E1.39699
G1 X67.120 Y130.870 E0.01882
G1 X66.567 Y130.646 E0.01870
G1 X66.066 Y130.270 E0.01965
G1 X65.680 Y129.776 E0.01965
G1 X43.381 Y91.152 E1.39837
G1 X43.158 Y90.591 E0.01894
G1 X43.083 Y89.995 E0.01882
G1 X43.160 Y89.400 E0.01882
G1 X43.386 Y88.840 E0.01894
G1 X65.679 Y50.226 E1.39801
G1 X66.017 Y49.790 E0.01729
M204 S1250
; printing object PurflingRing_03.stl id:0 copy 0
G1 E-2.24000 F4200.000
;WIPE_START
G1 F7200.000
G1 X66.542 Y49.368 E-0.37323
G1 X67.107 Y49.133 E-0.33890
G1 X67.464 Y49.084 E-0.19986
;WIPE_END
G1 E-0.04800 F4200.000
G1 Z0.400 F9000.000
G1 X71.510 Y59.360
G1 Z0.200
G1 E3.20000 F2400.000
M204 S800
;TYPE:Perimeter
G1 F1200.000
G1 X72.892 Y58.567 E0.04996
G1 X74.332 Y57.825 E0.05077
G1 X75.312 Y57.366 E0.03396
G1 X76.305 Y56.937 E0.03389
G1 X77.309 Y56.539 E0.03387
G1 X78.071 Y56.261 E0.02544
G1 X78.839 Y55.998 E0.02544
G1 X79.873 Y55.676 E0.03394
G1 X81.436 Y55.253 E0.05077
G1 X83.018 Y54.900 E0.05084
G1 X84.615 Y54.620 E0.05084
G1 X86.223 Y54.413 E0.05084
G1 X87.837 Y54.278 E0.05077
G1 X88.919 Y54.229 E0.03396
G1 X89.990 Y54.213 E0.03359
G1 X91.621 Y54.249 E0.05114
G1 X93.239 Y54.360 E0.05084
G1 X94.848 Y54.543 E0.05077
G1 X95.918 Y54.706 E0.03396
G1 X96.984 Y54.901 E0.03396
G1 X98.564 Y55.253 E0.05077
G1 X100.127 Y55.676 E0.05077
G1 X101.161 Y55.998 E0.03394
G1 X101.929 Y56.261 E0.02544
G1 X102.691 Y56.539 E0.02544
G1 X103.697 Y56.938 E0.03394
G1 X105.177 Y57.590 E0.05070
G1 X106.151 Y58.064 E0.03396
G1 X107.099 Y58.562 E0.03359
G1 X108.514 Y59.374 E0.05114
G1 X109.882 Y60.244 E0.05084
G1 X111.208 Y61.174 E0.05077
G1 X112.071 Y61.829 E0.03396
G1 X112.904 Y62.502 E0.03359
G1 X114.133 Y63.574 E0.05114
G1 X115.305 Y64.695 E0.05084
G1 X116.426 Y65.867 E0.05084
G1 X117.490 Y67.087 E0.05077
G1 X118.171 Y67.929 E0.03396
G1 X118.826 Y68.792 E0.03396
G1 X119.756 Y70.118 E0.05077
G1 X120.626 Y71.486 E0.05084
G1 X121.433 Y72.892 E0.05084
G1 X122.175 Y74.332 E0.05077
G1 X122.634 Y75.312 E0.03396
G1 X123.063 Y76.305 E0.03389
G1 X123.461 Y77.309 E0.03387
G1 X123.739 Y78.071 E0.02544
G1 X124.002 Y78.839 E0.02544
G1 X124.324 Y79.873 E0.03394
G1 X124.747 Y81.436 E0.05077
G1 X125.099 Y83.016 E0.05077
G1 X125.294 Y84.082 E0.03396
G1 X125.456 Y85.141 E0.03359
G1 X125.640 Y86.761 E0.05114
G1 X125.751 Y88.379 E0.05084
G1 X125.787 Y90.000 E0.05084
G1 X125.751 Y91.621 E0.05084
G1 X125.640 Y93.239 E0.05084
G1 X125.457 Y94.848 E0.05077
G1 X125.294 Y95.918 E0.03396
G1 X125.099 Y96.984 E0.03396
G1 X124.747 Y98.564 E0.05077
G1 X124.324 Y100.127 E0.05077
G1 X124.002 Y101.161 E0.03394
G1 X123.739 Y101.929 E0.02544
G1 X123.461 Y102.691 E0.02544
G1 X123.062 Y103.697 E0.03394
G1 X122.410 Y105.177 E0.05070
G1 X121.936 Y106.151 E0.03396
G1 X121.438 Y107.099 E0.03359
G1 X120.626 Y108.514 E0.05114
M73 P2 R29
G1 X119.756 Y109.882 E0.05084
G1 X118.826 Y111.208 E0.05077
G1 X118.171 Y112.071 E0.03396
G1 X117.498 Y112.904 E0.03359
G1 X116.426 Y114.133 E0.05114
G1 X115.305 Y115.305 E0.05084
G1 X114.133 Y116.426 E0.05084
G1 X112.913 Y117.490 E0.05077
G1 X112.071 Y118.171 E0.03396
G1 X111.208 Y118.826 E0.03396
G1 X109.882 Y119.756 E0.05077
G1 X108.514 Y120.626 E0.05084
G1 X107.108 Y121.433 E0.05084
G1 X105.668 Y122.175 E0.05077
G1 X104.688 Y122.634 E0.03396
G1 X103.695 Y123.063 E0.03389
G1 X102.691 Y123.461 E0.03387
G1 X101.929 Y123.739 E0.02544
G1 X101.161 Y124.002 E0.02544
G1 X100.127 Y124.324 E0.03394
G1 X98.564 Y124.747 E0.05077
G1 X96.984 Y125.099 E0.05077
G1 X95.918 Y125.294 E0.03396
G1 X94.859 Y125.456 E0.03359
G1 X93.239 Y125.640 E0.05114
G1 X91.621 Y125.751 E0.05084
G1 X90.000 Y125.787 E0.05084
G1 X88.379 Y125.751 E0.05084
G1 X86.761 Y125.640 E0.05084
G1 X85.152 Y125.457 E0.05077
G1 X84.082 Y125.294 E0.03396
G1 X83.016 Y125.099 E0.03396
G1 X81.436 Y124.747 E0.05077
G1 X79.873 Y124.324 E0.05077
G1 X78.839 Y124.002 E0.03394
G1 X78.071 Y123.739 E0.02544
G1 X77.309 Y123.461 E0.02544
G1 X76.303 Y123.062 E0.03394
G1 X74.823 Y122.410 E0.05070
G1 X73.849 Y121.936 E0.03396
G1 X72.901 Y121.438 E0.03359
G1 X71.486 Y120.626 E0.05114
G1 X70.118 Y119.756 E0.05084
G1 X68.792 Y118.826 E0.05077
G1 X67.929 Y118.171 E0.03396
G1 X67.096 Y117.498 E0.03359
G1 X65.867 Y116.426 E0.05114
G1 X64.695 Y115.305 E0.05084
G1 X63.574 Y114.133 E0.05084
G1 X62.510 Y112.913 E0.05077
G1 X61.829 Y112.071 E0.03396
G1 X61.174 Y111.208 E0.03396
G1 X60.244 Y109.882 E0.05077
G1 X59.374 Y108.514 E0.05084
G1 X58.567 Y107.108 E0.05084
G1 X57.825 Y105.668 E0.05077
G1 X57.366 Y104.688 E0.03396
G1 X56.937 Y103.695 E0.03389
G1 X56.539 Y102.691 E0.03387
G1 X56.261 Y101.929 E0.02544
G1 X55.998 Y101.161 E0.02544
G1 X55.676 Y100.127 E0.03394
G1 X55.253 Y98.564 E0.05077
G1 X54.901 Y96.984 E0.05077
G1 X54.706 Y95.918 E0.03396
G1 X54.544 Y94.859 E0.03359
G1 X54.360 Y93.239 E0.05114
G1 X54.249 Y91.621 E0.05084
G1 X54.213 Y90.000 E0.05084
G1 X54.249 Y88.379 E0.05084
G1 X54.360 Y86.761 E0.05084
G1 X54.543 Y85.152 E0.05077
G1 X54.706 Y84.082 E0.03396
G1 X54.901 Y83.016 E0.03396
G1 X55.253 Y81.436 E0.05077
G1 X55.676 Y79.873 E0.05077
G1 X55.998 Y78.839 E0.03394
G1 X56.261 Y78.071 E0.02544
G1 X56.539 Y77.309 E0.02544
G1 X56.938 Y76.303 E0.03394
G1 X57.590 Y74.823 E0.05070
G1 X58.064 Y73.849 E0.03396
G1 X58.562 Y72.901 E0.03359
G1 X59.374 Y71.486 E0.05114
G1 X60.244 Y70.118 E0.05084
G1 X61.174 Y68.792 E0.05077
G1 X61.829 Y67.929 E0.03396
G1 X62.502 Y67.096 E0.03359
G1 X63.574 Y65.867 E0.05114
G1 X64.695 Y64.695 E0.05084
G1 X65.867 Y63.574 E0.05084
G1 X67.087 Y62.510 E0.05077
G1 X67.929 Y61.829 E0.03396
G1 X68.792 Y61.174 E0.03396
G1 X70.118 Y60.244 E0.05077
G1 X71.459 Y59.391 E0.04984
M204 S1250
G1 X71.661 Y59.709 F9000.000
M204 S800
;TYPE:External perimeter
G1 F1200.000
G1 X73.072 Y58.898 E0.05104
G1 X74.498 Y58.164 E0.05028
G1 X75.467 Y57.710 E0.03356
G1 X76.449 Y57.285 E0.03354
G1 X77.443 Y56.891 E0.03353
G1 X78.197 Y56.616 E0.02516
G1 X78.956 Y56.356 E0.02516
G1 X79.978 Y56.038 E0.03355
G1 X81.526 Y55.619 E0.05028
G1 X83.092 Y55.270 E0.05030
G1 X84.672 Y54.993 E0.05030
G1 X86.263 Y54.788 E0.05030
G1 X87.861 Y54.655 E0.05028
G1 X88.931 Y54.606 E0.03356
G1 X89.989 Y54.590 E0.03319
G1 X91.604 Y54.626 E0.05065
G1 X93.205 Y54.735 E0.05030
G1 X94.798 Y54.917 E0.05028
G1 X95.856 Y55.078 E0.03356
G1 X96.909 Y55.271 E0.03356
G1 X98.474 Y55.619 E0.05028
G1 X100.022 Y56.038 E0.05028
G1 X101.044 Y56.356 E0.03355
G1 X101.803 Y56.616 E0.02516
G1 X102.557 Y56.891 E0.02516
G1 X103.552 Y57.286 E0.03355
G1 X105.018 Y57.932 E0.05025
G1 X105.980 Y58.401 E0.03356
G1 X106.918 Y58.893 E0.03319
G1 X108.319 Y59.697 E0.05065
G1 X109.673 Y60.558 E0.05030
G1 X110.986 Y61.478 E0.05028
G1 X111.838 Y62.126 E0.03356
G1 X112.661 Y62.791 E0.03319
G1 X113.879 Y63.853 E0.05065
G1 X115.039 Y64.961 E0.05030
G1 X116.147 Y66.121 E0.05030
G1 X117.201 Y67.329 E0.05028
G1 X117.874 Y68.162 E0.03356
G1 X118.522 Y69.014 E0.03356
G1 X119.442 Y70.327 E0.05028
G1 X120.303 Y71.681 E0.05030
G1 X121.102 Y73.072 E0.05030
G1 X121.836 Y74.498 E0.05028
G1 X122.290 Y75.467 E0.03356
G1 X122.715 Y76.449 E0.03354
G1 X123.109 Y77.443 E0.03353
G1 X123.384 Y78.197 E0.02516
G1 X123.644 Y78.956 E0.02516
G1 X123.962 Y79.978 E0.03355
G1 X124.381 Y81.526 E0.05028
G1 X124.729 Y83.091 E0.05028
G1 X124.922 Y84.144 E0.03356
G1 X125.082 Y85.190 E0.03319
G1 X125.265 Y86.795 E0.05065
G1 X125.374 Y88.396 E0.05030
G1 X125.410 Y90.000 E0.05030
G1 X125.374 Y91.604 E0.05030
G1 X125.265 Y93.205 E0.05030
G1 X125.083 Y94.798 E0.05028
G1 X124.922 Y95.856 E0.03356
G1 X124.729 Y96.909 E0.03356
G1 X124.381 Y98.474 E0.05028
G1 X123.962 Y100.022 E0.05028
G1 X123.644 Y101.044 E0.03355
G1 X123.384 Y101.803 E0.02516
G1 X123.109 Y102.557 E0.02516
G1 X122.714 Y103.552 E0.03355
G1 X122.068 Y105.018 E0.05025
G1 X121.599 Y105.980 E0.03356
G1 X121.107 Y106.918 E0.03319
G1 X120.303 Y108.319 E0.05065
G1 X119.442 Y109.673 E0.05030
G1 X118.522 Y110.986 E0.05028
G1 X117.874 Y111.838 E0.03356
G1 X117.209 Y112.661 E0.03319
G1 X116.147 Y113.879 E0.05065
G1 X115.039 Y115.039 E0.05030
G1 X113.879 Y116.147 E0.05030
G1 X112.671 Y117.201 E0.05028
G1 X111.838 Y117.874 E0.03356
G1 X110.986 Y118.522 E0.03356
G1 X109.673 Y119.442 E0.05028
G1 X108.319 Y120.303 E0.05030
G1 X106.928 Y121.102 E0.05030
G1 X105.502 Y121.836 E0.05028
G1 X104.533 Y122.290 E0.03356
G1 X103.551 Y122.715 E0.03354
G1 X102.557 Y123.109 E0.03353
G1 X101.803 Y123.384 E0.02516
G1 X101.044 Y123.644 E0.02516
G1 X100.022 Y123.962 E0.03355
G1 X98.474 Y124.381 E0.05028
G1 X96.909 Y124.729 E0.05028
G1 X95.856 Y124.922 E0.03356
G1 X94.810 Y125.082 E0.03319
G1 X93.205 Y125.265 E0.05065
G1 X91.604 Y125.374 E0.05030
G1 X90.000 Y125.410 E0.05030
G1 X88.396 Y125.374 E0.05030
G1 X86.795 Y125.265 E0.05030
G1 X85.202 Y125.083 E0.05028
G1 X84.144 Y124.922 E0.03356
G1 X83.091 Y124.729 E0.03356
G1 X81.526 Y124.381 E0.05028
G1 X79.978 Y123.962 E0.05028
G1 X78.956 Y123.644 E0.03355
G1 X78.197 Y123.384 E0.02516
G1 X77.443 Y123.109 E0.02516
G1 X76.448 Y122.714 E0.03355
G1 X74.982 Y122.068 E0.05025
G1 X74.020 Y121.599 E0.03356
G1 X73.082 Y121.107 E0.03319
G1 X71.681 Y120.303 E0.05065
G1 X70.327 Y119.442 E0.05030
G1 X69.014 Y118.522 E0.05028
G1 X68.162 Y117.874 E0.03356
G1 X67.339 Y117.209 E0.03319
G1 X66.121 Y116.147 E0.05065
G1 X64.961 Y115.039 E0.05030
G1 X63.853 Y113.879 E0.05030
G1 X62.799 Y112.671 E0.05028
G1 X62.126 Y111.838 E0.03356
G1 X61.478 Y110.986 E0.03356
G1 X60.558 Y109.673 E0.05028
G1 X59.697 Y108.319 E0.05030
G1 X58.898 Y106.928 E0.05030
G1 X58.164 Y105.502 E0.05028
G1 X57.710 Y104.533 E0.03356
G1 X57.285 Y103.551 E0.03354
G1 X56.891 Y102.557 E0.03353
G1 X56.616 Y101.803 E0.02516
G1 X56.356 Y101.044 E0.02516
G1 X56.038 Y100.022 E0.03355
G1 X55.619 Y98.474 E0.05028
G1 X55.271 Y96.909 E0.05028
G1 X55.078 Y95.856 E0.03356
G1 X54.918 Y94.810 E0.03319
G1 X54.735 Y93.205 E0.05065
G1 X54.626 Y91.604 E0.05030
G1 X54.590 Y90.000 E0.05030
G1 X54.626 Y88.396 E0.05030
G1 X54.735 Y86.795 E0.05030
G1 X54.917 Y85.202 E0.05028
G1 X55.078 Y84.144 E0.03356
G1 X55.271 Y83.091 E0.03356
G1 X55.619 Y81.526 E0.05028
G1 X56.038 Y79.978 E0.05028
G1 X56.356 Y78.956 E0.03355
G1 X56.616 Y78.197 E0.02516
G1 X56.891 Y77.443 E0.02516
G1 X57.286 Y76.448 E0.03355
G1 X57.932 Y74.982 E0.05025
G1 X58.401 Y74.020 E0.03356
G1 X58.893 Y73.082 E0.03319
G1 X59.697 Y71.681 E0.05065
G1 X60.558 Y70.327 E0.05030
G1 X61.478 Y69.014 E0.05028
G1 X62.126 Y68.162 E0.03356
G1 X62.791 Y67.339 E0.03319
G1 X63.853 Y66.121 E0.05065
G1 X64.961 Y64.961 E0.05030
G1 X66.121 Y63.853 E0.05030
G1 X67.329 Y62.799 E0.05028
G1 X68.162 Y62.126 E0.03356
G1 X69.014 Y61.478 E0.03356
G1 X70.327 Y60.558 E0.05028
G1 X71.611 Y59.741 E0.04769
M204 S1250
G1 X71.653 Y59.309 F9000.000
G1 E-2.24000 F4200.000
;WIPE_START
M73 P3 R29
G1 F7200.000
G1 X73.036 Y58.919 E-0.91200
;WIPE_END
G1 E-0.04800 F4200.000
G1 Z0.400 F9000.000
G1 X68.185 Y52.214
G1 Z0.200
G1 E3.20000 F2400.000
M204 S800
;TYPE:Perimeter
G1 F1200.000
G1 X111.815 Y52.214 E1.36802
G1 X133.631 Y90.000 E1.36802
G1 X111.815 Y127.786 E1.36802
G1 X68.185 Y127.786 E1.36802
G1 X46.369 Y90.000 E1.36802
G1 X68.155 Y52.266 E1.36614
M204 S1250
G1 X67.967 Y51.837 F9000.000
M204 S800
;TYPE:External perimeter
G1 F1200.000
G1 X112.033 Y51.837 E1.38167
M73 P3 R28
G1 X134.066 Y90.000 E1.38167
M73 P4 R28
G1 X112.033 Y128.163 E1.38167
G1 X67.967 Y128.163 E1.38167
G1 X45.934 Y90.000 E1.38167
G1 X67.937 Y51.889 E1.37979
M204 S1250
G1 X68.313 Y52.037 F9000.000
G1 E-2.24000 F4200.000
;WIPE_START
G1 F7200.000
G1 X69.583 Y51.887 E-0.91200
;WIPE_END
G1 E-0.04800 F4200.000
G1 Z0.400 F9000.000
G1 X112.807 Y54.158
G1 Z0.200
G1 E3.20000 F2400.000
M204 S800
;TYPE:Solid infill
;WIDTH:0.42165
G1 F1200.000
G1 X111.146 Y52.497 E0.07397
G1 X110.611 Y52.497 E0.01687
G1 X113.075 Y54.962 E0.10977
G1 X113.807 Y56.229 E0.04608
G1 X110.075 Y52.497 E0.16620
G1 X109.539 Y52.497 E0.01687
G1 X114.538 Y57.496 E0.22264
G1 X115.270 Y58.764 E0.04608
G1 X109.004 Y52.497 E0.27908
G1 X108.468 Y52.497 E0.01687
G1 X116.002 Y60.031 E0.33552
G1 X116.733 Y61.298 E0.04608
G1 X107.932 Y52.497 E0.39196
G1 X107.397 Y52.497 E0.01687
G1 X117.465 Y62.565 E0.44839
G1 X118.197 Y63.833 E0.04608
G1 X106.861 Y52.497 E0.50483
G1 X106.326 Y52.497 E0.01687
G1 X118.928 Y65.100 E0.56127
G1 X119.660 Y66.367 E0.04608
G1 X105.790 Y52.497 E0.61771
G1 X105.254 Y52.497 E0.01687
G1 X120.392 Y67.635 E0.67415
G1 X121.123 Y68.902 E0.04608
G1 X104.719 Y52.497 E0.73059
M73 P5 R28
G1 X104.183 Y52.497 E0.01687
G1 X121.855 Y70.169 E0.78702
G1 X122.587 Y71.436 E0.04608
G1 X103.648 Y52.497 E0.84346
G1 X103.112 Y52.497 E0.01687
G1 X112.145 Y61.531 E0.40230
G1 X113.086 Y62.286 E0.03798
G1 X114.324 Y63.365 E0.05174
G1 X115.505 Y64.495 E0.05147
G1 X116.635 Y65.676 E0.05147
G1 X117.707 Y66.905 E0.05136
G1 X118.469 Y67.855 E0.03836
G1 X123.782 Y73.167 E0.23659
M204 S1250
G1 E-2.24000 F4200.000
;WIPE_START
G1 F7200.000
G1 X122.618 Y72.003 E-0.91200
;WIPE_END
G1 E-0.04800 F4200.000
G1 Z0.400 F9000.000
G1 X119.183 Y69.104
G1 Z0.200
G1 E3.20000 F2400.000
M204 S800
G1 F1200.000
G1 X124.050 Y73.971 E0.21675
G1 X124.782 Y75.238 E0.04608
G1 X120.842 Y71.298 E0.17545
G1 X121.570 Y72.562 E0.04591
G1 X125.513 Y76.505 E0.17563
G1 X126.245 Y77.773 E0.04608
G1 X122.163 Y73.690 E0.18181
G1 X122.680 Y74.743 E0.03695
G1 X126.977 Y79.040 E0.19135
G1 X127.708 Y80.307 E0.04608
G1 X123.116 Y75.715 E0.20450
G1 X123.497 Y76.631 E0.03123
G1 X128.440 Y81.574 E0.22015
G1 X129.171 Y82.842 E0.04608
G1 X123.833 Y77.503 E0.23774
G1 X124.128 Y78.334 E0.02776
G1 X129.903 Y84.109 E0.25719
G1 X130.635 Y85.376 E0.04608
G1 X124.389 Y79.131 E0.27815
G1 X124.625 Y79.902 E0.02541
G1 X131.366 Y86.643 E0.30022
G1 X132.098 Y87.911 E0.04608
G1 X124.824 Y80.637 E0.32395
G1 X125.023 Y81.371 E0.02395
G1 X132.830 Y89.178 E0.34770
G1 X133.304 Y90.000 E0.02990
G1 X133.236 Y90.119 E0.00434
G1 X125.176 Y82.060 E0.35894
G1 X125.329 Y82.749 E0.02223
G1 X133.039 Y90.459 E0.34338
G1 X132.843 Y90.798 E0.01235
G1 X125.460 Y83.415 E0.32884
G1 X125.579 Y84.069 E0.02095
G1 X132.647 Y91.138 E0.31482
G1 X132.451 Y91.478 E0.01235
G1 X125.675 Y84.701 E0.30180
