; generated by PrusaSlicer 2.3.0+win64 on 2021-06-25 at 20:26:21 UTC


;
;

;
;
; 

; external perimeters extrusion width = 0.45mm
; perimeters extrusion width = 0.45mm
; infill extrusion width = 0.45mm
; solid infill extrusion width = 0.45mm
; top infill extrusion width = 0.40mm
; first layer extrusion width = 0.42mm

M73 P0 R15
M201 X1250 Y1250 Z400 E5000 ; sets maximum accelerations, mm/sec^2
M203 X180 Y180 Z12 E80 ; sets maximum feedrates, mm/sec
M204 P1250 R1250 T1250 ; sets acceleration (P, T) and retract acceleration (R), mm/sec^2
M205 X8.00 Y8.00 Z2.00 E10.00 ; sets the jerk limits, mm/sec
M205 S0 T0 ; sets the minimum extruding and travel feed rate, mm/sec
M107
;TYPE:Custom
G90 ; use absolute coordinates
M83 ; extruder relative mode
M104 S170 ; set extruder temp for bed leveling
M140 S60 ; set bed temp
M109 R170 ; wait for bed leveling temp
M190 S60 ; wait for bed temp
G28 ; home all without mesh bed level
G29 ; mesh bed leveling 
M104 S215 ; set extruder temp
G92 E0.0
G1 Y-2.0 X179 F2400
G1 Z3 F720
M109 S215 ; wait for extruder temp

; intro line
G1 X170 F1000
G1 Z0.2 F720
G1 X110.0 E8.0 F900
M73 P1 R15
G1 X40.0 E10.0 F700
G92 E0.0

M221 S95 ; set flow
G21 ; set units to millimeters
G90 ; use absolute coordinates
M83 ; use relative distances for extrusion
M900 K0.2 ; Filament gcode LA 1.5
; ; Filament gcode LA 1.0
;LAYER_CHANGE
;Z:0.2
;HEIGHT:0.2
;BEFORE_LAYER_CHANGE
G92 E0.0
;0.2


G1 E-3.20000 F4200.000
G1 Z0.200 F9000.000
;AFTER_LAYER_CHANGE
;0.2
G1 Z0.400
G1 X61.749 Y61.153
G1 Z0.200
G1 E3.20000 F2400.000
M204 S800
;TYPE:Skirt
;WIDTH:0.42
G1 F1200.000
G1 X64.384 Y58.789 E0.11101
G1 X66.206 Y57.379 E0.07222
G1 X67.673 Y56.357 E0.05606
G1 X69.628 Y55.139 E0.07223
G1 X71.178 Y54.278 E0.05558
G1 X72.760 Y53.488 E0.05546
G1 X74.885 Y52.559 E0.07270
G1 X76.543 Y51.932 E0.05558
G1 X78.735 Y51.226 E0.07222
G1 X82.176 Y50.388 E0.11101
G1 X84.447 Y50.007 E0.07223
G1 X86.208 Y49.801 E0.05558
G1 X87.972 Y49.674 E0.05546
G1 X90.279 Y49.624 E0.07234
G1 X92.062 Y49.676 E0.05594
G1 X94.358 Y49.859 E0.07222
G1 X97.858 Y50.395 E0.11101
G1 X100.104 Y50.908 E0.07222
G1 X101.810 Y51.389 E0.05558
G1 X104.007 Y52.130 E0.07271
M73 P2 R15
G1 X105.656 Y52.782 E0.05558
G1 X107.271 Y53.503 E0.05546
G1 X109.337 Y54.555 E0.07270
G1 X110.874 Y55.438 E0.05558
G1 X112.811 Y56.684 E0.07222
G1 X115.642 Y58.811 E0.11101
G1 X117.379 Y60.324 E0.07222
G1 X118.655 Y61.554 E0.05558
G1 X119.874 Y62.836 E0.05546
G1 X121.384 Y64.596 E0.07270
G1 X122.469 Y65.998 E0.05558
G1 X123.784 Y67.889 E0.07222
G1 X125.592 Y70.933 E0.11101
G1 X126.621 Y72.994 E0.07223
G1 X127.332 Y74.618 E0.05558
G1 X127.970 Y76.267 E0.05546
G1 X128.696 Y78.470 E0.07270
G1 X129.164 Y80.179 E0.05558
G1 X129.661 Y82.429 E0.07222
G1 X130.209 Y86.329 E0.12350
G1 X130.377 Y90.017 E0.11575
G1 X130.310 Y92.320 E0.07222
G1 X130.170 Y94.087 E0.05558
G1 X129.952 Y95.842 E0.05546
G1 X129.552 Y98.122 E0.07258
G1 X129.156 Y99.854 E0.05570
G1 X128.527 Y102.082 E0.07258
G1 X127.202 Y105.692 E0.12056
G1 X125.579 Y109.090 E0.11809
G1 X124.428 Y111.095 E0.07247
G1 X123.465 Y112.592 E0.05582
G1 X122.118 Y114.470 E0.07247
G1 X121.013 Y115.856 E0.05558
G1 X119.851 Y117.189 E0.05546
G1 X118.251 Y118.847 E0.07222
G1 X115.616 Y121.211 E0.11101
G1 X113.794 Y122.621 E0.07222
G1 X112.327 Y123.643 E0.05606
G1 X110.372 Y124.861 E0.07223
G1 X108.822 Y125.722 E0.05558
G1 X107.240 Y126.512 E0.05546
G1 X105.115 Y127.441 E0.07270
G1 X103.457 Y128.068 E0.05558
G1 X101.264 Y128.774 E0.07222
G1 X97.824 Y129.612 E0.11101
G1 X95.553 Y129.993 E0.07223
G1 X93.792 Y130.199 E0.05558
G1 X92.028 Y130.326 E0.05546
G1 X89.710 Y130.376 E0.07270
G1 X87.938 Y130.324 E0.05558
G1 X85.642 Y130.141 E0.07222
G1 X82.142 Y129.605 E0.11101
G1 X79.896 Y129.092 E0.07222
G1 X78.190 Y128.611 E0.05558
G1 X75.993 Y127.870 E0.07271
G1 X74.344 Y127.218 E0.05558
G1 X72.729 Y126.497 E0.05546
G1 X70.663 Y125.445 E0.07270
G1 X69.126 Y124.562 E0.05558
G1 X67.189 Y123.316 E0.07222
G1 X64.358 Y121.189 E0.11101
G1 X62.621 Y119.676 E0.07222
G1 X61.345 Y118.446 E0.05558
G1 X60.126 Y117.164 E0.05546
G1 X58.616 Y115.404 E0.07270
G1 X57.531 Y114.002 E0.05558
G1 X56.216 Y112.111 E0.07222
G1 X54.408 Y109.067 E0.11101
G1 X53.379 Y107.006 E0.07222
G1 X52.668 Y105.382 E0.05558
G1 X52.030 Y103.733 E0.05546
G1 X51.304 Y101.530 E0.07270
G1 X50.836 Y99.821 E0.05558
G1 X50.339 Y97.571 E0.07222
G1 X49.791 Y93.671 E0.12350
G1 X49.623 Y89.983 E0.11575
G1 X49.690 Y87.680 E0.07222
G1 X49.830 Y85.913 E0.05558
G1 X50.048 Y84.158 E0.05546
G1 X50.448 Y81.878 E0.07258
M73 P3 R15
G1 X50.844 Y80.146 E0.05570
G1 X51.473 Y77.918 E0.07258
G1 X52.798 Y74.308 E0.12056
G1 X54.421 Y70.910 E0.11809
G1 X55.572 Y68.905 E0.07247
G1 X56.535 Y67.408 E0.05582
G1 X57.882 Y65.530 E0.07247
G1 X58.987 Y64.144 E0.05558
G1 X60.149 Y62.811 E0.05546
G1 X61.707 Y61.196 E0.07034
M204 S1250
; printing object PurflingRing_05.stl id:0 copy 0
G1 E-2.24000 F4200.000
;WIPE_START
G1 F7200.000
G1 X62.931 Y60.096 E-0.91200
;WIPE_END
G1 E-0.04800 F4200.000
G1 Z0.400 F9000.000
G1 X65.071 Y64.677
G1 Z0.200
G1 E3.20000 F2400.000
M204 S800
;TYPE:Perimeter
G1 F1200.000
G1 X66.288 Y63.532 E0.05240
G1 X66.895 Y62.999 E0.02533
G1 X67.725 Y62.311 E0.03378
G1 X69.003 Y61.329 E0.05054
G1 X70.327 Y60.405 E0.05061
G1 X71.689 Y59.544 E0.05054
G1 X72.621 Y59.002 E0.03381
G1 X73.560 Y58.494 E0.03346
G1 X75.015 Y57.777 E0.05088
G1 X76.494 Y57.129 E0.05061
G1 X77.998 Y56.551 E0.05054
G1 X79.018 Y56.202 E0.03381
G1 X80.049 Y55.885 E0.03381
G1 X81.606 Y55.468 E0.05054
G1 X83.183 Y55.123 E0.05061
G1 X84.773 Y54.849 E0.05061
G1 X86.375 Y54.648 E0.05061
G1 X87.981 Y54.520 E0.05054
G1 X89.059 Y54.475 E0.03381
G1 X90.126 Y54.463 E0.03346
G1 X91.748 Y54.506 E0.05088
G1 X93.358 Y54.622 E0.05061
G1 X94.961 Y54.811 E0.05061
G1 X96.553 Y55.072 E0.05061
G1 X98.130 Y55.405 E0.05054
G1 X99.176 Y55.668 E0.03381
G1 X100.213 Y55.962 E0.03381
G1 X101.746 Y56.460 E0.05054
G1 X103.257 Y57.028 E0.05061
G1 X104.738 Y57.663 E0.05054
G1 X105.713 Y58.125 E0.03381
G1 X106.672 Y58.617 E0.03381
G1 X108.078 Y59.405 E0.05054
G1 X109.449 Y60.257 E0.05061
G1 X110.779 Y61.171 E0.05061
G1 X112.067 Y62.144 E0.05061
G1 X113.307 Y63.173 E0.05054
G1 X114.110 Y63.893 E0.03381
G1 X114.891 Y64.636 E0.03381
G1 X116.014 Y65.789 E0.05047
G1 X116.736 Y66.589 E0.03378
G1 X117.258 Y67.200 E0.02518
G1 X117.773 Y67.829 E0.02548
G1 X118.432 Y68.681 E0.03379
G1 X119.368 Y69.990 E0.05047
G1 X119.962 Y70.890 E0.03381
G1 X120.522 Y71.798 E0.03346
G1 X121.321 Y73.211 E0.05088
G1 X122.051 Y74.650 E0.05061
G1 X122.714 Y76.119 E0.05054
G1 X123.120 Y77.118 E0.03381
G1 X123.492 Y78.118 E0.03346
G1 X124.000 Y79.660 E0.05088
G1 X124.434 Y81.214 E0.05061
G1 X124.798 Y82.787 E0.05061
G1 X125.089 Y84.372 E0.05054
G1 X125.243 Y85.439 E0.03381
G1 X125.365 Y86.511 E0.03381
G1 X125.487 Y88.118 E0.05054
G1 X125.536 Y89.729 E0.05054
G1 X125.528 Y90.806 E0.03378
G1 X125.499 Y91.614 E0.02533
G1 X125.455 Y92.420 E0.02533
G1 X125.365 Y93.494 E0.03378
G1 X125.170 Y95.094 E0.05054
G1 X124.903 Y96.683 E0.05054
G1 X124.684 Y97.739 E0.03381
G1 X124.434 Y98.788 E0.03381
G1 X124.000 Y100.340 E0.05054
G1 X123.495 Y101.873 E0.05061
G1 X122.921 Y103.382 E0.05061
G1 X122.281 Y104.861 E0.05054
G1 X121.815 Y105.833 E0.03381
G1 X121.320 Y106.791 E0.03381
G1 X120.527 Y108.194 E0.05054
G1 X119.669 Y109.561 E0.05061
G1 X118.751 Y110.886 E0.05054
G1 X118.105 Y111.748 E0.03378
G1 X117.606 Y112.377 E0.02518
G1 X117.088 Y113.003 E0.02548
G1 X116.378 Y113.814 E0.03379
G1 X115.271 Y114.986 E0.05054
G1 X114.110 Y116.107 E0.05061
G1 X112.900 Y117.175 E0.05061
G1 X111.644 Y118.185 E0.05054
G1 X110.779 Y118.829 E0.03381
G1 X109.895 Y119.446 E0.03381
G1 X108.539 Y120.318 E0.05054
G1 X107.144 Y121.129 E0.05061
G1 X105.715 Y121.874 E0.05054
G1 X104.740 Y122.336 E0.03381
G1 X103.755 Y122.767 E0.03374
G1 X102.756 Y123.169 E0.03374
G1 X101.744 Y123.541 E0.03381
G1 X100.211 Y124.039 E0.05054
G1 X98.655 Y124.467 E0.05061
G1 X97.083 Y124.824 E0.05054
G1 X96.024 Y125.023 E0.03381
G1 X94.958 Y125.190 E0.03381
G1 X93.358 Y125.378 E0.05054
G1 X91.748 Y125.494 E0.05061
G1 X90.135 Y125.537 E0.05061
G1 X88.523 Y125.506 E0.05054
G1 X87.447 Y125.445 E0.03381
G1 X86.383 Y125.353 E0.03346
G1 X84.773 Y125.151 E0.05088
G1 X83.183 Y124.877 E0.05061
G1 X81.606 Y124.532 E0.05061
G1 X80.049 Y124.115 E0.05054
G1 X79.018 Y123.798 E0.03381
G1 X78.009 Y123.453 E0.03346
G1 X76.494 Y122.871 E0.05088
M73 P4 R15
G1 X75.015 Y122.223 E0.05061
G1 X73.568 Y121.510 E0.05061
G1 X72.156 Y120.732 E0.05054
G1 X71.232 Y120.177 E0.03381
G1 X70.325 Y119.593 E0.03381
G1 X69.003 Y118.671 E0.05054
G1 X67.725 Y117.689 E0.05054
G1 X66.895 Y117.001 E0.03378
G1 X66.288 Y116.468 E0.02533
G1 X65.692 Y115.923 E0.02533
G1 X64.917 Y115.175 E0.03378
G1 X63.802 Y114.011 E0.05054
G1 X62.739 Y112.797 E0.05061
G1 X61.733 Y111.537 E0.05054
G1 X61.093 Y110.670 E0.03381
G1 X60.479 Y109.783 E0.03381
G1 X59.613 Y108.426 E0.05047
G1 X59.069 Y107.497 E0.03378
G1 X58.680 Y106.789 E0.02533
G1 X58.305 Y106.073 E0.02533
G1 X57.833 Y105.105 E0.03378
G1 X57.181 Y103.631 E0.05054
G1 X56.596 Y102.126 E0.05061
G1 X56.080 Y100.599 E0.05054
G1 X55.775 Y99.566 E0.03378
G1 X55.567 Y98.785 E0.02533
G1 X55.375 Y98.001 E0.02533
G1 X55.148 Y96.947 E0.03378
G1 X54.869 Y95.360 E0.05054
G1 X54.662 Y93.759 E0.05061
G1 X54.528 Y92.153 E0.05054
G1 X54.479 Y91.076 E0.03381
G1 X54.463 Y89.998 E0.03381
G1 X54.499 Y88.389 E0.05047
G1 X54.565 Y87.312 E0.03381
G1 X54.661 Y86.250 E0.03346
G1 X54.869 Y84.640 E0.05088
G1 X55.148 Y83.053 E0.05054
G1 X55.375 Y81.999 E0.03381
G1 X55.631 Y80.963 E0.03346
G1 X56.080 Y79.403 E0.05088
G1 X56.596 Y77.874 E0.05061
G1 X57.180 Y76.371 E0.05054
G1 X57.608 Y75.383 E0.03378
G1 X57.948 Y74.655 E0.02518
G1 X58.306 Y73.926 E0.02548
G1 X58.808 Y72.972 E0.03379
G1 X59.612 Y71.575 E0.05054
G1 X60.480 Y70.215 E0.05061
G1 X61.407 Y68.897 E0.05054
G1 X62.061 Y68.039 E0.03381
G1 X62.733 Y67.210 E0.03346
G1 X63.802 Y65.989 E0.05088
G1 X65.028 Y64.719 E0.05536
M204 S1250
G1 X65.290 Y64.990 F9000.000
M204 S800
;TYPE:External perimeter
G1 F1200.000
G1 X66.540 Y63.812 E0.05384
G1 X67.140 Y63.286 E0.02504
G1 X67.960 Y62.605 E0.03340
G1 X69.226 Y61.633 E0.05004
G1 X70.535 Y60.719 E0.05007
G1 X71.884 Y59.866 E0.05004
G1 X72.806 Y59.331 E0.03341
G1 X73.733 Y58.829 E0.03306
G1 X75.174 Y58.119 E0.05039
G1 X76.637 Y57.478 E0.05007
G1 X78.127 Y56.905 E0.05004
G1 X79.135 Y56.561 E0.03341
G1 X80.153 Y56.247 E0.03341
G1 X81.695 Y55.835 E0.05004
G1 X83.255 Y55.493 E0.05007
G1 X84.829 Y55.222 E0.05007
G1 X86.413 Y55.023 E0.05007
G1 X88.004 Y54.897 E0.05004
G1 X89.069 Y54.852 E0.03341
G1 X90.123 Y54.840 E0.03306
G1 X91.729 Y54.882 E0.05039
G1 X93.322 Y54.997 E0.05007
G1 X94.908 Y55.184 E0.05007
G1 X96.484 Y55.443 E0.05007
G1 X98.045 Y55.773 E0.05004
G1 X99.079 Y56.032 E0.03341
G1 X100.104 Y56.323 E0.03341
G1 X101.622 Y56.816 E0.05004
G1 X103.116 Y57.378 E0.05007
G1 X104.583 Y58.007 E0.05004
G1 X105.546 Y58.463 E0.03341
G1 X106.494 Y58.949 E0.03341
G1 X107.886 Y59.729 E0.05004
G1 X109.242 Y60.573 E0.05007
G1 X110.559 Y61.477 E0.05007
G1 X111.833 Y62.440 E0.05007
G1 X113.061 Y63.459 E0.05004
G1 X113.854 Y64.170 E0.03341
G1 X114.626 Y64.905 E0.03341
G1 X115.739 Y66.047 E0.05002
G1 X116.453 Y66.838 E0.03340
G1 X116.968 Y67.442 E0.02489
G1 X117.478 Y68.063 E0.02519
G1 X118.129 Y68.906 E0.03340
G1 X119.057 Y70.203 E0.05002
G1 X119.644 Y71.093 E0.03341
G1 X120.197 Y71.990 E0.03306
G1 X120.989 Y73.389 E0.05039
G1 X121.711 Y74.813 E0.05007
G1 X122.368 Y76.268 E0.05004
G1 X122.769 Y77.255 E0.03341
G1 X123.136 Y78.243 E0.03306
G1 X123.639 Y79.770 E0.05039
G1 X124.069 Y81.308 E0.05007
G1 X124.428 Y82.863 E0.05007
G1 X124.717 Y84.433 E0.05004
G1 X124.869 Y85.488 E0.03341
G1 X124.990 Y86.546 E0.03341
G1 X125.111 Y88.138 E0.05004
G1 X125.159 Y89.733 E0.05004
G1 X125.151 Y90.798 E0.03340
G1 X125.123 Y91.596 E0.02504
G1 X125.078 Y92.394 E0.02504
G1 X124.990 Y93.455 E0.03340
G1 X124.797 Y95.040 E0.05004
G1 X124.532 Y96.614 E0.05004
G1 X124.316 Y97.657 E0.03341
G1 X124.068 Y98.693 E0.03341
G1 X123.639 Y100.230 E0.05004
G1 X123.140 Y101.747 E0.05007
G1 X122.572 Y103.240 E0.05007
G1 X121.938 Y104.704 E0.05004
G1 X121.477 Y105.665 E0.03341
G1 X120.988 Y106.612 E0.03341
G1 X120.203 Y108.001 E0.05004
G1 X119.354 Y109.354 E0.05007
G1 X118.446 Y110.666 E0.05004
G1 X117.806 Y111.518 E0.03340
G1 X117.313 Y112.140 E0.02489
G1 X116.800 Y112.759 E0.02519
G1 X116.099 Y113.560 E0.03340
G1 X115.003 Y114.720 E0.05004
G1 X113.854 Y115.830 E0.05007
G1 X112.657 Y116.887 E0.05007
G1 X111.414 Y117.887 E0.05004
M73 P5 R15
G1 X110.559 Y118.523 E0.03341
G1 X109.685 Y119.133 E0.03341
G1 X108.343 Y119.996 E0.05004
G1 X106.962 Y120.798 E0.05007
G1 X105.547 Y121.536 E0.05004
G1 X104.584 Y121.993 E0.03341
G1 X103.609 Y122.420 E0.03338
G1 X102.621 Y122.817 E0.03338
G1 X101.621 Y123.184 E0.03341
G1 X100.103 Y123.677 E0.05004
G1 X98.563 Y124.101 E0.05007
G1 X97.007 Y124.455 E0.05004
G1 X95.960 Y124.651 E0.03341
G1 X94.907 Y124.816 E0.03341
G1 X93.322 Y125.003 E0.05004
G1 X91.729 Y125.118 E0.05007
G1 X90.133 Y125.160 E0.05007
G1 X88.537 Y125.130 E0.05004
G1 X87.474 Y125.069 E0.03341
G1 X86.423 Y124.978 E0.03306
G1 X84.829 Y124.778 E0.05039
G1 X83.255 Y124.507 E0.05007
G1 X81.695 Y124.165 E0.05007
G1 X80.153 Y123.753 E0.05004
G1 X79.135 Y123.439 E0.03341
G1 X78.137 Y123.098 E0.03306
G1 X76.637 Y122.522 E0.05039
G1 X75.174 Y121.881 E0.05007
G1 X73.742 Y121.175 E0.05007
G1 X72.344 Y120.405 E0.05004
G1 X71.431 Y119.857 E0.03341
G1 X70.535 Y119.280 E0.03341
G1 X69.226 Y118.367 E0.05004
G1 X67.960 Y117.395 E0.05004
G1 X67.140 Y116.714 E0.03340
G1 X66.540 Y116.188 E0.02504
G1 X65.951 Y115.649 E0.02504
G1 X65.185 Y114.908 E0.03340
G1 X64.080 Y113.757 E0.05004
G1 X63.028 Y112.555 E0.05007
G1 X62.032 Y111.308 E0.05004
G1 X61.399 Y110.451 E0.03341
G1 X60.793 Y109.575 E0.03341
G1 X59.935 Y108.230 E0.05002
G1 X59.397 Y107.311 E0.03340
G1 X59.012 Y106.611 E0.02504
G1 X58.642 Y105.903 E0.02504
G1 X58.175 Y104.946 E0.03340
G1 X57.529 Y103.486 E0.05004
G1 X56.950 Y101.998 E0.05007
G1 X56.440 Y100.485 E0.05004
G1 X56.138 Y99.464 E0.03340
G1 X55.932 Y98.692 E0.02504
G1 X55.743 Y97.916 E0.02504
G1 X55.519 Y96.875 E0.03340
G1 X55.242 Y95.303 E0.05004
G1 X55.037 Y93.719 E0.05007
G1 X54.904 Y92.129 E0.05004
G1 X54.856 Y91.064 E0.03341
G1 X54.840 Y89.999 E0.03341
G1 X54.876 Y88.404 E0.05002
G1 X54.941 Y87.341 E0.03341
G1 X55.036 Y86.291 E0.03306
G1 X55.242 Y84.697 E0.05039
G1 X55.519 Y83.125 E0.05004
G1 X55.743 Y82.084 E0.03341
G1 X55.996 Y81.060 E0.03306
G1 X56.440 Y79.515 E0.05039
G1 X56.950 Y78.002 E0.05007
G1 X57.529 Y76.515 E0.05004
G1 X57.952 Y75.537 E0.03340
G1 X58.288 Y74.818 E0.02489
G1 X58.642 Y74.097 E0.02519
G1 X59.138 Y73.154 E0.03340
G1 X59.935 Y71.771 E0.05004
G1 X60.793 Y70.425 E0.05007
G1 X61.712 Y69.119 E0.05004
G1 X62.357 Y68.272 E0.03341
G1 X63.021 Y67.453 E0.03306
G1 X64.080 Y66.243 E0.05039
G1 X65.247 Y65.031 E0.05276
M204 S1250
G1 X65.189 Y64.603 F9000.000
G1 E-2.24000 F4200.000
;WIPE_START
G1 F7200.000
G1 X66.444 Y63.903 E-0.91200
;WIPE_END
G1 E-0.04800 F4200.000
G1 Z0.400 F9000.000
G1 X63.782 Y63.598
G1 Z0.200
G1 E3.20000 F2400.000
M204 S800
;TYPE:Perimeter
G1 F1200.000
G1 X64.755 Y62.660 E0.04237
G1 X65.555 Y61.942 E0.03372
G1 X66.798 Y60.906 E0.05074
G1 X68.085 Y59.925 E0.05074
G1 X68.963 Y59.304 E0.03372
G1 X69.814 Y58.738 E0.03205
G1 X71.239 Y57.863 E0.05241
G1 X72.651 Y57.079 E0.05066
G1 X74.099 Y56.355 E0.05074
G1 X75.078 Y55.910 E0.03372
G1 X76.069 Y55.493 E0.03372
G1 X77.584 Y54.919 E0.05081
G1 X78.603 Y54.575 E0.03372
G1 X79.631 Y54.261 E0.03372
G1 X81.197 Y53.843 E0.05081
G1 X82.245 Y53.604 E0.03372
G1 X83.302 Y53.395 E0.03378
G1 X84.365 Y53.216 E0.03378
G1 X85.430 Y53.069 E0.03372
G1 X87.040 Y52.905 E0.05074
G1 X88.656 Y52.811 E0.05074
G1 X89.731 Y52.788 E0.03372
G1 X90.753 Y52.795 E0.03205
G1 X92.423 Y52.866 E0.05241
G1 X94.033 Y53.006 E0.05066
G1 X95.637 Y53.217 E0.05074
G1 X96.698 Y53.395 E0.03372
G1 X97.755 Y53.604 E0.03378
G1 X98.805 Y53.844 E0.03378
G1 X99.846 Y54.113 E0.03372
G1 X101.397 Y54.575 E0.05074
G1 X102.926 Y55.104 E0.05074
G1 X103.929 Y55.492 E0.03372
G1 X104.922 Y55.910 E0.03378
G1 X105.903 Y56.356 E0.03378
