; generated by PrusaSlicer 2.3.0+win64 on 2021-06-25 at 20:04:22 UTC


;
;

;
;
; 

; external perimeters extrusion width = 0.45mm
; perimeters extrusion width = 0.45mm
; infill extrusion width = 0.45mm
; solid infill extrusion width = 0.45mm
; top infill extrusion width = 0.40mm
; first layer extrusion width = 0.42mm

M73 P0 R12
M201 X1250 Y1250 Z400 E5000 ; sets maximum accelerations, mm/sec^2
M203 X180 Y180 Z12 E80 ; sets maximum feedrates, mm/sec
M204 P1250 R1250 T1250 ; sets acceleration (P, T) and retract acceleration (R), mm/sec^2
M205 X8.00 Y8.00 Z2.00 E10.00 ; sets the jerk limits, mm/sec
M205 S0 T0 ; sets the minimum extruding and travel feed rate, mm/sec
M107
;TYPE:Custom
G90 ; use absolute coordinates
M83 ; extruder relative mode
M104 S170 ; set extruder temp for bed leveling
M140 S60 ; set bed temp
M109 R170 ; wait for bed leveling temp
M190 S60 ; wait for bed temp
G28 ; home all without mesh bed level
G29 ; mesh bed leveling 
M104 S215 ; set extruder temp
G92 E0.0
G1 Y-2.0 X179 F2400
G1 Z3 F720
M109 S215 ; wait for extruder temp

; intro line
G1 X170 F1000
G1 Z0.2 F720
G1 X110.0 E8.0 F900
M73 P1 R12
G1 X40.0 E10.0 F700
G92 E0.0

M221 S95 ; set flow
G21 ; set units to millimeters
G90 ; use absolute coordinates
M83 ; use relative distances for extrusion
M900 K0.2 ; Filament gcode LA 1.5
; ; Filament gcode LA 1.0
;LAYER_CHANGE
;Z:0.2
;HEIGHT:0.2
;BEFORE_LAYER_CHANGE
G92 E0.0
;0.2


M73 P2 R12
G1 E-3.20000 F4200.000
G1 Z0.200 F9000.000
;AFTER_LAYER_CHANGE
;0.2
G1 Z0.400
G1 X61.749 Y61.153
G1 Z0.200
G1 E3.20000 F2400.000
M204 S800
;TYPE:Skirt
;WIDTH:0.42
G1 F1200.000
G1 X64.384 Y58.789 E0.11101
G1 X66.206 Y57.379 E0.07222
G1 X67.673 Y56.357 E0.05606
G1 X69.628 Y55.139 E0.07223
G1 X71.178 Y54.278 E0.05558
G1 X72.760 Y53.488 E0.05546
G1 X74.885 Y52.559 E0.07270
G1 X76.543 Y51.932 E0.05558
G1 X78.735 Y51.226 E0.07222
G1 X82.176 Y50.388 E0.11101
G1 X84.447 Y50.007 E0.07223
G1 X86.208 Y49.801 E0.05558
G1 X87.972 Y49.674 E0.05546
G1 X90.279 Y49.624 E0.07234
G1 X92.062 Y49.676 E0.05594
G1 X94.358 Y49.859 E0.07222
G1 X97.858 Y50.395 E0.11101
G1 X100.104 Y50.908 E0.07222
G1 X101.810 Y51.389 E0.05558
G1 X104.007 Y52.130 E0.07271
G1 X105.656 Y52.782 E0.05558
G1 X107.271 Y53.503 E0.05546
G1 X109.337 Y54.555 E0.07270
G1 X110.874 Y55.438 E0.05558
G1 X112.811 Y56.684 E0.07222
G1 X115.642 Y58.811 E0.11101
G1 X117.379 Y60.324 E0.07222
G1 X118.655 Y61.554 E0.05558
G1 X119.874 Y62.836 E0.05546
G1 X121.384 Y64.596 E0.07270
G1 X122.469 Y65.998 E0.05558
G1 X123.784 Y67.889 E0.07222
G1 X125.592 Y70.933 E0.11101
G1 X126.621 Y72.994 E0.07223
G1 X127.332 Y74.618 E0.05558
G1 X127.970 Y76.267 E0.05546
G1 X128.696 Y78.470 E0.07270
G1 X129.164 Y80.179 E0.05558
G1 X129.661 Y82.429 E0.07222
G1 X130.209 Y86.329 E0.12350
G1 X130.377 Y90.017 E0.11575
G1 X130.310 Y92.320 E0.07222
G1 X130.170 Y94.087 E0.05558
G1 X129.952 Y95.842 E0.05546
G1 X129.552 Y98.122 E0.07258
G1 X129.156 Y99.854 E0.05570
G1 X128.527 Y102.082 E0.07258
G1 X127.202 Y105.692 E0.12056
G1 X125.579 Y109.090 E0.11809
M73 P3 R12
G1 X124.428 Y111.095 E0.07247
G1 X123.465 Y112.592 E0.05582
G1 X122.118 Y114.470 E0.07247
G1 X121.013 Y115.856 E0.05558
G1 X119.851 Y117.189 E0.05546
G1 X118.251 Y118.847 E0.07222
G1 X115.616 Y121.211 E0.11101
G1 X113.794 Y122.621 E0.07222
G1 X112.327 Y123.643 E0.05606
G1 X110.372 Y124.861 E0.07223
G1 X108.822 Y125.722 E0.05558
G1 X107.240 Y126.512 E0.05546
G1 X105.115 Y127.441 E0.07270
G1 X103.457 Y128.068 E0.05558
G1 X101.264 Y128.774 E0.07222
G1 X97.824 Y129.612 E0.11101
G1 X95.553 Y129.993 E0.07223
G1 X93.792 Y130.199 E0.05558
G1 X92.028 Y130.326 E0.05546
G1 X89.710 Y130.376 E0.07270
G1 X87.938 Y130.324 E0.05558
G1 X85.642 Y130.141 E0.07222
G1 X82.142 Y129.605 E0.11101
G1 X79.896 Y129.092 E0.07222
G1 X78.190 Y128.611 E0.05558
G1 X75.993 Y127.870 E0.07271
G1 X74.344 Y127.218 E0.05558
G1 X72.729 Y126.497 E0.05546
G1 X70.663 Y125.445 E0.07270
G1 X69.126 Y124.562 E0.05558
G1 X67.189 Y123.316 E0.07222
G1 X64.358 Y121.189 E0.11101
G1 X62.621 Y119.676 E0.07222
G1 X61.345 Y118.446 E0.05558
G1 X60.126 Y117.164 E0.05546
G1 X58.616 Y115.404 E0.07270
G1 X57.531 Y114.002 E0.05558
G1 X56.216 Y112.111 E0.07222
G1 X54.408 Y109.067 E0.11101
G1 X53.379 Y107.006 E0.07222
G1 X52.668 Y105.382 E0.05558
G1 X52.030 Y103.733 E0.05546
G1 X51.304 Y101.530 E0.07270
G1 X50.836 Y99.821 E0.05558
G1 X50.339 Y97.571 E0.07222
G1 X49.791 Y93.671 E0.12350
G1 X49.623 Y89.983 E0.11575
G1 X49.690 Y87.680 E0.07222
G1 X49.830 Y85.913 E0.05558
G1 X50.048 Y84.158 E0.05546
G1 X50.448 Y81.878 E0.07258
G1 X50.844 Y80.146 E0.05570
G1 X51.473 Y77.918 E0.07258
G1 X52.798 Y74.308 E0.12056
G1 X54.421 Y70.910 E0.11809
G1 X55.572 Y68.905 E0.07247
G1 X56.535 Y67.408 E0.05582
G1 X57.882 Y65.530 E0.07247
G1 X58.987 Y64.144 E0.05558
G1 X60.149 Y62.811 E0.05546
G1 X61.707 Y61.196 E0.07034
M204 S1250
; printing object PurflingRing_04.stl id:0 copy 0
G1 E-2.24000 F4200.000
;WIPE_START
G1 F7200.000
G1 X62.931 Y60.096 E-0.91200
;WIPE_END
G1 E-0.04800 F4200.000
G1 Z0.400 F9000.000
G1 X63.789 Y63.386
M73 P4 R12
G1 Z0.200
G1 E3.20000 F2400.000
M204 S800
;TYPE:External perimeter
G1 F1200.000
G1 X64.973 Y62.260 E0.05124
G1 X66.218 Y61.185 E0.05158
G1 X67.075 Y60.499 E0.03441
G1 X67.731 Y60.002 E0.02580
G1 X68.396 Y59.518 E0.02580
G1 X69.301 Y58.897 E0.03441
G1 X70.689 Y58.016 E0.05154
G1 X71.637 Y57.463 E0.03441
G1 X72.358 Y57.067 E0.02580
G1 X73.087 Y56.686 E0.02580
G1 X74.073 Y56.203 E0.03441
G1 X75.576 Y55.535 E0.05158
G1 X77.365 Y54.841 E0.06017
G1 X79.187 Y54.238 E0.06017
G1 X80.773 Y53.796 E0.05161
G1 X82.644 Y53.371 E0.06017
G1 X84.535 Y53.041 E0.06017
G1 X86.168 Y52.836 E0.05161
G1 X88.081 Y52.689 E0.06017
G1 X89.926 Y52.639 E0.05785
G1 X91.096 Y52.655 E0.03671
G1 X91.920 Y52.689 E0.02586
G1 X93.832 Y52.836 E0.06012
G1 X95.465 Y53.041 E0.05161
G1 X97.356 Y53.371 E0.06017
G1 X99.227 Y53.796 E0.06017
G1 X100.813 Y54.238 E0.05161
G1 X102.635 Y54.841 E0.06017
G1 X104.424 Y55.535 E0.06017
G1 X105.927 Y56.203 E0.05158
G1 X106.913 Y56.686 E0.03441
G1 X107.642 Y57.067 E0.02580
G1 X108.363 Y57.463 E0.02580
G1 X109.311 Y58.016 E0.03441
G1 X110.700 Y58.897 E0.05158
G1 X112.269 Y60.002 E0.06017
G1 X113.781 Y61.184 E0.06017
G1 X115.027 Y62.260 E0.05161
G1 X116.418 Y63.582 E0.06017
G1 X117.740 Y64.973 E0.06017
G1 X118.815 Y66.219 E0.05161
G1 X119.998 Y67.731 E0.06017
G1 X121.102 Y69.300 E0.06017
G1 X121.984 Y70.690 E0.05161
G1 X122.933 Y72.358 E0.06017
G1 X123.796 Y74.072 E0.06017
G1 X124.465 Y75.576 E0.05161
G1 X125.159 Y77.365 E0.06017
G1 X125.762 Y79.187 E0.06017
G1 X126.204 Y80.773 E0.05161
G1 X126.629 Y82.644 E0.06017
G1 X126.959 Y84.534 E0.06017
G1 X127.164 Y86.167 E0.05158
G1 X127.261 Y87.260 E0.03441
G1 X127.311 Y88.081 E0.02580
G1 X127.345 Y88.903 E0.02580
G1 X127.361 Y90.000 E0.03439
G1 X127.345 Y91.097 E0.03439
G1 X127.301 Y92.120 E0.03212
G1 X127.164 Y93.832 E0.05385
G1 X126.959 Y95.464 E0.05157
G1 X126.783 Y96.548 E0.03441
G1 X126.589 Y97.554 E0.03212
G1 X126.204 Y99.228 E0.05387
G1 X125.681 Y101.075 E0.06017
G1 X125.066 Y102.892 E0.06017
G1 X124.464 Y104.424 E0.05160
G1 X123.796 Y105.928 E0.05160
G1 X122.933 Y107.642 E0.06017
G1 X121.984 Y109.310 E0.06017
G1 X121.102 Y110.700 E0.05161
G1 X119.998 Y112.269 E0.06017
G1 X118.815 Y113.781 E0.06017
G1 X117.740 Y115.027 E0.05161
G1 X116.418 Y116.418 E0.06017
G1 X115.027 Y117.740 E0.06017
G1 X113.782 Y118.815 E0.05158
G1 X112.925 Y119.501 E0.03441
G1 X112.269 Y119.998 E0.02580
G1 X111.604 Y120.482 E0.02580
G1 X110.699 Y121.103 E0.03441
G1 X109.311 Y121.984 E0.05154
G1 X108.363 Y122.537 E0.03441
G1 X107.642 Y122.933 E0.02580
G1 X106.913 Y123.314 E0.02580
G1 X105.927 Y123.797 E0.03441
G1 X104.424 Y124.465 E0.05158
G1 X102.635 Y125.159 E0.06017
G1 X100.813 Y125.762 E0.06017
G1 X99.227 Y126.204 E0.05161
G1 X97.356 Y126.629 E0.06017
G1 X95.465 Y126.959 E0.06017
G1 X93.832 Y127.164 E0.05161
G1 X91.919 Y127.311 E0.06017
M73 P5 R12
G1 X90.001 Y127.361 E0.06015
G1 X88.903 Y127.345 E0.03443
G1 X87.880 Y127.301 E0.03212
G1 X86.167 Y127.164 E0.05387
G1 X84.264 Y126.918 E0.06017
G1 X82.447 Y126.589 E0.05788
G1 X80.773 Y126.204 E0.05389
G1 X79.187 Y125.762 E0.05160
G1 X77.365 Y125.159 E0.06017
G1 X75.576 Y124.465 E0.06017
G1 X74.073 Y123.797 E0.05158
G1 X73.087 Y123.314 E0.03441
G1 X72.358 Y122.933 E0.02580
G1 X71.637 Y122.537 E0.02580
G1 X70.689 Y121.984 E0.03441
G1 X69.301 Y121.103 E0.05154
G1 X68.396 Y120.482 E0.03441
G1 X67.731 Y119.998 E0.02580
G1 X67.075 Y119.501 E0.02580
G1 X66.218 Y118.815 E0.03441
G1 X64.973 Y117.740 E0.05158
G1 X63.582 Y116.418 E0.06017
G1 X62.260 Y115.027 E0.06017
G1 X61.185 Y113.781 E0.05161
G1 X60.002 Y112.269 E0.06017
G1 X58.898 Y110.700 E0.06017
G1 X58.016 Y109.310 E0.05161
G1 X57.067 Y107.642 E0.06017
G1 X56.204 Y105.928 E0.06017
G1 X55.535 Y104.424 E0.05161
G1 X54.841 Y102.635 E0.06017
G1 X54.238 Y100.813 E0.06017
G1 X53.796 Y99.227 E0.05161
G1 X53.371 Y97.356 E0.06017
G1 X53.041 Y95.466 E0.06017
G1 X52.836 Y93.833 E0.05158
G1 X52.739 Y92.740 E0.03441
G1 X52.689 Y91.919 E0.02580
G1 X52.655 Y91.097 E0.02580
G1 X52.639 Y90.000 E0.03439
G1 X52.655 Y88.903 E0.03439
G1 X52.699 Y87.880 E0.03212
G1 X52.836 Y86.168 E0.05385
G1 X53.041 Y84.536 E0.05157
G1 X53.217 Y83.452 E0.03441
G1 X53.411 Y82.446 E0.03212
G1 X53.796 Y80.772 E0.05387
G1 X54.319 Y78.925 E0.06017
G1 X54.934 Y77.108 E0.06017
G1 X55.536 Y75.576 E0.05160
G1 X56.204 Y74.072 E0.05160
G1 X57.067 Y72.358 E0.06017
G1 X58.016 Y70.690 E0.06017
G1 X58.898 Y69.300 E0.05161
G1 X60.002 Y67.731 E0.06017
G1 X61.185 Y66.219 E0.06017
G1 X62.260 Y64.973 E0.05161
G1 X63.745 Y63.427 E0.06721
M204 S1250
G1 X63.686 Y62.999 F9000.000
G1 X63.484 Y63.151
M204 S800
G1 F1200.000
G1 X64.803 Y61.906 E0.05685
G1 X66.046 Y60.839 E0.05136
G1 X67.554 Y59.664 E0.05996
G1 X69.119 Y58.565 E0.05995
G1 X70.740 Y57.548 E0.06000
G1 X72.405 Y56.614 E0.05986
G1 X74.120 Y55.766 E0.05999
G1 X75.874 Y55.005 E0.05995
G1 X77.665 Y54.335 E0.05995
G1 X79.487 Y53.755 E0.05996
G1 X81.070 Y53.333 E0.05136
G1 X82.939 Y52.929 E0.05996
G1 X84.826 Y52.618 E0.05996
G1 X86.454 Y52.429 E0.05136
G1 X88.361 Y52.298 E0.05996
G1 X90.273 Y52.263 E0.05995
M73 P5 R11
G1 X92.184 Y52.325 E0.05995
G1 X94.090 Y52.484 E0.05996
G1 X95.714 Y52.697 E0.05136
G1 X97.597 Y53.035 E0.05996
G1 X99.460 Y53.467 E0.05996
G1 X101.036 Y53.911 E0.05136
G1 X102.850 Y54.518 E0.05996
G1 X104.631 Y55.213 E0.05995
G1 X106.374 Y56.000 E0.05995
G1 X108.076 Y56.872 E0.05996
G1 X109.496 Y57.688 E0.05136
G1 X111.108 Y58.718 E0.05996
G1 X112.666 Y59.826 E0.05996
G1 X113.954 Y60.838 E0.05136
M73 P6 R11
G1 X115.400 Y62.090 E0.05996
G1 X116.781 Y63.412 E0.05995
G1 X118.093 Y64.803 E0.05995
G1 X119.334 Y66.258 E0.05996
G1 X120.337 Y67.553 E0.05136
G1 X121.435 Y69.119 E0.05996
G1 X122.453 Y70.738 E0.05996
G1 X123.258 Y72.165 E0.05136
G1 X124.118 Y73.873 E0.05996
G1 X124.892 Y75.621 E0.05995
G1 X125.575 Y77.407 E0.05995
G1 X126.168 Y79.225 E0.05996
G1 X126.601 Y80.805 E0.05136
G1 X127.019 Y82.671 E0.05996
G1 X127.344 Y84.556 E0.05996
G1 X127.545 Y86.182 E0.05136
G1 X127.689 Y88.089 E0.05996
G1 X127.738 Y90.000 E0.05995
G1 X127.689 Y91.911 E0.05995
G1 X127.545 Y93.818 E0.05996
G1 X127.344 Y95.444 E0.05136
G1 X127.019 Y97.329 E0.05996
G1 X126.601 Y99.195 E0.05996
G1 X126.168 Y100.775 E0.05136
G1 X125.575 Y102.593 E0.05996
G1 X124.892 Y104.379 E0.05995
G1 X124.118 Y106.127 E0.05995
G1 X123.258 Y107.835 E0.05995
G1 X122.312 Y109.496 E0.05995
G1 X121.283 Y111.108 E0.05995
G1 X120.173 Y112.665 E0.05995
G1 X118.987 Y114.165 E0.05996
G1 X117.911 Y115.400 E0.05136
G1 X116.588 Y116.781 E0.05996
G1 X115.197 Y118.094 E0.05996
G1 X113.954 Y119.161 E0.05136
G1 X112.446 Y120.336 E0.05996
G1 X110.881 Y121.435 E0.05995
G1 X109.260 Y122.452 E0.06000
G1 X107.595 Y123.386 E0.05986
G1 X105.880 Y124.234 E0.05999
G1 X104.126 Y124.995 E0.05995
G1 X102.335 Y125.665 E0.05995
G1 X100.513 Y126.245 E0.05996
G1 X98.930 Y126.667 E0.05136
G1 X97.061 Y127.071 E0.05996
G1 X95.174 Y127.382 E0.05996
G1 X93.546 Y127.571 E0.05136
G1 X91.639 Y127.702 E0.05996
G1 X89.727 Y127.737 E0.05995
G1 X87.816 Y127.675 E0.05995
G1 X85.910 Y127.516 E0.05996
G1 X84.286 Y127.303 E0.05136
G1 X82.403 Y126.965 E0.05996
G1 X80.540 Y126.533 E0.05996
G1 X78.964 Y126.089 E0.05136
G1 X77.150 Y125.482 E0.05996
G1 X75.369 Y124.787 E0.05995
G1 X73.626 Y124.000 E0.05995
G1 X71.924 Y123.128 E0.05996
G1 X70.504 Y122.312 E0.05136
G1 X68.892 Y121.282 E0.05996
G1 X67.334 Y120.174 E0.05996
G1 X66.046 Y119.162 E0.05136
G1 X64.600 Y117.910 E0.05996
G1 X63.219 Y116.588 E0.05995
G1 X61.907 Y115.197 E0.05995
G1 X60.666 Y113.742 E0.05996
G1 X59.663 Y112.447 E0.05136
G1 X58.565 Y110.881 E0.05996
G1 X57.547 Y109.262 E0.05996
G1 X56.742 Y107.835 E0.05136
G1 X55.882 Y106.127 E0.05996
G1 X55.108 Y104.379 E0.05995
G1 X54.425 Y102.593 E0.05995
G1 X53.832 Y100.775 E0.05996
G1 X53.399 Y99.195 E0.05136
G1 X52.981 Y97.329 E0.05996
G1 X52.656 Y95.444 E0.05996
M73 P7 R11
G1 X52.455 Y93.818 E0.05136
G1 X52.311 Y91.911 E0.05996
G1 X52.262 Y90.000 E0.05995
G1 X52.311 Y88.089 E0.05995
G1 X52.455 Y86.182 E0.05996
G1 X52.656 Y84.556 E0.05136
G1 X52.981 Y82.671 E0.05996
G1 X53.399 Y80.805 E0.05996
G1 X53.832 Y79.225 E0.05136
G1 X54.425 Y77.407 E0.05996
G1 X55.108 Y75.621 E0.05995
G1 X55.882 Y73.873 E0.05995
G1 X56.742 Y72.165 E0.05995
G1 X57.688 Y70.504 E0.05995
G1 X58.717 Y68.892 E0.05995
G1 X59.827 Y67.335 E0.05995
G1 X61.013 Y65.835 E0.05996
G1 X62.089 Y64.600 E0.05136
G1 X63.441 Y63.192 E0.06119
M204 S1250
G1 X63.870 Y63.257 F9000.000
G1 E-2.24000 F4200.000
;WIPE_START
G1 F7200.000
G1 X64.637 Y62.062 E-0.91200
;WIPE_END
G1 E-0.04800 F4200.000
G1 Z0.400 F9000.000
G1 X60.431 Y70.818
G1 Z0.200
G1 E3.20000 F2400.000
M204 S800
;WIDTH:0.330632
G1 F1200.000
G1 X59.892 Y70.463 E0.01542
M204 S1250
G1 X59.876 Y70.875 F9000.000
M204 S800
;WIDTH:0.42
G1 F1200.000
G1 X60.066 Y70.998 E0.00708
G1 X59.505 Y71.910 E0.03357
G1 X59.312 Y71.795 E0.00705
G1 X59.843 Y70.925 E0.03195
M204 S1250
G1 X59.994 Y71.068 F9000.000
G1 X59.136 Y72.171
M204 S800
G1 F1200.000
G1 X59.297 Y72.262 E0.00582
G1 X58.660 Y73.418 E0.04136
G1 X58.463 Y73.312 E0.00702
G1 X58.807 Y72.657 E0.02319
G1 X59.092 Y72.171 E0.01764
M204 S1250
G1 X59.229 Y72.331 F9000.000
G1 E-2.24000 F4200.000
;WIPE_START
G1 F7200.000
G1 X59.297 Y72.262 E-0.12452
G1 X58.660 Y73.418 E-0.73105
G1 X58.571 Y73.370 E-0.05642
;WIPE_END
G1 E-0.04800 F4200.000
G1 Z0.400 F9000.000
G1 X58.348 Y73.632
G1 Z0.200
G1 E3.20000 F2400.000
M204 S800
G1 F1200.000
G1 X58.505 Y73.712 E0.00554
G1 X57.856 Y75.027 E0.04599
G1 X57.210 Y76.499 E0.05040
G1 X57.005 Y76.413 E0.00698
G1 X57.601 Y75.031 E0.04721
G1 X58.030 Y74.135 E0.03114
G1 X58.300 Y73.622 E0.01817
M204 S1250
G1 X58.443 Y73.781 F9000.000
G1 E-2.24000 F4200.000
;WIPE_START
G1 F7200.000
G1 X58.505 Y73.712 E-0.12411
G1 X57.876 Y74.987 E-0.78789
;WIPE_END
G1 E-0.04800 F4200.000
G1 Z0.400 F9000.000
G1 X57.117 Y76.632
G1 Z0.200
G1 E3.20000 F2400.000
M204 S800
G1 F1200.000
G1 X57.154 Y76.646 E0.00124
G1 X56.638 Y77.983 E0.04491
G1 X56.292 Y78.992 E0.03345
G1 X55.987 Y79.975 E0.03229
G1 X55.773 Y79.912 E0.00701
G1 X56.217 Y78.491 E0.04666
G1 X56.575 Y77.489 E0.03338
G1 X56.945 Y76.564 E0.03123
G1 X57.062 Y76.610 E0.00393
M204 S1250
G1 X57.140 Y76.664 F9000.000
G1 E-2.24000 F4200.000
;WIPE_START
G1 F7200.000
G1 X57.154 Y76.646 E-0.05511
G1 X56.638 Y77.983 E-0.79379
G1 X56.601 Y78.090 E-0.06310
;WIPE_END
G1 E-0.04800 F4200.000
G1 Z0.400 F9000.000
G1 X55.932 Y80.174
G1 Z0.200
G1 E3.20000 F2400.000
M204 S800
G1 F1200.000
G1 X55.566 Y81.534 E0.04416
G1 X55.350 Y81.480 E0.00698
G1 X55.453 Y81.042 E0.01410
G1 X55.715 Y80.114 E0.03023
G1 X55.874 Y80.158 E0.00517
M204 S1250
G1 X55.797 Y80.551 F9000.000
G1 E-2.24000 F4200.000
;WIPE_START
G1 F7200.000
G1 X55.566 Y81.534 E-0.78140
G1 X55.350 Y81.480 E-0.12333
G1 X55.353 Y81.467 E-0.00727
;WIPE_END
G1 E-0.04800 F4200.000
G1 Z0.400 F9000.000
G1 X55.501 Y81.798
G1 Z0.200
G1 E3.20000 F2400.000
M204 S800
G1 F1200.000
G1 X55.215 Y83.114 E0.04223
G1 X55.024 Y84.163 E0.03345
G1 X54.873 Y85.161 E0.03162
G1 X54.651 Y85.130 E0.00701
G1 X54.881 Y83.642 E0.04719
G1 X55.072 Y82.668 E0.03114
G1 X55.287 Y81.749 E0.02958
G1 X55.442 Y81.784 E0.00499
M204 S1250
