; generated by PrusaSlicer 2.3.0+win64 on 2021-05-17 at 12:51:34 UTC


;
;

;
;
; 

; external perimeters extrusion width = 0.45mm
; perimeters extrusion width = 0.45mm
; infill extrusion width = 0.45mm
; solid infill extrusion width = 0.45mm
; top infill extrusion width = 0.40mm
; first layer extrusion width = 0.42mm

M73 P0 R5
M201 X1250 Y1250 Z400 E5000 ; sets maximum accelerations, mm/sec^2
M203 X180 Y180 Z12 E80 ; sets maximum feedrates, mm/sec
M204 P1250 R1250 T1250 ; sets acceleration (P, T) and retract acceleration (R), mm/sec^2
M205 X8.00 Y8.00 Z2.00 E10.00 ; sets the jerk limits, mm/sec
M205 S0 T0 ; sets the minimum extruding and travel feed rate, mm/sec
M107
;TYPE:Custom
G90 ; use absolute coordinates
M83 ; extruder relative mode
M104 S170 ; set extruder temp for bed leveling
M140 S60 ; set bed temp
M109 R170 ; wait for bed leveling temp
M190 S60 ; wait for bed temp
G28 ; home all without mesh bed level
G29 ; mesh bed leveling 
M104 S215 ; set extruder temp
G92 E0.0
G1 Y-2.0 X179 F2400
M73 P1 R5
G1 Z3 F720
M109 S215 ; wait for extruder temp

; intro line
G1 X170 F1000
G1 Z0.2 F720
G1 X110.0 E8.0 F900
M73 P3 R5
G1 X40.0 E10.0 F700
G92 E0.0

M221 S95 ; set flow
G21 ; set units to millimeters
G90 ; use absolute coordinates
M83 ; use relative distances for extrusion
M900 K0.2 ; Filament gcode LA 1.5
; ; Filament gcode LA 1.0
;LAYER_CHANGE
;Z:0.2
;HEIGHT:0.2
;BEFORE_LAYER_CHANGE
G92 E0.0
;0.2


M73 P5 R4
G1 E-3.20000 F4200.000
G1 Z0.200 F9000.000
;AFTER_LAYER_CHANGE
;0.2
G1 Z0.400
G1 X62.460 Y62.560
G1 Z0.200
G1 E3.20000 F2400.000
M204 S800
;TYPE:Skirt
;WIDTH:0.42
G1 F1200.000
G1 X63.716 Y61.355 E0.05456
G1 X65.427 Y59.873 E0.07097
G1 X68.222 Y57.795 E0.10919
G1 X70.133 Y56.583 E0.07097
G1 X71.651 Y55.725 E0.05466
G1 X73.203 Y54.939 E0.05456
G1 X75.272 Y54.021 E0.07097
M73 P6 R4
G1 X78.551 Y52.847 E0.10919
G1 X80.733 Y52.244 E0.07097
G1 X82.435 Y51.866 E0.05466
G1 X84.149 Y51.566 E0.05456
G1 X86.395 Y51.290 E0.07097
G1 X89.869 Y51.123 E0.10905
G1 X91.598 Y51.156 E0.05421
G1 X93.856 Y51.315 E0.07097
G1 X97.302 Y51.815 E0.10919
G1 X99.512 Y52.305 E0.07097
G1 X101.192 Y52.769 E0.05466
G1 X102.847 Y53.307 E0.05456
G1 X104.961 Y54.117 E0.07097
G1 X108.112 Y55.600 E0.10919
G1 X110.083 Y56.712 E0.07097
G1 X111.555 Y57.646 E0.05466
G1 X112.982 Y58.643 E0.05456
G1 X114.768 Y60.034 E0.07097
G1 X117.344 Y62.364 E0.10893
G1 X118.548 Y63.610 E0.05432
G1 X120.035 Y65.316 E0.07097
G1 X122.124 Y68.103 E0.10919
G1 X123.344 Y70.010 E0.07097
M73 P7 R4
G1 X124.206 Y71.524 E0.05466
G1 X124.999 Y73.074 E0.05456
G1 X125.928 Y75.146 E0.07121
G1 X127.110 Y78.414 E0.10895
G1 X127.722 Y80.593 E0.07097
G1 X128.107 Y82.301 E0.05490
G1 X128.412 Y84.007 E0.05432
G1 X128.697 Y86.260 E0.07121
G1 X128.877 Y89.999 E0.11737
G1 X128.697 Y93.739 E0.11741
G1 X128.492 Y95.460 E0.05432
G1 X128.107 Y97.698 E0.07121
G1 X127.268 Y101.070 E0.10895
G1 X126.560 Y103.220 E0.07097
G1 X125.928 Y104.853 E0.05489
G1 X125.230 Y106.439 E0.05432
G1 X124.214 Y108.461 E0.07097
G1 X122.425 Y111.449 E0.10919
G1 X121.121 Y113.300 E0.07097
G1 X120.046 Y114.671 E0.05466
G1 X118.912 Y115.991 E0.05456
G1 X117.344 Y117.635 E0.07121
G1 X114.768 Y119.966 E0.10895
G1 X112.982 Y121.357 E0.07097
M73 P8 R4
G1 X111.553 Y122.356 E0.05466
G1 X110.083 Y123.288 E0.05456
G1 X108.112 Y124.400 E0.07097
G1 X104.961 Y125.883 E0.10919
G1 X102.847 Y126.693 E0.07097
G1 X101.189 Y127.232 E0.05466
G1 X99.512 Y127.695 E0.05456
G1 X97.302 Y128.185 E0.07097
G1 X93.856 Y128.685 E0.10919
G1 X91.598 Y128.844 E0.07097
G1 X89.866 Y128.877 E0.05430
G1 X86.395 Y128.710 E0.10895
G1 X84.149 Y128.434 E0.07097
G1 X82.432 Y128.133 E0.05466
G1 X80.733 Y127.756 E0.05456
G1 X78.551 Y127.153 E0.07097
G1 X75.272 Y125.979 E0.10919
G1 X73.203 Y125.061 E0.07097
G1 X71.648 Y124.273 E0.05466
G1 X70.133 Y123.417 E0.05456
G1 X68.222 Y122.205 E0.07097
G1 X65.427 Y120.127 E0.10919
G1 X63.716 Y118.645 E0.07097
G1 X62.458 Y117.438 E0.05466
G1 X61.258 Y116.178 E0.05456
M73 P9 R4
G1 X59.783 Y114.461 E0.07097
G1 X57.715 Y111.659 E0.10919
G1 X56.509 Y109.743 E0.07097
G1 X55.658 Y108.222 E0.05466
G1 X54.877 Y106.667 E0.05456
G1 X53.966 Y104.595 E0.07097
G1 X52.805 Y101.312 E0.10919
G1 X52.210 Y99.128 E0.07097
G1 X51.839 Y97.428 E0.05454
G1 X51.329 Y93.999 E0.10871
G1 X51.162 Y91.741 E0.07097
G1 X51.123 Y89.999 E0.05466
G1 X51.162 Y88.259 E0.05456
G1 X51.329 Y86.001 E0.07097
G1 X51.842 Y82.557 E0.10919
G1 X52.340 Y80.349 E0.07097
G1 X52.810 Y78.670 E0.05466
G1 X53.355 Y77.017 E0.05456
G1 X54.172 Y74.907 E0.07097
G1 X55.667 Y71.761 E0.10919
G1 X56.787 Y69.794 E0.07097
G1 X57.724 Y68.328 E0.05454
G1 X59.783 Y65.539 E0.10871
G1 X61.258 Y63.822 E0.07097
M73 P10 R4
G1 X62.419 Y62.603 E0.05277
M204 S1250
; printing object PurflingRing_01.stl id:0 copy 0
G1 E-2.24000 F4200.000
;WIPE_START
G1 F7200.000
G1 X63.604 Y61.462 E-0.91200
;WIPE_END
G1 E-0.04800 F4200.000
G1 Z0.400 F9000.000
G1 X62.419 Y62.603
G1 X62.419 Y62.603
G1 X64.926 Y64.999
G1 Z0.200
G1 E3.20000 F2400.000
M204 S800
;TYPE:External perimeter
G1 F1200.000
G1 X66.121 Y63.853 E0.05193
G1 X67.329 Y62.799 E0.05028
G1 X68.162 Y62.126 E0.03356
G1 X69.014 Y61.478 E0.03356
G1 X70.327 Y60.558 E0.05028
G1 X71.681 Y59.697 E0.05030
G1 X73.072 Y58.898 E0.05030
G1 X74.498 Y58.164 E0.05028
G1 X75.467 Y57.710 E0.03356
G1 X76.450 Y57.285 E0.03356
G1 X77.944 Y56.705 E0.05025
G1 X78.956 Y56.356 E0.03356
G1 X79.963 Y56.042 E0.03307
G1 X81.526 Y55.619 E0.05077
G1 X83.092 Y55.270 E0.05030
G1 X84.672 Y54.993 E0.05030
G1 X86.263 Y54.788 E0.05030
G1 X87.861 Y54.655 E0.05028
G1 X88.930 Y54.606 E0.03356
G1 X89.985 Y54.590 E0.03307
G1 X91.604 Y54.626 E0.05077
G1 X93.205 Y54.735 E0.05030
G1 X94.798 Y54.917 E0.05028
G1 X95.856 Y55.078 E0.03356
G1 X96.909 Y55.271 E0.03356
G1 X98.474 Y55.619 E0.05028
G1 X100.022 Y56.038 E0.05028
G1 X101.044 Y56.356 E0.03355
G1 X101.803 Y56.616 E0.02516
G1 X102.557 Y56.891 E0.02516
G1 X103.552 Y57.286 E0.03355
G1 X105.018 Y57.932 E0.05025
G1 X105.980 Y58.401 E0.03356
M73 P11 R4
G1 X106.914 Y58.891 E0.03307
G1 X108.319 Y59.697 E0.05077
G1 X109.673 Y60.558 E0.05030
G1 X110.986 Y61.478 E0.05028
G1 X111.838 Y62.126 E0.03356
G1 X112.658 Y62.789 E0.03307
G1 X113.879 Y63.853 E0.05077
G1 X115.039 Y64.961 E0.05030
G1 X116.147 Y66.121 E0.05030
G1 X117.201 Y67.329 E0.05028
G1 X117.874 Y68.162 E0.03356
G1 X118.522 Y69.014 E0.03356
G1 X119.442 Y70.327 E0.05028
G1 X120.303 Y71.681 E0.05030
G1 X121.102 Y73.072 E0.05030
G1 X121.836 Y74.498 E0.05028
G1 X122.290 Y75.467 E0.03356
G1 X122.715 Y76.450 E0.03356
G1 X123.295 Y77.944 E0.05025
G1 X123.644 Y78.956 E0.03356
G1 X123.958 Y79.963 E0.03307
G1 X124.381 Y81.526 E0.05077
G1 X124.730 Y83.092 E0.05030
G1 X125.007 Y84.671 E0.05028
G1 X125.152 Y85.732 E0.03356
G1 X125.263 Y86.780 E0.03307
G1 X125.374 Y88.396 E0.05077
G1 X125.410 Y90.000 E0.05030
G1 X125.374 Y91.604 E0.05030
G1 X125.265 Y93.205 E0.05030
G1 X125.083 Y94.798 E0.05028
G1 X124.922 Y95.856 E0.03356
G1 X124.729 Y96.909 E0.03356
G1 X124.381 Y98.474 E0.05028
G1 X123.962 Y100.022 E0.05028
G1 X123.644 Y101.044 E0.03355
G1 X123.384 Y101.803 E0.02516
G1 X123.109 Y102.557 E0.02516
G1 X122.714 Y103.552 E0.03355
G1 X122.068 Y105.018 E0.05025
G1 X121.599 Y105.980 E0.03356
G1 X121.109 Y106.914 E0.03307
G1 X120.303 Y108.319 E0.05077
M73 P12 R4
G1 X119.442 Y109.673 E0.05030
G1 X118.522 Y110.986 E0.05028
G1 X117.874 Y111.838 E0.03356
G1 X117.211 Y112.658 E0.03307
G1 X116.147 Y113.879 E0.05077
G1 X115.039 Y115.039 E0.05030
G1 X113.879 Y116.147 E0.05030
G1 X112.671 Y117.201 E0.05028
G1 X111.838 Y117.874 E0.03356
G1 X110.986 Y118.522 E0.03356
G1 X109.673 Y119.442 E0.05028
G1 X108.319 Y120.303 E0.05030
G1 X106.928 Y121.102 E0.05030
G1 X105.502 Y121.836 E0.05028
G1 X104.533 Y122.290 E0.03356
G1 X103.550 Y122.715 E0.03356
G1 X102.056 Y123.295 E0.05025
G1 X101.044 Y123.644 E0.03356
G1 X100.037 Y123.958 E0.03307
G1 X98.474 Y124.381 E0.05077
G1 X96.908 Y124.730 E0.05030
G1 X95.329 Y125.007 E0.05028
G1 X94.268 Y125.152 E0.03356
G1 X93.220 Y125.263 E0.03307
G1 X91.604 Y125.374 E0.05077
G1 X90.000 Y125.410 E0.05030
G1 X88.396 Y125.374 E0.05030
G1 X86.795 Y125.265 E0.05030
G1 X85.202 Y125.083 E0.05028
G1 X84.144 Y124.922 E0.03356
G1 X83.091 Y124.729 E0.03356
G1 X81.526 Y124.381 E0.05028
G1 X79.978 Y123.962 E0.05028
G1 X78.956 Y123.644 E0.03355
G1 X78.197 Y123.384 E0.02516
G1 X77.443 Y123.109 E0.02516
G1 X76.448 Y122.714 E0.03355
G1 X74.982 Y122.068 E0.05025
G1 X74.020 Y121.599 E0.03356
G1 X73.086 Y121.109 E0.03307
G1 X71.681 Y120.303 E0.05077
M73 P13 R4
G1 X70.327 Y119.442 E0.05030
G1 X69.014 Y118.522 E0.05028
G1 X68.162 Y117.874 E0.03356
G1 X67.342 Y117.211 E0.03307
G1 X66.121 Y116.147 E0.05077
G1 X64.961 Y115.039 E0.05030
G1 X63.853 Y113.879 E0.05030
G1 X62.799 Y112.671 E0.05028
G1 X62.126 Y111.838 E0.03356
G1 X61.478 Y110.986 E0.03356
G1 X60.558 Y109.673 E0.05028
G1 X59.697 Y108.319 E0.05030
G1 X58.898 Y106.928 E0.05030
G1 X58.164 Y105.502 E0.05028
G1 X57.710 Y104.533 E0.03356
G1 X57.285 Y103.550 E0.03356
G1 X56.705 Y102.056 E0.05025
G1 X56.356 Y101.044 E0.03356
G1 X56.042 Y100.037 E0.03307
G1 X55.619 Y98.474 E0.05077
G1 X55.270 Y96.908 E0.05030
G1 X54.993 Y95.329 E0.05028
G1 X54.848 Y94.268 E0.03356
G1 X54.737 Y93.220 E0.03307
G1 X54.626 Y91.604 E0.05077
G1 X54.590 Y90.000 E0.05030
G1 X54.626 Y88.396 E0.05030
G1 X54.735 Y86.795 E0.05030
G1 X54.917 Y85.202 E0.05028
G1 X55.078 Y84.144 E0.03356
G1 X55.271 Y83.091 E0.03356
G1 X55.619 Y81.526 E0.05028
G1 X56.038 Y79.978 E0.05028
G1 X56.356 Y78.956 E0.03355
G1 X56.616 Y78.197 E0.02516
G1 X56.891 Y77.443 E0.02516
G1 X57.286 Y76.448 E0.03355
G1 X57.932 Y74.982 E0.05025
G1 X58.401 Y74.020 E0.03356
G1 X58.891 Y73.086 E0.03307
G1 X59.697 Y71.681 E0.05077
G1 X60.558 Y70.327 E0.05030
M73 P14 R4
G1 X61.478 Y69.014 E0.05028
G1 X62.126 Y68.162 E0.03356
G1 X62.789 Y67.342 E0.03307
G1 X63.853 Y66.121 E0.05077
G1 X64.884 Y65.042 E0.04680
M204 S1250
G1 X64.822 Y64.613 F9000.000
G1 X64.391 Y64.572
M204 S800
G1 F1200.000
G1 X65.588 Y63.419 E0.05211
G1 X66.790 Y62.363 E0.05018
G1 X68.039 Y61.361 E0.05021
G1 X68.895 Y60.724 E0.03343
G1 X69.769 Y60.114 E0.03343
G1 X71.115 Y59.245 E0.05023
G1 X72.032 Y58.701 E0.03343
G1 X72.965 Y58.183 E0.03346
G1 X73.913 Y57.694 E0.03346
G1 X74.779 Y57.278 E0.03010
G1 X76.343 Y56.594 E0.05354
G1 X77.838 Y56.021 E0.05018
G1 X79.357 Y55.515 E0.05021
G1 X80.380 Y55.216 E0.03343
G1 X81.412 Y54.947 E0.03343
G1 X82.976 Y54.600 E0.05021
G1 X84.553 Y54.323 E0.05021
G1 X85.609 Y54.178 E0.03343
G1 X86.669 Y54.064 E0.03343
G1 X88.267 Y53.952 E0.05023
G1 X89.333 Y53.916 E0.03344
G1 X90.293 Y53.912 E0.03010
G1 X92.000 Y53.966 E0.05354
G1 X93.596 Y54.090 E0.05020
G1 X94.656 Y54.212 E0.03343
G1 X95.711 Y54.365 E0.03343
G1 X97.286 Y54.653 E0.05021
G1 X98.847 Y55.011 E0.05021
G1 X99.876 Y55.288 E0.03343
G1 X100.898 Y55.595 E0.03343
G1 X102.413 Y56.112 E0.05021
G1 X103.904 Y56.696 E0.05021
G1 X104.882 Y57.121 E0.03343
G1 X105.847 Y57.575 E0.03343
G1 X107.270 Y58.310 E0.05023
G1 X108.199 Y58.834 E0.03343
G1 X109.112 Y59.386 E0.03343
M73 P15 R4
G1 X110.451 Y60.264 E0.05021
G1 X111.749 Y61.200 E0.05018
G1 X113.005 Y62.192 E0.05018
G1 X114.215 Y63.240 E0.05021
G1 X114.995 Y63.967 E0.03343
G1 X115.754 Y64.717 E0.03343
G1 X116.850 Y65.884 E0.05021
G1 X117.893 Y67.099 E0.05021
G1 X118.558 Y67.933 E0.03343
G1 X119.197 Y68.786 E0.03343
G1 X120.109 Y70.102 E0.05021
G1 X120.962 Y71.457 E0.05018
G1 X121.754 Y72.848 E0.05018
G1 X122.483 Y74.273 E0.05021
G1 X122.934 Y75.240 E0.03343
G1 X123.355 Y76.219 E0.03343
G1 X123.934 Y77.712 E0.05021
G1 X124.445 Y79.230 E0.05021
G1 X124.749 Y80.252 E0.03343
G1 X125.021 Y81.283 E0.03343
G1 X125.374 Y82.845 E0.05021
G1 X125.656 Y84.421 E0.05021
G1 X125.805 Y85.477 E0.03343
G1 X125.923 Y86.536 E0.03343
G1 X126.042 Y88.134 E0.05023
G1 X126.081 Y89.200 E0.03343
G1 X126.089 Y90.266 E0.03342
G1 X126.042 Y91.867 E0.05024
G1 X125.971 Y92.931 E0.03343
G1 X125.868 Y93.993 E0.03343
G1 X125.656 Y95.580 E0.05021
G1 X125.374 Y97.155 E0.05018
G1 X125.021 Y98.717 E0.05021
G1 X124.749 Y99.748 E0.03343
G1 X124.445 Y100.771 E0.03346
G1 X124.112 Y101.785 E0.03346
G1 X123.749 Y102.787 E0.03343
G1 X123.148 Y104.272 E0.05021
G1 X122.483 Y105.727 E0.05018
G1 X121.753 Y107.153 E0.05021
G1 X121.233 Y108.083 E0.03343
G1 X120.685 Y108.998 E0.03343
M73 P16 R4
G1 X119.812 Y110.341 E0.05021
G1 X118.881 Y111.642 E0.05018
G1 X117.893 Y112.902 E0.05018
G1 X116.849 Y114.116 E0.05021
G1 X116.125 Y114.899 E0.03343
G1 X115.378 Y115.661 E0.03346
G1 X114.608 Y116.400 E0.03346
G1 X113.817 Y117.115 E0.03343
G1 X112.591 Y118.145 E0.05021
G1 X111.321 Y119.119 E0.05018
G1 X110.008 Y120.036 E0.05021
G1 X109.112 Y120.614 E0.03344
G1 X108.291 Y121.111 E0.03010
G1 X106.799 Y121.942 E0.05354
G1 X105.366 Y122.655 E0.05018
G1 X103.903 Y123.304 E0.05018
G1 X102.413 Y123.888 E0.05018
G1 X100.898 Y124.405 E0.05021
G1 X99.876 Y124.712 E0.03343
G1 X98.847 Y124.989 E0.03343
G1 X97.286 Y125.347 E0.05021
G1 X95.711 Y125.635 E0.05021
G1 X94.656 Y125.788 E0.03343
G1 X93.596 Y125.910 E0.03343
G1 X91.999 Y126.035 E0.05023
G1 X90.934 Y126.078 E0.03343
G1 X89.867 Y126.090 E0.03343
G1 X88.267 Y126.048 E0.05021
G1 X86.669 Y125.936 E0.05021
G1 X85.609 Y125.822 E0.03343
G1 X84.553 Y125.677 E0.03343
G1 X82.976 Y125.400 E0.05021
G1 X81.412 Y125.053 E0.05021
G1 X80.380 Y124.784 E0.03343
G1 X79.357 Y124.485 E0.03343
G1 X77.838 Y123.979 E0.05021
G1 X76.343 Y123.406 E0.05018
G1 X74.875 Y122.768 E0.05021
G1 X73.913 Y122.306 E0.03343
G1 X72.966 Y121.817 E0.03343
G1 X71.571 Y121.030 E0.05023
G1 X70.662 Y120.472 E0.03344
M73 P17 R4
G1 X69.859 Y119.946 E0.03010
G1 X68.464 Y118.960 E0.05354
G1 X67.202 Y117.977 E0.05018
G1 X65.983 Y116.938 E0.05021
G1 X65.198 Y116.217 E0.03343
G1 X64.434 Y115.473 E0.03343
G1 X63.329 Y114.313 E0.05023
G1 X62.622 Y113.514 E0.03344
G1 X62.007 Y112.778 E0.03010
G1 X60.960 Y111.428 E0.05354
G1 X60.039 Y110.120 E0.05018
G1 X59.176 Y108.772 E0.05018
G1 X58.374 Y107.386 E0.05018
G1 X57.634 Y105.966 E0.05021
G1 X57.176 Y105.003 E0.03343
G1 X56.748 Y104.027 E0.03343
G1 X56.158 Y102.538 E0.05023
G1 X55.802 Y101.532 E0.03343
G1 X55.476 Y100.517 E0.03343
G1 X55.044 Y98.974 E0.05023
G1 X54.794 Y97.938 E0.03343
G1 X54.575 Y96.894 E0.03346
G1 X54.386 Y95.843 E0.03346
G1 X54.229 Y94.789 E0.03343
G1 X54.052 Y93.197 E0.05021
G1 X53.946 Y91.600 E0.05018
G1 X53.910 Y90.000 E0.05018
G1 X53.946 Y88.400 E0.05018
G1 X54.052 Y86.803 E0.05018
G1 X54.229 Y85.211 E0.05021
G1 X54.386 Y84.157 E0.03343
G1 X54.575 Y83.106 E0.03346
G1 X54.794 Y82.062 E0.03346
G1 X55.044 Y81.026 E0.03343
G1 X55.476 Y79.483 E0.05023
G1 X55.802 Y78.468 E0.03343
G1 X56.158 Y77.462 E0.03343
G1 X56.748 Y75.973 E0.05023
G1 X57.176 Y74.997 E0.03344
G1 X57.588 Y74.129 E0.03010
G1 X58.374 Y72.613 E0.05354
G1 X59.176 Y71.228 E0.05018
G1 X60.039 Y69.880 E0.05018
M73 P18 R4
G1 X60.960 Y68.572 E0.05018
G1 X61.939 Y67.305 E0.05021
G1 X62.622 Y66.485 E0.03343
G1 X63.329 Y65.687 E0.03343
G1 X64.350 Y64.616 E0.04640
M204 S1250
G1 X64.777 Y64.676 F9000.000
G1 X64.596 Y64.851
M204 S800
;TYPE:Gap fill
;WIDTH:0.33577
G1 F1200.000
G1 X65.895 Y63.600 E0.04391
G1 X67.110 Y62.541 E0.03924
G1 X68.248 Y61.631 E0.03550
G1 X69.096 Y61.003 E0.02569
G1 X70.142 Y60.275 E0.03105
G1 X71.503 Y59.409 E0.03927
G1 X72.914 Y58.599 E0.03961
G1 X74.346 Y57.861 E0.03924
G1 X75.327 Y57.404 E0.02636
G1 X76.473 Y56.910 E0.03038
G1 X77.953 Y56.342 E0.03859
G1 X79.459 Y55.841 E0.03865
G1 X80.472 Y55.548 E0.02569
G1 X81.492 Y55.278 E0.02569
G1 X83.042 Y54.934 E0.03866
G1 X84.618 Y54.658 E0.03896
G1 X86.224 Y54.452 E0.03944
G1 X87.837 Y54.319 E0.03940
G1 X88.918 Y54.268 E0.02636
G1 X89.989 Y54.252 E0.02608
G1 X91.622 Y54.290 E0.03979
G1 X93.238 Y54.400 E0.03944
G1 X94.611 Y54.551 E0.03364
G1 X95.910 Y54.744 E0.03196
G1 X97.217 Y54.988 E0.03238
G1 X98.558 Y55.292 E0.03349
G1 X99.783 Y55.618 E0.03085
G1 X100.793 Y55.920 E0.02569
G1 X102.296 Y56.433 E0.03865
G1 X103.685 Y56.974 E0.03631
G1 X104.740 Y57.434 E0.02803
G1 X105.695 Y57.882 E0.02569
G1 X107.108 Y58.610 E0.03870
G1 X108.497 Y59.409 E0.03901
M73 P19 R4
G1 X109.857 Y60.276 E0.03928
G1 X111.182 Y61.205 E0.03940
G1 X112.043 Y61.860 E0.02636
G1 X112.874 Y62.527 E0.02594
G1 X113.987 Y63.494 E0.03591
