; generated by PrusaSlicer 2.3.0+win64 on 2021-06-25 at 20:48:29 UTC


;
;

;
;
; 

; external perimeters extrusion width = 0.45mm
; perimeters extrusion width = 0.45mm
; infill extrusion width = 0.45mm
; solid infill extrusion width = 0.45mm
; top infill extrusion width = 0.40mm
; first layer extrusion width = 0.42mm

M73 P0 R15
M201 X1250 Y1250 Z400 E5000 ; sets maximum accelerations, mm/sec^2
M203 X180 Y180 Z12 E80 ; sets maximum feedrates, mm/sec
M204 P1250 R1250 T1250 ; sets acceleration (P, T) and retract acceleration (R), mm/sec^2
M205 X8.00 Y8.00 Z2.00 E10.00 ; sets the jerk limits, mm/sec
M205 S0 T0 ; sets the minimum extruding and travel feed rate, mm/sec
M107
;TYPE:Custom
G90 ; use absolute coordinates
M83 ; extruder relative mode
M104 S170 ; set extruder temp for bed leveling
M140 S60 ; set bed temp
M109 R170 ; wait for bed leveling temp
M190 S60 ; wait for bed temp
G28 ; home all without mesh bed level
G29 ; mesh bed leveling 
M104 S215 ; set extruder temp
G92 E0.0
G1 Y-2.0 X179 F2400
G1 Z3 F720
M109 S215 ; wait for extruder temp

; intro line
G1 X170 F1000
G1 Z0.2 F720
G1 X110.0 E8.0 F900
M73 P1 R15
G1 X40.0 E10.0 F700
G92 E0.0

M221 S95 ; set flow
G21 ; set units to millimeters
G90 ; use absolute coordinates
M83 ; use relative distances for extrusion
M900 K0.2 ; Filament gcode LA 1.5
; ; Filament gcode LA 1.0
;LAYER_CHANGE
;Z:0.2
;HEIGHT:0.2
;BEFORE_LAYER_CHANGE
G92 E0.0
;0.2


G1 E-3.20000 F4200.000
G1 Z0.200 F9000.000
;AFTER_LAYER_CHANGE
;0.2
G1 Z0.400
G1 X61.749 Y61.153
G1 Z0.200
G1 E3.20000 F2400.000
M204 S800
;TYPE:Skirt
;WIDTH:0.42
G1 F1200.000
G1 X64.384 Y58.789 E0.11101
G1 X66.206 Y57.379 E0.07222
G1 X67.673 Y56.357 E0.05606
G1 X69.628 Y55.139 E0.07223
G1 X71.178 Y54.278 E0.05558
G1 X72.760 Y53.488 E0.05546
G1 X74.885 Y52.559 E0.07270
G1 X76.543 Y51.932 E0.05558
G1 X78.735 Y51.226 E0.07222
G1 X82.176 Y50.388 E0.11101
G1 X84.447 Y50.007 E0.07223
G1 X86.208 Y49.801 E0.05558
G1 X87.972 Y49.674 E0.05546
G1 X90.279 Y49.624 E0.07234
G1 X92.062 Y49.676 E0.05594
G1 X94.358 Y49.859 E0.07222
G1 X97.858 Y50.395 E0.11101
M73 P2 R15
G1 X100.104 Y50.908 E0.07222
G1 X101.810 Y51.389 E0.05558
G1 X104.007 Y52.130 E0.07271
G1 X105.656 Y52.782 E0.05558
G1 X107.271 Y53.503 E0.05546
G1 X109.337 Y54.555 E0.07270
G1 X110.874 Y55.438 E0.05558
G1 X112.811 Y56.684 E0.07222
G1 X115.642 Y58.811 E0.11101
G1 X117.379 Y60.324 E0.07222
G1 X118.655 Y61.554 E0.05558
G1 X119.874 Y62.836 E0.05546
G1 X121.384 Y64.596 E0.07270
G1 X122.469 Y65.998 E0.05558
G1 X123.784 Y67.889 E0.07222
G1 X125.592 Y70.933 E0.11101
G1 X126.621 Y72.994 E0.07223
G1 X127.332 Y74.618 E0.05558
G1 X127.970 Y76.267 E0.05546
G1 X128.696 Y78.470 E0.07270
G1 X129.164 Y80.179 E0.05558
G1 X129.661 Y82.429 E0.07222
G1 X130.209 Y86.329 E0.12350
G1 X130.377 Y90.017 E0.11575
G1 X130.310 Y92.320 E0.07222
G1 X130.170 Y94.087 E0.05558
G1 X129.952 Y95.842 E0.05546
G1 X129.552 Y98.122 E0.07258
G1 X129.156 Y99.854 E0.05570
G1 X128.527 Y102.082 E0.07258
G1 X127.202 Y105.692 E0.12056
G1 X125.579 Y109.090 E0.11809
G1 X124.428 Y111.095 E0.07247
G1 X123.465 Y112.592 E0.05582
G1 X122.118 Y114.470 E0.07247
G1 X121.013 Y115.856 E0.05558
G1 X119.851 Y117.189 E0.05546
G1 X118.251 Y118.847 E0.07222
G1 X115.616 Y121.211 E0.11101
G1 X113.794 Y122.621 E0.07222
G1 X112.327 Y123.643 E0.05606
G1 X110.372 Y124.861 E0.07223
G1 X108.822 Y125.722 E0.05558
G1 X107.240 Y126.512 E0.05546
G1 X105.115 Y127.441 E0.07270
G1 X103.457 Y128.068 E0.05558
G1 X101.264 Y128.774 E0.07222
G1 X97.824 Y129.612 E0.11101
G1 X95.553 Y129.993 E0.07223
G1 X93.792 Y130.199 E0.05558
G1 X92.028 Y130.326 E0.05546
G1 X89.710 Y130.376 E0.07270
G1 X87.938 Y130.324 E0.05558
G1 X85.642 Y130.141 E0.07222
G1 X82.142 Y129.605 E0.11101
G1 X79.896 Y129.092 E0.07222
G1 X78.190 Y128.611 E0.05558
G1 X75.993 Y127.870 E0.07271
G1 X74.344 Y127.218 E0.05558
G1 X72.729 Y126.497 E0.05546
G1 X70.663 Y125.445 E0.07270
G1 X69.126 Y124.562 E0.05558
G1 X67.189 Y123.316 E0.07222
G1 X64.358 Y121.189 E0.11101
G1 X62.621 Y119.676 E0.07222
G1 X61.345 Y118.446 E0.05558
G1 X60.126 Y117.164 E0.05546
G1 X58.616 Y115.404 E0.07270
G1 X57.531 Y114.002 E0.05558
G1 X56.216 Y112.111 E0.07222
G1 X54.408 Y109.067 E0.11101
G1 X53.379 Y107.006 E0.07222
G1 X52.668 Y105.382 E0.05558
G1 X52.030 Y103.733 E0.05546
G1 X51.304 Y101.530 E0.07270
G1 X50.836 Y99.821 E0.05558
G1 X50.339 Y97.571 E0.07222
G1 X49.791 Y93.671 E0.12350
M73 P3 R15
G1 X49.623 Y89.983 E0.11575
G1 X49.690 Y87.680 E0.07222
G1 X49.830 Y85.913 E0.05558
G1 X50.048 Y84.158 E0.05546
G1 X50.448 Y81.878 E0.07258
G1 X50.844 Y80.146 E0.05570
G1 X51.473 Y77.918 E0.07258
G1 X52.798 Y74.308 E0.12056
G1 X54.421 Y70.910 E0.11809
G1 X55.572 Y68.905 E0.07247
G1 X56.535 Y67.408 E0.05582
G1 X57.882 Y65.530 E0.07247
G1 X58.987 Y64.144 E0.05558
G1 X60.149 Y62.811 E0.05546
G1 X61.707 Y61.196 E0.07034
M204 S1250
; printing object PurflingRing_06.stl id:0 copy 0
G1 E-2.24000 F4200.000
;WIPE_START
G1 F7200.000
G1 X62.931 Y60.096 E-0.91200
;WIPE_END
G1 E-0.04800 F4200.000
G1 Z0.400 F9000.000
G1 X64.881 Y64.517
G1 Z0.200
G1 E3.20000 F2400.000
M204 S800
;TYPE:Perimeter
G1 F1200.000
G1 X65.867 Y63.574 E0.04277
G1 X67.087 Y62.510 E0.05077
G1 X67.929 Y61.829 E0.03396
G1 X68.792 Y61.174 E0.03396
G1 X70.118 Y60.244 E0.05077
G1 X71.486 Y59.374 E0.05084
G1 X72.892 Y58.567 E0.05084
G1 X74.332 Y57.825 E0.05077
G1 X75.312 Y57.366 E0.03396
G1 X76.307 Y56.936 E0.03396
G1 X77.814 Y56.351 E0.05070
G1 X78.838 Y55.998 E0.03396
G1 X79.862 Y55.679 E0.03361
G1 X81.435 Y55.253 E0.05112
G1 X83.018 Y54.900 E0.05084
G1 X84.615 Y54.620 E0.05084
G1 X86.223 Y54.413 E0.05084
G1 X87.837 Y54.278 E0.05077
G1 X88.919 Y54.229 E0.03396
G1 X89.991 Y54.213 E0.03361
G1 X91.621 Y54.249 E0.05112
G1 X93.239 Y54.360 E0.05084
G1 X94.848 Y54.543 E0.05077
G1 X95.918 Y54.706 E0.03396
G1 X96.984 Y54.901 E0.03396
G1 X98.564 Y55.253 E0.05077
G1 X100.127 Y55.676 E0.05077
G1 X101.161 Y55.998 E0.03394
G1 X101.929 Y56.261 E0.02544
G1 X102.691 Y56.539 E0.02544
G1 X103.695 Y56.937 E0.03387
G1 X104.688 Y57.366 E0.03389
G1 X105.668 Y57.825 E0.03396
G1 X107.108 Y58.567 E0.05077
G1 X108.514 Y59.374 E0.05084
G1 X109.882 Y60.244 E0.05084
G1 X111.208 Y61.174 E0.05077
G1 X112.071 Y61.829 E0.03396
G1 X112.913 Y62.510 E0.03396
G1 X114.133 Y63.574 E0.05077
G1 X115.305 Y64.695 E0.05084
G1 X116.426 Y65.867 E0.05084
G1 X117.490 Y67.087 E0.05077
G1 X118.171 Y67.929 E0.03396
G1 X118.826 Y68.792 E0.03396
G1 X119.756 Y70.118 E0.05077
G1 X120.626 Y71.486 E0.05084
G1 X121.433 Y72.892 E0.05084
G1 X122.175 Y74.332 E0.05077
G1 X122.634 Y75.312 E0.03396
G1 X123.064 Y76.307 E0.03396
G1 X123.649 Y77.814 E0.05070
G1 X124.002 Y78.838 E0.03396
G1 X124.321 Y79.862 E0.03361
G1 X124.747 Y81.435 E0.05112
G1 X125.100 Y83.018 E0.05084
G1 X125.379 Y84.613 E0.05077
G1 X125.526 Y85.686 E0.03396
G1 X125.639 Y86.752 E0.03361
G1 X125.751 Y88.379 E0.05112
G1 X125.787 Y90.000 E0.05084
G1 X125.751 Y91.621 E0.05084
G1 X125.640 Y93.239 E0.05084
G1 X125.457 Y94.848 E0.05077
G1 X125.294 Y95.918 E0.03396
G1 X125.099 Y96.984 E0.03396
G1 X124.747 Y98.564 E0.05077
G1 X124.324 Y100.127 E0.05077
G1 X124.002 Y101.161 E0.03394
G1 X123.739 Y101.929 E0.02544
G1 X123.461 Y102.691 E0.02544
G1 X123.063 Y103.695 E0.03387
G1 X122.634 Y104.688 E0.03389
G1 X122.175 Y105.668 E0.03396
G1 X121.433 Y107.108 E0.05077
G1 X120.626 Y108.514 E0.05084
G1 X119.756 Y109.882 E0.05084
G1 X118.826 Y111.208 E0.05077
G1 X118.171 Y112.071 E0.03396
G1 X117.490 Y112.913 E0.03396
G1 X116.426 Y114.133 E0.05077
G1 X115.305 Y115.305 E0.05084
G1 X114.133 Y116.426 E0.05084
G1 X112.913 Y117.490 E0.05077
G1 X112.071 Y118.171 E0.03396
G1 X111.208 Y118.826 E0.03396
G1 X109.882 Y119.756 E0.05077
G1 X108.514 Y120.626 E0.05084
G1 X107.108 Y121.433 E0.05084
G1 X105.668 Y122.175 E0.05077
G1 X104.688 Y122.634 E0.03396
G1 X103.693 Y123.064 E0.03396
G1 X102.186 Y123.649 E0.05070
G1 X101.162 Y124.002 E0.03396
G1 X100.138 Y124.321 E0.03361
G1 X98.565 Y124.747 E0.05112
G1 X96.982 Y125.100 E0.05084
G1 X95.387 Y125.379 E0.05077
G1 X94.314 Y125.526 E0.03396
G1 X93.248 Y125.639 E0.03361
M73 P4 R15
G1 X91.621 Y125.751 E0.05112
G1 X90.000 Y125.787 E0.05084
G1 X88.379 Y125.751 E0.05084
G1 X86.761 Y125.640 E0.05084
G1 X85.152 Y125.457 E0.05077
G1 X84.082 Y125.294 E0.03396
G1 X83.016 Y125.099 E0.03396
G1 X81.436 Y124.747 E0.05077
G1 X79.873 Y124.324 E0.05077
G1 X78.839 Y124.002 E0.03394
G1 X78.071 Y123.739 E0.02544
G1 X77.309 Y123.461 E0.02544
G1 X76.305 Y123.063 E0.03387
G1 X75.312 Y122.634 E0.03389
G1 X74.332 Y122.175 E0.03396
G1 X72.892 Y121.433 E0.05077
M73 P4 R14
G1 X71.486 Y120.626 E0.05084
G1 X70.118 Y119.756 E0.05084
G1 X68.792 Y118.826 E0.05077
G1 X67.929 Y118.171 E0.03396
G1 X67.087 Y117.490 E0.03396
G1 X65.867 Y116.426 E0.05077
G1 X64.695 Y115.305 E0.05084
G1 X63.574 Y114.133 E0.05084
G1 X62.510 Y112.913 E0.05077
G1 X61.829 Y112.071 E0.03396
G1 X61.174 Y111.208 E0.03396
G1 X60.244 Y109.882 E0.05077
G1 X59.374 Y108.514 E0.05084
G1 X58.567 Y107.108 E0.05084
G1 X57.825 Y105.668 E0.05077
G1 X57.366 Y104.688 E0.03396
G1 X56.936 Y103.693 E0.03396
G1 X56.351 Y102.186 E0.05070
G1 X55.998 Y101.162 E0.03396
G1 X55.679 Y100.138 E0.03361
G1 X55.253 Y98.565 E0.05112
G1 X54.900 Y96.982 E0.05084
G1 X54.621 Y95.387 E0.05077
G1 X54.474 Y94.314 E0.03396
G1 X54.361 Y93.248 E0.03361
G1 X54.249 Y91.621 E0.05112
G1 X54.213 Y90.000 E0.05084
G1 X54.249 Y88.379 E0.05084
G1 X54.360 Y86.761 E0.05084
G1 X54.543 Y85.152 E0.05077
G1 X54.706 Y84.082 E0.03396
G1 X54.901 Y83.016 E0.03396
G1 X55.253 Y81.436 E0.05077
G1 X55.676 Y79.873 E0.05077
G1 X55.998 Y78.839 E0.03394
G1 X56.261 Y78.071 E0.02544
G1 X56.539 Y77.309 E0.02544
G1 X56.937 Y76.305 E0.03387
G1 X57.366 Y75.312 E0.03389
G1 X57.825 Y74.332 E0.03396
G1 X58.567 Y72.892 E0.05077
G1 X59.374 Y71.486 E0.05084
G1 X60.244 Y70.118 E0.05084
G1 X61.174 Y68.792 E0.05077
G1 X61.829 Y67.929 E0.03396
G1 X62.510 Y67.087 E0.03396
G1 X63.574 Y65.867 E0.05077
G1 X64.837 Y64.558 E0.05702
M204 S1250
G1 X65.098 Y64.831 F9000.000
M204 S800
;TYPE:External perimeter
G1 F1200.000
G1 X66.121 Y63.853 E0.04439
G1 X67.329 Y62.799 E0.05028
G1 X68.162 Y62.126 E0.03356
G1 X69.014 Y61.478 E0.03356
G1 X70.327 Y60.558 E0.05028
G1 X71.681 Y59.697 E0.05030
G1 X73.072 Y58.898 E0.05030
G1 X74.498 Y58.164 E0.05028
G1 X75.467 Y57.710 E0.03356
G1 X76.450 Y57.285 E0.03356
G1 X77.944 Y56.705 E0.05025
G1 X78.956 Y56.356 E0.03356
G1 X79.967 Y56.041 E0.03321
G1 X81.526 Y55.619 E0.05063
G1 X83.092 Y55.270 E0.05030
G1 X84.672 Y54.993 E0.05030
G1 X86.263 Y54.788 E0.05030
G1 X87.861 Y54.655 E0.05028
G1 X88.931 Y54.606 E0.03356
G1 X89.990 Y54.590 E0.03321
G1 X91.604 Y54.626 E0.05063
G1 X93.205 Y54.735 E0.05030
G1 X94.798 Y54.917 E0.05028
G1 X95.856 Y55.078 E0.03356
G1 X96.909 Y55.271 E0.03356
G1 X98.474 Y55.619 E0.05028
G1 X100.022 Y56.038 E0.05028
G1 X101.044 Y56.356 E0.03355
G1 X101.803 Y56.616 E0.02516
G1 X102.557 Y56.891 E0.02516
G1 X103.551 Y57.285 E0.03353
G1 X104.533 Y57.710 E0.03354
G1 X105.502 Y58.164 E0.03356
G1 X106.928 Y58.898 E0.05028
G1 X108.319 Y59.697 E0.05030
G1 X109.673 Y60.558 E0.05030
G1 X110.986 Y61.478 E0.05028
G1 X111.838 Y62.126 E0.03356
G1 X112.671 Y62.799 E0.03356
G1 X113.879 Y63.853 E0.05028
G1 X115.039 Y64.961 E0.05030
G1 X116.147 Y66.121 E0.05030
G1 X117.201 Y67.329 E0.05028
G1 X117.874 Y68.162 E0.03356
G1 X118.522 Y69.014 E0.03356
G1 X119.442 Y70.327 E0.05028
G1 X120.303 Y71.681 E0.05030
G1 X121.102 Y73.072 E0.05030
G1 X121.836 Y74.498 E0.05028
G1 X122.290 Y75.467 E0.03356
G1 X122.715 Y76.450 E0.03356
G1 X123.295 Y77.944 E0.05025
G1 X123.644 Y78.956 E0.03356
G1 X123.959 Y79.967 E0.03321
G1 X124.381 Y81.526 E0.05063
G1 X124.730 Y83.092 E0.05030
G1 X125.007 Y84.671 E0.05028
G1 X125.152 Y85.732 E0.03356
G1 X125.264 Y86.785 E0.03321
G1 X125.374 Y88.396 E0.05063
G1 X125.410 Y90.000 E0.05030
G1 X125.374 Y91.604 E0.05030
G1 X125.265 Y93.205 E0.05030
G1 X125.083 Y94.798 E0.05028
G1 X124.922 Y95.856 E0.03356
G1 X124.729 Y96.909 E0.03356
G1 X124.381 Y98.474 E0.05028
G1 X123.962 Y100.022 E0.05028
M73 P5 R14
G1 X123.644 Y101.044 E0.03355
G1 X123.384 Y101.803 E0.02516
G1 X123.109 Y102.557 E0.02516
G1 X122.715 Y103.551 E0.03353
G1 X122.290 Y104.533 E0.03354
G1 X121.836 Y105.502 E0.03356
G1 X121.102 Y106.928 E0.05028
G1 X120.303 Y108.319 E0.05030
G1 X119.442 Y109.673 E0.05030
G1 X118.522 Y110.986 E0.05028
G1 X117.874 Y111.838 E0.03356
G1 X117.201 Y112.671 E0.03356
G1 X116.147 Y113.879 E0.05028
G1 X115.039 Y115.039 E0.05030
G1 X113.879 Y116.147 E0.05030
G1 X112.671 Y117.201 E0.05028
G1 X111.838 Y117.874 E0.03356
G1 X110.986 Y118.522 E0.03356
G1 X109.673 Y119.442 E0.05028
G1 X108.319 Y120.303 E0.05030
G1 X106.928 Y121.102 E0.05030
G1 X105.502 Y121.836 E0.05028
G1 X104.533 Y122.290 E0.03356
G1 X103.550 Y122.715 E0.03356
G1 X102.056 Y123.295 E0.05025
G1 X101.044 Y123.644 E0.03356
G1 X100.033 Y123.959 E0.03321
G1 X98.474 Y124.381 E0.05063
G1 X96.908 Y124.730 E0.05030
G1 X95.329 Y125.007 E0.05028
G1 X94.268 Y125.152 E0.03356
G1 X93.215 Y125.264 E0.03321
G1 X91.604 Y125.374 E0.05063
G1 X90.000 Y125.410 E0.05030
G1 X88.396 Y125.374 E0.05030
G1 X86.795 Y125.265 E0.05030
G1 X85.202 Y125.083 E0.05028
G1 X84.144 Y124.922 E0.03356
G1 X83.091 Y124.729 E0.03356
G1 X81.526 Y124.381 E0.05028
G1 X79.978 Y123.962 E0.05028
G1 X78.956 Y123.644 E0.03355
G1 X78.197 Y123.384 E0.02516
G1 X77.443 Y123.109 E0.02516
G1 X76.449 Y122.715 E0.03353
G1 X75.467 Y122.290 E0.03354
G1 X74.498 Y121.836 E0.03356
G1 X73.072 Y121.102 E0.05028
G1 X71.681 Y120.303 E0.05030
G1 X70.327 Y119.442 E0.05030
G1 X69.014 Y118.522 E0.05028
G1 X68.162 Y117.874 E0.03356
G1 X67.329 Y117.201 E0.03356
G1 X66.121 Y116.147 E0.05028
G1 X64.961 Y115.039 E0.05030
G1 X63.853 Y113.879 E0.05030
G1 X62.799 Y112.671 E0.05028
G1 X62.126 Y111.838 E0.03356
G1 X61.478 Y110.986 E0.03356
G1 X60.558 Y109.673 E0.05028
G1 X59.697 Y108.319 E0.05030
G1 X58.898 Y106.928 E0.05030
G1 X58.164 Y105.502 E0.05028
G1 X57.710 Y104.533 E0.03356
G1 X57.285 Y103.550 E0.03356
G1 X56.705 Y102.056 E0.05025
G1 X56.356 Y101.044 E0.03356
G1 X56.041 Y100.033 E0.03321
G1 X55.619 Y98.474 E0.05063
G1 X55.270 Y96.908 E0.05030
G1 X54.993 Y95.329 E0.05028
G1 X54.848 Y94.268 E0.03356
G1 X54.736 Y93.215 E0.03321
G1 X54.626 Y91.604 E0.05063
G1 X54.590 Y90.000 E0.05030
G1 X54.626 Y88.396 E0.05030
G1 X54.735 Y86.795 E0.05030
G1 X54.917 Y85.202 E0.05028
G1 X55.078 Y84.144 E0.03356
G1 X55.271 Y83.091 E0.03356
G1 X55.619 Y81.526 E0.05028
G1 X56.038 Y79.978 E0.05028
G1 X56.356 Y78.956 E0.03355
G1 X56.616 Y78.197 E0.02516
G1 X56.891 Y77.443 E0.02516
G1 X57.285 Y76.449 E0.03353
G1 X57.710 Y75.467 E0.03354
G1 X58.164 Y74.498 E0.03356
G1 X58.898 Y73.072 E0.05028
G1 X59.697 Y71.681 E0.05030
G1 X60.558 Y70.327 E0.05030
G1 X61.478 Y69.014 E0.05028
G1 X62.126 Y68.162 E0.03356
G1 X62.799 Y67.329 E0.03356
G1 X63.853 Y66.121 E0.05028
G1 X65.054 Y64.872 E0.05433
M204 S1250
G1 X64.995 Y64.444 F9000.000
G1 E-2.24000 F4200.000
;WIPE_START
G1 F7200.000
G1 X66.121 Y63.853 E-0.81776
G1 X66.249 Y63.741 E-0.09424
;WIPE_END
G1 E-0.04800 F4200.000
G1 Z0.400 F9000.000
G1 X63.768 Y63.613
G1 Z0.200
G1 E3.20000 F2400.000
M204 S800
;TYPE:Perimeter
G1 F1200.000
G1 X64.755 Y62.660 E0.04303
G1 X65.555 Y61.942 E0.03372
G1 X66.798 Y60.906 E0.05074
G1 X68.085 Y59.925 E0.05074
G1 X68.963 Y59.304 E0.03372
G1 X69.814 Y58.738 E0.03205
G1 X71.239 Y57.863 E0.05241
G1 X72.651 Y57.079 E0.05066
G1 X74.099 Y56.355 E0.05074
G1 X75.078 Y55.910 E0.03372
G1 X76.069 Y55.493 E0.03372
G1 X77.584 Y54.919 E0.05081
G1 X78.603 Y54.575 E0.03372
G1 X79.631 Y54.261 E0.03372
G1 X81.197 Y53.843 E0.05081
G1 X82.245 Y53.604 E0.03372
G1 X83.302 Y53.395 E0.03378
G1 X84.365 Y53.216 E0.03378
G1 X85.430 Y53.069 E0.03372
G1 X87.040 Y52.905 E0.05074
G1 X88.656 Y52.811 E0.05074
G1 X89.731 Y52.788 E0.03372
G1 X90.753 Y52.795 E0.03205
G1 X92.423 Y52.866 E0.05241
G1 X94.033 Y53.006 E0.05066
G1 X95.637 Y53.217 E0.05074
G1 X96.698 Y53.395 E0.03372
G1 X97.755 Y53.604 E0.03378
G1 X98.805 Y53.844 E0.03378
G1 X99.846 Y54.113 E0.03372
G1 X101.397 Y54.575 E0.05074
G1 X102.926 Y55.104 E0.05074
G1 X103.929 Y55.492 E0.03372
G1 X104.922 Y55.910 E0.03378
M73 P6 R14
G1 X105.903 Y56.356 E0.03378
G1 X106.868 Y56.830 E0.03372
G1 X108.294 Y57.595 E0.05074
