; generated by PrusaSlicer 2.2.0+win64 on 2020-10-17 at 06:18:59 UTC


;
;

;
;
; 

; external perimeters extrusion width = 0.45mm
; perimeters extrusion width = 0.45mm
; infill extrusion width = 0.45mm
; solid infill extrusion width = 0.45mm
; top infill extrusion width = 0.40mm
; first layer extrusion width = 0.42mm

M73 P0 R47
M201 X1250 Y1250 Z400 E5000 ; sets maximum accelerations, mm/sec^2
M203 X180 Y180 Z12 E80 ; sets maximum feedrates, mm/sec
M204 P1250 R1250 T1250 ; sets acceleration (P, T) and retract acceleration (R), mm/sec^2
M205 X8.00 Y8.00 Z2.00 E10.00 ; sets the jerk limits, mm/sec
M205 S0 T0 ; sets the minimum extruding and travel feed rate, mm/sec
M107
G90 ; use absolute coordinates
M83 ; extruder relative mode
M104 S170 ; set extruder temp for bed leveling
M140 S60 ; set bed temp
M109 R170 ; wait for bed leveling temp
M190 S60 ; wait for bed temp
G28 ; home all without mesh bed level
G29 ; mesh bed leveling 
M104 S215 ; set extruder temp
G92 E0.0
G1 Y-2.0 X179 F2400
G1 Z3 F720
M109 S215 ; wait for extruder temp

; intro line
G1 X170 F1000
G1 Z0.2 F720
G1 X110.0 E8.0 F900
M73 P0 R47
G1 X40.0 E10.0 F700
G92 E0.0

M221 S95 ; set flow
G21 ; set units to millimeters
G90 ; use absolute coordinates
M83 ; use relative distances for extrusion
M900 K0.2 ; Filament gcode LA 1.5
; ; Filament gcode LA 1.0
;BEFORE_LAYER_CHANGE
G92 E0.0
;0.2


G1 Z0.200 F9000.000
;AFTER_LAYER_CHANGE
;0.2
G1 E-3.20000 F4200.00000
G1 Z0.400 F9000.000
G1 X42.488 Y44.832
G1 Z0.200
G1 E3.20000 F2400.00000
M204 S800
G1 F1200.000
G1 X42.892 Y44.160 E0.02461
G1 X43.259 Y43.812 E0.01585
G1 X43.695 Y43.549 E0.01597
G1 X44.174 Y43.385 E0.01585
G1 X44.680 Y43.326 E0.01597
G1 X135.304 Y43.326 E2.84145
G1 X136.121 Y43.472 E0.02602
G1 X136.841 Y43.893 E0.02614
G1 X137.371 Y44.536 E0.02614
G1 X137.646 Y45.319 E0.02602
G1 X137.660 Y57.794 E0.39116
G1 X132.343 Y95.219 E1.18521
G1 X124.832 Y134.759 E1.26192
G1 X124.638 Y135.335 E0.01906
G1 X124.307 Y135.841 E0.01894
G1 X123.934 Y136.193 E0.01609
G1 X123.497 Y136.455 E0.01597
G1 X123.014 Y136.618 E0.01597
G1 X122.508 Y136.674 E0.01597
G1 X57.481 Y136.674 E2.03888
G1 X56.669 Y136.524 E0.02590
G1 X55.957 Y136.105 E0.02590
G1 X55.452 Y135.504 E0.02461
G1 X55.171 Y134.771 E0.02461
G1 X47.647 Y95.151 E1.26445
G1 X42.333 Y57.734 E1.18496
G1 X42.325 Y45.604 E0.38033
G1 X42.476 Y44.891 E0.02285
M204 S1250
G1 E-2.24000 F4200.00000
G1 F7200.000
G1 X42.892 Y44.160 E-0.46650
G1 X43.259 Y43.812 E-0.28021
G1 X43.515 Y43.658 E-0.16530
G1 E-0.04800 F4200.00000
G1 Z0.400 F9000.000
G1 X58.287 Y123.744
G1 Z0.200
G1 E3.20000 F2400.00000
M204 S800
G1 F1200.000
G1 X121.713 Y123.744 E1.98867
G1 X121.713 Y133.040 E0.29145
G1 X58.287 Y133.040 E1.98867
G1 X58.287 Y123.804 E0.28957
M204 S1250
G1 X57.910 Y123.367 F9000.000
M204 S800
G1 F1200.000
G1 X122.090 Y123.367 E2.01232
G1 X122.090 Y133.417 E0.31509
G1 X57.910 Y133.417 E2.01232
G1 X57.910 Y123.427 E0.31321
M204 S1250
G1 X58.309 Y123.388 F9000.000
G1 E-2.24000 F4200.00000
G1 F7200.000
G1 X59.556 Y123.426 E-0.91200
G1 E-0.04800 F4200.00000
G1 Z0.400 F9000.000
G1 X121.600 Y124.623
G1 Z0.200
G1 E3.20000 F2400.00000
M204 S800
G1 F1200.000
G1 X121.003 Y124.027 E0.02658
G1 X120.467 Y124.027 E0.01688
G1 X121.430 Y124.990 E0.04290
G1 X121.430 Y125.526 E0.01688
G1 X119.932 Y124.027 E0.06677
G1 X119.396 Y124.027 E0.01688
G1 X121.430 Y126.061 E0.09065
G1 X121.430 Y126.597 E0.01688
G1 X118.860 Y124.027 E0.11453
G1 X118.324 Y124.027 E0.01688
G1 X121.430 Y127.133 E0.13841
G1 X121.430 Y127.669 E0.01688
G1 X117.788 Y124.027 E0.16229
G1 X117.252 Y124.027 E0.01688
G1 X121.430 Y128.205 E0.18617
G1 X121.430 Y128.741 E0.01688
G1 X116.716 Y124.027 E0.21004
G1 X116.180 Y124.027 E0.01688
G1 X121.430 Y129.277 E0.23392
G1 X121.430 Y129.813 E0.01688
G1 X115.644 Y124.027 E0.25780
G1 X115.109 Y124.027 E0.01688
G1 X121.430 Y130.349 E0.28168
G1 X121.430 Y130.884 E0.01688
G1 X114.573 Y124.027 E0.30556
G1 X114.037 Y124.027 E0.01688
G1 X121.430 Y131.420 E0.32944
G1 X121.430 Y131.956 E0.01688
G1 X113.501 Y124.027 E0.35331
G1 X112.965 Y124.027 E0.01688
G1 X121.430 Y132.492 E0.37719
G1 X121.430 Y132.757 E0.00834
G1 X121.159 Y132.757 E0.00854
G1 X112.429 Y124.027 E0.38899
G1 X111.893 Y124.027 E0.01688
G1 X120.623 Y132.757 E0.38899
G1 X120.087 Y132.757 E0.01688
G1 X111.357 Y124.027 E0.38899
G1 X110.822 Y124.027 E0.01688
G1 X119.551 Y132.757 E0.38899
G1 X119.015 Y132.757 E0.01688
G1 X110.286 Y124.027 E0.38899
G1 X109.750 Y124.027 E0.01688
G1 X118.480 Y132.757 E0.38899
G1 X117.944 Y132.757 E0.01688
G1 X109.214 Y124.027 E0.38899
G1 X108.678 Y124.027 E0.01688
G1 X117.408 Y132.757 E0.38899
G1 X116.872 Y132.757 E0.01688
G1 X108.142 Y124.027 E0.38899
G1 X107.606 Y124.027 E0.01688
G1 X116.336 Y132.757 E0.38899
G1 X115.800 Y132.757 E0.01688
G1 X107.070 Y124.027 E0.38899
G1 X106.534 Y124.027 E0.01688
G1 X115.264 Y132.757 E0.38899
G1 X114.728 Y132.757 E0.01688
G1 X105.999 Y124.027 E0.38899
G1 X105.463 Y124.027 E0.01688
G1 X114.192 Y132.757 E0.38899
G1 X113.657 Y132.757 E0.01688
G1 X104.927 Y124.027 E0.38899
G1 X104.391 Y124.027 E0.01688
G1 X113.121 Y132.757 E0.38899
G1 X112.585 Y132.757 E0.01688
G1 X103.855 Y124.027 E0.38899
G1 X103.319 Y124.027 E0.01688
G1 X112.049 Y132.757 E0.38899
G1 X111.513 Y132.757 E0.01688
G1 X102.783 Y124.027 E0.38899
G1 X102.247 Y124.027 E0.01688
G1 X110.977 Y132.757 E0.38899
G1 X110.441 Y132.757 E0.01688
G1 X101.712 Y124.027 E0.38899
M73 P2 R46
G1 X101.176 Y124.027 E0.01688
G1 X109.905 Y132.757 E0.38899
G1 X109.370 Y132.757 E0.01688
G1 X100.640 Y124.027 E0.38899
G1 X100.104 Y124.027 E0.01688
G1 X108.834 Y132.757 E0.38899
G1 X108.298 Y132.757 E0.01688
G1 X99.568 Y124.027 E0.38899
G1 X99.032 Y124.027 E0.01688
G1 X107.762 Y132.757 E0.38899
G1 X107.226 Y132.757 E0.01688
G1 X98.496 Y124.027 E0.38899
G1 X97.960 Y124.027 E0.01688
G1 X106.690 Y132.757 E0.38899
G1 X106.154 Y132.757 E0.01688
G1 X97.424 Y124.027 E0.38899
G1 X96.889 Y124.027 E0.01688
G1 X105.618 Y132.757 E0.38899
G1 X105.082 Y132.757 E0.01688
G1 X96.353 Y124.027 E0.38899
G1 X95.817 Y124.027 E0.01688
G1 X104.547 Y132.757 E0.38899
G1 X104.011 Y132.757 E0.01688
G1 X95.281 Y124.027 E0.38899
G1 X94.745 Y124.027 E0.01688
G1 X103.475 Y132.757 E0.38899
G1 X102.939 Y132.757 E0.01688
G1 X94.209 Y124.027 E0.38899
G1 X93.673 Y124.027 E0.01688
G1 X102.403 Y132.757 E0.38899
G1 X101.867 Y132.757 E0.01688
G1 X93.137 Y124.027 E0.38899
G1 X92.602 Y124.027 E0.01688
G1 X101.331 Y132.757 E0.38899
G1 X100.795 Y132.757 E0.01688
G1 X92.066 Y124.027 E0.38899
G1 X91.530 Y124.027 E0.01688
G1 X100.260 Y132.757 E0.38899
G1 X99.724 Y132.757 E0.01688
G1 X90.994 Y124.027 E0.38899
G1 X90.458 Y124.027 E0.01688
G1 X99.188 Y132.757 E0.38899
G1 X98.652 Y132.757 E0.01688
G1 X89.922 Y124.027 E0.38899
G1 X89.386 Y124.027 E0.01688
G1 X98.116 Y132.757 E0.38899
G1 X97.580 Y132.757 E0.01688
G1 X88.850 Y124.027 E0.38899
G1 X88.314 Y124.027 E0.01688
G1 X97.044 Y132.757 E0.38899
G1 X96.508 Y132.757 E0.01688
G1 X87.779 Y124.027 E0.38899
G1 X87.243 Y124.027 E0.01688
G1 X95.972 Y132.757 E0.38899
G1 X95.437 Y132.757 E0.01688
G1 X86.707 Y124.027 E0.38899
G1 X86.171 Y124.027 E0.01688
G1 X94.901 Y132.757 E0.38899
G1 X94.365 Y132.757 E0.01688
G1 X85.635 Y124.027 E0.38899
G1 X85.099 Y124.027 E0.01688
G1 X93.829 Y132.757 E0.38899
G1 X93.293 Y132.757 E0.01688
G1 X84.563 Y124.027 E0.38899
G1 X84.027 Y124.027 E0.01688
G1 X92.757 Y132.757 E0.38899
G1 X92.221 Y132.757 E0.01688
G1 X83.492 Y124.027 E0.38899
G1 X82.956 Y124.027 E0.01688
G1 X91.685 Y132.757 E0.38899
G1 X91.150 Y132.757 E0.01688
G1 X82.420 Y124.027 E0.38899
G1 X81.884 Y124.027 E0.01688
G1 X90.614 Y132.757 E0.38899
G1 X90.078 Y132.757 E0.01688
G1 X81.348 Y124.027 E0.38899
G1 X80.812 Y124.027 E0.01688
G1 X89.542 Y132.757 E0.38899
G1 X89.006 Y132.757 E0.01688
G1 X80.276 Y124.027 E0.38899
G1 X79.740 Y124.027 E0.01688
G1 X88.470 Y132.757 E0.38899
G1 X87.934 Y132.757 E0.01688
G1 X79.204 Y124.027 E0.38899
G1 X78.669 Y124.027 E0.01688
G1 X87.398 Y132.757 E0.38899
G1 X86.862 Y132.757 E0.01688
G1 X78.133 Y124.027 E0.38899
G1 X77.597 Y124.027 E0.01688
G1 X86.327 Y132.757 E0.38899
G1 X85.791 Y132.757 E0.01688
G1 X77.061 Y124.027 E0.38899
G1 X76.525 Y124.027 E0.01688
G1 X85.255 Y132.757 E0.38899
G1 X84.719 Y132.757 E0.01688
G1 X75.989 Y124.027 E0.38899
G1 X75.453 Y124.027 E0.01688
G1 X84.183 Y132.757 E0.38899
G1 X83.647 Y132.757 E0.01688
G1 X74.917 Y124.027 E0.38899
G1 X74.382 Y124.027 E0.01688
G1 X83.111 Y132.757 E0.38899
G1 X82.575 Y132.757 E0.01688
G1 X73.846 Y124.027 E0.38899
G1 X73.310 Y124.027 E0.01688
G1 X82.040 Y132.757 E0.38899
G1 X81.504 Y132.757 E0.01688
G1 X72.774 Y124.027 E0.38899
G1 X72.238 Y124.027 E0.01688
G1 X80.968 Y132.757 E0.38899
G1 X80.432 Y132.757 E0.01688
G1 X71.702 Y124.027 E0.38899
G1 X71.166 Y124.027 E0.01688
G1 X79.896 Y132.757 E0.38899
G1 X79.360 Y132.757 E0.01688
G1 X70.630 Y124.027 E0.38899
G1 X70.094 Y124.027 E0.01688
G1 X78.824 Y132.757 E0.38899
G1 X78.288 Y132.757 E0.01688
G1 X69.559 Y124.027 E0.38899
G1 X69.023 Y124.027 E0.01688
G1 X77.752 Y132.757 E0.38899
G1 X77.217 Y132.757 E0.01688
G1 X68.487 Y124.027 E0.38899
G1 X67.951 Y124.027 E0.01688
G1 X76.681 Y132.757 E0.38899
G1 X76.145 Y132.757 E0.01688
G1 X67.415 Y124.027 E0.38899
G1 X66.879 Y124.027 E0.01688
G1 X75.609 Y132.757 E0.38899
G1 X75.073 Y132.757 E0.01688
G1 X66.343 Y124.027 E0.38899
G1 X65.807 Y124.027 E0.01688
G1 X74.537 Y132.757 E0.38899
G1 X74.001 Y132.757 E0.01688
G1 X65.272 Y124.027 E0.38899
G1 X64.736 Y124.027 E0.01688
G1 X73.465 Y132.757 E0.38899
G1 X72.930 Y132.757 E0.01688
G1 X64.200 Y124.027 E0.38899
G1 X63.664 Y124.027 E0.01688
G1 X72.394 Y132.757 E0.38899
G1 X71.858 Y132.757 E0.01688
G1 X63.128 Y124.027 E0.38899
G1 X62.592 Y124.027 E0.01688
G1 X71.322 Y132.757 E0.38899
G1 X70.786 Y132.757 E0.01688
G1 X62.056 Y124.027 E0.38899
G1 X61.520 Y124.027 E0.01688
G1 X70.250 Y132.757 E0.38899
G1 X69.714 Y132.757 E0.01688
G1 X60.984 Y124.027 E0.38899
G1 X60.449 Y124.027 E0.01688
G1 X69.178 Y132.757 E0.38899
G1 X68.642 Y132.757 E0.01688
G1 X59.913 Y124.027 E0.38899
G1 X59.377 Y124.027 E0.01688
G1 X68.107 Y132.757 E0.38899
G1 X67.571 Y132.757 E0.01688
G1 X58.841 Y124.027 E0.38899
G1 X58.570 Y124.027 E0.00854
G1 X58.570 Y124.292 E0.00834
G1 X67.035 Y132.757 E0.37719
G1 X66.499 Y132.757 E0.01688
G1 X58.570 Y124.828 E0.35331
G1 X58.570 Y125.364 E0.01688
G1 X65.963 Y132.757 E0.32943
G1 X65.427 Y132.757 E0.01688
G1 X58.570 Y125.899 E0.30555
G1 X58.570 Y126.435 E0.01688
G1 X64.891 Y132.757 E0.28168
G1 X64.355 Y132.757 E0.01688
G1 X58.570 Y126.971 E0.25780
G1 X58.570 Y127.507 E0.01688
G1 X63.820 Y132.757 E0.23392
G1 X63.284 Y132.757 E0.01688
G1 X58.570 Y128.043 E0.21004
G1 X58.570 Y128.579 E0.01688
G1 X62.748 Y132.757 E0.18616
G1 X62.212 Y132.757 E0.01688
G1 X58.570 Y129.115 E0.16228
G1 X58.570 Y129.651 E0.01688
G1 X61.676 Y132.757 E0.13841
G1 X61.140 Y132.757 E0.01688
G1 X58.570 Y130.186 E0.11453
G1 X58.570 Y130.722 E0.01688
G1 X60.604 Y132.757 E0.09065
G1 X60.068 Y132.757 E0.01688
G1 X58.570 Y131.258 E0.06677
G1 X58.570 Y131.794 E0.01688
G1 X59.532 Y132.757 E0.04289
G1 X58.997 Y132.757 E0.01688
G1 X58.400 Y132.160 E0.02658
M204 S1250
G1 E-2.24000 F4200.00000
G1 F7200.000
G1 X58.997 Y132.757 E-0.46741
G1 X59.532 Y132.757 E-0.29697
G1 X59.344 Y132.568 E-0.14762
G1 E-0.04800 F4200.00000
G1 Z0.400 F9000.000
G1 X58.400 Y112.659
G1 Z0.200
G1 E3.20000 F2400.00000
M204 S800
G1 F1200.000
G1 X58.287 Y112.659 E0.00355
G1 X58.287 Y103.364 E0.29145
G1 X121.713 Y103.364 E1.98867
M73 P4 R45
G1 X121.713 Y112.659 E0.29145
G1 X58.460 Y112.659 E1.98325
M204 S1250
G1 X57.910 Y113.036 F9000.000
M204 S800
G1 F1200.000
G1 X57.910 Y102.987 E0.31509
G1 X122.090 Y102.987 E2.01232
G1 X122.090 Y113.036 E0.31509
G1 X57.970 Y113.036 E2.01044
M204 S1250
G1 X58.092 Y112.680 F9000.000
G1 E-2.24000 F4200.00000
G1 F7200.000
G1 X57.960 Y111.391 E-0.91200
G1 E-0.04800 F4200.00000
G1 Z0.400 F9000.000
G1 X121.600 Y104.243
G1 Z0.200
G1 E3.20000 F2400.00000
M204 S800
G1 F1200.000
G1 X121.003 Y103.647 E0.02658
G1 X120.467 Y103.647 E0.01688
G1 X121.430 Y104.609 E0.04290
G1 X121.430 Y105.145 E0.01688
G1 X119.932 Y103.647 E0.06677
G1 X119.396 Y103.647 E0.01688
G1 X121.430 Y105.681 E0.09065
G1 X121.430 Y106.217 E0.01688
G1 X118.860 Y103.647 E0.11453
G1 X118.324 Y103.647 E0.01688
G1 X121.430 Y106.753 E0.13841
G1 X121.430 Y107.289 E0.01688
G1 X117.788 Y103.647 E0.16229
G1 X117.252 Y103.647 E0.01688
G1 X121.430 Y107.825 E0.18617
G1 X121.430 Y108.360 E0.01688
G1 X116.716 Y103.647 E0.21004
G1 X116.180 Y103.647 E0.01688
G1 X121.430 Y108.896 E0.23392
G1 X121.430 Y109.432 E0.01688
G1 X115.644 Y103.647 E0.25780
G1 X115.109 Y103.647 E0.01688
G1 X121.430 Y109.968 E0.28168
G1 X121.430 Y110.504 E0.01688
G1 X114.573 Y103.647 E0.30556
G1 X114.037 Y103.647 E0.01688
G1 X121.430 Y111.040 E0.32944
G1 X121.430 Y111.576 E0.01688
G1 X113.501 Y103.647 E0.35331
G1 X112.965 Y103.647 E0.01688
G1 X121.430 Y112.112 E0.37719
G1 X121.430 Y112.376 E0.00834
G1 X121.159 Y112.376 E0.00854
G1 X112.429 Y103.647 E0.38899
G1 X111.893 Y103.647 E0.01688
G1 X120.623 Y112.376 E0.38899
G1 X120.087 Y112.376 E0.01688
G1 X111.357 Y103.647 E0.38899
G1 X110.822 Y103.647 E0.01688
G1 X119.551 Y112.376 E0.38899
G1 X119.015 Y112.376 E0.01688
G1 X110.286 Y103.647 E0.38899
G1 X109.750 Y103.647 E0.01688
G1 X118.480 Y112.376 E0.38899
G1 X117.944 Y112.376 E0.01688
G1 X109.214 Y103.647 E0.38899
G1 X108.678 Y103.647 E0.01688
G1 X117.408 Y112.376 E0.38899
G1 X116.872 Y112.376 E0.01688
G1 X108.142 Y103.647 E0.38899
G1 X107.606 Y103.647 E0.01688
G1 X116.336 Y112.376 E0.38899
G1 X115.800 Y112.376 E0.01688
G1 X107.070 Y103.647 E0.38899
G1 X106.534 Y103.647 E0.01688
G1 X115.264 Y112.376 E0.38899
G1 X114.728 Y112.376 E0.01688
G1 X105.999 Y103.647 E0.38899
G1 X105.463 Y103.647 E0.01688
G1 X114.192 Y112.376 E0.38899
G1 X113.657 Y112.376 E0.01688
G1 X104.927 Y103.647 E0.38899
G1 X104.391 Y103.647 E0.01688
G1 X113.121 Y112.376 E0.38899
G1 X112.585 Y112.376 E0.01688
G1 X103.855 Y103.647 E0.38899
G1 X103.319 Y103.647 E0.01688
G1 X112.049 Y112.376 E0.38899
G1 X111.513 Y112.376 E0.01688
G1 X102.783 Y103.647 E0.38899
G1 X102.247 Y103.647 E0.01688
G1 X110.977 Y112.376 E0.38899
G1 X110.441 Y112.376 E0.01688
G1 X101.712 Y103.647 E0.38899
G1 X101.176 Y103.647 E0.01688
G1 X109.905 Y112.376 E0.38899
G1 X109.370 Y112.376 E0.01688
G1 X100.640 Y103.647 E0.38899
G1 X100.104 Y103.647 E0.01688
G1 X108.834 Y112.376 E0.38899
G1 X108.298 Y112.376 E0.01688
G1 X99.568 Y103.647 E0.38899
G1 X99.032 Y103.647 E0.01688
G1 X107.762 Y112.376 E0.38899
G1 X107.226 Y112.376 E0.01688
G1 X98.496 Y103.647 E0.38899
G1 X97.960 Y103.647 E0.01688
G1 X106.690 Y112.376 E0.38899
G1 X106.154 Y112.376 E0.01688
G1 X97.424 Y103.647 E0.38899
G1 X96.889 Y103.647 E0.01688
G1 X105.618 Y112.376 E0.38899
G1 X105.082 Y112.376 E0.01688
G1 X96.353 Y103.647 E0.38899
G1 X95.817 Y103.647 E0.01688
G1 X104.547 Y112.376 E0.38899
G1 X104.011 Y112.376 E0.01688
G1 X95.281 Y103.647 E0.38899
G1 X94.745 Y103.647 E0.01688
G1 X103.475 Y112.376 E0.38899
G1 X102.939 Y112.376 E0.01688
G1 X94.209 Y103.647 E0.38899
G1 X93.673 Y103.647 E0.01688
G1 X102.403 Y112.376 E0.38899
G1 X101.867 Y112.376 E0.01688
G1 X93.137 Y103.647 E0.38899
G1 X92.602 Y103.647 E0.01688
G1 X101.331 Y112.376 E0.38899
G1 X100.795 Y112.376 E0.01688
G1 X92.066 Y103.647 E0.38899
G1 X91.530 Y103.647 E0.01688
G1 X100.260 Y112.376 E0.38899
G1 X99.724 Y112.376 E0.01688
G1 X90.994 Y103.647 E0.38899
G1 X90.458 Y103.647 E0.01688
G1 X99.188 Y112.376 E0.38899
G1 X98.652 Y112.376 E0.01688
G1 X89.922 Y103.647 E0.38899
G1 X89.386 Y103.647 E0.01688
G1 X98.116 Y112.376 E0.38899
G1 X97.580 Y112.376 E0.01688
G1 X88.850 Y103.647 E0.38899
G1 X88.314 Y103.647 E0.01688
G1 X97.044 Y112.376 E0.38899
G1 X96.508 Y112.376 E0.01688
G1 X87.779 Y103.647 E0.38899
G1 X87.243 Y103.647 E0.01688
G1 X95.972 Y112.376 E0.38899
G1 X95.437 Y112.376 E0.01688
G1 X86.707 Y103.647 E0.38899
G1 X86.171 Y103.647 E0.01688
G1 X94.901 Y112.376 E0.38899
G1 X94.365 Y112.376 E0.01688
G1 X85.635 Y103.647 E0.38899
G1 X85.099 Y103.647 E0.01688
G1 X93.829 Y112.376 E0.38899
G1 X93.293 Y112.376 E0.01688
G1 X84.563 Y103.647 E0.38899
G1 X84.027 Y103.647 E0.01688
G1 X92.757 Y112.376 E0.38899
