; generated by PrusaSlicer 2.3.0+win64 on 2022-05-21 at 19:34:13 UTC


;
;

;
;
; 

; external perimeters extrusion width = 0.45mm
; perimeters extrusion width = 0.45mm
; infill extrusion width = 0.45mm
; solid infill extrusion width = 0.45mm
; top infill extrusion width = 0.40mm
; first layer extrusion width = 0.42mm

M73 P0 R17
M201 X1250 Y1250 Z400 E5000 ; sets maximum accelerations, mm/sec^2
M203 X180 Y180 Z12 E80 ; sets maximum feedrates, mm/sec
M204 P1250 R1250 T1250 ; sets acceleration (P, T) and retract acceleration (R), mm/sec^2
M205 X8.00 Y8.00 Z2.00 E10.00 ; sets the jerk limits, mm/sec
M205 S0 T0 ; sets the minimum extruding and travel feed rate, mm/sec
M107
;TYPE:Custom
G90 ; use absolute coordinates
M83 ; extruder relative mode
M104 S170 ; set extruder temp for bed leveling
M140 S85 ; set bed temp
M109 R170 ; wait for bed leveling temp
M190 S85 ; wait for bed temp
G28 ; home all without mesh bed level
G29 ; mesh bed leveling 
M104 S240 ; set extruder temp
G92 E0.0
G1 Y-2.0 X179 F2400
G1 Z3 F720
M109 S240 ; wait for extruder temp

; intro line
G1 X170 F1000
G1 Z0.2 F720
G1 X110.0 E8.0 F900
G1 X40.0 E10.0 F700
G92 E0.0

M221 S95 ; set flow
G21 ; set units to millimeters
G90 ; use absolute coordinates
M83 ; use relative distances for extrusion
M900 K0.2 ; Filament gcode
;LAYER_CHANGE
;Z:0.2
;HEIGHT:0.2
;BEFORE_LAYER_CHANGE
G92 E0.0
;0.2


M73 P1 R16
G1 E-3.20000 F2400.000
G1 Z0.200 F9000.000
;AFTER_LAYER_CHANGE
;0.2
G1 Z0.400
G1 X78.507 Y75.344
G1 Z0.200
G1 E3.20000 F1500.000
M204 S800
;TYPE:Skirt
;WIDTH:0.42
G1 F1200.000
G1 X79.140 Y74.889 E0.02444
G1 X79.924 Y74.554 E0.02676
G1 X80.700 Y74.408 E0.02475
G1 X99.004 Y74.396 E0.57391
G1 X99.879 Y74.501 E0.02762
G1 X100.652 Y74.779 E0.02576
G1 X101.401 Y75.264 E0.02797
G1 X102.004 Y75.900 E0.02748
G1 X107.386 Y84.874 E0.32809
G1 X107.718 Y85.807 E0.03107
G1 X107.754 Y88.275 E0.07738
G1 X107.694 Y88.824 E0.01733
G1 X104.410 Y102.787 E0.44975
G1 X104.181 Y103.429 E0.02136
G1 X103.834 Y104.026 E0.02167
G1 X103.249 Y104.673 E0.02734
G1 X102.577 Y105.142 E0.02570
G1 X101.750 Y105.475 E0.02794
G1 X100.873 Y105.602 E0.02780
G1 X79.143 Y105.603 E0.68133
M73 P2 R16
G1 X78.018 Y105.405 E0.03582
G1 X77.049 Y104.908 E0.03415
G1 X76.558 Y104.492 E0.02019
G1 X76.140 Y103.988 E0.02052
G1 X75.815 Y103.420 E0.02051
G1 X75.591 Y102.794 E0.02086
G1 X72.300 Y88.792 E0.45097
G1 X72.247 Y86.164 E0.08243
G1 X72.345 Y85.517 E0.02052
G1 X72.595 Y84.908 E0.02065
G1 X77.938 Y75.979 E0.32626
G1 X78.467 Y75.389 E0.02483
M204 S1250
G1 E-2.24000 F2400.000
;WIPE_START
G1 F7200.000
G1 X79.140 Y74.889 E-0.26540
G1 X79.924 Y74.554 E-0.27026
G1 X80.700 Y74.408 E-0.24996
G1 X81.099 Y74.408 E-0.12638
;WIPE_END
G1 E-0.04800 F2400.000
G1 Z0.400 F9000.000
G1 X107.349 Y85.886
G1 Z0.200
G1 E3.20000 F1500.000
M204 S800
G1 F1200.000
G1 X107.325 Y88.745 E0.08965
G1 X104.046 Y102.690 E0.44915
G1 X103.837 Y103.273 E0.01941
G1 X103.519 Y103.818 E0.01980
G1 X102.970 Y104.416 E0.02545
G1 X102.314 Y104.855 E0.02473
G1 X101.618 Y105.120 E0.02337
G1 X100.854 Y105.226 E0.02416
G1 X79.160 Y105.226 E0.68020
G1 X78.134 Y105.046 E0.03266
G1 X77.258 Y104.594 E0.03091
G1 X76.822 Y104.222 E0.01797
G1 X76.445 Y103.766 E0.01855
G1 X76.155 Y103.257 E0.01836
G1 X75.954 Y102.689 E0.01890
G1 X72.670 Y88.720 E0.44994
G1 X72.624 Y86.166 E0.08008
G1 X72.712 Y85.607 E0.01775
G1 X72.929 Y85.084 E0.01775
G1 X78.260 Y76.176 E0.32548
G1 X78.771 Y75.613 E0.02384
G1 X79.337 Y75.211 E0.02179
G1 X80.048 Y74.910 E0.02418
G1 X80.747 Y74.783 E0.02229
G1 X99.004 Y74.773 E0.57243
G1 X99.795 Y74.868 E0.02499
G1 X100.491 Y75.121 E0.02321
G1 X101.167 Y75.560 E0.02529
G1 X101.716 Y76.144 E0.02513
G1 X107.058 Y85.061 E0.32592
G1 X107.329 Y85.830 E0.02555
M204 S1250
; printing object RectangularTopHolesConnector_01 id:1 copy 0
G1 E-2.24000 F2400.000
;WIPE_START
G1 F7200.000
G1 X107.325 Y88.710 E-0.91200
;WIPE_END
G1 E-0.04800 F2400.000
G1 Z0.400 F9000.000
G1 X97.512 Y80.553
G1 Z0.200
G1 E3.20000 F1500.000
M204 S800
;TYPE:External perimeter
G1 F1200.000
G1 X97.272 Y80.868 E0.01241
G1 X97.064 Y81.053 E0.00871
G1 X96.721 Y81.257 E0.01254
G1 X96.339 Y81.378 E0.01254
G1 X96.063 Y81.410 E0.00871
G1 X95.669 Y81.380 E0.01241
G1 X95.405 Y81.307 E0.00858
G1 X95.155 Y81.195 E0.00858
G1 X94.831 Y80.967 E0.01241
G1 X94.639 Y80.767 E0.00871
G1 X94.421 Y80.432 E0.01254
G1 X94.286 Y80.055 E0.01254
G1 X94.244 Y79.781 E0.00871
G1 X94.259 Y79.381 E0.01254
G1 X94.366 Y78.991 E0.01267
G1 X94.557 Y78.640 E0.01255
G1 X94.735 Y78.426 E0.00871
G1 X95.042 Y78.174 E0.01247
G1 X95.285 Y78.048 E0.00858
G1 X95.544 Y77.957 E0.00862
G1 X95.934 Y77.914 E0.01231
G1 X96.324 Y77.930 E0.01223
G1 X96.593 Y78.000 E0.00872
G1 X96.952 Y78.169 E0.01243
G1 X97.170 Y78.336 E0.00862
G1 X97.361 Y78.532 E0.00858
G1 X97.576 Y78.865 E0.01242
G1 X97.680 Y79.122 E0.00871
G1 X97.756 Y79.515 E0.01254
G1 X97.741 Y79.919 E0.01267
G1 X97.635 Y80.305 E0.01254
G1 X97.538 Y80.500 E0.00683
M204 S1250
G1 X97.701 Y80.901 F9000.000
G1 E-2.24000 F2400.000
;WIPE_START
G1 F7200.000
G1 X97.272 Y80.868 E-0.14407
G1 X97.064 Y81.053 E-0.08793
G1 X96.721 Y81.257 E-0.12666
G1 X96.339 Y81.378 E-0.12666
G1 X96.063 Y81.410 E-0.08793
G1 X95.669 Y81.380 E-0.12537
G1 X95.405 Y81.307 E-0.08665
G1 X95.155 Y81.195 E-0.08665
G1 X95.052 Y81.122 E-0.04009
;WIPE_END
G1 E-0.04800 F2400.000
G1 Z0.400 F9000.000
G1 X97.305 Y77.933
G1 Z0.200
G1 E3.20000 F1500.000
M204 S800
;TYPE:Perimeter
G1 F1200.000
G1 X99.017 Y77.940 E0.05368
M73 P3 R16
G1 X99.092 Y77.965 E0.00247
G1 X99.177 Y78.037 E0.00350
G1 X99.210 Y78.158 E0.00392
G1 X99.213 Y81.771 E0.11327
G1 X99.252 Y82.398 E0.01971
G1 X99.325 Y82.835 E0.01389
G1 X99.432 Y83.259 E0.01370
G1 X99.574 Y83.672 E0.01370
G1 X99.750 Y84.072 E0.01370
G1 X99.958 Y84.457 E0.01370
G1 X100.200 Y84.828 E0.01389
G1 X100.605 Y85.327 E0.02017
G1 X100.919 Y85.640 E0.01389
G1 X101.257 Y85.927 E0.01389
G1 X101.793 Y86.293 E0.02036
G1 X102.370 Y86.590 E0.02036
G1 X102.783 Y86.751 E0.01389
G1 X103.202 Y86.876 E0.01370
G1 X103.630 Y86.966 E0.01370
G1 X104.213 Y87.024 E0.01838
G1 X104.213 Y87.463 E0.01378
G1 X75.787 Y87.463 E0.89127
G1 X75.787 Y87.026 E0.01369
G1 X76.115 Y87.002 E0.01030
G1 X76.757 Y86.887 E0.02048
G1 X77.381 Y86.692 E0.02048
G1 X77.790 Y86.516 E0.01398
G1 X78.178 Y86.309 E0.01378
G1 X78.548 Y86.071 E0.01378
G1 X78.901 Y85.799 E0.01398
G1 X79.370 Y85.353 E0.02029
G1 X79.660 Y85.014 E0.01398
G1 X79.920 Y84.652 E0.01398
G1 X80.242 Y84.090 E0.02031
G1 X80.429 Y83.664 E0.01460
G1 X80.623 Y83.061 E0.01985
G1 X80.715 Y82.625 E0.01397
G1 X80.769 Y82.189 E0.01378
G1 X80.787 Y81.765 E0.01331
G1 X80.799 Y78.102 E0.11485
G1 X80.841 Y78.017 E0.00300
G1 X80.895 Y77.967 E0.00228
G1 X81.030 Y77.937 E0.00435
G1 X82.737 Y77.936 E0.05353
G1 X82.467 Y78.158 E0.01095
G1 X82.244 Y78.428 E0.01100
G1 X82.014 Y78.850 E0.01506
G1 X81.884 Y79.323 E0.01540
G1 X81.866 Y79.804 E0.01510
G1 X81.923 Y80.163 E0.01140
G1 X82.078 Y80.590 E0.01423
G1 X82.256 Y80.890 E0.01095
G1 X82.575 Y81.248 E0.01504
G1 X82.968 Y81.524 E0.01504
G1 X83.277 Y81.663 E0.01062
G1 X83.604 Y81.753 E0.01062
G1 X84.082 Y81.790 E0.01504
G1 X84.558 Y81.716 E0.01510
G1 X84.899 Y81.591 E0.01140
G1 X85.299 Y81.352 E0.01459
G1 X85.652 Y81.012 E0.01537
G1 X85.913 Y80.610 E0.01504
G1 X86.044 Y80.285 E0.01098
G1 X86.133 Y79.825 E0.01469
G1 X86.133 Y79.475 E0.01098
G1 X86.043 Y79.015 E0.01469
G1 X85.913 Y78.690 E0.01098
G1 X85.657 Y78.296 E0.01472
G1 X85.309 Y77.937 E0.01569
G1 X94.736 Y77.937 E0.29557
G1 X94.467 Y78.158 E0.01090
G1 X94.244 Y78.428 E0.01099
G1 X94.014 Y78.850 E0.01506
G1 X93.884 Y79.323 E0.01540
G1 X93.866 Y79.803 E0.01504
G1 X93.919 Y80.149 E0.01098
G1 X94.081 Y80.600 E0.01504
G1 X94.342 Y81.003 E0.01504
G1 X94.585 Y81.255 E0.01098
G1 X94.968 Y81.524 E0.01468
G1 X95.277 Y81.663 E0.01062
G1 X95.604 Y81.753 E0.01062
G1 X96.071 Y81.789 E0.01469
G1 X96.418 Y81.749 E0.01098
G1 X96.876 Y81.604 E0.01504
G1 X97.288 Y81.359 E0.01504
G1 X97.550 Y81.126 E0.01098
G1 X97.834 Y80.753 E0.01469
G1 X97.989 Y80.439 E0.01098
G1 X98.116 Y79.977 E0.01504
G1 X98.135 Y79.486 E0.01540
G1 X98.043 Y79.015 E0.01504
G1 X97.913 Y78.690 E0.01098
G1 X97.657 Y78.296 E0.01472
G1 X97.347 Y77.976 E0.01399
M204 S1250
G1 E-2.24000 F2400.000
;WIPE_START
G1 F7200.000
G1 X99.017 Y77.940 E-0.52907
G1 X99.092 Y77.965 E-0.02493
G1 X99.177 Y78.037 E-0.03539
G1 X99.210 Y78.158 E-0.03961
G1 X99.211 Y79.051 E-0.28299
;WIPE_END
G1 E-0.04800 F2400.000
G1 Z0.400 F9000.000
G1 X85.756 Y79.511
G1 Z0.200
G1 E3.20000 F1500.000
M204 S800
;TYPE:External perimeter
G1 F1200.000
G1 X85.756 Y79.789 E0.00871
G1 X85.680 Y80.177 E0.01241
G1 X85.576 Y80.435 E0.00871
G1 X85.359 Y80.771 E0.01254
G1 X85.068 Y81.051 E0.01266
G1 X84.736 Y81.249 E0.01212
G1 X84.463 Y81.349 E0.00912
G1 X84.067 Y81.410 E0.01256
G1 X83.669 Y81.380 E0.01254
G1 X83.405 Y81.307 E0.00858
G1 X83.155 Y81.195 E0.00858
G1 X82.828 Y80.965 E0.01254
G1 X82.562 Y80.666 E0.01254
G1 X82.420 Y80.428 E0.00870
G1 X82.290 Y80.068 E0.01199
G1 X82.244 Y79.781 E0.00912
G1 X82.259 Y79.381 E0.01256
G1 X82.366 Y78.991 E0.01267
G1 X82.557 Y78.640 E0.01255
G1 X82.735 Y78.426 E0.00871
G1 X83.042 Y78.174 E0.01247
G1 X83.285 Y78.048 E0.00858
G1 X83.544 Y77.957 E0.00862
G1 X83.934 Y77.914 E0.01231
G1 X84.324 Y77.930 E0.01223
G1 X84.593 Y78.000 E0.00872
G1 X84.952 Y78.169 E0.01243
G1 X85.170 Y78.336 E0.00862
G1 X85.361 Y78.532 E0.00858
G1 X85.576 Y78.865 E0.01242
G1 X85.680 Y79.122 E0.00871
G1 X85.744 Y79.452 E0.01053
M204 S1250
G1 X86.008 Y79.628 F9000.000
G1 E-2.24000 F2400.000
;WIPE_START
G1 F7200.000
G1 X85.756 Y79.789 E-0.10664
G1 X85.680 Y80.177 E-0.12537
G1 X85.576 Y80.435 E-0.08793
G1 X85.359 Y80.771 E-0.12666
G1 X85.068 Y81.051 E-0.12785
G1 X84.736 Y81.249 E-0.12241
G1 X84.463 Y81.349 E-0.09206
G1 X84.079 Y81.408 E-0.12307
;WIPE_END
G1 E-0.04800 F2400.000
G1 Z0.400 F9000.000
G1 X80.467 Y77.902
G1 Z0.200
G1 E3.20000 F1500.000
M204 S800
G1 F1200.000
G1 X80.550 Y77.772 E0.00481
G1 X80.666 Y77.665 E0.00496
G1 X80.747 Y77.618 E0.00293
G1 X80.902 Y77.570 E0.00510
G1 X81.013 Y77.560 E0.00350
G1 X83.002 Y77.559 E0.06236
G1 X84.001 Y77.537 E0.03131
G1 X85.498 Y77.560 E0.04697
G1 X94.502 Y77.560 E0.28229
G1 X95.998 Y77.537 E0.04694
G1 X99.051 Y77.563 E0.09571
G1 X99.148 Y77.580 E0.00309
G1 X99.290 Y77.639 E0.00481
G1 X99.453 Y77.776 E0.00668
G1 X99.530 Y77.898 E0.00452
G1 X99.587 Y78.108 E0.00683
G1 X99.590 Y81.759 E0.11446
G1 X99.627 Y82.355 E0.01874
G1 X99.694 Y82.758 E0.01279
G1 X99.794 Y83.151 E0.01272
G1 X99.926 Y83.535 E0.01272
G1 X100.089 Y83.907 E0.01272
G1 X100.282 Y84.263 E0.01272
G1 X100.505 Y84.605 E0.01279
G1 X100.886 Y85.074 E0.01894
G1 X101.174 Y85.363 E0.01279
G1 X101.486 Y85.626 E0.01279
G1 X101.986 Y85.968 E0.01901
G1 X102.526 Y86.246 E0.01901
G1 X102.906 Y86.394 E0.01279
G1 X103.295 Y86.510 E0.01272
G1 X103.692 Y86.593 E0.01272
G1 X104.096 Y86.644 E0.01278
G1 X104.590 Y86.655 E0.01548
G1 X104.590 Y87.840 E0.03715
G1 X75.410 Y87.840 E0.91492
G1 X75.410 Y86.659 E0.03703
G1 X76.067 Y86.627 E0.02063
G1 X76.668 Y86.520 E0.01913
G1 X77.250 Y86.338 E0.01913
G1 X77.627 Y86.176 E0.01287
G1 X77.987 Y85.984 E0.01280
G1 X78.330 Y85.762 E0.01280
G1 X78.656 Y85.512 E0.01287
G1 X79.096 Y85.093 E0.01906
G1 X79.363 Y84.781 E0.01287
G1 X79.603 Y84.448 E0.01287
G1 X79.905 Y83.920 E0.01906
G1 X80.076 Y83.530 E0.01336
G1 X80.258 Y82.965 E0.01863
G1 X80.342 Y82.563 E0.01287
G1 X80.393 Y82.158 E0.01280
G1 X80.410 Y81.757 E0.01259
G1 X80.422 Y78.044 E0.11642
G1 X80.449 Y77.959 E0.00280
M204 S1250
G1 X80.619 Y77.880 F9000.000
G1 E-2.24000 F2400.000
;WIPE_START
G1 F7200.000
G1 X80.550 Y77.772 E-0.06714
G1 X80.666 Y77.665 E-0.05008
G1 X80.747 Y77.618 E-0.02958
G1 X80.902 Y77.570 E-0.05151
G1 X81.013 Y77.560 E-0.03536
G1 X83.002 Y77.559 E-0.62982
G1 X83.156 Y77.555 E-0.04851
;WIPE_END
G1 E-0.04800 F2400.000
G1 Z0.400 F9000.000
G1 X83.118 Y77.896
G1 Z0.200
M73 P4 R16
G1 E3.20000 F1500.000
M204 S800
;TYPE:Gap fill
;WIDTH:0.108666
G1 F1200.000
G1 X83.199 Y77.843 E0.00053
M204 S1250
M204 S800
;WIDTH:0.119126
G1 X83.290 Y77.792 E0.00066
G1 X83.476 Y77.758 E0.00120
M204 S1250
G1 E-2.24000 F2400.000
;WIPE_START
G1 F7200.000
G1 X83.290 Y77.792 E-0.05996
G1 X83.199 Y77.843 E-0.03299
;WIPE_END
G1 E-0.86705 F2400.000
G1 Z0.400 F9000.000
G1 X84.489 Y77.755
G1 Z0.200
G1 E3.20000 F1500.000
M204 S800
;WIDTH:0.133046
G1 F1200.000
G1 X84.942 Y77.830 E0.00344
M204 S1250
G1 X85.075 Y77.997 F9000.000
M204 S800
;WIDTH:0.12749
G1 F1200.000
G1 X84.712 Y77.736 E0.00314
M204 S1250
G1 E-2.24000 F2400.000
;WIPE_START
G1 F7200.000
G1 X85.075 Y77.997 E-0.14144
;WIPE_END
G1 E-0.81856 F2400.000
G1 Z0.400 F9000.000
G1 X95.118 Y77.896
G1 Z0.200
G1 E3.20000 F1500.000
M204 S800
;WIDTH:0.108662
G1 F1200.000
G1 X95.199 Y77.843 E0.00053
M204 S1250
M204 S800
;WIDTH:0.120372
G1 X95.296 Y77.789 E0.00072
G1 X95.487 Y77.755 E0.00125
M204 S1250
G1 E-2.24000 F2400.000
;WIPE_START
G1 F7200.000
G1 X95.296 Y77.789 E-0.06138
G1 X95.199 Y77.843 E-0.03526
;WIPE_END
G1 E-0.86336 F2400.000
G1 Z0.400 F9000.000
G1 X96.944 Y77.831
G1 Z0.200
G1 E3.20000 F1500.000
M204 S800
;WIDTH:0.12703
G1 F1200.000
G1 X96.519 Y77.763 E0.00301
M204 S1250
G1 X96.720 Y77.742 F9000.000
M204 S800
;WIDTH:0.12684
G1 F1200.000
G1 X97.075 Y77.997 E0.00305
M204 S1250
G1 E-2.24000 F2400.000
;WIPE_START
G1 F7200.000
G1 X96.720 Y77.742 E-0.13852
;WIPE_END
G1 E-0.82148 F2400.000
G1 Z0.400 F9000.000
G1 X99.097 Y78.902
G1 Z0.200
G1 E3.20000 F1500.000
M204 S800
;TYPE:Solid infill
;WIDTH:0.424209
G1 F1200.000
G1 X98.415 Y78.220 E0.03058
G1 X97.944 Y78.218 E0.01495
G1 X98.072 Y78.416 E0.00747
G1 X98.928 Y79.272 E0.03839
G1 X98.928 Y79.812 E0.01711
G1 X98.380 Y79.263 E0.02460
G1 X98.419 Y79.464 E0.00650
G1 X98.405 Y79.827 E0.01152
G1 X98.929 Y80.352 E0.02350
G1 X98.929 Y80.891 E0.01711
G1 X98.324 Y80.286 E0.02713
G1 X98.254 Y80.541 E0.00836
G1 X98.183 Y80.684 E0.00509
G1 X98.930 Y81.431 E0.03348
G1 X98.943 Y81.983 E0.01751
G1 X97.983 Y81.023 E0.04303
G1 X97.748 Y81.328 E0.01219
G1 X98.995 Y82.574 E0.05589
G1 X99.048 Y82.893 E0.01025
G1 X99.141 Y83.259 E0.01198
G1 X97.463 Y81.582 E0.07522
G1 X97.126 Y81.784 E0.01246
G1 X99.462 Y84.120 E0.10472
G1 X99.714 Y84.602 E0.01726
G1 X99.971 Y84.995 E0.01488
G1 X100.395 Y85.517 E0.02132
G1 X100.727 Y85.848 E0.01488
G1 X101.085 Y86.152 E0.01488
G1 X101.648 Y86.536 E0.02161
G1 X102.100 Y86.769 E0.01612
G1 X102.023 Y87.180 E0.01326
G1 X101.983 Y87.180 E0.00127
G1 X96.745 Y81.942 E0.23486
G1 X96.478 Y82.026 E0.00887
G1 X96.309 Y82.046 E0.00538
G1 X101.444 Y87.180 E0.23021
G1 X100.904 Y87.180 E0.01710
G1 X95.590 Y81.865 E0.23830
M204 S1250
G1 E-2.24000 F2400.000
;WIPE_START
G1 F7200.000
G1 X97.626 Y83.902 E-0.91200
;WIPE_END
G1 E-0.04800 F2400.000
G1 Z0.400 F9000.000
G1 X93.993 Y78.651
G1 Z0.200
G1 E3.20000 F1500.000
M204 S800
G1 F1200.000
G1 X93.562 Y78.220 E0.01934
G1 X93.023 Y78.220 E0.01710
G1 X93.706 Y78.903 E0.03065
G1 X93.600 Y79.337 E0.01415
G1 X92.483 Y78.220 E0.05009
G1 X91.944 Y78.220 E0.01710
G1 X93.792 Y80.068 E0.08286
M204 S1250
G1 E-2.24000 F2400.000
;WIPE_START
G1 F7200.000
G1 X91.944 Y78.220 E-0.82759
G1 X92.211 Y78.220 E-0.08441
;WIPE_END
G1 E-0.04800 F2400.000
G1 Z0.400 F9000.000
G1 X91.235 Y78.050
G1 Z0.200
G1 E3.20000 F1500.000
M204 S800
G1 F1200.000
G1 X93.778 Y80.593 E0.11402
G1 X93.826 Y80.726 E0.00449
G1 X94.119 Y81.179 E0.01711
G1 X94.400 Y81.471 E0.01282
G1 X94.827 Y81.771 E0.01657
G1 X95.061 Y81.876 E0.00813
G1 X100.365 Y87.180 E0.23780
G1 X99.826 Y87.180 E0.01710
G1 X90.866 Y78.220 E0.40175
G1 X90.326 Y78.220 E0.01710
G1 X99.287 Y87.180 E0.40175
G1 X98.748 Y87.180 E0.01710
G1 X89.787 Y78.220 E0.40175
G1 X89.248 Y78.220 E0.01710
G1 X98.208 Y87.180 E0.40175
G1 X97.669 Y87.180 E0.01710
G1 X88.709 Y78.220 E0.40175
G1 X88.170 Y78.220 E0.01710
G1 X97.130 Y87.180 E0.40175
M73 P5 R16
G1 X96.591 Y87.180 E0.01710
G1 X87.630 Y78.220 E0.40175
G1 X87.091 Y78.220 E0.01710
G1 X96.051 Y87.180 E0.40175
G1 X95.512 Y87.180 E0.01710
G1 X86.552 Y78.220 E0.40175
G1 X86.013 Y78.220 E0.01710
G1 X94.973 Y87.180 E0.40175
G1 X94.434 Y87.180 E0.01710
G1 X86.347 Y79.093 E0.36260
G1 X86.415 Y79.448 E0.01146
G1 X86.415 Y79.701 E0.00803
G1 X93.895 Y87.180 E0.33534
G1 X93.355 Y87.180 E0.01710
