; generated by PrusaSlicer 2.3.0+win64 on 2022-05-27 at 16:51:38 UTC


;
;

;
;
; 

; external perimeters extrusion width = 0.45mm
; perimeters extrusion width = 0.45mm
; infill extrusion width = 0.45mm
; solid infill extrusion width = 0.45mm
; top infill extrusion width = 0.40mm
; first layer extrusion width = 0.42mm

M73 P0 R47
M201 X1250 Y1250 Z400 E5000 ; sets maximum accelerations, mm/sec^2
M203 X180 Y180 Z12 E80 ; sets maximum feedrates, mm/sec
M204 P1250 R1250 T1250 ; sets acceleration (P, T) and retract acceleration (R), mm/sec^2
M205 X8.00 Y8.00 Z2.00 E10.00 ; sets the jerk limits, mm/sec
M205 S0 T0 ; sets the minimum extruding and travel feed rate, mm/sec
M107
;TYPE:Custom
G90 ; use absolute coordinates
M83 ; extruder relative mode
M104 S170 ; set extruder temp for bed leveling
M140 S85 ; set bed temp
M109 R170 ; wait for bed leveling temp
M190 S85 ; wait for bed temp
G28 ; home all without mesh bed level
G29 ; mesh bed leveling 
M104 S240 ; set extruder temp
G92 E0.0
G1 Y-2.0 X179 F2400
G1 Z3 F720
M109 S240 ; wait for extruder temp

; intro line
G1 X170 F1000
G1 Z0.2 F720
G1 X110.0 E8.0 F900
G1 X40.0 E10.0 F700
G92 E0.0

M221 S95 ; set flow
G21 ; set units to millimeters
G90 ; use absolute coordinates
M83 ; use relative distances for extrusion
M900 K0.2 ; Filament gcode
;LAYER_CHANGE
;Z:0.2
;HEIGHT:0.2
;BEFORE_LAYER_CHANGE
G92 E0.0
;0.2


G1 E-3.20000 F2400.000
G1 Z0.200 F9000.000
;AFTER_LAYER_CHANGE
;0.2
G1 Z0.400
G1 X38.717 Y51.034
G1 Z0.200
G1 E3.20000 F1500.000
M204 S800
;TYPE:Skirt
;WIDTH:0.42
G1 F1200.000
G1 X39.387 Y50.544 E0.02604
G1 X40.126 Y50.139 E0.02639
G1 X40.892 Y49.842 E0.02579
G1 X41.749 Y49.635 E0.02762
G1 X42.802 Y49.546 E0.03315
G1 X63.551 Y49.546 E0.65055
G1 X140.624 Y52.080 E2.41787
M73 P0 R46
G1 X141.468 Y52.207 E0.02675
G1 X142.238 Y52.427 E0.02511
G1 X143.561 Y53.077 E0.04623
G1 X144.196 Y53.545 E0.02474
G1 X144.797 Y54.118 E0.02603
G1 X145.322 Y54.770 E0.02626
G1 X145.737 Y55.446 E0.02486
G1 X146.260 Y56.769 E0.04459
G1 X146.473 Y58.107 E0.04250
G1 X146.459 Y60.726 E0.08212
G1 X146.173 Y62.153 E0.04563
G1 X133.617 Y92.705 E1.03568
G1 X106.591 Y126.343 E1.35292
G1 X106.147 Y126.791 E0.01981
G1 X105.620 Y127.152 E0.02001
G1 X104.841 Y127.466 E0.02633
G1 X103.996 Y127.577 E0.02674
G1 X82.397 Y127.577 E0.67722
G1 X81.621 Y127.478 E0.02453
G1 X80.940 Y127.230 E0.02274
G1 X80.241 Y126.770 E0.02622
G1 X47.126 Y98.259 E1.37010
M73 P1 R46
G1 X46.716 Y97.841 E0.01836
G1 X46.367 Y97.327 E0.01949
G1 X46.055 Y96.546 E0.02638
G1 X36.591 Y59.082 E1.21156
G1 X36.442 Y57.964 E0.03537
G1 X36.441 Y55.663 E0.07215
G1 X36.540 Y54.773 E0.02807
G1 X36.813 Y53.762 E0.03282
G1 X37.148 Y52.994 E0.02627
G1 X37.581 Y52.277 E0.02627
G1 X38.101 Y51.625 E0.02616
G1 X38.674 Y51.076 E0.02488
M204 S1250
; printing object RectangularTopHolesBlock_02_mirrored id:3 copy 0
G1 E-2.24000 F2400.000
;WIPE_START
G1 F7200.000
G1 X39.387 Y50.544 E-0.28180
G1 X40.126 Y50.139 E-0.26655
G1 X40.892 Y49.842 E-0.26047
G1 X41.209 Y49.766 E-0.10317
;WIPE_END
G1 E-0.04800 F2400.000
G1 Z0.400 F9000.000
G1 X97.125 Y119.705
G1 Z0.200
G1 E3.20000 F1500.000
M204 S800
;TYPE:Perimeter
G1 F1200.000
G1 X97.419 Y119.515 E0.01098
G1 X97.864 Y119.336 E0.01504
G1 X98.338 Y119.262 E0.01504
G1 X98.688 Y119.276 E0.01098
G1 X99.155 Y119.385 E0.01504
G1 X99.595 Y119.603 E0.01540
G1 X99.974 Y119.916 E0.01540
G1 X100.265 Y120.297 E0.01504
G1 X100.415 Y120.601 E0.01062
G1 X100.517 Y120.924 E0.01062
G1 X100.572 Y121.400 E0.01504
G1 X100.517 Y121.877 E0.01504
G1 X100.415 Y122.200 E0.01062
G1 X100.265 Y122.503 E0.01062
G1 X99.981 Y122.876 E0.01469
G1 X99.719 Y123.109 E0.01098
G1 X99.317 Y123.348 E0.01468
G1 X98.987 Y123.467 E0.01098
G1 X98.513 Y123.540 E0.01504
G1 X98.035 Y123.503 E0.01504
G1 X97.708 Y123.413 E0.01062
G1 X97.399 Y123.275 E0.01062
G1 X97.007 Y122.999 E0.01504
G1 X96.687 Y122.641 E0.01504
G1 X96.508 Y122.340 E0.01098
G1 X96.350 Y121.899 E0.01469
G1 X96.297 Y121.553 E0.01098
G1 X96.315 Y121.085 E0.01469
G1 X96.394 Y120.744 E0.01098
G1 X96.586 Y120.316 E0.01469
G1 X96.787 Y120.030 E0.01098
G1 X97.082 Y119.747 E0.01280
M204 S1250
G1 X97.343 Y120.019 F9000.000
M204 S800
;TYPE:External perimeter
G1 F1200.000
G1 X97.593 Y119.851 E0.00944
G1 X97.964 Y119.702 E0.01254
G1 X98.360 Y119.641 E0.01254
G1 X98.637 Y119.651 E0.00871
G1 X99.027 Y119.742 E0.01254
G1 X99.389 Y119.922 E0.01267
G1 X99.700 Y120.179 E0.01267
G1 X99.943 Y120.497 E0.01254
G1 X100.064 Y120.742 E0.00858
G1 X100.147 Y121.003 E0.00858
G1 X100.193 Y121.400 E0.01254
G1 X100.147 Y121.798 E0.01254
G1 X100.064 Y122.058 E0.00858
G1 X99.943 Y122.304 E0.00858
G1 X99.703 Y122.619 E0.01241
G1 X99.495 Y122.803 E0.00871
G1 X99.155 Y123.006 E0.01241
G1 X98.894 Y123.099 E0.00871
G1 X98.499 Y123.160 E0.01254
G1 X98.100 Y123.130 E0.01254
G1 X97.836 Y123.057 E0.00858
G1 X97.586 Y122.945 E0.00858
G1 X97.259 Y122.715 E0.01254
G1 X96.993 Y122.417 E0.01254
G1 X96.851 Y122.178 E0.00871
G1 X96.717 Y121.805 E0.01241
G1 X96.675 Y121.531 E0.00871
G1 X96.690 Y121.135 E0.01241
G1 X96.753 Y120.865 E0.00871
G1 X96.915 Y120.504 E0.01241
G1 X97.075 Y120.277 E0.00871
G1 X97.300 Y120.060 E0.00979
M204 S1250
G1 X97.297 Y119.721 F9000.000
G1 E-2.24000 F2400.000
;WIPE_START
G1 F7200.000
G1 X97.593 Y119.851 E-0.11408
G1 X97.964 Y119.702 E-0.12666
G1 X98.360 Y119.641 E-0.12666
G1 X98.637 Y119.651 E-0.08793
G1 X99.027 Y119.742 E-0.12666
G1 X99.389 Y119.922 E-0.12794
G1 X99.700 Y120.179 E-0.12795
G1 X99.842 Y120.365 E-0.07412
;WIPE_END
G1 E-0.04800 F2400.000
G1 Z0.400 F9000.000
G1 X88.417 Y120.600
G1 Z0.200
G1 E3.20000 F1500.000
M204 S800
;TYPE:Perimeter
G1 F1200.000
G1 X88.544 Y121.062 E0.01504
G1 X88.571 Y121.412 E0.01098
G1 X88.517 Y121.877 E0.01468
G1 X88.412 Y122.211 E0.01098
G1 X88.188 Y122.622 E0.01469
G1 X87.972 Y122.883 E0.01062
G1 X87.719 Y123.109 E0.01062
G1 X87.307 Y123.354 E0.01504
G1 X86.850 Y123.499 E0.01504
G1 X86.502 Y123.539 E0.01098
G1 X86.023 Y123.502 E0.01504
G1 X85.555 Y123.354 E0.01540
G1 X85.143 Y123.109 E0.01504
G1 X84.890 Y122.883 E0.01062
G1 X84.674 Y122.622 E0.01062
G1 X84.451 Y122.211 E0.01469
G1 X84.345 Y121.877 E0.01098
G1 X84.290 Y121.400 E0.01504
G1 X84.345 Y120.924 E0.01504
G1 X84.447 Y120.601 E0.01062
G1 X84.598 Y120.297 E0.01062
G1 X84.881 Y119.925 E0.01469
G1 X85.143 Y119.692 E0.01098
G1 X85.545 Y119.452 E0.01468
G1 X85.875 Y119.334 E0.01098
G1 X86.338 Y119.262 E0.01469
G1 X86.688 Y119.276 E0.01098
G1 X87.155 Y119.385 E0.01504
G1 X87.595 Y119.603 E0.01540
G1 X87.965 Y119.908 E0.01504
G1 X88.188 Y120.178 E0.01098
G1 X88.388 Y120.547 E0.01316
M204 S1250
G1 X88.057 Y120.727 F9000.000
M204 S800
;TYPE:External perimeter
G1 F1200.000
G1 X88.171 Y121.127 E0.01304
G1 X88.192 Y121.404 E0.00871
G1 X88.147 Y121.798 E0.01241
G1 X88.063 Y122.062 E0.00871
G1 X87.874 Y122.410 E0.01241
G1 X87.700 Y122.621 E0.00858
G1 X87.495 Y122.803 E0.00858
G1 X87.152 Y123.008 E0.01254
G1 X86.770 Y123.128 E0.01254
G1 X86.495 Y123.160 E0.00871
G1 X86.096 Y123.130 E0.01254
G1 X85.711 Y123.008 E0.01267
G1 X85.367 Y122.803 E0.01254
G1 X85.162 Y122.621 E0.00858
G1 X84.988 Y122.410 E0.00858
G1 X84.799 Y122.062 E0.01241
G1 X84.715 Y121.798 E0.00871
G1 X84.670 Y121.400 E0.01254
G1 X84.715 Y121.003 E0.01254
G1 X84.798 Y120.742 E0.00858
G1 X84.919 Y120.497 E0.00858
G1 X85.159 Y120.182 E0.01241
G1 X85.367 Y119.997 E0.00871
G1 X85.707 Y119.795 E0.01241
G1 X85.968 Y119.701 E0.00871
G1 X86.360 Y119.641 E0.01241
G1 X86.637 Y119.651 E0.00871
G1 X87.027 Y119.742 E0.01254
G1 X87.389 Y119.922 E0.01267
G1 X87.697 Y120.176 E0.01254
G1 X87.874 Y120.390 E0.00871
G1 X88.028 Y120.675 E0.01014
M204 S1250
G1 X88.453 Y120.785 F9000.000
G1 E-2.24000 F2400.000
;WIPE_START
G1 F7200.000
G1 X88.171 Y121.127 E-0.15034
G1 X88.192 Y121.404 E-0.08793
G1 X88.147 Y121.798 E-0.12537
G1 X88.063 Y122.062 E-0.08793
G1 X87.874 Y122.410 E-0.12537
G1 X87.700 Y122.621 E-0.08665
G1 X87.495 Y122.803 E-0.08665
G1 X87.152 Y123.008 E-0.12665
G1 X87.046 Y123.041 E-0.03511
;WIPE_END
G1 E-0.04800 F2400.000
G1 Z0.400 F9000.000
G1 X82.361 Y117.409
G1 Z0.200
G1 E3.20000 F1500.000
M204 S800
;TYPE:Perimeter
G1 F1200.000
G1 X82.486 Y117.387 E0.00399
G1 X103.973 Y117.391 E0.67372
G1 X104.080 Y117.419 E0.00345
G1 X104.125 Y117.447 E0.00166
G1 X104.172 Y117.530 E0.00299
G1 X104.194 Y117.655 E0.00398
G1 X104.191 Y124.193 E0.20497
G1 X104.162 Y124.299 E0.00346
G1 X104.064 Y124.389 E0.00417
G1 X103.926 Y124.413 E0.00440
G1 X82.390 Y124.402 E0.67525
G1 X82.289 Y124.355 E0.00349
G1 X82.240 Y124.270 E0.00307
G1 X82.218 Y124.145 E0.00398
G1 X82.221 Y117.595 E0.20538
G1 X82.261 Y117.481 E0.00378
G1 X82.309 Y117.439 E0.00200
M204 S1250
G1 X81.879 Y117.399 F9000.000
M204 S800
;TYPE:External perimeter
G1 F1200.000
G1 X81.949 Y117.263 E0.00481
G1 X82.050 Y117.153 E0.00467
G1 X82.230 Y117.049 E0.00653
G1 X82.454 Y117.010 E0.00711
G1 X104.023 Y117.013 E0.67630
G1 X104.234 Y117.070 E0.00683
G1 X104.426 Y117.215 E0.00755
G1 X104.532 Y117.399 E0.00667
G1 X104.571 Y117.623 E0.00711
G1 X104.568 Y124.242 E0.20755
G1 X104.511 Y124.453 E0.00683
G1 X104.432 Y124.578 E0.00467
G1 X104.318 Y124.682 E0.00481
G1 X104.187 Y124.751 E0.00466
G1 X103.959 Y124.790 E0.00726
G1 X82.449 Y124.790 E0.67442
G1 X82.283 Y124.769 E0.00524
G1 X82.090 Y124.679 E0.00668
G1 X81.984 Y124.581 E0.00452
G1 X81.880 Y124.401 E0.00653
G1 X81.841 Y124.178 E0.00711
G1 X81.844 Y117.554 E0.20770
G1 X81.866 Y117.458 E0.00308
M204 S1250
G1 X82.029 Y117.368 F9000.000
G1 E-2.24000 F2400.000
;WIPE_START
G1 F7200.000
G1 X81.949 Y117.263 E-0.06714
G1 X82.050 Y117.153 E-0.04713
G1 X82.230 Y117.049 E-0.06593
G1 X82.454 Y117.010 E-0.07178
G1 X84.538 Y117.011 E-0.66002
;WIPE_END
G1 E-0.04800 F2400.000
G1 Z0.400 F9000.000
G1 X103.244 Y117.504
G1 Z0.200
G1 E3.20000 F1500.000
M204 S800
;TYPE:Solid infill
;WIDTH:0.422936
G1 F1200.000
G1 X103.911 Y118.171 E0.02982
G1 X103.911 Y118.708 E0.01697
G1 X102.876 Y117.673 E0.04624
G1 X102.338 Y117.673 E0.01698
G1 X103.910 Y119.245 E0.07025
G1 X103.910 Y119.782 E0.01697
G1 X101.801 Y117.673 E0.09426
G1 X101.263 Y117.673 E0.01698
G1 X103.910 Y120.319 E0.11826
G1 X103.910 Y120.857 E0.01697
G1 X100.726 Y117.673 E0.14227
G1 X100.188 Y117.673 E0.01698
G1 X103.909 Y121.394 E0.16628
G1 X103.909 Y121.931 E0.01697
G1 X99.651 Y117.673 E0.19029
G1 X99.113 Y117.673 E0.01698
G1 X103.909 Y122.468 E0.21429
G1 X103.909 Y123.005 E0.01697
G1 X98.576 Y117.673 E0.23830
G1 X98.038 Y117.672 E0.01698
G1 X103.908 Y123.542 E0.26231
G1 X103.908 Y124.080 E0.01697
G1 X100.808 Y120.980 E0.13852
G1 X100.857 Y121.400 E0.01337
G1 X100.840 Y121.549 E0.00472
G1 X103.421 Y124.130 E0.11537
G1 X102.884 Y124.130 E0.01698
G1 X100.770 Y122.016 E0.09448
G1 X100.678 Y122.306 E0.00960
G1 X100.626 Y122.410 E0.00368
G1 X102.347 Y124.130 E0.07687
G1 X101.809 Y124.130 E0.01698
G1 X100.431 Y122.752 E0.06160
G1 X100.198 Y123.057 E0.01212
G1 X101.272 Y124.130 E0.04797
G1 X100.734 Y124.130 E0.01698
G1 X99.916 Y123.312 E0.03656
G1 X99.585 Y123.518 E0.01233
G1 X100.197 Y124.130 E0.02736
G1 X99.659 Y124.130 E0.01698
G1 X99.215 Y123.685 E0.01988
G1 X99.057 Y123.742 E0.00528
G1 X98.777 Y123.785 E0.00896
G1 X99.122 Y124.130 E0.01542
G1 X98.585 Y124.130 E0.01698
G1 X98.074 Y123.619 E0.02283
M204 S1250
G1 E-2.24000 F2400.000
;WIPE_START
G1 F7200.000
G1 X98.585 Y124.130 E-0.22878
G1 X99.122 Y124.130 E-0.17018
G1 X98.777 Y123.785 E-0.15457
G1 X99.057 Y123.742 E-0.08982
G1 X99.215 Y123.685 E-0.05293
G1 X99.659 Y124.130 E-0.19927
G1 X99.711 Y124.130 E-0.01645
;WIPE_END
G1 E-0.04800 F2400.000
G1 Z0.400 F9000.000
G1 X99.080 Y119.251
G1 Z0.200
G1 E3.20000 F1500.000
M204 S800
G1 F1200.000
G1 X97.501 Y117.672 E0.07056
G1 X96.963 Y117.672 E0.01698
G1 X98.277 Y118.986 E0.05869
G1 X97.811 Y119.058 E0.01488
G1 X96.426 Y117.672 E0.06191
G1 X95.888 Y117.672 E0.01698
G1 X97.424 Y119.208 E0.06863
G1 X97.288 Y119.263 E0.00464
G1 X97.078 Y119.399 E0.00791
G1 X95.351 Y117.672 E0.07717
G1 X94.813 Y117.672 E0.01698
G1 X96.783 Y119.642 E0.08802
G1 X96.572 Y119.845 E0.00927
G1 X96.521 Y119.917 E0.00278
G1 X94.276 Y117.672 E0.10033
G1 X93.738 Y117.672 E0.01698
G1 X96.309 Y120.243 E0.11488
G1 X96.143 Y120.614 E0.01285
G1 X93.201 Y117.672 E0.13147
G1 X92.663 Y117.672 E0.01698
G1 X96.034 Y121.042 E0.15063
G1 X96.013 Y121.559 E0.01634
G1 X92.126 Y117.672 E0.17372
G1 X91.588 Y117.671 E0.01698
G1 X96.181 Y122.264 E0.20522
G1 X96.251 Y122.461 E0.00661
G1 X96.458 Y122.808 E0.01278
G1 X96.817 Y123.211 E0.01705
G1 X97.258 Y123.522 E0.01705
G1 X97.585 Y123.668 E0.01130
G1 X98.047 Y124.130 E0.02066
G1 X97.510 Y124.130 E0.01698
G1 X91.051 Y117.671 E0.28863
G1 X90.513 Y117.671 E0.01698
G1 X96.972 Y124.130 E0.28863
G1 X96.435 Y124.130 E0.01698
G1 X89.976 Y117.671 E0.28864
G1 X89.438 Y117.671 E0.01698
G1 X95.898 Y124.130 E0.28864
G1 X95.360 Y124.130 E0.01698
G1 X88.901 Y117.671 E0.28865
G1 X88.363 Y117.671 E0.01698
G1 X94.823 Y124.130 E0.28865
G1 X94.285 Y124.130 E0.01698
G1 X87.826 Y117.671 E0.28865
G1 X87.288 Y117.671 E0.01698
G1 X93.748 Y124.130 E0.28866
G1 X93.210 Y124.130 E0.01698
G1 X86.751 Y117.671 E0.28866
G1 X86.213 Y117.671 E0.01698
G1 X92.673 Y124.130 E0.28866
G1 X92.136 Y124.130 E0.01698
G1 X88.750 Y120.745 E0.15128
G1 X88.681 Y120.493 E0.00824
G1 X88.423 Y120.019 E0.01705
G1 X88.166 Y119.707 E0.01278
G1 X87.750 Y119.364 E0.01705
G1 X87.251 Y119.117 E0.01758
G1 X87.083 Y119.078 E0.00545
G1 X85.676 Y117.671 E0.06289
G1 X85.138 Y117.671 E0.01698
G1 X86.452 Y118.984 E0.05869
M73 P2 R46
G1 X86.322 Y118.979 E0.00411
G1 X85.964 Y119.034 E0.01142
G1 X84.601 Y117.670 E0.06093
G1 X84.063 Y117.670 E0.01698
G1 X85.545 Y119.152 E0.06621
G1 X85.424 Y119.195 E0.00405
G1 X85.190 Y119.335 E0.00861
G1 X83.526 Y117.670 E0.07437
G1 X82.988 Y117.670 E0.01698
G1 X84.872 Y119.554 E0.08418
G1 X84.673 Y119.732 E0.00843
G1 X84.603 Y119.823 E0.00363
G1 X82.504 Y117.723 E0.09381
G1 X82.504 Y118.261 E0.01697
G1 X84.371 Y120.128 E0.08344
G1 X84.190 Y120.484 E0.01263
G1 X82.504 Y118.798 E0.07534
G1 X82.503 Y119.335 E0.01697
G1 X84.064 Y120.895 E0.06972
G1 X84.008 Y121.377 E0.01533
G1 X82.333 Y119.703 E0.07483
M204 S1250
G1 E-2.24000 F2400.000
;WIPE_START
G1 F7200.000
G1 X84.008 Y121.377 E-0.74990
G1 X84.064 Y120.895 E-0.15358
G1 X84.045 Y120.876 E-0.00851
;WIPE_END
G1 E-0.04800 F2400.000
G1 Z0.400 F9000.000
G1 X88.668 Y121.200
G1 Z0.200
G1 E3.20000 F1500.000
M204 S800
G1 F1200.000
G1 X91.598 Y124.130 E0.13093
G1 X91.061 Y124.130 E0.01698
G1 X88.802 Y121.872 E0.10092
G1 X88.683 Y122.290 E0.01374
G1 X90.523 Y124.130 E0.08224
G1 X89.986 Y124.130 E0.01698
G1 X88.498 Y122.643 E0.06647
G1 X88.423 Y122.781 E0.00497
G1 X88.277 Y122.959 E0.00728
G1 X89.448 Y124.130 E0.05236
G1 X88.911 Y124.130 E0.01698
G1 X88.010 Y123.229 E0.04028
G1 X87.887 Y123.338 E0.00518
G1 X87.695 Y123.452 E0.00705
G1 X88.374 Y124.130 E0.03031
G1 X87.836 Y124.130 E0.01698
G1 X87.345 Y123.639 E0.02197
G1 X86.936 Y123.768 E0.01353
G1 X87.299 Y124.130 E0.01620
G1 X86.761 Y124.130 E0.01698
G1 X86.265 Y123.634 E0.02217
M204 S1250
G1 X86.394 Y124.300 F9000.000
M204 S800
G1 F1200.000
G1 X85.832 Y123.738 E0.02511
G1 X85.439 Y123.614 E0.01302
G1 X84.975 Y123.338 E0.01705
G1 X84.686 Y123.080 E0.01225
G1 X84.439 Y122.781 E0.01225
G1 X84.189 Y122.322 E0.01652
G1 X84.084 Y121.991 E0.01097
G1 X82.503 Y120.409 E0.07068
G1 X82.503 Y120.946 E0.01697
G1 X85.686 Y124.130 E0.14228
G1 X85.149 Y124.130 E0.01698
G1 X82.502 Y121.484 E0.11828
G1 X82.502 Y122.021 E0.01697
G1 X84.612 Y124.130 E0.09427
G1 X84.074 Y124.130 E0.01698
G1 X82.502 Y122.558 E0.07027
G1 X82.502 Y123.095 E0.01697
G1 X83.537 Y124.130 E0.04626
G1 X82.999 Y124.130 E0.01698
G1 X82.332 Y123.463 E0.02984
M204 S1250
; stop printing object RectangularTopHolesBlock_02_mirrored id:3 copy 0
; printing object RectangularTopHolesBlock_02_mirrored id:2 copy 0
G1 E-2.24000 F2400.000
;WIPE_START
G1 F7200.000
G1 X82.999 Y124.130 E-0.29902
G1 X83.537 Y124.130 E-0.17018
G1 X82.548 Y123.142 E-0.44280
;WIPE_END
G1 E-0.04800 F2400.000
G1 Z0.400 F9000.000
G1 X113.253 Y89.842
G1 Z0.200
G1 E3.20000 F1500.000
M204 S800
;TYPE:Perimeter
;WIDTH:0.42
G1 F1200.000
G1 X112.934 Y89.484 E0.01504
G1 X112.755 Y89.183 E0.01098
G1 X112.596 Y88.743 E0.01468
G1 X112.543 Y88.396 E0.01098
G1 X112.561 Y87.917 E0.01504
