; generated by PrusaSlicer 2.3.0+win64 on 2022-05-21 at 18:44:33 UTC


;
;

;
;
; 

; external perimeters extrusion width = 0.45mm
; perimeters extrusion width = 0.45mm
; infill extrusion width = 0.45mm
; solid infill extrusion width = 0.45mm
; top infill extrusion width = 0.40mm
; first layer extrusion width = 0.42mm

M73 P0 R6
M201 X1250 Y1250 Z400 E5000 ; sets maximum accelerations, mm/sec^2
M203 X180 Y180 Z12 E80 ; sets maximum feedrates, mm/sec
M204 P1250 R1250 T1250 ; sets acceleration (P, T) and retract acceleration (R), mm/sec^2
M205 X8.00 Y8.00 Z2.00 E10.00 ; sets the jerk limits, mm/sec
M205 S0 T0 ; sets the minimum extruding and travel feed rate, mm/sec
M107
;TYPE:Custom
G90 ; use absolute coordinates
M83 ; extruder relative mode
M104 S170 ; set extruder temp for bed leveling
M140 S85 ; set bed temp
M109 R170 ; wait for bed leveling temp
M190 S85 ; wait for bed temp
G28 ; home all without mesh bed level
G29 ; mesh bed leveling 
M104 S240 ; set extruder temp
G92 E0.0
G1 Y-2.0 X179 F2400
M73 P1 R6
G1 Z3 F720
M109 S240 ; wait for extruder temp

; intro line
G1 X170 F1000
G1 Z0.2 F720
G1 X110.0 E8.0 F900
M73 P2 R6
G1 X40.0 E10.0 F700
G92 E0.0

M221 S95 ; set flow
G21 ; set units to millimeters
G90 ; use absolute coordinates
M83 ; use relative distances for extrusion
M900 K0.2 ; Filament gcode
;LAYER_CHANGE
;Z:0.2
;HEIGHT:0.2
;BEFORE_LAYER_CHANGE
G92 E0.0
;0.2


M73 P4 R6
G1 E-3.20000 F2400.000
G1 Z0.200 F9000.000
;AFTER_LAYER_CHANGE
;0.2
G1 Z0.400
G1 X77.278 Y59.837
G1 Z0.200
G1 E3.20000 F1500.000
M204 S800
;TYPE:Skirt
;WIDTH:0.42
G1 F1200.000
G1 X77.870 Y59.153 E0.02838
G1 X78.576 Y58.648 E0.02719
G1 X79.416 Y58.307 E0.02845
G1 X80.339 Y58.178 E0.02919
G1 X101.447 Y58.177 E0.66185
G1 X102.098 Y58.235 E0.02048
G1 X102.757 Y58.415 E0.02141
G1 X103.354 Y58.700 E0.02077
G1 X103.913 Y59.106 E0.02165
G1 X104.373 Y59.584 E0.02079
G1 X104.767 Y60.188 E0.02263
G1 X105.038 Y60.852 E0.02247
G1 X105.172 Y61.504 E0.02087
G1 X105.197 Y69.540 E0.25196
G1 X105.145 Y70.154 E0.01933
G1 X104.930 Y70.921 E0.02499
G1 X104.510 Y71.697 E0.02766
G1 X103.922 Y72.350 E0.02754
G1 X103.261 Y72.815 E0.02536
G1 X102.420 Y73.156 E0.02845
G1 X101.498 Y73.285 E0.02919
G1 X80.162 Y73.278 E0.66897
M73 P5 R6
G1 X79.219 Y73.097 E0.03010
G1 X78.422 Y72.726 E0.02755
G1 X77.700 Y72.146 E0.02907
G1 X77.109 Y71.349 E0.03108
G1 X76.782 Y70.557 E0.02687
G1 X76.646 Y69.745 E0.02580
G1 X76.661 Y61.537 E0.25738
G1 X76.862 Y60.657 E0.02830
G1 X77.251 Y59.890 E0.02695
M204 S1250
G1 X77.620 Y60.005 F9000.000
M204 S800
G1 F1200.000
G1 X78.190 Y59.372 E0.02669
G1 X78.867 Y58.920 E0.02554
G1 X79.560 Y58.660 E0.02321
G1 X80.354 Y58.555 E0.02512
G1 X101.447 Y58.554 E0.66135
G1 X102.045 Y58.609 E0.01882
G1 X102.654 Y58.779 E0.01985
G1 X103.200 Y59.048 E0.01905
G1 X103.737 Y59.455 E0.02114
G1 X104.169 Y59.938 E0.02032
G1 X104.475 Y60.445 E0.01858
G1 X104.691 Y61.008 E0.01890
G1 X104.802 Y61.587 E0.01850
G1 X104.774 Y70.088 E0.26654
G1 X104.546 Y70.863 E0.02532
G1 X104.179 Y71.511 E0.02336
G1 X103.629 Y72.106 E0.02539
G1 X102.971 Y72.542 E0.02476
G1 X102.276 Y72.804 E0.02327
G1 X101.482 Y72.908 E0.02512
G1 X80.177 Y72.901 E0.66801
M73 P6 R6
G1 X79.286 Y72.722 E0.02850
G1 X78.510 Y72.335 E0.02717
G1 X77.846 Y71.749 E0.02776
G1 X77.381 Y71.058 E0.02613
G1 X77.123 Y70.373 E0.02294
G1 X77.018 Y69.616 E0.02396
G1 X77.037 Y61.563 E0.25249
G1 X77.223 Y60.768 E0.02562
G1 X77.592 Y60.058 E0.02508
M204 S1250
; printing object RectangularTopHolesBlock_01 id:0 copy 0
G1 E-2.24000 F2400.000
;WIPE_START
G1 F7200.000
G1 X78.190 Y59.372 E-0.28803
G1 X78.867 Y58.920 E-0.25790
G1 X79.560 Y58.660 E-0.23438
G1 X79.972 Y58.605 E-0.13169
;WIPE_END
G1 E-0.04800 F2400.000
G1 Z0.400 F9000.000
G1 X94.100 Y65.097
G1 Z0.200
G1 E3.20000 F1500.000
M204 S800
;TYPE:Perimeter
G1 F1200.000
G1 X94.230 Y64.772 E0.01098
G1 X94.491 Y64.370 E0.01502
G1 X94.827 Y64.044 E0.01468
G1 X95.129 Y63.847 E0.01132
G1 X95.576 Y63.667 E0.01509
G1 X96.060 Y63.592 E0.01538
G1 X96.527 Y63.627 E0.01468
G1 X96.865 Y63.718 E0.01096
G1 X97.175 Y63.857 E0.01067
G1 X97.567 Y64.133 E0.01502
G1 X97.879 Y64.481 E0.01468
G1 X98.065 Y64.790 E0.01130
G1 X98.221 Y65.221 E0.01436
G1 X98.278 Y65.578 E0.01132
G1 X98.259 Y66.058 E0.01509
G1 X98.132 Y66.521 E0.01504
G1 X97.977 Y66.835 E0.01098
G1 X97.693 Y67.207 E0.01469
G1 X97.431 Y67.440 E0.01098
G1 X97.019 Y67.685 E0.01504
G1 X96.562 Y67.830 E0.01504
G1 X96.214 Y67.870 E0.01096
G1 X95.759 Y67.836 E0.01432
G1 X95.421 Y67.745 E0.01096
G1 X95.111 Y67.606 E0.01067
G1 X94.728 Y67.337 E0.01469
G1 X94.485 Y67.084 E0.01098
G1 X94.224 Y66.682 E0.01504
G1 X94.062 Y66.230 E0.01504
G1 X94.010 Y65.895 E0.01062
G1 X94.010 Y65.556 E0.01062
G1 X94.088 Y65.156 E0.01280
M204 S1250
G1 X94.458 Y65.227 F9000.000
M204 S800
;TYPE:External perimeter
G1 F1200.000
G1 X94.567 Y64.946 E0.00944
G1 X94.784 Y64.611 E0.01253
G1 X95.064 Y64.340 E0.01220
G1 X95.305 Y64.183 E0.00903
G1 X95.676 Y64.033 E0.01256
G1 X96.075 Y63.971 E0.01266
G1 X96.464 Y64.000 E0.01220
G1 X96.738 Y64.074 E0.00891
G1 X96.988 Y64.186 E0.00860
G1 X97.315 Y64.416 E0.01253
G1 X97.575 Y64.706 E0.01220
G1 X97.723 Y64.953 E0.00903
G1 X97.854 Y65.316 E0.01209
G1 X97.899 Y65.600 E0.00903
G1 X97.884 Y66.000 E0.01256
G1 X97.778 Y66.386 E0.01254
G1 X97.655 Y66.635 E0.00871
G1 X97.415 Y66.950 E0.01241
G1 X97.207 Y67.135 E0.00871
G1 X96.864 Y67.339 E0.01254
G1 X96.482 Y67.460 E0.01254
G1 X96.207 Y67.491 E0.00870
G1 X95.823 Y67.463 E0.01208
G1 X95.548 Y67.389 E0.00891
G1 X95.298 Y67.277 E0.00859
G1 X94.974 Y67.049 E0.01241
G1 X94.782 Y66.849 E0.00871
G1 X94.564 Y66.513 E0.01254
G1 X94.429 Y66.137 E0.01254
G1 X94.388 Y65.866 E0.00858
G1 X94.388 Y65.593 E0.00858
G1 X94.447 Y65.286 E0.00979
M204 S1250
G1 X94.250 Y65.010 F9000.000
G1 E-2.24000 F2400.000
;WIPE_START
G1 F7200.000
G1 X94.567 Y64.946 E-0.11409
G1 X94.784 Y64.611 E-0.12658
G1 X95.064 Y64.340 E-0.12326
G1 X95.305 Y64.183 E-0.09123
G1 X95.676 Y64.033 E-0.12682
G1 X96.075 Y63.971 E-0.12787
G1 X96.464 Y64.000 E-0.12327
G1 X96.704 Y64.065 E-0.07889
;WIPE_END
G1 E-0.04800 F2400.000
G1 Z0.400 F9000.000
G1 X86.062 Y64.781
G1 Z0.200
G1 E3.20000 F1500.000
M204 S800
;TYPE:Perimeter
G1 F1200.000
G1 X86.224 Y65.233 E0.01504
G1 X86.276 Y65.568 E0.01062
G1 X86.276 Y65.907 E0.01062
G1 X86.187 Y66.366 E0.01469
G1 X86.056 Y66.691 E0.01098
G1 X85.795 Y67.093 E0.01502
G1 X85.459 Y67.419 E0.01468
M73 P7 R6
G1 X85.157 Y67.616 E0.01132
G1 X84.710 Y67.796 E0.01509
G1 X84.225 Y67.871 E0.01540
G1 X83.735 Y67.833 E0.01540
G1 X83.267 Y67.685 E0.01540
G1 X82.855 Y67.440 E0.01504
G1 X82.593 Y67.207 E0.01098
G1 X82.310 Y66.835 E0.01469
G1 X82.159 Y66.531 E0.01062
G1 X82.057 Y66.208 E0.01062
G1 X82.002 Y65.732 E0.01504
G1 X82.057 Y65.255 E0.01504
G1 X82.159 Y64.932 E0.01062
G1 X82.310 Y64.628 E0.01062
G1 X82.593 Y64.256 E0.01469
G1 X82.855 Y64.023 E0.01098
G1 X83.267 Y63.778 E0.01504
G1 X83.725 Y63.633 E0.01504
G1 X84.072 Y63.593 E0.01096
G1 X84.527 Y63.627 E0.01432
G1 X84.865 Y63.718 E0.01096
G1 X85.175 Y63.857 E0.01067
G1 X85.558 Y64.127 E0.01469
G1 X85.801 Y64.379 E0.01098
G1 X86.029 Y64.731 E0.01316
M204 S1250
G1 X85.713 Y64.936 F9000.000
M204 S800
;TYPE:External perimeter
G1 F1200.000
G1 X85.857 Y65.326 E0.01304
G1 X85.899 Y65.597 E0.00858
G1 X85.899 Y65.870 E0.00858
G1 X85.823 Y66.259 E0.01241
G1 X85.720 Y66.517 E0.00871
G1 X85.502 Y66.852 E0.01253
G1 X85.222 Y67.123 E0.01220
G1 X84.981 Y67.280 E0.00903
G1 X84.610 Y67.430 E0.01256
G1 X84.211 Y67.492 E0.01267
G1 X83.808 Y67.461 E0.01267
G1 X83.423 Y67.339 E0.01267
G1 X83.079 Y67.135 E0.01254
G1 X82.871 Y66.950 E0.00871
G1 X82.631 Y66.635 E0.01241
G1 X82.510 Y66.390 E0.00858
G1 X82.427 Y66.129 E0.00858
G1 X82.382 Y65.732 E0.01254
G1 X82.427 Y65.334 E0.01254
G1 X82.510 Y65.073 E0.00858
G1 X82.631 Y64.828 E0.00858
G1 X82.871 Y64.513 E0.01241
G1 X83.079 Y64.329 E0.00871
G1 X83.423 Y64.124 E0.01254
G1 X83.804 Y64.003 E0.01254
G1 X84.079 Y63.972 E0.00870
G1 X84.464 Y64.000 E0.01208
G1 X84.738 Y64.074 E0.00891
G1 X84.988 Y64.186 E0.00859
G1 X85.312 Y64.414 E0.01241
G1 X85.504 Y64.614 E0.00871
G1 X85.680 Y64.886 E0.01014
M204 S1250
G1 X86.112 Y64.964 F9000.000
G1 E-2.24000 F2400.000
;WIPE_START
G1 F7200.000
G1 X85.857 Y65.326 E-0.15034
G1 X85.899 Y65.597 E-0.08665
G1 X85.899 Y65.870 E-0.08665
G1 X85.823 Y66.259 E-0.12537
G1 X85.720 Y66.517 E-0.08793
G1 X85.502 Y66.852 E-0.12658
G1 X85.222 Y67.123 E-0.12326
G1 X84.981 Y67.280 E-0.09123
G1 X84.882 Y67.321 E-0.03399
;WIPE_END
G1 E-0.04800 F2400.000
G1 Z0.400 F9000.000
G1 X80.310 Y61.743
G1 Z0.200
G1 E3.20000 F1500.000
M204 S800
;TYPE:Perimeter
G1 F1200.000
G1 X80.448 Y61.719 E0.00440
G1 X101.435 Y61.722 E0.65804
G1 X101.542 Y61.750 E0.00345
G1 X101.587 Y61.779 E0.00166
G1 X101.634 Y61.861 E0.00299
G1 X101.656 Y61.987 E0.00398
G1 X101.641 Y69.590 E0.23840
G1 X101.562 Y69.702 E0.00429
G1 X101.388 Y69.744 E0.00563
G1 X80.352 Y69.734 E0.65957
M73 P8 R6
G1 X80.251 Y69.687 E0.00349
G1 X80.202 Y69.602 E0.00307
G1 X80.180 Y69.477 E0.00398
G1 X80.183 Y61.939 E0.23633
G1 X80.212 Y61.833 E0.00346
G1 X80.260 Y61.775 E0.00236
M204 S1250
G1 X80.056 Y61.450 F9000.000
M204 S800
;TYPE:External perimeter
G1 F1200.000
G1 X80.188 Y61.381 E0.00466
G1 X80.416 Y61.342 E0.00726
G1 X101.485 Y61.345 E0.66062
G1 X101.696 Y61.401 E0.00683
G1 X101.888 Y61.546 E0.00755
G1 X101.994 Y61.731 E0.00667
G1 X102.033 Y61.954 E0.00711
G1 X102.030 Y69.578 E0.23905
G1 X101.997 Y69.728 E0.00481
G1 X101.890 Y69.913 E0.00668
G1 X101.780 Y70.013 E0.00467
G1 X101.649 Y70.082 E0.00466
G1 X101.421 Y70.122 E0.00726
G1 X80.411 Y70.122 E0.65874
G1 X80.245 Y70.100 E0.00524
G1 X80.052 Y70.010 E0.00668
G1 X79.946 Y69.913 E0.00452
G1 X79.842 Y69.732 E0.00653
G1 X79.803 Y69.509 E0.00711
G1 X79.806 Y61.890 E0.23891
G1 X79.863 Y61.679 E0.00683
G1 X79.943 Y61.554 E0.00467
G1 X80.012 Y61.490 E0.00293
M204 S1250
G1 X80.190 Y61.513 F9000.000
G1 E-2.24000 F2400.000
;WIPE_START
M73 P9 R6
G1 F7200.000
G1 X80.188 Y61.381 E-0.06560
G1 X80.416 Y61.342 E-0.07327
G1 X82.857 Y61.342 E-0.77313
;WIPE_END
G1 E-0.04800 F2400.000
G1 Z0.400 F9000.000
G1 X101.543 Y62.671
G1 Z0.200
G1 E3.20000 F1500.000
M204 S800
;TYPE:Solid infill
;WIDTH:0.422446
G1 F1200.000
G1 X100.876 Y62.005 E0.02973
G1 X100.340 Y62.004 E0.01694
G1 X101.373 Y63.038 E0.04611
G1 X101.373 Y63.574 E0.01693
G1 X99.803 Y62.004 E0.07005
G1 X99.266 Y62.004 E0.01694
G1 X101.372 Y64.111 E0.09400
G1 X101.372 Y64.647 E0.01693
G1 X98.729 Y62.004 E0.11795
G1 X98.192 Y62.004 E0.01694
G1 X101.372 Y65.184 E0.14190
G1 X101.372 Y65.720 E0.01693
G1 X97.656 Y62.004 E0.16584
G1 X97.119 Y62.004 E0.01694
G1 X101.371 Y66.257 E0.18979
G1 X101.371 Y66.793 E0.01693
G1 X96.582 Y62.004 E0.21374
G1 X96.045 Y62.004 E0.01694
G1 X101.371 Y67.330 E0.23769
G1 X101.371 Y67.866 E0.01693
G1 X98.406 Y64.901 E0.13232
G1 X98.322 Y64.668 E0.00782
G1 X98.108 Y64.313 E0.01309
G1 X97.756 Y63.920 E0.01664
G1 X97.316 Y63.610 E0.01700
G1 X96.954 Y63.449 E0.01251
G1 X95.508 Y62.004 E0.06450
G1 X94.972 Y62.004 E0.01694
G1 X96.294 Y63.326 E0.05901
G1 X96.049 Y63.308 E0.00774
G1 X95.780 Y63.349 E0.00858
G1 X94.435 Y62.004 E0.06005
G1 X93.898 Y62.003 E0.01694
G1 X95.348 Y63.454 E0.06472
M73 P10 R6
G1 X94.971 Y63.613 E0.01293
G1 X93.361 Y62.003 E0.07183
G1 X92.824 Y62.003 E0.01694
G1 X94.647 Y63.826 E0.08134
G1 X94.374 Y64.090 E0.01198
G1 X92.287 Y62.003 E0.09311
G1 X91.751 Y62.003 E0.01694
G1 X94.140 Y64.392 E0.10662
G1 X93.978 Y64.641 E0.00936
G1 X93.942 Y64.731 E0.00307
G1 X91.214 Y62.003 E0.12176
G1 X90.677 Y62.003 E0.01694
G1 X93.805 Y65.131 E0.13959
G1 X93.728 Y65.590 E0.01470
G1 X90.140 Y62.003 E0.16010
G1 X89.603 Y62.003 E0.01694
G1 X94.004 Y66.404 E0.19641
M204 S1250
G1 E-2.24000 F2400.000
;WIPE_START
G1 F7200.000
G1 X91.968 Y64.367 E-0.91200
;WIPE_END
G1 E-0.04800 F2400.000
G1 Z0.400 F9000.000
G1 X98.363 Y65.395
G1 Z0.200
G1 E3.20000 F1500.000
M204 S800
G1 F1200.000
G1 X101.370 Y68.403 E0.13422
G1 X101.370 Y68.939 E0.01693
G1 X98.539 Y66.108 E0.12636
G1 X98.423 Y66.529 E0.01378
G1 X101.356 Y69.462 E0.13089
G1 X100.819 Y69.462 E0.01694
G1 X98.259 Y66.901 E0.11426
G1 X98.218 Y66.985 E0.00293
G1 X98.040 Y67.219 E0.00929
G1 X100.283 Y69.462 E0.10010
G1 X99.746 Y69.462 E0.01694
G1 X97.787 Y67.502 E0.08744
G1 X97.599 Y67.669 E0.00792
G1 X97.485 Y67.737 E0.00420
G1 X99.209 Y69.462 E0.07695
G1 X98.672 Y69.462 E0.01694
G1 X97.148 Y67.937 E0.06802
M73 P11 R6
G1 X96.743 Y68.069 E0.01344
G1 X98.136 Y69.462 E0.06214
G1 X97.599 Y69.462 E0.01694
G1 X96.284 Y68.147 E0.05868
G1 X95.717 Y68.117 E0.01791
G1 X97.062 Y69.462 E0.06003
G1 X96.526 Y69.462 E0.01694
G1 X89.067 Y62.003 E0.33289
G1 X88.530 Y62.003 E0.01694
G1 X95.989 Y69.462 E0.33289
G1 X95.452 Y69.462 E0.01694
G1 X87.993 Y62.003 E0.33289
G1 X87.456 Y62.002 E0.01694
G1 X94.915 Y69.462 E0.33290
G1 X94.379 Y69.462 E0.01694
G1 X86.919 Y62.002 E0.33290
G1 X86.383 Y62.002 E0.01694
G1 X93.842 Y69.462 E0.33290
M73 P12 R6
G1 X93.305 Y69.462 E0.01694
G1 X85.846 Y62.002 E0.33291
G1 X85.309 Y62.002 E0.01694
G1 X92.768 Y69.462 E0.33291
G1 X92.232 Y69.462 E0.01694
G1 X84.772 Y62.002 E0.33292
G1 X84.235 Y62.002 E0.01694
G1 X91.695 Y69.462 E0.33292
G1 X91.158 Y69.462 E0.01694
G1 X83.698 Y62.002 E0.33292
G1 X83.162 Y62.002 E0.01694
G1 X84.501 Y63.341 E0.05978
G1 X84.066 Y63.309 E0.01377
G1 X83.946 Y63.323 E0.00382
G1 X82.625 Y62.002 E0.05896
G1 X82.088 Y62.002 E0.01694
G1 X83.495 Y63.409 E0.06281
G1 X83.099 Y63.549 E0.01328
G1 X81.551 Y62.002 E0.06906
G1 X81.014 Y62.002 E0.01694
G1 X82.762 Y63.749 E0.07799
G1 X82.687 Y63.794 E0.00275
G1 X82.466 Y63.990 E0.00932
G1 X80.466 Y62.003 E0.08899
G1 X80.466 Y62.527 E0.01653
G1 X82.219 Y64.280 E0.07826
M73 P13 R6
G1 X82.068 Y64.479 E0.00788
G1 X82.006 Y64.604 E0.00440
G1 X80.466 Y63.063 E0.06875
G1 X80.465 Y63.600 E0.01693
G1 X81.847 Y64.981 E0.06166
G1 X81.779 Y65.196 E0.00710
G1 X81.753 Y65.424 E0.00725
G1 X80.465 Y64.136 E0.05746
G1 X80.465 Y64.673 E0.01693
G1 X81.936 Y66.143 E0.06563
M204 S1250
G1 E-2.24000 F2400.000
;WIPE_START
G1 F7200.000
G1 X80.465 Y64.673 E-0.65859
G1 X80.465 Y64.136 E-0.16989
G1 X80.652 Y64.323 E-0.08352
;WIPE_END
G1 E-0.04800 F2400.000
G1 Z0.400 F9000.000
G1 X86.317 Y65.157
G1 Z0.200
G1 E3.20000 F1500.000
M204 S800
G1 F1200.000
G1 X90.621 Y69.462 E0.19210
G1 X90.085 Y69.462 E0.01694
G1 X86.558 Y65.935 E0.15738
G1 X86.471 Y66.385 E0.01445
G1 X89.548 Y69.462 E0.13732
G1 X89.011 Y69.462 E0.01694
G1 X86.326 Y66.777 E0.11983
G1 X86.122 Y67.109 E0.01231
G1 X88.475 Y69.462 E0.10499
G1 X87.938 Y69.462 E0.01694
G1 X85.880 Y67.404 E0.09182
G1 X85.602 Y67.663 E0.01199
G1 X87.401 Y69.462 E0.08028
G1 X86.864 Y69.462 E0.01694
G1 X85.276 Y67.873 E0.07089
G1 X84.893 Y68.027 E0.01302
G1 X86.328 Y69.462 E0.06401
G1 X85.791 Y69.462 E0.01694
G1 X84.452 Y68.122 E0.05978
G1 X84.236 Y68.156 E0.00688
G1 X83.924 Y68.132 E0.00987
G1 X85.254 Y69.462 E0.05936
G1 X84.717 Y69.462 E0.01694
G1 X83.224 Y67.968 E0.06665
G1 X83.151 Y67.945 E0.00243
G1 X82.687 Y67.669 E0.01703
G1 X82.385 Y67.400 E0.01276
G1 X82.068 Y66.985 E0.01650
G1 X81.899 Y66.644 E0.01201
G1 X80.465 Y65.209 E0.06402
G1 X80.465 Y65.746 E0.01693
G1 X84.181 Y69.462 E0.16585
M73 P14 R6
G1 X83.644 Y69.462 E0.01694
G1 X80.464 Y66.282 E0.14190
G1 X80.464 Y66.819 E0.01693
G1 X83.107 Y69.462 E0.11796
G1 X82.571 Y69.462 E0.01694
G1 X80.464 Y67.355 E0.09402
G1 X80.464 Y67.892 E0.01693
G1 X82.034 Y69.462 E0.07007
G1 X81.497 Y69.462 E0.01694
G1 X80.463 Y68.428 E0.04613
G1 X80.463 Y68.965 E0.01693
G1 X81.130 Y69.631 E0.02976
M204 S1250
; stop printing object RectangularTopHolesBlock_01 id:0 copy 0
;LAYER_CHANGE
;Z:0.4
;HEIGHT:0.2
;BEFORE_LAYER_CHANGE
G92 E0.0
;0.4


G1 E-2.24000 F2400.000
;WIPE_START
G1 F7200.000
G1 X80.463 Y68.965 E-0.29861
G1 X80.463 Y68.428 E-0.16989
G1 X81.454 Y69.418 E-0.44350
;WIPE_END
G1 E-0.04800 F2400.000
G1 Z0.400 F9000.000
;AFTER_LAYER_CHANGE
;0.4
M104 S250 ; set temperature
M140 S90 ; set bed temperature
G1 Z0.600
G1 X79.219 Y73.097
M73 P14 R5
G1 Z0.400
G1 E3.20000 F1500.000
;TYPE:Skirt
;WIDTH:0.42
G1 F2400.000
G1 X78.422 Y72.726 E0.02755
G1 X77.700 Y72.146 E0.02907
G1 X77.109 Y71.349 E0.03108
G1 X76.782 Y70.557 E0.02687
G1 X76.646 Y69.745 E0.02580
G1 X76.661 Y61.537 E0.25738
G1 X76.862 Y60.657 E0.02830
