; generated by PrusaSlicer 2.3.0+win64 on 2022-05-21 at 19:08:46 UTC


;
;

;
;
; 

; external perimeters extrusion width = 0.45mm
; perimeters extrusion width = 0.45mm
; infill extrusion width = 0.45mm
; solid infill extrusion width = 0.45mm
; top infill extrusion width = 0.40mm
; first layer extrusion width = 0.42mm

M73 P0 R11
M201 X1250 Y1250 Z400 E5000 ; sets maximum accelerations, mm/sec^2
M203 X180 Y180 Z12 E80 ; sets maximum feedrates, mm/sec
M204 P1250 R1250 T1250 ; sets acceleration (P, T) and retract acceleration (R), mm/sec^2
M205 X8.00 Y8.00 Z2.00 E10.00 ; sets the jerk limits, mm/sec
M205 S0 T0 ; sets the minimum extruding and travel feed rate, mm/sec
M107
;TYPE:Custom
G90 ; use absolute coordinates
M83 ; extruder relative mode
M104 S170 ; set extruder temp for bed leveling
M140 S85 ; set bed temp
M109 R170 ; wait for bed leveling temp
M190 S85 ; wait for bed temp
G28 ; home all without mesh bed level
G29 ; mesh bed leveling 
M104 S240 ; set extruder temp
G92 E0.0
G1 Y-2.0 X179 F2400
G1 Z3 F720
M109 S240 ; wait for extruder temp

; intro line
G1 X170 F1000
G1 Z0.2 F720
G1 X110.0 E8.0 F900
M73 P1 R11
G1 X40.0 E10.0 F700
G92 E0.0

M221 S95 ; set flow
G21 ; set units to millimeters
G90 ; use absolute coordinates
M83 ; use relative distances for extrusion
M900 K0.2 ; Filament gcode
;LAYER_CHANGE
;Z:0.2
;HEIGHT:0.2
;BEFORE_LAYER_CHANGE
G92 E0.0
;0.2


M73 P2 R11
G1 E-3.20000 F2400.000
G1 Z0.200 F9000.000
;AFTER_LAYER_CHANGE
;0.2
G1 Z0.400
G1 X78.000 Y51.072
G1 Z0.200
G1 E3.20000 F1500.000
M204 S800
;TYPE:Skirt
;WIDTH:0.42
G1 F1200.000
G1 X78.252 Y50.186 E0.02887
G1 X78.675 Y49.438 E0.02693
G1 X79.294 Y48.774 E0.02847
G1 X80.088 Y48.262 E0.02965
G1 X80.821 Y48.001 E0.02438
G1 X81.656 Y47.894 E0.02639
G1 X103.263 Y47.894 E0.67747
G1 X103.912 Y47.952 E0.02043
G1 X104.574 Y48.132 E0.02151
G1 X105.163 Y48.413 E0.02047
G1 X105.738 Y48.829 E0.02225
G1 X106.198 Y49.313 E0.02093
G1 X106.603 Y49.945 E0.02354
G1 X106.861 Y50.593 E0.02188
G1 X106.990 Y51.235 E0.02053
G1 X107.013 Y58.264 E0.22038
G1 X106.944 Y58.957 E0.02184
G1 X106.675 Y59.804 E0.02787
G1 X106.213 Y60.563 E0.02785
G1 X105.626 Y61.161 E0.02627
G1 X104.879 Y61.634 E0.02773
G1 X104.143 Y61.896 E0.02451
G1 X103.308 Y62.001 E0.02639
G1 X81.452 Y61.993 E0.68525
G1 X80.467 Y61.791 E0.03154
G1 X79.593 Y61.349 E0.03071
G1 X78.854 Y60.686 E0.03113
G1 X78.320 Y59.863 E0.03076
G1 X78.065 Y59.152 E0.02368
G1 X77.957 Y58.354 E0.02524
G1 X77.999 Y51.132 E0.22645
M204 S1250
M73 P3 R11
G1 X78.372 Y51.134 F9000.000
M204 S800
G1 F1200.000
G1 X78.608 Y50.312 E0.02680
G1 X78.985 Y49.653 E0.02381
G1 X79.558 Y49.044 E0.02621
G1 X80.282 Y48.587 E0.02685
G1 X80.921 Y48.364 E0.02123
G1 X81.667 Y48.271 E0.02357
G1 X103.262 Y48.271 E0.67710
G1 X103.856 Y48.324 E0.01867
G1 X104.439 Y48.484 E0.01897
G1 X104.983 Y48.744 E0.01889
G1 X105.492 Y49.115 E0.01975
G1 X105.961 Y49.624 E0.02169
G1 X106.279 Y50.138 E0.01896
G1 X106.505 Y50.718 E0.01953
G1 X106.618 Y51.301 E0.01861
G1 X106.636 Y58.259 E0.21817
G1 X106.578 Y58.871 E0.01927
G1 X106.329 Y59.654 E0.02575
G1 X105.901 Y60.350 E0.02562
G1 X105.374 Y60.880 E0.02344
G1 X104.685 Y61.308 E0.02544
G1 X104.046 Y61.531 E0.02123
G1 X103.296 Y61.624 E0.02369
G1 X81.472 Y61.616 E0.68428
G1 X80.586 Y61.433 E0.02839
G1 X79.794 Y61.030 E0.02784
G1 X79.129 Y60.427 E0.02815
G1 X78.645 Y59.669 E0.02819
G1 X78.428 Y59.046 E0.02068
G1 X78.333 Y58.331 E0.02262
G1 X78.372 Y51.194 E0.22379
M204 S1250
; printing object RectangularTopHolesBlock_02 id:0 copy 0
G1 E-2.24000 F2400.000
;WIPE_START
G1 F7200.000
G1 X78.608 Y50.312 E-0.28901
G1 X78.985 Y49.653 E-0.24043
G1 X79.558 Y49.044 E-0.26474
G1 X79.872 Y48.846 E-0.11783
;WIPE_END
G1 E-0.04800 F2400.000
G1 Z0.400 F9000.000
G1 X95.592 Y54.132
G1 Z0.200
G1 E3.20000 F1500.000
M204 S800
;TYPE:Perimeter
G1 F1200.000
G1 X95.672 Y53.791 E0.01098
G1 X95.864 Y53.364 E0.01468
G1 X96.065 Y53.078 E0.01098
G1 X96.411 Y52.745 E0.01504
G1 X96.823 Y52.500 E0.01504
G1 X97.153 Y52.382 E0.01098
G1 X97.627 Y52.308 E0.01504
G1 X98.105 Y52.345 E0.01504
G1 X98.432 Y52.435 E0.01062
G1 X98.741 Y52.573 E0.01062
G1 X99.133 Y52.849 E0.01504
G1 X99.452 Y53.208 E0.01504
G1 X99.631 Y53.509 E0.01098
G1 X99.790 Y53.949 E0.01468
G1 X99.841 Y54.284 E0.01062
G1 X99.841 Y54.623 E0.01062
G1 X99.750 Y55.094 E0.01504
G1 X99.554 Y55.532 E0.01504
G1 X99.352 Y55.818 E0.01098
G1 X99.015 Y56.143 E0.01468
G1 X98.721 Y56.333 E0.01098
G1 X98.276 Y56.512 E0.01504
G1 X97.791 Y56.587 E0.01540
G1 X97.312 Y56.551 E0.01504
G1 X96.975 Y56.458 E0.01098
G1 X96.555 Y56.250 E0.01468
G1 X96.277 Y56.038 E0.01098
G1 X95.965 Y55.688 E0.01468
G1 X95.786 Y55.387 E0.01098
G1 X95.628 Y54.946 E0.01468
G1 X95.574 Y54.600 E0.01098
G1 X95.590 Y54.192 E0.01280
M204 S1250
G1 X95.967 Y54.207 F9000.000
M204 S800
;TYPE:External perimeter
G1 F1200.000
G1 X96.031 Y53.913 E0.00944
G1 X96.193 Y53.551 E0.01241
G1 X96.353 Y53.324 E0.00871
G1 X96.641 Y53.047 E0.01254
G1 X96.985 Y52.843 E0.01254
G1 X97.246 Y52.749 E0.00871
G1 X97.641 Y52.688 E0.01254
G1 X98.040 Y52.718 E0.01254
G1 X98.304 Y52.791 E0.00858
G1 X98.554 Y52.903 E0.00858
G1 X98.881 Y53.133 E0.01254
G1 X99.147 Y53.431 E0.01254
G1 X99.289 Y53.670 E0.00871
G1 X99.423 Y54.043 E0.01241
G1 X99.464 Y54.313 E0.00858
G1 X99.464 Y54.587 E0.00858
G1 X99.388 Y54.979 E0.01254
G1 X99.225 Y55.344 E0.01254
G1 X99.065 Y55.571 E0.00871
G1 X98.780 Y55.846 E0.01241
G1 X98.546 Y55.997 E0.00871
G1 X98.175 Y56.146 E0.01254
G1 X97.776 Y56.208 E0.01267
G1 X97.377 Y56.178 E0.01254
G1 X97.110 Y56.104 E0.00871
G1 X96.755 Y55.928 E0.01241
G1 X96.534 Y55.760 E0.00871
G1 X96.271 Y55.464 E0.01241
G1 X96.129 Y55.226 E0.00871
G1 X95.995 Y54.853 E0.01241
G1 X95.952 Y54.579 E0.00871
G1 X95.964 Y54.267 E0.00979
M204 S1250
G1 X95.728 Y54.024 F9000.000
G1 E-2.24000 F2400.000
;WIPE_START
G1 F7200.000
G1 X96.031 Y53.913 E-0.11408
G1 X96.193 Y53.551 E-0.12537
G1 X96.353 Y53.324 E-0.08793
G1 X96.641 Y53.047 E-0.12665
G1 X96.985 Y52.843 E-0.12666
G1 X97.246 Y52.749 E-0.08793
G1 X97.641 Y52.688 E-0.12666
G1 X98.009 Y52.716 E-0.11671
;WIPE_END
G1 E-0.04800 F2400.000
G1 Z0.400 F9000.000
G1 X87.843 Y54.295
G1 Z0.200
G1 E3.20000 F1500.000
M204 S800
;TYPE:Perimeter
G1 F1200.000
G1 X87.825 Y54.763 E0.01468
G1 X87.745 Y55.104 E0.01098
G1 X87.554 Y55.532 E0.01468
G1 X87.352 Y55.818 E0.01098
G1 X87.015 Y56.143 E0.01468
G1 X86.721 Y56.333 E0.01098
G1 X86.276 Y56.512 E0.01504
G1 X85.791 Y56.587 E0.01540
G1 X85.312 Y56.551 E0.01504
G1 X84.975 Y56.458 E0.01098
M73 P4 R11
G1 X84.555 Y56.250 E0.01469
G1 X84.277 Y56.038 E0.01098
G1 X83.957 Y55.680 E0.01504
G1 X83.728 Y55.258 E0.01504
G1 X83.623 Y54.924 E0.01098
G1 X83.568 Y54.448 E0.01504
G1 X83.623 Y53.971 E0.01504
G1 X83.728 Y53.638 E0.01098
G1 X83.952 Y53.226 E0.01468
G1 X84.175 Y52.956 E0.01098
G1 X84.536 Y52.658 E0.01468
G1 X84.834 Y52.496 E0.01062
G1 X85.153 Y52.382 E0.01062
G1 X85.627 Y52.308 E0.01504
G1 X86.105 Y52.345 E0.01504
G1 X86.432 Y52.435 E0.01062
G1 X86.741 Y52.573 E0.01062
G1 X87.133 Y52.849 E0.01504
G1 X87.452 Y53.208 E0.01504
G1 X87.631 Y53.509 E0.01098
G1 X87.790 Y53.949 E0.01468
G1 X87.834 Y54.236 E0.00910
M204 S1250
G1 X87.461 Y54.294 F9000.000
M204 S800
;TYPE:External perimeter
G1 F1200.000
G1 X87.450 Y54.713 E0.01315
G1 X87.386 Y54.983 E0.00871
G1 X87.225 Y55.344 E0.01241
G1 X87.065 Y55.571 E0.00871
G1 X86.780 Y55.846 E0.01241
G1 X86.546 Y55.997 E0.00871
G1 X86.175 Y56.146 E0.01254
G1 X85.776 Y56.208 E0.01267
G1 X85.377 Y56.178 E0.01254
G1 X85.110 Y56.104 E0.00871
G1 X84.755 Y55.928 E0.01241
G1 X84.534 Y55.760 E0.00871
G1 X84.268 Y55.461 E0.01254
G1 X84.077 Y55.110 E0.01254
G1 X83.993 Y54.845 E0.00871
G1 X83.947 Y54.448 E0.01254
G1 X83.993 Y54.051 E0.01254
G1 X84.077 Y53.786 E0.00871
G1 X84.266 Y53.438 E0.01241
G1 X84.443 Y53.224 E0.00871
G1 X84.748 Y52.972 E0.01241
G1 X84.988 Y52.841 E0.00858
G1 X85.246 Y52.749 E0.00858
G1 X85.641 Y52.688 E0.01254
G1 X86.040 Y52.718 E0.01254
G1 X86.304 Y52.791 E0.00858
G1 X86.554 Y52.903 E0.00858
G1 X86.881 Y53.133 E0.01254
G1 X87.147 Y53.431 E0.01254
G1 X87.289 Y53.670 E0.00871
G1 X87.423 Y54.043 E0.01241
G1 X87.452 Y54.234 E0.00608
M204 S1250
G1 X87.821 Y54.468 F9000.000
G1 E-2.24000 F2400.000
;WIPE_START
G1 F7200.000
G1 X87.450 Y54.713 E-0.15149
G1 X87.386 Y54.983 E-0.08793
G1 X87.225 Y55.344 E-0.12536
G1 X87.065 Y55.571 E-0.08793
G1 X86.780 Y55.846 E-0.12537
G1 X86.546 Y55.997 E-0.08793
G1 X86.175 Y56.146 E-0.12666
G1 X85.803 Y56.204 E-0.11932
;WIPE_END
G1 E-0.04800 F2400.000
G1 Z0.400 F9000.000
G1 X81.639 Y51.457
G1 Z0.200
G1 E3.20000 F1500.000
M204 S800
;TYPE:Perimeter
G1 F1200.000
G1 X81.764 Y51.435 E0.00399
G1 X103.251 Y51.438 E0.67372
G1 X103.357 Y51.467 E0.00345
G1 X103.402 Y51.495 E0.00166
G1 X103.450 Y51.578 E0.00299
G1 X103.472 Y51.703 E0.00398
G1 X103.457 Y58.306 E0.20704
G1 X103.378 Y58.418 E0.00429
G1 X103.204 Y58.461 E0.00563
G1 X81.667 Y58.450 E0.67525
G1 X81.592 Y58.415 E0.00261
G1 X81.522 Y58.345 E0.00308
G1 X81.496 Y58.193 E0.00485
G1 X81.499 Y51.643 E0.20538
G1 X81.539 Y51.529 E0.00378
G1 X81.587 Y51.487 E0.00200
M204 S1250
G1 X81.156 Y51.447 F9000.000
M204 S800
;TYPE:External perimeter
G1 F1200.000
G1 X81.227 Y51.311 E0.00481
G1 X81.328 Y51.201 E0.00467
G1 X81.508 Y51.097 E0.00653
G1 X81.731 Y51.058 E0.00711
G1 X103.301 Y51.061 E0.67630
G1 X103.511 Y51.117 E0.00683
G1 X103.703 Y51.263 E0.00755
G1 X103.810 Y51.447 E0.00667
G1 X103.849 Y51.670 E0.00711
G1 X103.845 Y58.295 E0.20770
G1 X103.812 Y58.444 E0.00481
G1 X103.706 Y58.629 E0.00668
G1 X103.596 Y58.730 E0.00467
G1 X103.464 Y58.798 E0.00466
G1 X103.236 Y58.838 E0.00726
G1 X81.727 Y58.838 E0.67442
M73 P5 R11
G1 X81.561 Y58.816 E0.00524
G1 X81.372 Y58.728 E0.00653
G1 X81.225 Y58.581 E0.00653
G1 X81.158 Y58.453 E0.00451
G1 X81.119 Y58.225 E0.00725
G1 X81.122 Y51.601 E0.20770
G1 X81.143 Y51.505 E0.00308
M204 S1250
G1 X81.307 Y51.416 F9000.000
G1 E-2.24000 F2400.000
;WIPE_START
G1 F7200.000
G1 X81.227 Y51.311 E-0.06714
G1 X81.328 Y51.201 E-0.04713
G1 X81.508 Y51.097 E-0.06593
G1 X81.731 Y51.058 E-0.07178
G1 X83.815 Y51.058 E-0.66002
;WIPE_END
G1 E-0.04800 F2400.000
G1 Z0.400 F9000.000
G1 X103.358 Y52.388
G1 Z0.200
G1 E3.20000 F1500.000
M204 S800
;TYPE:Solid infill
;WIDTH:0.422936
G1 F1200.000
G1 X102.691 Y51.721 E0.02981
G1 X102.154 Y51.721 E0.01698
G1 X103.188 Y52.756 E0.04624
G1 X103.188 Y53.293 E0.01697
G1 X101.616 Y51.721 E0.07025
G1 X101.079 Y51.721 E0.01698
G1 X103.188 Y53.830 E0.09426
G1 X103.188 Y54.367 E0.01697
G1 X100.541 Y51.721 E0.11826
G1 X100.004 Y51.721 E0.01698
G1 X103.187 Y54.904 E0.14227
G1 X103.187 Y55.441 E0.01697
G1 X99.466 Y51.720 E0.16628
G1 X98.929 Y51.720 E0.01698
G1 X103.187 Y55.979 E0.19029
G1 X103.186 Y56.516 E0.01697
G1 X98.391 Y51.720 E0.21429
G1 X97.854 Y51.720 E0.01698
G1 X98.215 Y52.082 E0.01617
G1 X97.620 Y52.024 E0.01890
G1 X97.316 Y51.720 E0.01359
G1 X96.779 Y51.720 E0.01698
G1 X97.154 Y52.095 E0.01677
G1 X96.748 Y52.227 E0.01349
G1 X96.241 Y51.720 E0.02264
G1 X95.703 Y51.720 E0.01698
G1 X96.404 Y52.420 E0.03129
G1 X96.238 Y52.519 E0.00609
G1 X96.099 Y52.653 E0.00611
G1 X95.166 Y51.720 E0.04169
G1 X94.628 Y51.720 E0.01698
G1 X95.830 Y52.921 E0.05368
G1 X95.610 Y53.239 E0.01221
G1 X94.091 Y51.720 E0.06788
G1 X93.553 Y51.720 E0.01698
G1 X95.444 Y53.610 E0.08446
G1 X95.403 Y53.701 E0.00315
G1 X95.326 Y54.029 E0.01067
G1 X93.016 Y51.719 E0.10322
G1 X92.478 Y51.719 E0.01698
G1 X95.478 Y54.719 E0.13405
M204 S1250
G1 E-2.24000 F2400.000
;WIPE_START
G1 F7200.000
G1 X93.442 Y52.683 E-0.91200
;WIPE_END
G1 E-0.04800 F2400.000
G1 Z0.400 F9000.000
G1 X99.813 Y53.680
G1 Z0.200
G1 E3.20000 F1500.000
M204 S800
G1 F1200.000
G1 X103.186 Y57.053 E0.15074
G1 X103.186 Y57.590 E0.01697
G1 X100.124 Y54.528 E0.13682
G1 X100.124 Y54.650 E0.00385
G1 X100.057 Y54.998 E0.01120
G1 X103.186 Y58.127 E0.13983
G1 X103.186 Y58.177 E0.00157
G1 X102.699 Y58.178 E0.01538
G1 X99.922 Y55.401 E0.12409
G1 X99.801 Y55.672 E0.00938
G1 X99.741 Y55.757 E0.00329
G1 X102.162 Y58.178 E0.10818
G1 X101.624 Y58.178 E0.01698
G1 X99.507 Y56.061 E0.09459
G1 X99.234 Y56.325 E0.01201
G1 X101.087 Y58.178 E0.08281
M73 P6 R11
G1 X100.549 Y58.178 E0.01698
G1 X98.915 Y56.544 E0.07301
G1 X98.544 Y56.710 E0.01286
G1 X100.012 Y58.178 E0.06562
G1 X99.475 Y58.178 E0.01698
G1 X98.119 Y56.823 E0.06056
G1 X97.802 Y56.872 E0.01016
G1 X97.617 Y56.858 E0.00586
G1 X98.937 Y58.178 E0.05900
G1 X98.400 Y58.178 E0.01698
G1 X96.972 Y56.751 E0.06379
G1 X96.874 Y56.723 E0.00323
G1 X96.405 Y56.491 E0.01652
G1 X96.084 Y56.246 E0.01278
G1 X95.736 Y55.856 E0.01652
G1 X95.529 Y55.508 E0.01278
G1 X95.416 Y55.195 E0.01053
G1 X91.941 Y51.719 E0.15531
G1 X91.403 Y51.719 E0.01698
G1 X97.862 Y58.178 E0.28862
G1 X97.325 Y58.178 E0.01698
G1 X90.866 Y51.719 E0.28863
G1 X90.328 Y51.719 E0.01698
G1 X96.787 Y58.178 E0.28863
M73 P6 R10
G1 X96.250 Y58.178 E0.01698
G1 X89.791 Y51.719 E0.28863
G1 X89.253 Y51.719 E0.01698
G1 X95.713 Y58.178 E0.28864
G1 X95.175 Y58.178 E0.01698
G1 X88.716 Y51.719 E0.28864
G1 X88.178 Y51.719 E0.01698
G1 X94.638 Y58.178 E0.28865
G1 X94.100 Y58.178 E0.01698
G1 X87.641 Y51.719 E0.28865
G1 X87.103 Y51.719 E0.01698
G1 X93.563 Y58.178 E0.28865
G1 X93.025 Y58.178 E0.01698
G1 X86.566 Y51.718 E0.28866
G1 X86.028 Y51.718 E0.01698
G1 X86.459 Y52.149 E0.01924
G1 X86.881 Y52.326 E0.01447
G1 X87.323 Y52.637 E0.01705
G1 X87.682 Y53.040 E0.01705
G1 X87.888 Y53.387 E0.01278
G1 X87.995 Y53.685 E0.01000
G1 X92.488 Y58.178 E0.20076
G1 X91.951 Y58.178 E0.01698
G1 X88.124 Y54.351 E0.17100
M73 P7 R10
G1 X88.093 Y54.858 E0.01605
G1 X91.413 Y58.178 E0.14835
G1 X90.876 Y58.178 E0.01698
G1 X87.977 Y55.279 E0.12954
G1 X87.811 Y55.650 E0.01285
G1 X90.338 Y58.178 E0.11296
G1 X89.801 Y58.178 E0.01698
G1 X87.592 Y55.969 E0.09871
G1 X87.324 Y56.238 E0.01201
G1 X89.263 Y58.178 E0.08669
G1 X88.726 Y58.178 E0.01698
G1 X87.023 Y56.475 E0.07612
G1 X86.852 Y56.585 E0.00643
G1 X86.669 Y56.659 E0.00622
G1 X88.189 Y58.178 E0.06789
G1 X87.651 Y58.178 E0.01698
G1 X86.272 Y56.799 E0.06161
G1 X85.807 Y56.871 E0.01488
G1 X87.114 Y58.178 E0.05840
G1 X86.576 Y58.178 E0.01698
G1 X84.973 Y56.575 E0.07164
M204 S1250
G1 E-2.24000 F2400.000
;WIPE_START
G1 F7200.000
G1 X86.576 Y58.178 E-0.71797
G1 X87.114 Y58.178 E-0.17018
G1 X87.061 Y58.125 E-0.02384
;WIPE_END
G1 E-0.04800 F2400.000
G1 Z0.400 F9000.000
G1 X85.996 Y52.223
G1 Z0.200
G1 E3.20000 F1500.000
M204 S800
G1 F1200.000
G1 X85.491 Y51.718 E0.02256
G1 X84.953 Y51.718 E0.01698
G1 X85.307 Y52.072 E0.01579
G1 X85.083 Y52.106 E0.00717
G1 X84.878 Y52.180 E0.00688
G1 X84.416 Y51.718 E0.02063
G1 X83.878 Y51.718 E0.01698
G1 X84.510 Y52.350 E0.02824
G1 X84.377 Y52.422 E0.00479
G1 X84.195 Y52.572 E0.00745
G1 X83.341 Y51.718 E0.03818
G1 X82.803 Y51.718 E0.01698
G1 X83.914 Y52.828 E0.04961
G1 X83.681 Y53.133 E0.01211
G1 X82.266 Y51.718 E0.06323
G1 X81.782 Y51.719 E0.01530
G1 X81.782 Y51.771 E0.00165
G1 X83.492 Y53.481 E0.07640
G1 X83.354 Y53.881 E0.01337
G1 X81.781 Y52.308 E0.07029
G1 X81.781 Y52.845 E0.01697
G1 X83.293 Y54.358 E0.06757
G1 X83.283 Y54.448 E0.00287
G1 X83.340 Y54.942 E0.01570
G1 X81.781 Y53.383 E0.06966
G1 X81.781 Y53.920 E0.01697
G1 X86.039 Y58.178 E0.19029
G1 X85.502 Y58.178 E0.01698
G1 X81.780 Y54.457 E0.16628
G1 X81.780 Y54.994 E0.01697
G1 X84.964 Y58.178 E0.14228
G1 X84.427 Y58.178 E0.01698
G1 X81.780 Y55.531 E0.11828
G1 X81.780 Y56.068 E0.01697
G1 X83.889 Y58.178 E0.09427
G1 X83.352 Y58.178 E0.01698
G1 X81.779 Y56.606 E0.07027
G1 X81.779 Y57.143 E0.01697
G1 X82.814 Y58.178 E0.04626
G1 X82.277 Y58.178 E0.01698
G1 X81.609 Y57.510 E0.02984
M204 S1250
; stop printing object RectangularTopHolesBlock_02 id:0 copy 0
;LAYER_CHANGE
;Z:0.4
;HEIGHT:0.2
;BEFORE_LAYER_CHANGE
G92 E0.0
;0.4


G1 E-2.24000 F2400.000
;WIPE_START
G1 F7200.000
G1 X82.277 Y58.178 E-0.29902
G1 X82.814 Y58.178 E-0.17018
G1 X81.826 Y57.189 E-0.44279
;WIPE_END
G1 E-0.04800 F2400.000
G1 Z0.400 F9000.000
;AFTER_LAYER_CHANGE
;0.4
M104 S250 ; set temperature
M140 S90 ; set bed temperature
G1 Z0.600
G1 X78.854 Y60.686
G1 Z0.400
G1 E3.20000 F1500.000
;TYPE:Skirt
;WIDTH:0.42
G1 F2400.000
G1 X78.320 Y59.863 E0.03076
G1 X78.065 Y59.152 E0.02368
G1 X77.957 Y58.354 E0.02524
G1 X78.000 Y51.072 E0.22834
G1 X78.252 Y50.186 E0.02887
G1 X78.675 Y49.438 E0.02693
