; generated by PrusaSlicer 2.2.0+win64 on 2020-09-25 at 13:08:33 UTC


;
;

;
;
; 

; external perimeters extrusion width = 0.45mm
; perimeters extrusion width = 0.45mm
; infill extrusion width = 0.45mm
; solid infill extrusion width = 0.45mm
; top infill extrusion width = 0.40mm
; first layer extrusion width = 0.42mm

M73 P0 R137
M201 X1250 Y1250 Z400 E5000 ; sets maximum accelerations, mm/sec^2
M203 X180 Y180 Z12 E80 ; sets maximum feedrates, mm/sec
M204 P1250 R1250 T1250 ; sets acceleration (P, T) and retract acceleration (R), mm/sec^2
M205 X8.00 Y8.00 Z2.00 E10.00 ; sets the jerk limits, mm/sec
M205 S0 T0 ; sets the minimum extruding and travel feed rate, mm/sec
M107
G90 ; use absolute coordinates
M83 ; extruder relative mode
M104 S170 ; set extruder temp for bed leveling
M140 S60 ; set bed temp
M109 R170 ; wait for bed leveling temp
M190 S60 ; wait for bed temp
G28 ; home all without mesh bed level
G29 ; mesh bed leveling 
M104 S215 ; set extruder temp
G92 E0.0
G1 Y-2.0 X179 F2400
G1 Z3 F720
M109 S215 ; wait for extruder temp

; intro line
G1 X170 F1000
G1 Z0.2 F720
G1 X110.0 E8.0 F900
M73 P0 R137
G1 X40.0 E10.0 F700
G92 E0.0

M221 S95 ; set flow
G21 ; set units to millimeters
G90 ; use absolute coordinates
M83 ; use relative distances for extrusion
M900 K0.2 ; Filament gcode LA 1.5
; ; Filament gcode LA 1.0
;BEFORE_LAYER_CHANGE
G92 E0.0
;0.35


G1 Z0.350 F7800.000
;AFTER_LAYER_CHANGE
;0.35
G1 E-3.20000 F4200.00000
G1 Z0.550 F7800.000
G1 X12.168 Y7.211
G1 Z0.350
G1 E3.20000 F2400.00000
G1 F1800.000
G1 X12.697 Y6.504 E0.04431
G1 X13.319 Y5.878 E0.04431
G1 X14.022 Y5.343 E0.04431
G1 X14.792 Y4.912 E0.04431
G1 X15.615 Y4.592 E0.04431
G1 X16.474 Y4.389 E0.04431
G1 X17.497 Y4.305 E0.05147
G1 X117.506 Y4.305 E5.01908
G1 X121.597 Y4.469 E0.20547
G1 X125.709 Y4.966 E0.20785
G1 X129.727 Y5.782 E0.20576
G1 X132.277 Y6.478 E0.13264
G1 X134.234 Y7.109 E0.10320
G1 X138.087 Y8.613 E0.20760
G1 X141.770 Y10.403 E0.20549
G1 X145.307 Y12.487 E0.20607
G1 X148.663 Y14.843 E0.20576
G1 X151.820 Y17.460 E0.20580
G1 X154.757 Y20.320 E0.20576
G1 X157.460 Y23.409 E0.20596
G1 X159.929 Y26.735 E0.20786
G1 X161.049 Y28.451 E0.10288
G1 X162.391 Y30.729 E0.13269
G1 X164.241 Y34.401 E0.20633
G1 X165.796 Y38.222 E0.20702
G1 X167.036 Y42.142 E0.20638
G1 X167.817 Y45.430 E0.16957
G1 X168.301 Y48.195 E0.14086
G1 X168.681 Y51.555 E0.16972
G1 X168.840 Y54.957 E0.17092
G1 X168.843 Y169.487 E5.74780
G1 X168.740 Y170.501 E0.05116
G1 X168.477 Y171.480 E0.05085
G1 X168.062 Y172.404 E0.05085
G1 X167.501 Y173.255 E0.05116
G1 X166.811 Y174.006 E0.05116
G1 X166.015 Y174.633 E0.05085
G1 X165.129 Y175.125 E0.05085
G1 X164.170 Y175.471 E0.05116
G1 X162.597 Y175.694 E0.07974
G1 X151.854 Y175.662 E0.53914
G1 X150.785 Y175.459 E0.05459
G1 X149.767 Y175.076 E0.05459
G1 X148.829 Y174.525 E0.05459
G1 X147.999 Y173.822 E0.05459
G1 X12.781 Y24.892 E10.09525
G1 X12.224 Y24.175 E0.04556
G1 X11.778 Y23.392 E0.04525
G1 X11.445 Y22.547 E0.04556
G1 X11.238 Y21.670 E0.04525
G1 X11.155 Y20.697 E0.04898
G1 X11.156 Y10.557 E0.50891
G1 X11.231 Y9.671 E0.04462
G1 X11.428 Y8.810 E0.04431
G1 X11.742 Y7.985 E0.04431
G1 X12.139 Y7.264 E0.04130
G1 E-2.24000 F4200.00000
G1 F6240.000
G1 X12.697 Y6.504 E-0.60260
G1 X13.038 Y6.161 E-0.30940
G1 E-0.04800 F4200.00000
G1 Z0.550 F7800.000
G1 X154.496 Y136.096
G1 Z0.350
G1 E3.20000 F2400.00000
G1 F1800.000
G1 X154.744 Y135.799 E0.01941
G1 X155.021 Y135.529 E0.01941
G1 X155.324 Y135.289 E0.01941
G1 X155.650 Y135.081 E0.01940
G1 X155.996 Y134.909 E0.01941
G1 X156.358 Y134.772 E0.01941
G1 X156.732 Y134.674 E0.01941
G1 X157.113 Y134.614 E0.01938
G1 X157.487 Y134.594 E0.01878
G1 X158.070 Y134.637 E0.02933
G1 X158.456 Y134.718 E0.01982
G1 X158.825 Y134.836 E0.01941
G1 X159.179 Y134.991 E0.01941
G1 X159.516 Y135.181 E0.01941
G1 X159.831 Y135.405 E0.01940
G1 X160.121 Y135.660 E0.01941
G1 X160.384 Y135.944 E0.01941
G1 X160.620 Y136.259 E0.01976
G1 X160.899 Y136.751 E0.02838
G1 X161.047 Y137.116 E0.01976
G1 X161.155 Y137.487 E0.01941
G1 X161.225 Y137.868 E0.01940
G1 X161.255 Y138.260 E0.01977
G1 X161.226 Y138.825 E0.02838
G1 X161.155 Y139.213 E0.01977
G1 X161.047 Y139.584 E0.01941
G1 X160.902 Y139.942 E0.01940
G1 X160.720 Y140.283 E0.01941
G1 X160.504 Y140.604 E0.01941
G1 X160.256 Y140.901 E0.01940
G1 X159.979 Y141.171 E0.01941
G1 X159.676 Y141.411 E0.01941
G1 X159.350 Y141.619 E0.01940
G1 X159.004 Y141.791 E0.01941
G1 X158.642 Y141.928 E0.01940
G1 X158.268 Y142.026 E0.01941
G1 X157.886 Y142.086 E0.01940
G1 X157.493 Y142.106 E0.01977
G1 X156.929 Y142.062 E0.02838
G1 X156.544 Y141.982 E0.01977
G1 X156.175 Y141.864 E0.01941
G1 X155.821 Y141.709 E0.01941
G1 X155.484 Y141.519 E0.01941
G1 X155.169 Y141.295 E0.01940
G1 X154.873 Y141.035 E0.01977
G1 X154.500 Y140.610 E0.02838
G1 X154.280 Y140.283 E0.01976
G1 X154.098 Y139.942 E0.01941
G1 X153.953 Y139.584 E0.01941
G1 X153.845 Y139.213 E0.01941
G1 X153.775 Y138.832 E0.01941
G1 X153.745 Y138.440 E0.01977
G1 X153.774 Y137.875 E0.02838
G1 X153.845 Y137.487 E0.01977
G1 X153.953 Y137.116 E0.01941
G1 X154.098 Y136.758 E0.01941
G1 X154.280 Y136.417 E0.01941
G1 X154.463 Y136.146 E0.01639
G1 X154.772 Y136.303 F7800.000
G1 F1800.000
G1 X154.997 Y136.033 E0.01762
G1 X155.249 Y135.788 E0.01762
G1 X155.524 Y135.570 E0.01762
G1 X155.820 Y135.382 E0.01762
G1 X156.134 Y135.225 E0.01762
G1 X156.463 Y135.101 E0.01762
G1 X156.802 Y135.012 E0.01762
G1 X157.149 Y134.958 E0.01761
G1 X157.483 Y134.940 E0.01680
G1 X158.022 Y134.980 E0.02709
G1 X158.369 Y135.052 E0.01778
G1 X158.703 Y135.159 E0.01762
G1 X159.025 Y135.299 E0.01762
G1 X159.330 Y135.472 E0.01762
G1 X159.616 Y135.676 E0.01762
G1 X159.880 Y135.908 E0.01762
G1 X160.119 Y136.165 E0.01762
G1 X160.331 Y136.448 E0.01776
G1 X160.588 Y136.902 E0.02615
G1 X160.721 Y137.230 E0.01776
G1 X160.819 Y137.567 E0.01762
G1 X160.882 Y137.912 E0.01762
G1 X160.909 Y138.265 E0.01776
G1 X160.883 Y138.785 E0.02615
G1 X160.819 Y139.133 E0.01776
G1 X160.721 Y139.470 E0.01762
G1 X160.589 Y139.796 E0.01762
G1 X160.424 Y140.106 E0.01762
G1 X160.228 Y140.397 E0.01762
G1 X160.003 Y140.667 E0.01762
G1 X159.751 Y140.912 E0.01762
G1 X159.476 Y141.130 E0.01762
G1 X159.180 Y141.318 E0.01762
G1 X158.866 Y141.475 E0.01762
G1 X158.537 Y141.599 E0.01762
G1 X158.198 Y141.688 E0.01762
G1 X157.851 Y141.742 E0.01762
G1 X157.497 Y141.760 E0.01776
G1 X156.978 Y141.720 E0.02615
G1 X156.631 Y141.648 E0.01776
G1 X156.297 Y141.541 E0.01762
G1 X155.975 Y141.401 E0.01762
G1 X155.670 Y141.228 E0.01762
G1 X155.384 Y141.024 E0.01762
G1 X155.118 Y140.791 E0.01776
G1 X154.774 Y140.399 E0.02615
G1 X154.576 Y140.106 E0.01776
G1 X154.411 Y139.796 E0.01762
G1 X154.279 Y139.470 E0.01762
G1 X154.181 Y139.133 E0.01762
G1 X154.118 Y138.788 E0.01762
G1 X154.091 Y138.435 E0.01776
G1 X154.117 Y137.915 E0.02615
G1 X154.181 Y137.567 E0.01776
G1 X154.279 Y137.230 E0.01762
G1 X154.411 Y136.904 E0.01762
G1 X154.576 Y136.594 E0.01762
G1 X154.739 Y136.353 E0.01461
G1 X154.634 Y135.980 F7800.000
G1 E-2.24000 F4200.00000
G1 F6240.000
G1 X154.997 Y136.033 E-0.26271
G1 X155.249 Y135.788 E-0.22452
G1 X155.524 Y135.570 E-0.22452
G1 X155.788 Y135.402 E-0.20025
G1 E-0.04800 F4200.00000
G1 Z0.550 F7800.000
G1 X153.757 Y140.034
G1 Z0.350
G1 E3.20000 F2400.00000
G1 F1800.000
G1 X153.984 Y140.461 E0.02430
G1 X154.226 Y140.821 E0.02177
G1 X154.629 Y141.279 E0.03061
G1 X154.955 Y141.566 E0.02178
G1 X155.299 Y141.810 E0.02119
G1 X155.666 Y142.018 E0.02119
G1 X156.053 Y142.187 E0.02119
G1 X156.456 Y142.316 E0.02119
G1 X156.880 Y142.405 E0.02177
G1 X157.488 Y142.452 E0.03061
G1 X157.922 Y142.429 E0.02177
G1 X158.339 Y142.364 E0.02119
G1 X158.747 Y142.257 E0.02119
G1 X159.142 Y142.108 E0.02119
G1 X159.520 Y141.919 E0.02119
G1 X159.876 Y141.692 E0.02119
G1 X160.207 Y141.430 E0.02119
G1 X160.510 Y141.136 E0.02119
G1 X160.780 Y140.812 E0.02119
G1 X161.016 Y140.461 E0.02119
G1 X161.242 Y140.036 E0.02419
G1 X161.399 Y140.075 E0.00811
G1 X161.400 Y164.124 E1.20690
G1 X161.246 Y164.164 E0.00800
G1 X160.910 Y163.570 E0.03427
G1 X160.649 Y163.223 E0.02177
G1 X160.362 Y162.913 E0.02119
G1 X160.045 Y162.634 E0.02119
G1 X159.701 Y162.390 E0.02119
G1 X159.334 Y162.182 E0.02119
G1 X158.947 Y162.013 E0.02119
G1 X158.544 Y161.884 E0.02119
G1 X158.118 Y161.795 E0.02188
G1 X157.485 Y161.749 E0.03181
G1 X157.077 Y161.771 E0.02051
G1 X156.661 Y161.836 E0.02114
G1 X156.253 Y161.943 E0.02119
G1 X155.858 Y162.092 E0.02119
G1 X155.480 Y162.281 E0.02119
G1 X155.124 Y162.508 E0.02119
G1 X154.793 Y162.770 E0.02119
G1 X154.490 Y163.064 E0.02119
G1 X154.220 Y163.389 E0.02119
G1 X153.984 Y163.739 E0.02119
G1 X153.757 Y164.166 E0.02430
G1 X153.600 Y164.127 E0.00811
G1 X153.600 Y140.073 E1.20717
G1 X153.698 Y140.048 E0.00510
G1 E-2.24000 F4200.00000
G1 F6240.000
G1 X153.984 Y140.461 E-0.32105
G1 X154.226 Y140.821 E-0.27738
G1 X154.550 Y141.189 E-0.31357
G1 E-0.04800 F4200.00000
G1 Z0.550 F7800.000
G1 X153.757 Y167.534
G1 Z0.350
G1 E3.20000 F2400.00000
G1 F1800.000
G1 X153.985 Y167.963 E0.02440
G1 X154.182 Y168.253 E0.01761
G1 X153.600 Y168.252 E0.02924
G1 X153.600 Y167.573 E0.03408
G1 X153.698 Y167.548 E0.00510
G1 E-2.24000 F4200.00000
G1 F6240.000
G1 X153.985 Y167.963 E-0.32239
G1 X154.182 Y168.253 E-0.22441
G1 X153.611 Y168.252 E-0.36520
G1 E-0.04800 F4200.00000
G1 Z0.550 F7800.000
G1 X160.833 Y168.253
G1 Z0.350
G1 E3.20000 F2400.00000
G1 F1800.000
G1 X161.120 Y167.778 E0.02785
G1 X161.238 Y167.525 E0.01403
G1 X161.400 Y167.561 E0.00833
G1 X161.400 Y168.252 E0.03470
G1 X160.893 Y168.253 E0.02543
G1 E-2.24000 F4200.00000
G1 F6240.000
G1 X161.120 Y167.778 E-0.33658
G1 X161.238 Y167.525 E-0.17879
G1 X161.400 Y167.561 E-0.10611
G1 X161.400 Y168.015 E-0.29051
G1 E-0.04800 F4200.00000
G1 Z0.550 F7800.000
G1 X161.245 Y136.662
G1 Z0.350
G1 E3.20000 F2400.00000
G1 F1800.000
G1 X160.910 Y136.070 E0.03417
G1 X160.649 Y135.723 E0.02177
G1 X160.362 Y135.413 E0.02119
G1 X160.045 Y135.134 E0.02119
G1 X159.701 Y134.890 E0.02119
G1 X159.334 Y134.682 E0.02119
G1 X158.947 Y134.513 E0.02119
G1 X158.544 Y134.384 E0.02119
G1 X158.118 Y134.295 E0.02186
G1 X157.491 Y134.249 E0.03158
G1 X157.078 Y134.271 E0.02075
G1 X156.661 Y134.336 E0.02115
G1 X156.253 Y134.443 E0.02119
G1 X155.858 Y134.592 E0.02119
G1 X155.480 Y134.781 E0.02119
G1 X155.124 Y135.008 E0.02119
G1 X154.793 Y135.270 E0.02119
G1 X154.490 Y135.564 E0.02119
G1 X154.220 Y135.889 E0.02119
G1 X153.984 Y136.239 E0.02119
G1 X153.757 Y136.666 E0.02430
G1 X153.600 Y136.627 E0.00811
G1 X153.600 Y55.639 E4.06446
G1 X153.563 Y54.018 E0.08136
G1 X153.497 Y52.923 E0.05507
G1 X153.337 Y51.299 E0.08191
G1 X153.103 Y49.680 E0.08208
G1 X152.797 Y48.077 E0.08191
G1 X152.550 Y47.007 E0.05507
G1 X152.124 Y45.432 E0.08191
G1 X151.625 Y43.874 E0.08208
G1 X151.057 Y42.340 E0.08208
G1 X150.420 Y40.834 E0.08208
G1 X149.715 Y39.358 E0.08208
G1 X148.944 Y37.916 E0.08208
G1 X148.108 Y36.510 E0.08208
G1 X147.210 Y35.143 E0.08208
G1 X146.252 Y33.821 E0.08192
G1 X145.573 Y32.954 E0.05530
G1 X144.521 Y31.711 E0.08168
G1 X143.409 Y30.512 E0.08208
G1 X142.244 Y29.364 E0.08208
G1 X141.028 Y28.270 E0.08208
G1 X139.766 Y27.235 E0.08192
G1 X138.889 Y26.568 E0.05530
G1 X137.556 Y25.634 E0.08168
G1 X136.176 Y24.756 E0.08208
G1 X134.757 Y23.942 E0.08208
G1 X133.303 Y23.193 E0.08208
G1 X131.817 Y22.510 E0.08208
G1 X130.301 Y21.896 E0.08208
G1 X128.759 Y21.351 E0.08208
G1 X127.194 Y20.876 E0.08209
G1 X125.609 Y20.472 E0.08208
G1 X124.007 Y20.141 E0.08208
G1 X122.392 Y19.883 E0.08208
G1 X120.767 Y19.698 E0.08209
G1 X119.135 Y19.587 E0.08208
G1 X117.511 Y19.550 E0.08153
G1 X18.600 Y19.550 E4.96395
G1 X18.600 Y11.750 E0.39147
G1 X117.789 Y11.752 E4.97788
G1 X119.833 Y11.812 E0.10267
G1 X121.585 Y11.940 E0.08813
G1 X123.327 Y12.138 E0.08798
G1 X125.059 Y12.406 E0.08798
G1 X126.780 Y12.742 E0.08798
G1 X128.485 Y13.147 E0.08798
G1 X130.174 Y13.619 E0.08798
G1 X131.842 Y14.159 E0.08798
G1 X133.487 Y14.764 E0.08798
G1 X135.106 Y15.435 E0.08798
G1 X136.698 Y16.170 E0.08798
G1 X138.259 Y16.968 E0.08798
G1 X139.787 Y17.828 E0.08798
G1 X141.279 Y18.748 E0.08798
G1 X142.733 Y19.726 E0.08798
G1 X144.147 Y20.763 E0.08798
G1 X145.519 Y21.854 E0.08798
G1 X146.846 Y23.000 E0.08798
G1 X148.126 Y24.198 E0.08798
G1 X149.357 Y25.445 E0.08798
G1 X150.538 Y26.741 E0.08798
G1 X151.666 Y28.083 E0.08798
G1 X152.739 Y29.469 E0.08798
G1 X153.756 Y30.897 E0.08798
G1 X154.716 Y32.365 E0.08798
G1 X155.616 Y33.869 E0.08798
G1 X156.455 Y35.408 E0.08798
G1 X157.232 Y36.979 E0.08798
G1 X157.946 Y38.581 E0.08798
G1 X158.595 Y40.209 E0.08798
G1 X159.177 Y41.857 E0.08772
G1 X159.696 Y43.537 E0.08824
G1 X160.147 Y45.234 E0.08813
G1 X160.408 Y46.370 E0.05850
G1 X160.639 Y47.513 E0.05851
G1 X160.931 Y49.248 E0.08828
G1 X161.085 Y50.400 E0.05835
G1 X161.260 Y52.150 E0.08828
G1 X161.338 Y53.311 E0.05835
G1 X161.396 Y55.069 E0.08828
G1 X161.399 Y136.622 E4.09282
G1 X161.303 Y136.647 E0.00499
G1 E-2.24000 F4200.00000
G1 F6240.000
G1 X160.910 Y136.070 E-0.44665
G1 X160.649 Y135.723 E-0.27741
G1 X160.449 Y135.507 E-0.18794
G1 E-0.04800 F4200.00000
G1 Z0.550 F7800.000
G1 X161.745 Y168.596
G1 Z0.350
G1 E3.20000 F2400.00000
G1 F1800.000
G1 X160.221 Y168.610 E0.07648
G1 X160.169 Y168.469 E0.00754
G1 X160.236 Y168.416 E0.00430
G1 X160.610 Y167.956 E0.02976
G1 X160.815 Y167.615 E0.01995
G1 X160.979 Y167.265 E0.01942
G1 X161.106 Y166.900 E0.01941
G1 X161.195 Y166.523 E0.01941
G1 X161.244 Y166.140 E0.01941
G1 X161.254 Y165.753 E0.01941
G1 X161.225 Y165.368 E0.01940
G1 X161.155 Y164.987 E0.01941
G1 X161.047 Y164.616 E0.01941
G1 X160.899 Y164.251 E0.01976
G1 X160.620 Y163.759 E0.02838
G1 X160.384 Y163.444 E0.01977
G1 X160.121 Y163.160 E0.01941
G1 X159.831 Y162.905 E0.01941
G1 X159.516 Y162.681 E0.01940
G1 X159.179 Y162.491 E0.01941
G1 X158.825 Y162.336 E0.01941
G1 X158.456 Y162.218 E0.01941
G1 X158.070 Y162.137 E0.01983
G1 X157.482 Y162.095 E0.02956
G1 X157.113 Y162.114 E0.01854
G1 X156.732 Y162.174 E0.01938
G1 X156.358 Y162.272 E0.01941
G1 X155.996 Y162.409 E0.01941
G1 X155.650 Y162.581 E0.01941
G1 X155.324 Y162.789 E0.01940
G1 X155.021 Y163.029 E0.01941
G1 X154.744 Y163.299 E0.01941
G1 X154.496 Y163.596 E0.01941
G1 X154.280 Y163.917 E0.01940
G1 X154.098 Y164.258 E0.01941
G1 X153.953 Y164.616 E0.01941
G1 X153.845 Y164.987 E0.01941
G1 X153.774 Y165.375 E0.01977
G1 X153.745 Y165.940 E0.02838
G1 X153.775 Y166.332 E0.01977
G1 X153.845 Y166.713 E0.01941
G1 X153.953 Y167.084 E0.01941
G1 X154.099 Y167.442 E0.01941
G1 X154.281 Y167.784 E0.01946
G1 X154.501 Y168.108 E0.01962
G1 X154.757 Y168.406 E0.01974
G1 X154.989 Y168.619 E0.01581
G1 X154.512 Y168.599 E0.02397
G1 X153.255 Y168.596 E0.06310
G1 X153.255 Y55.643 E5.66867
G1 X153.218 Y54.033 E0.08084
G1 X153.153 Y52.950 E0.05441
G1 X152.994 Y51.340 E0.08119
G1 X152.763 Y49.737 E0.08130
G1 X152.459 Y48.148 E0.08119
G1 X152.216 Y47.091 E0.05441
G1 X151.793 Y45.530 E0.08119
G1 X151.299 Y43.987 E0.08130
G1 X150.736 Y42.468 E0.08130
G1 X150.105 Y40.976 E0.08130
G1 X149.407 Y39.514 E0.08130
G1 X148.643 Y38.085 E0.08130
G1 X147.816 Y36.693 E0.08130
G1 X146.926 Y35.339 E0.08130
G1 X145.977 Y34.028 E0.08120
G1 X145.305 Y33.171 E0.05465
G1 X144.263 Y31.940 E0.08096
G1 X143.162 Y30.752 E0.08130
G1 X142.007 Y29.615 E0.08130
G1 X140.803 Y28.532 E0.08130
G1 X139.552 Y27.506 E0.08120
G1 X138.685 Y26.847 E0.05465
G1 X137.364 Y25.921 E0.08096
G1 X135.997 Y25.052 E0.08130
G1 X134.592 Y24.245 E0.08130
G1 X133.152 Y23.503 E0.08130
G1 X131.680 Y22.827 E0.08130
G1 X130.179 Y22.218 E0.08130
G1 X128.652 Y21.678 E0.08130
G1 X127.101 Y21.208 E0.08130
G1 X125.531 Y20.809 E0.08130
G1 X123.945 Y20.481 E0.08130
G1 X122.345 Y20.225 E0.08130
G1 X120.736 Y20.042 E0.08130
G1 X119.120 Y19.932 E0.08130
G1 X117.507 Y19.895 E0.08095
G1 X18.255 Y19.895 E4.98106
M73 P0 R136
G1 X18.255 Y11.405 E0.42609
G1 X117.791 Y11.407 E4.99532
G1 X119.853 Y11.468 E0.10351
G1 X121.617 Y11.597 E0.08876
G1 X123.372 Y11.796 E0.08867
G1 X125.119 Y12.066 E0.08867
G1 X126.853 Y12.405 E0.08867
G1 X128.572 Y12.813 E0.08867
G1 X130.273 Y13.289 E0.08867
G1 X131.954 Y13.833 E0.08867
G1 X133.612 Y14.443 E0.08867
G1 X135.245 Y15.119 E0.08867
G1 X136.849 Y15.860 E0.08867
G1 X138.422 Y16.664 E0.08867
G1 X139.962 Y17.531 E0.08867
