; generated by PrusaSlicer 2.3.0+win64 on 2021-08-02 at 14:37:22 UTC


;
;

;
;
; 

; external perimeters extrusion width = 0.45mm
; perimeters extrusion width = 0.45mm
; infill extrusion width = 0.45mm
; solid infill extrusion width = 0.45mm
; top infill extrusion width = 0.40mm
; first layer extrusion width = 0.42mm

M73 P0 R15
M201 X1250 Y1250 Z400 E5000 ; sets maximum accelerations, mm/sec^2
M203 X180 Y180 Z12 E80 ; sets maximum feedrates, mm/sec
M204 P1250 R1250 T1250 ; sets acceleration (P, T) and retract acceleration (R), mm/sec^2
M205 X8.00 Y8.00 Z2.00 E10.00 ; sets the jerk limits, mm/sec
M205 S0 T0 ; sets the minimum extruding and travel feed rate, mm/sec
M107
;TYPE:Custom
G90 ; use absolute coordinates
M83 ; extruder relative mode
M104 S170 ; set extruder temp for bed leveling
M140 S60 ; set bed temp
M109 R170 ; wait for bed leveling temp
M190 S60 ; wait for bed temp
G28 ; home all without mesh bed level
G29 ; mesh bed leveling 
M104 S215 ; set extruder temp
G92 E0.0
G1 Y-2.0 X179 F2400
G1 Z3 F720
M109 S215 ; wait for extruder temp

; intro line
G1 X170 F1000
G1 Z0.2 F720
G1 X110.0 E8.0 F900
M73 P1 R15
G1 X40.0 E10.0 F700
G92 E0.0

M221 S95 ; set flow
G21 ; set units to millimeters
G90 ; use absolute coordinates
M83 ; use relative distances for extrusion
M900 K0.2 ; Filament gcode LA 1.5
; ; Filament gcode LA 1.0
;LAYER_CHANGE
;Z:0.2
;HEIGHT:0.2
;BEFORE_LAYER_CHANGE
G92 E0.0
;0.2


G1 E-3.20000 F4200.000
G1 Z0.200 F9000.000
;AFTER_LAYER_CHANGE
;0.2
G1 Z0.400
G1 X79.833 Y65.134
G1 Z0.200
G1 E3.20000 F2400.000
M204 S800
;TYPE:Skirt
;WIDTH:0.42
G1 F1200.000
G1 X80.305 Y64.635 E0.02154
G1 X80.904 Y64.290 E0.02166
G1 X81.572 Y64.132 E0.02154
G1 X98.225 Y64.123 E0.52214
G1 X99.109 Y64.295 E0.02825
G1 X99.864 Y64.781 E0.02813
G1 X100.385 Y65.516 E0.02825
G1 X100.596 Y66.392 E0.02825
G1 X100.598 Y113.508 E1.47727
M73 P2 R15
G1 X100.476 Y114.252 E0.02367
G1 X100.162 Y114.872 E0.02178
G1 X99.683 Y115.375 E0.02178
G1 X99.079 Y115.717 E0.02178
G1 X98.405 Y115.870 E0.02166
G1 X81.764 Y115.877 E0.52178
G1 X81.026 Y115.755 E0.02343
G1 X80.385 Y115.426 E0.02260
G1 X79.872 Y114.919 E0.02260
G1 X79.534 Y114.282 E0.02260
G1 X79.403 Y113.573 E0.02260
G1 X79.402 Y66.492 E1.47619
G1 X79.524 Y65.748 E0.02367
G1 X79.806 Y65.188 E0.01966
M204 S1250
; printing object RightBoardCradle_01.stl id:0 copy 0
G1 E-2.24000 F4200.000
;WIPE_START
G1 F7200.000
G1 X80.305 Y64.635 E-0.41269
G1 X80.904 Y64.290 E-0.38281
G1 X81.108 Y64.242 E-0.11650
;WIPE_END
G1 E-0.04800 F4200.000
G1 Z0.400 F9000.000
G1 X85.568 Y89.945
G1 Z0.200
G1 E3.20000 F2400.000
M204 S800
;TYPE:Perimeter
G1 F1200.000
G1 X86.037 Y89.891 E0.01480
M73 P2 R14
G1 X86.400 Y89.916 E0.01139
G1 X86.868 Y90.042 E0.01520
G1 X87.286 Y90.261 E0.01480
G1 X87.570 Y90.486 E0.01137
G1 X87.873 Y90.836 E0.01450
G1 X88.056 Y91.150 E0.01139
G1 X88.216 Y91.608 E0.01522
G1 X88.272 Y92.100 E0.01552
G1 X88.216 Y92.592 E0.01552
G1 X88.053 Y93.059 E0.01552
G1 X87.795 Y93.469 E0.01518
G1 X87.556 Y93.727 E0.01104
G1 X87.175 Y94.008 E0.01483
G1 X86.868 Y94.156 E0.01070
G1 X86.542 Y94.257 E0.01070
G1 X86.061 Y94.311 E0.01518
G1 X85.569 Y94.256 E0.01552
G1 X85.101 Y94.092 E0.01552
G1 X84.692 Y93.834 E0.01518
G1 X84.433 Y93.595 E0.01104
G1 X84.153 Y93.214 E0.01483
G1 X84.000 Y92.898 E0.01102
G1 X83.880 Y92.453 E0.01446
G1 X83.852 Y92.101 E0.01105
G1 X83.877 Y91.760 E0.01074
G1 X84.002 Y91.293 E0.01515
G1 X84.222 Y90.875 E0.01480
G1 X84.447 Y90.590 E0.01137
G1 X84.797 Y90.288 E0.01450
G1 X85.111 Y90.105 E0.01139
G1 X85.511 Y89.965 E0.01332
M204 S1250
G1 X85.636 Y90.320 F9000.000
M204 S800
;TYPE:External perimeter
G1 F1200.000
G1 X86.045 Y90.269 E0.01294
G1 X86.337 Y90.290 E0.00916
G1 X86.730 Y90.395 E0.01274
G1 X87.079 Y90.579 E0.01239
G1 X87.308 Y90.760 E0.00915
G1 X87.565 Y91.056 E0.01228
G1 X87.712 Y91.309 E0.00916
G1 X87.846 Y91.692 E0.01275
G1 X87.892 Y92.100 E0.01286
G1 X87.846 Y92.508 E0.01286
G1 X87.711 Y92.895 E0.01286
G1 X87.495 Y93.239 E0.01273
G1 X87.303 Y93.445 E0.00883
G1 X86.980 Y93.684 E0.01261
G1 X86.729 Y93.804 E0.00870
G1 X86.464 Y93.886 E0.00870
G1 X86.061 Y93.931 E0.01273
G1 X85.653 Y93.886 E0.01286
G1 X85.266 Y93.750 E0.01286
G1 X84.922 Y93.534 E0.01273
G1 X84.716 Y93.343 E0.00883
G1 X84.477 Y93.019 E0.01261
G1 X84.355 Y92.765 E0.00882
G1 X84.253 Y92.388 E0.01227
G1 X84.230 Y92.100 E0.00904
G1 X84.251 Y91.823 E0.00872
G1 X84.356 Y91.431 E0.01273
G1 X84.540 Y91.081 E0.01239
G1 X84.721 Y90.852 E0.00915
G1 X85.017 Y90.596 E0.01228
G1 X85.269 Y90.449 E0.00916
G1 X85.579 Y90.340 E0.01030
M204 S1250
G1 X85.755 Y89.938 F9000.000
G1 E-2.24000 F4200.000
;WIPE_START
G1 F7200.000
G1 X86.045 Y90.269 E-0.26128
G1 X86.337 Y90.290 E-0.16195
G1 X86.730 Y90.395 E-0.22522
G1 X87.079 Y90.579 E-0.21900
G1 X87.142 Y90.629 E-0.04455
;WIPE_END
G1 E-0.04800 F4200.000
G1 Z0.400 F9000.000
G1 X85.713 Y71.787
G1 Z0.200
G1 E3.20000 F2400.000
M204 S800
;TYPE:Perimeter
G1 F1200.000
G1 X94.287 Y71.787 E0.26884
G1 X94.287 Y67.287 E0.14109
G1 X97.434 Y67.287 E0.09867
G1 X97.434 Y112.713 E1.42430
M73 P3 R14
G1 X82.566 Y112.713 E0.46618
G1 X82.566 Y67.287 E1.42430
G1 X85.713 Y67.287 E0.09867
G1 X85.713 Y71.727 E0.13921
M204 S1250
G1 X86.090 Y71.410 F9000.000
M204 S800
;TYPE:External perimeter
G1 F1200.000
G1 X86.090 Y67.590 E0.11977
G1 X93.910 Y67.590 E0.24519
G1 X93.910 Y71.410 E0.11977
G1 X86.150 Y71.410 E0.24331
M204 S1250
G1 X85.695 Y71.470 F9000.000
G1 E-2.24000 F4200.000
;WIPE_START
G1 F7200.000
G1 X86.124 Y69.764 E-0.91200
;WIPE_END
G1 E-0.04800 F4200.000
G1 Z0.400 F9000.000
G1 X82.189 Y66.910
G1 Z0.200
G1 E3.20000 F2400.000
M204 S800
G1 F1200.000
G1 X97.811 Y66.910 E0.48983
G1 X97.811 Y113.090 E1.44794
M73 P4 R14
G1 X82.189 Y113.090 E0.48983
G1 X82.189 Y66.970 E1.44606
M204 S1250
G1 X82.555 Y67.071 F9000.000
G1 E-2.24000 F4200.000
;WIPE_START
G1 F7200.000
G1 X83.834 Y66.964 E-0.91200
;WIPE_END
G1 E-0.04800 F4200.000
G1 Z0.400 F9000.000
G1 X85.901 Y67.250
G1 Z0.200
G1 E3.20000 F2400.000
M204 S800
;TYPE:Gap fill
;WIDTH:0.345842
G1 F1200.000
G1 X94.099 Y67.250 E0.20647
M204 S1250
G1 E-2.24000 F4200.000
;WIPE_START
G1 F7200.000
G1 X92.453 Y67.250 E-0.91200
;WIPE_END
G1 E-0.04800 F4200.000
G1 Z0.400 F9000.000
G1 X97.321 Y68.165
G1 Z0.200
G1 E3.20000 F2400.000
M204 S800
;TYPE:Solid infill
;WIDTH:0.421203
G1 F1200.000
G1 X96.726 Y67.570 E0.02647
G1 X96.191 Y67.570 E0.01683
G1 X97.151 Y68.530 E0.04272
G1 X97.151 Y69.065 E0.01683
G1 X95.656 Y67.570 E0.06652
G1 X95.121 Y67.570 E0.01683
G1 X97.151 Y69.600 E0.09032
G1 X97.151 Y70.135 E0.01683
G1 X94.570 Y67.570 E0.11447
G1 X94.570 Y68.089 E0.01632
G1 X97.151 Y70.670 E0.11483
G1 X97.151 Y71.205 E0.01683
G1 X94.570 Y68.624 E0.11483
G1 X94.570 Y69.159 E0.01683
G1 X97.151 Y71.740 E0.11483
G1 X97.151 Y72.275 E0.01683
G1 X94.570 Y69.694 E0.11483
G1 X94.570 Y70.229 E0.01683
G1 X97.151 Y72.810 E0.11483
G1 X97.151 Y73.345 E0.01683
G1 X94.570 Y70.764 E0.11483
G1 X94.570 Y71.299 E0.01683
G1 X97.151 Y73.880 E0.11483
G1 X97.151 Y74.415 E0.01683
G1 X94.570 Y71.834 E0.11483
G1 X94.570 Y72.070 E0.00743
G1 X94.271 Y72.070 E0.00939
G1 X97.151 Y74.950 E0.12812
G1 X97.151 Y75.485 E0.01683
G1 X93.736 Y72.070 E0.15191
G1 X93.201 Y72.070 E0.01683
G1 X97.151 Y76.020 E0.17571
M73 P5 R14
G1 X97.151 Y76.555 E0.01683
G1 X92.666 Y72.070 E0.19951
G1 X92.131 Y72.070 E0.01683
G1 X97.151 Y77.090 E0.22331
G1 X97.151 Y77.625 E0.01683
G1 X91.596 Y72.070 E0.24710
G1 X91.061 Y72.070 E0.01683
G1 X97.151 Y78.160 E0.27090
G1 X97.151 Y78.695 E0.01683
G1 X90.526 Y72.070 E0.29470
G1 X89.991 Y72.070 E0.01683
G1 X97.151 Y79.230 E0.31849
G1 X97.151 Y79.765 E0.01683
G1 X89.456 Y72.070 E0.34229
G1 X88.922 Y72.070 E0.01683
G1 X97.151 Y80.300 E0.36609
G1 X97.151 Y80.835 E0.01683
G1 X88.387 Y72.070 E0.38989
G1 X87.852 Y72.070 E0.01683
G1 X97.151 Y81.370 E0.41368
G1 X97.151 Y81.905 E0.01683
G1 X87.317 Y72.070 E0.43748
G1 X86.782 Y72.070 E0.01683
G1 X97.151 Y82.440 E0.46128
G1 X97.151 Y82.975 E0.01683
G1 X86.077 Y71.900 E0.49262
M204 S1250
G1 E-2.24000 F4200.000
;WIPE_START
G1 F7200.000
G1 X87.241 Y73.064 E-0.91200
;WIPE_END
G1 E-0.04800 F4200.000
G1 Z0.400 F9000.000
G1 X85.600 Y68.213
G1 Z0.200
G1 E3.20000 F2400.000
M204 S800
G1 F1200.000
G1 X84.956 Y67.570 E0.02862
G1 X84.422 Y67.570 E0.01683
G1 X85.430 Y68.578 E0.04487
G1 X85.430 Y69.113 E0.01683
G1 X83.887 Y67.570 E0.06866
G1 X83.352 Y67.570 E0.01683
G1 X85.430 Y69.648 E0.09246
G1 X85.430 Y70.183 E0.01683
G1 X82.849 Y67.602 E0.11483
M73 P6 R14
G1 X82.849 Y68.137 E0.01683
G1 X85.430 Y70.718 E0.11483
G1 X85.430 Y71.253 E0.01683
G1 X82.849 Y68.672 E0.11483
G1 X82.849 Y69.207 E0.01683
G1 X97.151 Y83.510 E0.63623
G1 X97.151 Y84.045 E0.01683
G1 X82.849 Y69.742 E0.63623
G1 X82.849 Y70.277 E0.01683
G1 X97.151 Y84.579 E0.63623
G1 X97.151 Y85.114 E0.01683
G1 X82.849 Y70.812 E0.63623
G1 X82.849 Y71.347 E0.01683
G1 X97.151 Y85.649 E0.63623
G1 X97.151 Y86.184 E0.01683
G1 X82.849 Y71.882 E0.63623
G1 X82.849 Y72.417 E0.01683
G1 X97.151 Y86.719 E0.63623
G1 X97.151 Y87.254 E0.01683
G1 X82.849 Y72.952 E0.63623
G1 X82.849 Y73.487 E0.01683
M73 P7 R14
G1 X97.151 Y87.789 E0.63623
G1 X97.151 Y88.324 E0.01683
G1 X82.849 Y74.022 E0.63623
G1 X82.849 Y74.557 E0.01683
G1 X97.151 Y88.859 E0.63623
G1 X97.151 Y89.394 E0.01683
G1 X82.849 Y75.092 E0.63623
G1 X82.849 Y75.627 E0.01683
G1 X97.151 Y89.929 E0.63623
G1 X97.151 Y90.464 E0.01683
G1 X82.849 Y76.162 E0.63623
G1 X82.849 Y76.696 E0.01683
G1 X97.151 Y90.999 E0.63623
G1 X97.151 Y91.534 E0.01683
G1 X82.849 Y77.231 E0.63623
G1 X82.849 Y77.766 E0.01683
G1 X97.151 Y92.069 E0.63623
M73 P8 R14
G1 X97.151 Y92.604 E0.01683
G1 X82.849 Y78.301 E0.63623
G1 X82.849 Y78.836 E0.01683
G1 X97.151 Y93.139 E0.63623
G1 X97.151 Y93.674 E0.01683
G1 X82.849 Y79.371 E0.63623
G1 X82.849 Y79.906 E0.01683
G1 X97.151 Y94.209 E0.63623
G1 X97.151 Y94.744 E0.01683
G1 X82.849 Y80.441 E0.63623
G1 X82.849 Y80.976 E0.01683
G1 X97.151 Y95.279 E0.63623
G1 X97.151 Y95.814 E0.01683
G1 X82.849 Y81.511 E0.63623
G1 X82.849 Y82.046 E0.01683
G1 X97.151 Y96.349 E0.63623
G1 X97.151 Y96.884 E0.01683
M73 P9 R14
G1 X82.849 Y82.581 E0.63623
G1 X82.849 Y83.116 E0.01683
G1 X97.151 Y97.419 E0.63623
G1 X97.151 Y97.954 E0.01683
G1 X82.849 Y83.651 E0.63623
G1 X82.849 Y84.186 E0.01683
G1 X97.151 Y98.489 E0.63623
M73 P9 R13
G1 X97.151 Y99.024 E0.01683
G1 X82.849 Y84.721 E0.63623
G1 X82.849 Y85.256 E0.01683
G1 X97.151 Y99.559 E0.63623
G1 X97.151 Y100.094 E0.01683
G1 X88.435 Y91.377 E0.38773
G1 X88.314 Y91.031 E0.01155
G1 X88.104 Y90.671 E0.01311
G1 X87.767 Y90.281 E0.01621
G1 X87.440 Y90.023 E0.01308
G1 X86.971 Y89.777 E0.01667
G1 X86.784 Y89.727 E0.00610
G1 X82.849 Y85.791 E0.17507
G1 X82.849 Y86.326 E0.01683
G1 X86.137 Y89.614 E0.14628
G1 X86.031 Y89.607 E0.00335
G1 X85.640 Y89.652 E0.01239
G1 X82.849 Y86.861 E0.12415
G1 X82.849 Y87.396 E0.01683
G1 X85.220 Y89.767 E0.10547
G1 X84.991 Y89.847 E0.00761
G1 X84.848 Y89.930 E0.00522
G1 X82.849 Y87.931 E0.08895
G1 X82.849 Y88.466 E0.01683
G1 X84.529 Y90.146 E0.07473
G1 X84.242 Y90.394 E0.01193
G1 X82.849 Y89.001 E0.06197
G1 X82.849 Y89.536 E0.01683
G1 X84.006 Y90.693 E0.05146
G1 X83.817 Y91.039 E0.01240
G1 X82.849 Y90.071 E0.04305
G1 X82.849 Y90.606 E0.01683
G1 X83.673 Y91.430 E0.03666
G1 X83.597 Y91.712 E0.00919
G1 X83.585 Y91.877 E0.00520
G1 X82.849 Y91.141 E0.03275
G1 X82.849 Y91.676 E0.01683
M73 P10 R13
G1 X83.813 Y92.640 E0.04291
M204 S1250
G1 E-2.24000 F4200.000
;WIPE_START
G1 F7200.000
G1 X82.849 Y91.676 E-0.75593
G1 X82.849 Y91.394 E-0.15607
;WIPE_END
G1 E-0.04800 F4200.000
G1 Z0.400 F9000.000
G1 X88.355 Y91.833
G1 Z0.200
G1 E3.20000 F2400.000
M204 S800
G1 F1200.000
G1 X97.151 Y100.629 E0.39128
G1 X97.151 Y101.164 E0.01683
G1 X88.509 Y92.521 E0.38445
G1 X88.494 Y92.655 E0.00425
G1 X88.394 Y92.941 E0.00952
G1 X97.151 Y101.699 E0.38957
G1 X97.151 Y102.234 E0.01683
G1 X88.229 Y93.311 E0.39691
G1 X88.022 Y93.639 E0.01220
G1 X97.151 Y102.769 E0.40610
G1 X97.151 Y103.304 E0.01683
G1 X87.765 Y93.917 E0.41753
G1 X87.461 Y94.148 E0.01201
G1 X97.151 Y103.839 E0.43105
G1 X97.151 Y104.373 E0.01683
G1 X87.124 Y94.346 E0.44603
G1 X86.971 Y94.420 E0.00534
G1 X86.736 Y94.493 E0.00775
G1 X97.151 Y104.908 E0.46332
G1 X97.151 Y105.443 E0.01683
G1 X86.279 Y94.571 E0.48364
G1 X86.061 Y94.596 E0.00691
G1 X85.731 Y94.558 E0.01042
G1 X97.151 Y105.978 E0.50800
G1 X97.151 Y106.513 E0.01683
G1 X82.849 Y92.211 E0.63623
M73 P11 R13
G1 X82.849 Y92.746 E0.01683
G1 X97.151 Y107.048 E0.63623
G1 X97.151 Y107.583 E0.01683
G1 X82.849 Y93.281 E0.63623
G1 X82.849 Y93.816 E0.01683
G1 X97.151 Y108.118 E0.63623
G1 X97.151 Y108.653 E0.01683
G1 X82.849 Y94.351 E0.63623
G1 X82.849 Y94.886 E0.01683
G1 X97.151 Y109.188 E0.63623
G1 X97.151 Y109.723 E0.01683
G1 X82.849 Y95.421 E0.63623
G1 X82.849 Y95.956 E0.01683
G1 X97.151 Y110.258 E0.63623
G1 X97.151 Y110.793 E0.01683
G1 X82.849 Y96.490 E0.63623
G1 X82.849 Y97.025 E0.01683
M73 P12 R13
G1 X97.151 Y111.328 E0.63623
G1 X97.151 Y111.863 E0.01683
G1 X82.849 Y97.560 E0.63623
G1 X82.849 Y98.095 E0.01683
G1 X97.151 Y112.398 E0.63623
G1 X97.151 Y112.430 E0.00101
G1 X96.648 Y112.430 E0.01582
G1 X82.849 Y98.630 E0.61386
G1 X82.849 Y99.165 E0.01683
G1 X96.113 Y112.430 E0.59006
G1 X95.578 Y112.430 E0.01683
G1 X82.849 Y99.700 E0.56626
G1 X82.849 Y100.235 E0.01683
G1 X95.043 Y112.430 E0.54246
G1 X94.509 Y112.430 E0.01683
G1 X82.849 Y100.770 E0.51867
G1 X82.849 Y101.305 E0.01683
G1 X93.974 Y112.430 E0.49487
G1 X93.439 Y112.430 E0.01683
G1 X82.849 Y101.840 E0.47107
M73 P13 R13
G1 X82.849 Y102.375 E0.01683
G1 X92.904 Y112.430 E0.44728
G1 X92.369 Y112.430 E0.01683
G1 X82.849 Y102.910 E0.42348
G1 X82.849 Y103.445 E0.01683
G1 X91.834 Y112.430 E0.39968
G1 X91.299 Y112.430 E0.01683
G1 X82.849 Y103.980 E0.37588
G1 X82.849 Y104.515 E0.01683
G1 X90.764 Y112.430 E0.35209
G1 X90.229 Y112.430 E0.01683
G1 X82.849 Y105.050 E0.32829
G1 X82.849 Y105.585 E0.01683
G1 X89.694 Y112.430 E0.30449
G1 X89.159 Y112.430 E0.01683
G1 X82.849 Y106.120 E0.28069
G1 X82.849 Y106.655 E0.01683
G1 X88.624 Y112.430 E0.25690
G1 X88.089 Y112.430 E0.01683
G1 X82.849 Y107.190 E0.23310
G1 X82.849 Y107.725 E0.01683
G1 X87.554 Y112.430 E0.20930
G1 X87.019 Y112.430 E0.01683
G1 X82.849 Y108.260 E0.18551
G1 X82.849 Y108.795 E0.01683
G1 X86.484 Y112.430 E0.16171
G1 X85.949 Y112.430 E0.01683
G1 X82.849 Y109.330 E0.13791
G1 X82.849 Y109.865 E0.01683
G1 X85.414 Y112.430 E0.11411
G1 X84.879 Y112.430 E0.01683
G1 X82.849 Y110.400 E0.09032
G1 X82.849 Y110.935 E0.01683
G1 X84.344 Y112.430 E0.06652
G1 X83.809 Y112.430 E0.01683
G1 X82.849 Y111.470 E0.04272
G1 X82.849 Y112.005 E0.01683
G1 X83.444 Y112.600 E0.02647
M204 S1250
; stop printing object RightBoardCradle_01.stl id:0 copy 0
M106 S84.15
;LAYER_CHANGE
;Z:0.4
;HEIGHT:0.2
;BEFORE_LAYER_CHANGE
G92 E0.0
;0.4


G1 E-2.24000 F4200.000
;WIPE_START
G1 F7200.000
G1 X82.849 Y112.005 E-0.46639
G1 X82.849 Y111.470 E-0.29646
G1 X83.039 Y111.660 E-0.14914
;WIPE_END
G1 E-0.04800 F4200.000
G1 Z0.400 F9000.000
;AFTER_LAYER_CHANGE
;0.4
M104 S210 ; set temperature
G1 Z0.600
G1 X79.534 Y114.282
G1 Z0.400
G1 E3.20000 F2400.000
;TYPE:Skirt
;WIDTH:0.42
G1 X79.403 Y113.573 E0.02260
G1 X79.402 Y66.492 E1.47619
M73 P14 R13
G1 X79.524 Y65.748 E0.02367
G1 X79.833 Y65.134 E0.02154
G1 X80.305 Y64.635 E0.02154
G1 X80.904 Y64.290 E0.02166
G1 X81.572 Y64.132 E0.02154
G1 X98.225 Y64.123 E0.52214
G1 X99.109 Y64.295 E0.02825
G1 X99.864 Y64.781 E0.02813
G1 X100.385 Y65.516 E0.02825
G1 X100.596 Y66.392 E0.02825
G1 X100.598 Y113.508 E1.47727
G1 X100.476 Y114.252 E0.02367
G1 X100.162 Y114.872 E0.02178
G1 X99.683 Y115.375 E0.02178
G1 X99.079 Y115.717 E0.02178
G1 X98.405 Y115.870 E0.02166
G1 X81.764 Y115.877 E0.52178
G1 X81.026 Y115.755 E0.02343
G1 X80.385 Y115.426 E0.02260
G1 X79.872 Y114.919 E0.02260
G1 X79.562 Y114.335 E0.02072
; printing object RightBoardCradle_01.stl id:0 copy 0
G1 E-2.24000 F4200.000
;WIPE_START
G1 F7200.000
G1 X79.403 Y113.573 E-0.43135
G1 X79.403 Y112.706 E-0.48065
;WIPE_END
G1 E-0.04800 F4200.000
G1 Z0.600 F9000.000
G1 X86.061 Y94.156
G1 Z0.400
G1 E3.20000 F2400.000
M204 S800
;TYPE:Perimeter
;WIDTH:0.45
G1 F1500.000
G1 X85.615 Y94.106 E0.01518
G1 X85.299 Y94.008 E0.01120
G1 X84.902 Y93.799 E0.01518
G1 X84.553 Y93.498 E0.01558
G1 X84.287 Y93.138 E0.01518
