; generated by PrusaSlicer 2.3.0+win64 on 2021-08-02 at 17:46:00 UTC


;
;

;
;
; 

; external perimeters extrusion width = 0.45mm
; perimeters extrusion width = 0.45mm
; infill extrusion width = 0.45mm
; solid infill extrusion width = 0.45mm
; top infill extrusion width = 0.40mm
; first layer extrusion width = 0.42mm

M73 P0 R17
M201 X1250 Y1250 Z400 E5000 ; sets maximum accelerations, mm/sec^2
M203 X180 Y180 Z12 E80 ; sets maximum feedrates, mm/sec
M204 P1250 R1250 T1250 ; sets acceleration (P, T) and retract acceleration (R), mm/sec^2
M205 X8.00 Y8.00 Z2.00 E10.00 ; sets the jerk limits, mm/sec
M205 S0 T0 ; sets the minimum extruding and travel feed rate, mm/sec
M107
;TYPE:Custom
G90 ; use absolute coordinates
M83 ; extruder relative mode
M104 S170 ; set extruder temp for bed leveling
M140 S60 ; set bed temp
M109 R170 ; wait for bed leveling temp
M190 S60 ; wait for bed temp
G28 ; home all without mesh bed level
G29 ; mesh bed leveling 
M104 S215 ; set extruder temp
G92 E0.0
G1 Y-2.0 X179 F2400
G1 Z3 F720
M109 S215 ; wait for extruder temp

; intro line
G1 X170 F1000
G1 Z0.2 F720
G1 X110.0 E8.0 F900
M73 P0 R16
G1 X40.0 E10.0 F700
G92 E0.0

M221 S95 ; set flow
G21 ; set units to millimeters
G90 ; use absolute coordinates
M83 ; use relative distances for extrusion
M900 K0.2 ; Filament gcode LA 1.5
; ; Filament gcode LA 1.0
;LAYER_CHANGE
;Z:0.2
;HEIGHT:0.2
;BEFORE_LAYER_CHANGE
G92 E0.0
;0.2


M73 P1 R16
G1 E-3.20000 F4200.000
G1 Z0.200 F9000.000
;AFTER_LAYER_CHANGE
;0.2
G1 Z0.400
G1 X69.896 Y69.785
G1 Z0.200
G1 E3.20000 F2400.000
M204 S800
;TYPE:Skirt
;WIDTH:0.42
G1 F1200.000
G1 X70.790 Y69.465 E0.02977
G1 X104.303 Y65.305 E1.05885
G1 X105.112 Y65.258 E0.02539
G1 X106.522 Y65.430 E0.04454
G1 X107.865 Y65.925 E0.04490
G1 X109.041 Y66.702 E0.04419
G1 X109.612 Y67.247 E0.02474
G1 X110.103 Y67.852 E0.02444
G1 X110.799 Y69.122 E0.04540
G1 X111.173 Y70.473 E0.04395
G1 X111.232 Y71.881 E0.04419
G1 X110.968 Y73.274 E0.04446
G1 X110.546 Y74.296 E0.03466
G1 X89.498 Y113.758 E1.40229
M73 P2 R16
G1 X89.132 Y114.159 E0.01704
G1 X88.684 Y114.466 E0.01704
G1 X88.174 Y114.665 E0.01716
G1 X87.636 Y114.742 E0.01704
G1 X71.068 Y114.742 E0.51946
G1 X70.369 Y114.618 E0.02225
G1 X69.738 Y114.293 E0.02225
G1 X69.329 Y113.918 E0.01740
G1 X69.018 Y113.459 E0.01740
G1 X68.822 Y112.940 E0.01740
G1 X68.752 Y112.393 E0.01728
G1 X68.752 Y71.791 E1.27305
G1 X68.872 Y71.073 E0.02284
G1 X69.201 Y70.427 E0.02272
G1 X69.852 Y69.826 E0.02778
M204 S1250
; printing object RightBoardCradle_03.stl id:0 copy 0
G1 E-2.24000 F4200.000
;WIPE_START
G1 F7200.000
G1 X70.790 Y69.465 E-0.55701
G1 X71.426 Y69.386 E-0.35499
;WIPE_END
G1 E-0.04800 F4200.000
G1 Z0.400 F9000.000
G1 X106.767 Y73.642
G1 Z0.200
G1 E3.20000 F2400.000
M204 S800
;TYPE:Perimeter
G1 F1200.000
G1 X107.123 Y73.329 E0.01485
G1 X107.273 Y73.480 E0.00668
G1 X107.175 Y73.590 E0.00461
G1 X106.914 Y73.812 E0.01074
G1 X106.807 Y73.687 E0.00515
M204 S1250
G1 X107.130 Y73.313 F9000.000
M204 S800
G1 F1200.000
G1 X107.427 Y72.929 E0.01522
G1 X107.642 Y72.508 E0.01483
G1 X107.840 Y72.602 E0.00689
G1 X107.628 Y73.031 E0.01503
G1 X107.452 Y73.279 E0.00953
G1 X107.297 Y73.453 E0.00729
G1 X107.176 Y73.351 E0.00497
M204 S1250
G1 X107.655 Y72.497 F9000.000
M204 S800
G1 F1200.000
G1 X107.809 Y71.967 E0.01732
G1 X108.026 Y72.029 E0.00707
G1 X107.907 Y72.450 E0.01372
G1 X107.854 Y72.570 E0.00409
G1 X107.711 Y72.518 E0.00477
M204 S1250
G1 X107.818 Y71.891 F9000.000
M204 S800
G1 F1200.000
G1 X107.860 Y71.449 E0.01391
G1 X108.076 Y71.460 E0.00678
G1 X108.075 Y71.651 E0.00599
G1 X108.038 Y71.917 E0.00842
G1 X107.878 Y71.898 E0.00505
M204 S1250
G1 X107.861 Y71.428 F9000.000
M204 S800
G1 F1200.000
G1 X107.812 Y70.912 E0.01625
G1 X107.687 Y70.482 E0.01402
G1 X107.900 Y70.417 E0.00698
G1 X107.995 Y70.708 E0.00961
G1 X108.076 Y71.231 E0.01658
G1 X108.076 Y71.418 E0.00587
G1 X107.921 Y71.425 E0.00488
M204 S1250
G1 X107.639 Y70.355 F9000.000
M204 S800
G1 F1200.000
G1 X107.412 Y69.913 E0.01557
G1 X107.596 Y69.805 E0.00671
G1 X107.688 Y69.944 E0.00521
G1 X107.839 Y70.256 E0.01086
G1 X107.692 Y70.328 E0.00512
M204 S1250
G1 X107.360 Y69.849 F9000.000
M204 S800
G1 F1200.000
G1 X107.209 Y69.642 E0.00804
G1 X107.377 Y69.507 E0.00677
G1 X107.541 Y69.722 E0.00850
G1 X107.409 Y69.815 E0.00506
M204 S1250
G1 X107.138 Y69.517 F9000.000
M204 S800
G1 F1200.000
G1 X107.111 Y69.541 E0.00114
G1 X106.974 Y69.395 E0.00628
G1 X106.538 Y69.057 E0.01731
G1 X106.657 Y68.881 E0.00665
G1 X106.989 Y69.111 E0.01268
G1 X107.187 Y69.290 E0.00836
G1 X107.276 Y69.391 E0.00422
G1 X107.182 Y69.476 E0.00396
M204 S1250
G1 X106.521 Y69.056 F9000.000
M204 S800
G1 F1200.000
G1 X106.127 Y68.855 E0.01385
G1 X106.219 Y68.657 E0.00683
G1 X106.417 Y68.740 E0.00675
G1 X106.626 Y68.863 E0.00760
G1 X106.550 Y69.003 E0.00500
M204 S1250
G1 X106.113 Y68.845 F9000.000
M204 S800
G1 F1200.000
G1 X105.670 Y68.716 E0.01445
G1 X105.730 Y68.501 E0.00701
G1 X106.039 Y68.583 E0.01003
G1 X106.184 Y68.643 E0.00491
G1 X106.133 Y68.788 E0.00482
M204 S1250
G1 E-2.24000 F4200.000
;WIPE_START
G1 F7200.000
G1 X105.670 Y68.716 E-0.25932
G1 X105.730 Y68.501 E-0.12391
G1 X106.039 Y68.583 E-0.17720
G1 X106.184 Y68.643 E-0.08684
G1 X106.133 Y68.788 E-0.08527
;WIPE_END
G1 E-0.22747 F4200.000
G1 Z0.400 F9000.000
G1 X77.403 Y90.006
G1 Z0.200
G1 E3.20000 F2400.000
M204 S800
G1 F1200.000
G1 X77.566 Y90.474 E0.01552
G1 X77.621 Y90.955 E0.01518
G1 X77.594 Y91.306 E0.01104
G1 X77.469 Y91.773 E0.01518
G1 X77.238 Y92.211 E0.01552
G1 X76.915 Y92.586 E0.01552
G1 X76.525 Y92.874 E0.01518
G1 X76.218 Y93.022 E0.01070
G1 X75.892 Y93.122 E0.01070
G1 X75.411 Y93.177 E0.01518
G1 X74.930 Y93.122 E0.01518
G1 X74.593 Y93.018 E0.01104
G1 X74.166 Y92.793 E0.01515
G1 X73.807 Y92.485 E0.01480
G1 X73.580 Y92.202 E0.01139
G1 X73.353 Y91.774 E0.01520
G1 X73.230 Y91.318 E0.01480
G1 X73.201 Y90.956 E0.01139
G1 X73.254 Y90.485 E0.01487
G1 X73.355 Y90.159 E0.01070
G1 X73.503 Y89.851 E0.01070
G1 X73.790 Y89.462 E0.01518
G1 X74.157 Y89.146 E0.01518
G1 X74.462 Y88.970 E0.01104
G1 X74.918 Y88.810 E0.01515
G1 X75.387 Y88.756 E0.01480
G1 X75.750 Y88.782 E0.01139
G1 X76.219 Y88.907 E0.01522
G1 X76.647 Y89.134 E0.01518
G1 X76.913 Y89.346 E0.01070
G1 X77.145 Y89.596 E0.01070
G1 X77.371 Y89.955 E0.01329
M204 S1250
G1 X77.052 Y90.156 F9000.000
M204 S800
;TYPE:External perimeter
G1 F1200.000
G1 X77.196 Y90.558 E0.01339
G1 X77.242 Y90.962 E0.01273
G1 X77.221 Y91.242 E0.00883
G1 X77.116 Y91.635 E0.01273
G1 X76.924 Y91.997 E0.01286
G1 X76.657 Y92.308 E0.01286
G1 X76.330 Y92.549 E0.01273
G1 X76.080 Y92.670 E0.00870
G1 X75.815 Y92.752 E0.00870
G1 X75.411 Y92.797 E0.01273
G1 X75.007 Y92.752 E0.01273
G1 X74.738 Y92.669 E0.00883
G1 X74.379 Y92.479 E0.01273
G1 X74.079 Y92.222 E0.01239
G1 X73.896 Y91.994 E0.00916
G1 X73.706 Y91.635 E0.01274
G1 X73.603 Y91.253 E0.01239
G1 X73.580 Y90.962 E0.00916
G1 X73.625 Y90.562 E0.01263
G1 X73.707 Y90.297 E0.00870
G1 X73.827 Y90.047 E0.00870
G1 X74.068 Y89.720 E0.01273
G1 X74.376 Y89.455 E0.01273
G1 X74.620 Y89.314 E0.00883
G1 X75.003 Y89.180 E0.01273
G1 X75.396 Y89.135 E0.01239
G1 X75.687 Y89.155 E0.00916
G1 X76.080 Y89.261 E0.01275
G1 X76.439 Y89.450 E0.01273
G1 X76.656 Y89.624 E0.00870
G1 X76.845 Y89.827 E0.00870
G1 X77.020 Y90.105 E0.01030
M204 S1250
G1 X77.450 Y90.188 F9000.000
G1 E-2.24000 F4200.000
;WIPE_START
G1 F7200.000
G1 X77.196 Y90.558 E-0.26932
G1 X77.242 Y90.962 E-0.22508
G1 X77.221 Y91.242 E-0.15602
G1 X77.116 Y91.635 E-0.22507
G1 X77.085 Y91.693 E-0.03651
;WIPE_END
G1 E-0.04800 F4200.000
G1 Z0.400 F9000.000
G1 X86.784 Y84.885
G1 Z0.200
G1 E3.20000 F2400.000
M204 S800
;TYPE:Perimeter
G1 F1200.000
G1 X86.784 Y111.578 E0.83695
M73 P3 R16
G1 X71.916 Y111.578 E0.46618
G1 X71.916 Y72.513 E1.22487
G1 X104.774 Y68.435 E1.03814
G1 X105.227 Y68.427 E0.01420
G1 X105.549 Y68.466 E0.01018
G1 X105.525 Y68.688 E0.00698
G1 X105.067 Y68.646 E0.01445
G1 X104.764 Y68.660 E0.00949
G1 X104.369 Y68.735 E0.01262
G1 X103.884 Y68.910 E0.01617
G1 X103.432 Y69.177 E0.01646
G1 X103.038 Y69.525 E0.01646
G1 X102.716 Y69.940 E0.01646
G1 X102.478 Y70.407 E0.01646
G1 X102.331 Y70.912 E0.01646
G1 X102.282 Y71.434 E0.01646
G1 X102.331 Y71.957 E0.01646
G1 X102.478 Y72.461 E0.01646
G1 X102.716 Y72.930 E0.01650
G1 X103.042 Y73.347 E0.01658
G1 X103.295 Y73.583 E0.01084
G1 X103.585 Y73.794 E0.01126
G1 X104.045 Y74.028 E0.01617
G1 X104.549 Y74.175 E0.01646
G1 X105.073 Y74.224 E0.01650
G1 X105.599 Y74.173 E0.01658
G1 X105.934 Y74.086 E0.01084
G1 X106.267 Y73.954 E0.01126
G1 X106.645 Y73.731 E0.01375
G1 X106.761 Y73.920 E0.00697
G1 X106.499 Y74.088 E0.00975
G1 X86.837 Y84.856 E0.70290
M204 S1250
G1 E-2.24000 F4200.000
;WIPE_START
G1 F7200.000
G1 X86.834 Y86.502 E-0.91200
;WIPE_END
G1 E-0.04800 F4200.000
G1 Z0.400 F9000.000
G1 X103.036 Y72.727
G1 Z0.200
G1 E3.20000 F2400.000
M204 S800
;TYPE:External perimeter
G1 F1200.000
G1 X102.830 Y72.322 E0.01424
G1 X102.703 Y71.886 E0.01423
G1 X102.660 Y71.434 E0.01423
G1 X102.703 Y70.983 E0.01423
G1 X102.830 Y70.547 E0.01423
G1 X103.036 Y70.143 E0.01423
G1 X103.314 Y69.784 E0.01423
G1 X103.654 Y69.484 E0.01423
G1 X104.045 Y69.253 E0.01423
G1 X104.469 Y69.100 E0.01412
G1 X104.769 Y69.043 E0.00959
G1 X105.062 Y69.024 E0.00919
G1 X105.523 Y69.066 E0.01452
G1 X105.959 Y69.193 E0.01424
G1 X106.363 Y69.399 E0.01423
G1 X106.719 Y69.675 E0.01412
G1 X106.929 Y69.898 E0.00959
G1 X107.101 Y70.135 E0.00919
G1 X107.313 Y70.546 E0.01452
G1 X107.440 Y70.983 E0.01424
G1 X107.483 Y71.434 E0.01423
G1 X107.440 Y71.886 E0.01423
G1 X107.313 Y72.322 E0.01423
G1 X107.107 Y72.726 E0.01423
G1 X106.829 Y73.085 E0.01423
G1 X106.489 Y73.385 E0.01423
G1 X106.101 Y73.614 E0.01412
G1 X105.817 Y73.727 E0.00959
G1 X105.533 Y73.800 E0.00919
G1 X105.072 Y73.846 E0.01452
G1 X104.620 Y73.803 E0.01424
G1 X104.184 Y73.676 E0.01423
G1 X103.783 Y73.472 E0.01412
G1 X103.535 Y73.292 E0.00959
G1 X103.321 Y73.092 E0.00919
G1 X103.073 Y72.774 E0.01264
M204 S1250
G1 X102.636 Y72.739 F9000.000
G1 E-2.24000 F4200.000
;WIPE_START
G1 F7200.000
G1 X102.830 Y72.322 E-0.28440
G1 X102.703 Y71.886 E-0.25148
G1 X102.660 Y71.434 E-0.25148
G1 X102.682 Y71.211 E-0.12464
;WIPE_END
G1 E-0.04800 F4200.000
G1 Z0.400 F9000.000
G1 X87.162 Y85.109
G1 Z0.200
G1 E3.20000 F2400.000
M204 S800
G1 F1200.000
G1 X87.162 Y111.956 E0.84177
G1 X71.539 Y111.956 E0.48983
M73 P4 R16
G1 X71.539 Y72.180 E1.24713
G1 X104.637 Y68.072 E1.04571
G1 X104.951 Y68.047 E0.00988
G1 X105.252 Y68.050 E0.00944
G1 X105.715 Y68.107 E0.01465
G1 X106.161 Y68.225 E0.01445
G1 X106.586 Y68.402 E0.01445
G1 X106.986 Y68.637 E0.01453
G1 X107.229 Y68.820 E0.00956
G1 X107.456 Y69.025 E0.00956
G1 X107.762 Y69.373 E0.01453
G1 X108.017 Y69.757 E0.01445
G1 X108.217 Y70.172 E0.01445
G1 X108.360 Y70.612 E0.01453
G1 X108.421 Y70.911 E0.00956
G1 X108.454 Y71.210 E0.00944
G1 X108.452 Y71.678 E0.01465
G1 X108.388 Y72.134 E0.01445
G1 X108.262 Y72.578 E0.01445
G1 X108.077 Y73.002 E0.01453
G1 X107.924 Y73.266 E0.00956
G1 X107.748 Y73.515 E0.00956
G1 X107.439 Y73.860 E0.01453
G1 X107.088 Y74.159 E0.01445
G1 X106.692 Y74.412 E0.01475
G1 X87.214 Y85.080 E0.69630
M204 S1250
G1 X86.767 Y85.175 F9000.000
G1 E-2.24000 F4200.000
;WIPE_START
G1 F7200.000
G1 X87.211 Y86.725 E-0.91200
;WIPE_END
G1 E-0.04800 F4200.000
G1 Z0.400 F9000.000
G1 X104.752 Y74.406
G1 Z0.200
G1 E3.20000 F2400.000
M204 S800
;TYPE:Gap fill
;WIDTH:0.121255
G1 F1200.000
G1 X104.910 Y74.436 E0.00105
M204 S1250
M204 S800
;WIDTH:0.152158
G1 X105.078 Y74.468 E0.00156
M204 S1250
M204 S800
;WIDTH:0.178892
G1 X105.221 Y74.481 E0.00162
M204 S1250
M204 S800
;WIDTH:0.205625
G1 X105.364 Y74.495 E0.00194
M204 S1250
G1 E-2.24000 F4200.000
;WIPE_START
G1 F7200.000
G1 X105.221 Y74.481 E-0.07946
;WIPE_END
G1 E-0.88054 F4200.000
G1 Z0.400 F9000.000
G1 X103.515 Y68.782
G1 Z0.200
G1 E3.20000 F2400.000
M204 S800
;WIDTH:0.207911
G1 F1200.000
G1 X103.404 Y68.879 E0.00203
M204 S1250
M204 S800
;WIDTH:0.179855
G1 X103.293 Y68.977 E0.00169
M204 S1250
M204 S800
;WIDTH:0.151796
G1 X103.176 Y69.101 E0.00154
M204 S1250
M204 S800
;WIDTH:0.121116
G1 X103.066 Y69.218 E0.00104
M204 S1250
G1 X102.946 Y69.459 F9000.000
M204 S800
;TYPE:Solid infill
;WIDTH:0.420878
G1 F1200.000
G1 X102.491 Y69.004 E0.02022
G1 X102.015 Y69.063 E0.01506
G1 X102.592 Y69.639 E0.02560
G1 X102.476 Y69.787 E0.00591
G1 X102.385 Y69.967 E0.00632
G1 X101.540 Y69.122 E0.03755
G1 X101.064 Y69.181 E0.01506
G1 X102.207 Y70.324 E0.05080
G1 X102.087 Y70.738 E0.01355
G1 X100.589 Y69.240 E0.06659
G1 X100.113 Y69.299 E0.01506
G1 X102.019 Y71.205 E0.08471
G1 X101.998 Y71.434 E0.00726
G1 X102.027 Y71.747 E0.00986
G1 X99.638 Y69.358 E0.10619
G1 X99.162 Y69.417 E0.01506
G1 X102.173 Y72.428 E0.13382
G1 X102.214 Y72.566 E0.00453
G1 X102.477 Y73.083 E0.01823
G1 X102.833 Y73.538 E0.01816
G1 X103.114 Y73.802 E0.01211
G1 X103.437 Y74.036 E0.01253
G1 X103.940 Y74.292 E0.01775
G1 X104.078 Y74.333 E0.00453
G1 X104.568 Y74.823 E0.02178
G1 X104.223 Y75.012 E0.01238
G1 X98.687 Y69.476 E0.24605
G1 X98.211 Y69.535 E0.01506
G1 X103.878 Y75.201 E0.25184
G1 X103.532 Y75.390 E0.01238
G1 X97.736 Y69.594 E0.25762
G1 X97.260 Y69.653 E0.01506
G1 X103.187 Y75.579 E0.26340
G1 X102.842 Y75.768 E0.01238
G1 X96.785 Y69.712 E0.26919
M73 P5 R16
G1 X96.309 Y69.771 E0.01506
G1 X102.496 Y75.958 E0.27497
G1 X102.151 Y76.147 E0.01238
G1 X95.834 Y69.830 E0.28076
G1 X95.358 Y69.889 E0.01506
G1 X101.806 Y76.336 E0.28654
G1 X101.460 Y76.525 E0.01238
G1 X94.883 Y69.948 E0.29232
G1 X94.407 Y70.007 E0.01506
G1 X101.115 Y76.714 E0.29811
G1 X100.769 Y76.903 E0.01238
G1 X93.932 Y70.066 E0.30389
G1 X93.456 Y70.125 E0.01506
G1 X100.424 Y77.093 E0.30968
G1 X100.079 Y77.282 E0.01238
G1 X92.981 Y70.184 E0.31546
G1 X92.505 Y70.243 E0.01506
G1 X99.733 Y77.471 E0.32124
G1 X99.388 Y77.660 E0.01238
G1 X92.030 Y70.302 E0.32703
G1 X91.554 Y70.361 E0.01506
G1 X99.043 Y77.849 E0.33281
G1 X98.697 Y78.038 E0.01238
G1 X91.079 Y70.420 E0.33860
G1 X90.603 Y70.479 E0.01506
G1 X98.352 Y78.227 E0.34438
G1 X98.007 Y78.417 E0.01238
G1 X90.128 Y70.538 E0.35016
G1 X89.652 Y70.597 E0.01506
G1 X97.661 Y78.606 E0.35595
G1 X97.316 Y78.795 E0.01238
G1 X89.177 Y70.656 E0.36173
G1 X88.701 Y70.715 E0.01506
G1 X96.970 Y78.984 E0.36751
G1 X96.625 Y79.173 E0.01238
G1 X88.226 Y70.774 E0.37330
M73 P6 R16
G1 X87.750 Y70.833 E0.01506
G1 X96.280 Y79.362 E0.37908
G1 X95.934 Y79.551 E0.01238
G1 X87.275 Y70.892 E0.38487
G1 X86.799 Y70.951 E0.01506
G1 X95.589 Y79.741 E0.39065
G1 X95.244 Y79.930 E0.01238
G1 X86.324 Y71.010 E0.39643
G1 X85.848 Y71.069 E0.01506
G1 X94.898 Y80.119 E0.40222
G1 X94.553 Y80.308 E0.01238
G1 X85.373 Y71.128 E0.40800
G1 X84.897 Y71.187 E0.01506
G1 X94.208 Y80.497 E0.41379
G1 X93.862 Y80.686 E0.01238
G1 X84.422 Y71.246 E0.41957
G1 X83.946 Y71.305 E0.01506
G1 X93.517 Y80.875 E0.42535
G1 X93.171 Y81.065 E0.01238
G1 X83.471 Y71.364 E0.43114
G1 X82.995 Y71.423 E0.01506
G1 X92.826 Y81.254 E0.43692
G1 X92.481 Y81.443 E0.01238
G1 X82.520 Y71.482 E0.44271
M73 P6 R15
G1 X82.044 Y71.541 E0.01506
G1 X92.135 Y81.632 E0.44849
G1 X91.790 Y81.821 E0.01238
G1 X81.569 Y71.600 E0.45427
G1 X81.093 Y71.659 E0.01506
G1 X91.445 Y82.010 E0.46006
M73 P7 R15
G1 X91.099 Y82.200 E0.01238
G1 X80.618 Y71.718 E0.46584
G1 X80.142 Y71.777 E0.01506
G1 X90.754 Y82.389 E0.47163
G1 X90.409 Y82.578 E0.01238
G1 X79.667 Y71.836 E0.47741
G1 X79.191 Y71.895 E0.01506
G1 X90.063 Y82.767 E0.48319
G1 X89.718 Y82.956 E0.01238
G1 X78.716 Y71.954 E0.48898
G1 X78.240 Y72.013 E0.01506
G1 X89.372 Y83.145 E0.49476
G1 X89.027 Y83.334 E0.01238
G1 X77.765 Y72.072 E0.50054
G1 X77.289 Y72.131 E0.01506
G1 X88.682 Y83.524 E0.50633
G1 X88.336 Y83.713 E0.01238
G1 X76.814 Y72.190 E0.51211
G1 X76.338 Y72.249 E0.01506
G1 X87.991 Y83.902 E0.51790
G1 X87.646 Y84.091 E0.01238
G1 X75.863 Y72.308 E0.52368
G1 X75.387 Y72.367 E0.01506
G1 X87.300 Y84.280 E0.52946
M73 P8 R15
G1 X86.955 Y84.469 E0.01238
G1 X74.912 Y72.426 E0.53525
G1 X74.436 Y72.485 E0.01506
G1 X86.610 Y84.658 E0.54103
G1 X86.502 Y84.718 E0.00387
G1 X86.502 Y85.085 E0.01155
G1 X73.961 Y72.544 E0.55737
G1 X73.485 Y72.603 E0.01506
G1 X86.502 Y85.620 E0.57850
G1 X86.502 Y86.154 E0.01680
G1 X73.010 Y72.662 E0.59964
G1 X72.534 Y72.721 E0.01506
G1 X86.502 Y86.689 E0.62077
