; generated by PrusaSlicer 2.2.0+win64 on 2020-10-27 at 12:36:33 UTC


;
;

;
;
; 

; external perimeters extrusion width = 0.45mm
; perimeters extrusion width = 0.45mm
; infill extrusion width = 0.45mm
; solid infill extrusion width = 0.45mm
; top infill extrusion width = 0.40mm
; first layer extrusion width = 0.42mm

M73 P0 R12
M201 X1250 Y1250 Z400 E5000 ; sets maximum accelerations, mm/sec^2
M203 X180 Y180 Z12 E80 ; sets maximum feedrates, mm/sec
M204 P1250 R1250 T1250 ; sets acceleration (P, T) and retract acceleration (R), mm/sec^2
M205 X8.00 Y8.00 Z2.00 E10.00 ; sets the jerk limits, mm/sec
M205 S0 T0 ; sets the minimum extruding and travel feed rate, mm/sec
M107
G90 ; use absolute coordinates
M83 ; extruder relative mode
M104 S170 ; set extruder temp for bed leveling
M140 S60 ; set bed temp
M109 R170 ; wait for bed leveling temp
M190 S60 ; wait for bed temp
G28 ; home all without mesh bed level
G29 ; mesh bed leveling 
M104 S215 ; set extruder temp
G92 E0.0
G1 Y-2.0 X179 F2400
G1 Z3 F720
M109 S215 ; wait for extruder temp

; intro line
G1 X170 F1000
G1 Z0.2 F720
G1 X110.0 E8.0 F900
M73 P1 R12
G1 X40.0 E10.0 F700
G92 E0.0

M221 S95 ; set flow
G21 ; set units to millimeters
G90 ; use absolute coordinates
M83 ; use relative distances for extrusion
M900 K0.2 ; Filament gcode LA 1.5
; ; Filament gcode LA 1.0
;BEFORE_LAYER_CHANGE
G92 E0.0
;0.2


G1 Z0.200 F9000.000
;AFTER_LAYER_CHANGE
;0.2
G1 E-3.20000 F4200.00000
G1 Z0.400 F9000.000
G1 X60.278 Y46.624
G1 Z0.200
G1 E3.20000 F2400.00000
M204 S800
G1 F1200.000
G1 X62.301 Y44.635 E0.08894
G1 X64.516 Y42.897 E0.08830
G1 X66.908 Y41.416 E0.08818
G1 X69.466 Y40.203 E0.08878
G1 X71.629 Y39.432 E0.07200
G1 X73.464 Y38.945 E0.05954
G1 X75.328 Y38.598 E0.05945
G1 X77.627 Y38.363 E0.07248
G1 X100.954 Y38.323 E0.73138
G1 X103.270 Y38.429 E0.07269
G1 X105.152 Y38.673 E0.05952
G1 X107.009 Y39.057 E0.05946
G1 X109.216 Y39.707 E0.07212
G1 X110.981 Y40.390 E0.05934
G1 X112.699 Y41.207 E0.05965
G1 X114.687 Y42.363 E0.07212
G1 X116.244 Y43.449 E0.05952
G1 X117.713 Y44.648 E0.05946
G1 X119.366 Y46.240 E0.07194
G1 X120.623 Y47.670 E0.05970
G1 X121.765 Y49.184 E0.05946
G1 X122.994 Y51.128 E0.07212
G1 X123.870 Y52.806 E0.05933
G1 X124.621 Y54.553 E0.05965
G1 X125.355 Y56.743 E0.07241
G1 X125.800 Y58.555 E0.05851
G1 X126.052 Y59.978 E0.04530
G1 X126.257 Y61.821 E0.05816
G1 X126.327 Y63.695 E0.05877
G1 X126.323 Y116.762 E1.66390
G1 X126.256 Y118.196 E0.04500
G1 X126.050 Y120.039 E0.05815
G1 X125.800 Y121.445 E0.04476
G1 X125.362 Y123.233 E0.05772
G1 X124.434 Y125.918 E0.08908
G1 X123.676 Y127.592 E0.05761
G1 X123.005 Y128.853 E0.04481
G1 X122.267 Y130.069 E0.04460
G1 X121.215 Y131.576 E0.05761
G1 X119.370 Y133.756 E0.08955
G1 X118.067 Y135.035 E0.05724
G1 X116.980 Y135.973 E0.04501
G1 X115.853 Y136.840 E0.04458
G1 X114.332 Y137.862 E0.05744
G1 X111.827 Y139.228 E0.08947
G1 X110.166 Y139.944 E0.05672
G1 X108.804 Y140.431 E0.04536
G1 X106.987 Y140.948 E0.05923
G1 X105.132 Y141.330 E0.05940
G1 X102.852 Y141.606 E0.07200
G1 X100.968 Y141.677 E0.05911
G1 X78.119 Y141.660 E0.71642
G1 X75.290 Y141.397 E0.08908
G1 X73.496 Y141.062 E0.05724
G1 X72.117 Y140.712 E0.04460
G1 X70.342 Y140.136 E0.05849
G1 X69.000 Y139.602 E0.04530
G1 X67.320 Y138.803 E0.05833
G1 X65.709 Y137.887 E0.05809
G1 X64.503 Y137.093 E0.04530
G1 X63.022 Y135.975 E0.05816
G1 X61.626 Y134.750 E0.05825
G1 X60.604 Y133.728 E0.04530
G1 X59.377 Y132.330 E0.05833
G1 X58.260 Y130.852 E0.05809
G1 X57.464 Y129.642 E0.04542
G1 X56.546 Y128.029 E0.05821
G1 X55.741 Y126.335 E0.05879
G1 X55.073 Y124.613 E0.05792
G1 X54.638 Y123.231 E0.04542
G1 X54.196 Y121.426 E0.05827
G1 X53.827 Y119.088 E0.07421
G1 X53.673 Y116.327 E0.08670
G1 X53.673 Y63.685 E1.65057
G1 X53.742 Y61.825 E0.05835
G1 X53.947 Y59.984 E0.05807
G1 X54.199 Y58.558 E0.04542
G1 X54.638 Y56.767 E0.05780
G1 X55.558 Y54.101 E0.08844
G1 X56.775 Y51.543 E0.08882
G1 X57.486 Y50.322 E0.04429
G1 X58.496 Y48.816 E0.05687
G1 X60.240 Y46.670 E0.08669
M204 S1250
G1 E-2.24000 F4200.00000
G1 F7200.000
G1 X61.411 Y45.514 E-0.91200
G1 E-0.04800 F4200.00000
G1 Z0.400 F9000.000
G1 X78.763 Y138.283
G1 Z0.200
G1 E3.20000 F2400.00000
M204 S800
G1 F1200.000
G1 X99.890 Y138.287 E0.66243
G1 X99.890 Y138.513 E0.00709
G1 X79.056 Y138.513 E0.65323
G1 X78.761 Y138.507 E0.00927
G1 X78.762 Y138.343 E0.00515
M204 S1250
G1 X78.762 Y137.906 F9000.000
M204 S800
G1 F1200.000
G1 X77.443 Y137.906 E0.04136
G1 X76.228 Y137.846 E0.03813
G1 X75.018 Y137.713 E0.03817
G1 X73.818 Y137.508 E0.03817
G1 X72.633 Y137.232 E0.03817
G1 X71.466 Y136.886 E0.03817
G1 X70.321 Y136.471 E0.03817
G1 X69.205 Y135.989 E0.03813
G1 X68.476 Y135.630 E0.02548
G1 X67.766 Y135.245 E0.02532
G1 X66.723 Y134.610 E0.03829
G1 X65.722 Y133.916 E0.03817
G1 X64.765 Y133.164 E0.03817
G1 X63.855 Y132.356 E0.03817
G1 X62.994 Y131.495 E0.03817
G1 X62.186 Y130.585 E0.03817
G1 X61.434 Y129.628 E0.03817
G1 X60.740 Y128.627 E0.03817
G1 X60.107 Y127.588 E0.03817
G1 X59.537 Y126.512 E0.03817
G1 X59.033 Y125.405 E0.03814
G1 X58.733 Y124.650 E0.02548
G1 X58.464 Y123.884 E0.02545
G1 X58.226 Y123.108 E0.02545
G1 X58.018 Y122.324 E0.02545
G1 X57.842 Y121.532 E0.02545
G1 X57.698 Y120.733 E0.02545
G1 X57.585 Y119.929 E0.02545
G1 X57.504 Y119.122 E0.02545
G1 X57.456 Y118.311 E0.02545
G1 X57.440 Y117.503 E0.02535
G1 X57.440 Y62.496 E1.72471
G1 X57.476 Y61.283 E0.03804
G1 X57.585 Y60.071 E0.03817
G1 X57.766 Y58.867 E0.03817
G1 X58.018 Y57.676 E0.03817
G1 X58.341 Y56.503 E0.03813
G1 X58.595 Y55.732 E0.02548
G1 X58.879 Y54.971 E0.02545
G1 X59.194 Y54.223 E0.02545
G1 X59.537 Y53.488 E0.02545
G1 X59.910 Y52.767 E0.02545
G1 X60.309 Y52.066 E0.02529
G1 X60.740 Y51.373 E0.02560
G1 X61.196 Y50.701 E0.02545
G1 X61.678 Y50.048 E0.02545
G1 X62.186 Y49.415 E0.02545
G1 X62.719 Y48.803 E0.02545
G1 X63.275 Y48.212 E0.02545
G1 X63.855 Y47.644 E0.02545
G1 X64.456 Y47.099 E0.02545
G1 X65.079 Y46.579 E0.02545
G1 X65.722 Y46.084 E0.02545
G1 X66.385 Y45.615 E0.02545
G1 X67.065 Y45.172 E0.02545
G1 X67.762 Y44.757 E0.02545
G1 X68.476 Y44.370 E0.02545
G1 X69.205 Y44.011 E0.02548
G1 X70.316 Y43.531 E0.03794
G1 X71.082 Y43.245 E0.02564
G1 X71.853 Y42.991 E0.02545
G1 X72.633 Y42.768 E0.02545
G1 X73.421 Y42.576 E0.02545
G1 X74.217 Y42.416 E0.02545
G1 X75.018 Y42.287 E0.02545
G1 X75.824 Y42.191 E0.02545
G1 X76.634 Y42.126 E0.02548
G1 X77.846 Y42.090 E0.03801
G1 X102.153 Y42.090 E0.76214
G1 X102.961 Y42.106 E0.02535
G1 X103.772 Y42.154 E0.02545
G1 X104.580 Y42.235 E0.02548
G1 X105.782 Y42.416 E0.03810
G1 X106.579 Y42.576 E0.02548
G1 X107.368 Y42.768 E0.02548
G1 X108.534 Y43.114 E0.03814
G1 X109.679 Y43.529 E0.03817
G1 X110.796 Y44.012 E0.03817
G1 X111.883 Y44.560 E0.03817
G1 X112.935 Y45.172 E0.03817
G1 X113.949 Y45.846 E0.03817
G1 X114.921 Y46.579 E0.03817
G1 X115.847 Y47.369 E0.03817
G1 X116.725 Y48.212 E0.03817
G1 X117.551 Y49.106 E0.03817
G1 X118.322 Y50.048 E0.03817
G1 X119.035 Y51.035 E0.03817
G1 X119.689 Y52.062 E0.03817
G1 X120.280 Y53.126 E0.03817
G1 X120.807 Y54.223 E0.03817
G1 X121.266 Y55.349 E0.03813
G1 X121.536 Y56.116 E0.02548
G1 X121.773 Y56.887 E0.02529
G1 X121.982 Y57.677 E0.02564
G1 X122.234 Y58.866 E0.03810
G1 X122.363 Y59.668 E0.02548
G1 X122.459 Y60.474 E0.02545
G1 X122.524 Y61.283 E0.02545
G1 X122.556 Y62.094 E0.02545
G1 X122.560 Y117.503 E1.73731
G1 X122.544 Y118.311 E0.02535
G1 X122.496 Y119.122 E0.02545
G1 X122.415 Y119.929 E0.02545
G1 X122.302 Y120.733 E0.02545
G1 X122.158 Y121.532 E0.02545
G1 X121.983 Y122.320 E0.02532
G1 X121.659 Y123.497 E0.03829
G1 X121.267 Y124.649 E0.03814
G1 X120.967 Y125.404 E0.02548
G1 X120.638 Y126.146 E0.02545
G1 X120.280 Y126.874 E0.02545
G1 X119.895 Y127.584 E0.02532
G1 X119.260 Y128.627 E0.03829
G1 X118.567 Y129.627 E0.03814
G1 X118.071 Y130.271 E0.02548
G1 X117.553 Y130.891 E0.02532
G1 X116.725 Y131.788 E0.03829
G1 X115.847 Y132.631 E0.03817
G1 X114.922 Y133.420 E0.03814
G1 X114.278 Y133.916 E0.02548
G1 X113.615 Y134.385 E0.02545
G1 X112.935 Y134.828 E0.02545
G1 X112.237 Y135.243 E0.02548
G1 X111.163 Y135.812 E0.03810
G1 X110.427 Y136.156 E0.02548
G1 X109.682 Y136.469 E0.02532
G1 X108.535 Y136.886 E0.03826
G1 X107.758 Y137.124 E0.02548
G1 X106.974 Y137.332 E0.02545
G1 X106.182 Y137.508 E0.02545
G1 X105.383 Y137.652 E0.02545
G1 X104.579 Y137.765 E0.02545
G1 X103.772 Y137.846 E0.02545
G1 X102.961 Y137.894 E0.02545
G1 X102.153 Y137.910 E0.02535
G1 X78.822 Y137.906 E0.73152
M204 S1250
G1 X78.562 Y138.253 F9000.000
G1 X78.804 Y138.885
M204 S800
G1 F1200.000
G1 X78.215 Y138.875 E0.01847
G1 X77.382 Y138.828 E0.02618
G1 X76.551 Y138.751 E0.02615
G1 X75.310 Y138.578 E0.03929
G1 X74.080 Y138.337 E0.03929
G1 X73.271 Y138.138 E0.02615
G1 X72.468 Y137.910 E0.02618
G1 X71.674 Y137.652 E0.02618
G1 X70.890 Y137.365 E0.02615
G1 X69.734 Y136.880 E0.03932
G1 X68.981 Y136.522 E0.02615
G1 X68.240 Y136.136 E0.02618
G1 X67.515 Y135.723 E0.02618
G1 X66.810 Y135.287 E0.02598
G1 X65.771 Y134.575 E0.03949
G1 X65.106 Y134.073 E0.02615
G1 X64.459 Y133.545 E0.02618
G1 X63.835 Y132.998 E0.02601
G1 X63.225 Y132.420 E0.02634
G1 X62.640 Y131.825 E0.02618
G1 X62.078 Y131.208 E0.02615
G1 X61.277 Y130.244 E0.03932
G1 X60.774 Y129.578 E0.02615
G1 X60.297 Y128.894 E0.02615
G1 X59.627 Y127.834 E0.03932
G1 X59.214 Y127.110 E0.02615
G1 X58.829 Y126.370 E0.02615
G1 X58.301 Y125.232 E0.03932
G1 X57.985 Y124.460 E0.02615
G1 X57.698 Y123.677 E0.02618
G1 X57.440 Y122.882 E0.02618
G1 X57.212 Y122.079 E0.02618
G1 X57.013 Y121.269 E0.02618
G1 X56.845 Y120.451 E0.02618
G1 X56.707 Y119.628 E0.02615
G1 X56.556 Y118.384 E0.03929
G1 X56.476 Y117.139 E0.03913
G1 X56.460 Y116.297 E0.02640
G1 X56.464 Y63.283 E1.66223
G1 X56.495 Y62.448 E0.02618
G1 X56.556 Y61.616 E0.02618
G1 X56.649 Y60.786 E0.02618
G1 X56.772 Y59.960 E0.02618
G1 X56.925 Y59.139 E0.02618
G1 X57.109 Y58.326 E0.02615
G1 X57.440 Y57.118 E0.03929
G1 X57.838 Y55.930 E0.03926
G1 X58.301 Y54.767 E0.03926
G1 X58.829 Y53.630 E0.03929
G1 X59.214 Y52.890 E0.02615
G1 X59.624 Y52.170 E0.02598
G1 X60.296 Y51.106 E0.03946
G1 X61.023 Y50.087 E0.03926
G1 X61.805 Y49.109 E0.03926
G1 X62.640 Y48.175 E0.03926
G1 X63.525 Y47.290 E0.03926
G1 X64.459 Y46.455 E0.03926
G1 X65.437 Y45.672 E0.03929
G1 X66.112 Y45.182 E0.02615
G1 X66.800 Y44.720 E0.02598
G1 X67.876 Y44.067 E0.03946
G1 X68.981 Y43.478 E0.03926
G1 X70.117 Y42.951 E0.03926
G1 X71.280 Y42.488 E0.03926
G1 X72.468 Y42.090 E0.03929
G1 X73.271 Y41.862 E0.02615
G1 X74.081 Y41.663 E0.02618
G1 X74.899 Y41.495 E0.02618
G1 X75.722 Y41.356 E0.02618
G1 X76.550 Y41.249 E0.02618
G1 X77.382 Y41.172 E0.02618
G1 X78.215 Y41.125 E0.02618
G1 X79.053 Y41.110 E0.02627
G1 X101.362 Y41.114 E0.69949
G1 X102.202 Y41.145 E0.02634
G1 X103.034 Y41.206 E0.02618
G1 X103.864 Y41.299 E0.02618
G1 X104.690 Y41.422 E0.02618
G1 X105.510 Y41.575 E0.02615
G1 X106.725 Y41.861 E0.03916
G1 X107.533 Y42.090 E0.02631
G1 X108.326 Y42.348 E0.02618
G1 X109.110 Y42.635 E0.02618
G1 X109.882 Y42.951 E0.02615
G1 X111.020 Y43.479 E0.03932
G1 X111.760 Y43.864 E0.02615
G1 X112.485 Y44.277 E0.02618
G1 X113.194 Y44.716 E0.02615
G1 X114.229 Y45.425 E0.03932
G1 X114.894 Y45.927 E0.02615
G1 X115.541 Y46.455 E0.02618
G1 X116.169 Y47.006 E0.02618
G1 X116.775 Y47.580 E0.02618
G1 X117.360 Y48.175 E0.02618
G1 X117.922 Y48.792 E0.02615
G1 X118.723 Y49.756 E0.03932
G1 X119.226 Y50.422 E0.02615
G1 X119.704 Y51.106 E0.02618
G1 X120.156 Y51.808 E0.02618
G1 X120.582 Y52.525 E0.02615
G1 X121.172 Y53.632 E0.03932
G1 X121.530 Y54.385 E0.02615
G1 X121.860 Y55.152 E0.02618
G1 X122.161 Y55.929 E0.02615
G1 X122.558 Y57.113 E0.03916
G1 X122.788 Y57.920 E0.02628
G1 X123.075 Y59.140 E0.03929
G1 X123.294 Y60.372 E0.03926
G1 X123.444 Y61.617 E0.03929
G1 X123.505 Y62.448 E0.02615
G1 X123.536 Y63.283 E0.02618
G1 X123.540 Y116.297 E1.66223
G1 X123.525 Y117.135 E0.02627
G1 X123.478 Y117.968 E0.02618
G1 X123.401 Y118.800 E0.02618
G1 X123.294 Y119.628 E0.02618
G1 X123.155 Y120.451 E0.02618
G1 X122.987 Y121.269 E0.02618
G1 X122.788 Y122.079 E0.02618
G1 X122.560 Y122.882 E0.02615
G1 X122.162 Y124.070 E0.03929
G1 X121.699 Y125.233 E0.03926
G1 X121.171 Y126.370 E0.03929
G1 X120.786 Y127.110 E0.02615
G1 X120.373 Y127.834 E0.02615
G1 X119.703 Y128.894 E0.03932
G1 X119.226 Y129.578 E0.02615
G1 X118.726 Y130.239 E0.02598
G1 X117.923 Y131.208 E0.03946
G1 X117.070 Y132.125 E0.03926
G1 X116.168 Y132.995 E0.03929
G1 X115.541 Y133.545 E0.02615
G1 X114.895 Y134.072 E0.02615
G1 X113.888 Y134.818 E0.03929
G1 X112.842 Y135.506 E0.03926
G1 X111.759 Y136.136 E0.03929
G1 X111.019 Y136.522 E0.02615
G1 X110.266 Y136.880 E0.02615
G1 X109.110 Y137.365 E0.03932
G1 X108.326 Y137.652 E0.02615
G1 X107.532 Y137.910 E0.02618
G1 X106.729 Y138.138 E0.02618
G1 X105.919 Y138.337 E0.02618
G1 X105.101 Y138.505 E0.02618
G1 X104.278 Y138.644 E0.02618
G1 X103.450 Y138.751 E0.02618
G1 X102.618 Y138.828 E0.02618
G1 X101.785 Y138.875 E0.02618
G1 X100.947 Y138.890 E0.02627
G1 X78.864 Y138.887 E0.69239
M204 S1250
G1 X78.609 Y138.537 F9000.000
G1 X78.573 Y138.394
M204 S800
G1 F1200.000
G1 X77.425 Y138.368 E0.04894
G1 X76.202 Y138.272 E0.05228
M204 S1250
M204 S800
G1 X74.970 Y138.107 E0.04093
G1 X73.750 Y137.873 E0.04087
M204 S1250
M204 S800
G1 X72.548 Y137.570 E0.03075
G1 X71.368 Y137.195 E0.03071
M204 S1250
M204 S800
G1 X69.858 Y136.602 E0.02689
G1 X69.086 Y136.252 E0.01405
G1 X68.374 Y135.891 E0.01323
M204 S1250
M204 S800
G1 X67.633 Y135.479 E0.00735
G1 X66.582 Y134.822 E0.01075
G1 X65.576 Y134.117 E0.01065
G1 X64.617 Y133.358 E0.01061
G1 X64.001 Y132.816 E0.00712
G1 X63.397 Y132.245 E0.00721
G1 X62.816 Y131.658 E0.00716
G1 X62.000 Y130.738 E0.01066
M204 S1250
M204 S800
G1 X61.233 Y129.774 E0.01222
M204 S1250
M204 S800
G1 X60.512 Y128.751 E0.01462
M204 S1250
M204 S800
G1 X59.858 Y127.695 E0.01686
M204 S1250
M204 S800
G1 X59.284 Y126.634 E0.01864
M204 S1250
M204 S800
G1 X58.760 Y125.519 E0.02197
M204 S1250
M204 S800
G1 X58.442 Y124.756 E0.01673
M204 S1250
M204 S800
G1 X58.156 Y123.983 E0.01857
M204 S1250
M204 S800
G1 X57.899 Y123.199 E0.02060
M204 S1250
M204 S800
G1 X57.776 Y122.780 E0.01177
M204 S1250
M204 S800
G1 X57.673 Y122.404 E0.01076
M204 S1250
M204 S800
G1 X57.567 Y121.986 E0.01284
M204 S1250
M204 S800
G1 X57.477 Y121.601 E0.01200
M204 S1250
M204 S800
G1 X57.388 Y121.184 E0.01391
M204 S1250
M204 S800
G1 X57.312 Y120.791 E0.01339
M204 S1250
M204 S800
G1 X57.241 Y120.377 E0.01498
M204 S1250
M204 S800
G1 X57.179 Y119.973 E0.01494
M204 S1250
M204 S800
G1 X57.125 Y119.568 E0.01589
M204 S1250
M204 S800
G1 X57.079 Y119.151 E0.01663
M204 S1250
M204 S800
G1 X57.005 Y118.324 E0.03628
M204 S1250
M204 S800
G1 X56.958 Y117.119 E0.05709
G1 X56.950 Y116.293 E0.03912
G1 X56.952 Y63.292 E2.50875
G1 X56.967 Y62.474 E0.03868
G1 X57.010 Y61.658 E0.03872
M204 S1250
M204 S800
G1 X57.080 Y60.842 E0.03016
G1 X57.177 Y60.028 E0.03020
G1 X57.313 Y59.219 E0.03022
M204 S1250
M204 S800
G1 X57.475 Y58.418 E0.02232
G1 X57.674 Y57.598 E0.02302
G1 X58.024 Y56.412 E0.03374
M204 S1250
M204 S800
G1 X58.297 Y55.630 E0.01409
G1 X58.583 Y54.888 E0.01353
G1 X58.929 Y54.104 E0.01459
G1 X59.284 Y53.365 E0.01394
M204 S1250
M204 S800
G1 X59.672 Y52.636 E0.00674
G1 X60.083 Y51.933 E0.00664
G1 X60.511 Y51.251 E0.00657
G1 X60.994 Y50.556 E0.00689
G1 X61.484 Y49.900 E0.00668
G1 X61.992 Y49.267 E0.00662
G1 X62.542 Y48.642 E0.00679
G1 X63.106 Y48.045 E0.00669
M204 S1250
M204 S800
G1 X63.692 Y47.466 E0.00736
G1 X64.300 Y46.918 E0.00732
G1 X64.928 Y46.389 E0.00734
M204 S1250
M204 S800
G1 X65.589 Y45.871 E0.00863
M204 S1250
M204 S800
G1 X66.258 Y45.392 E0.00920
M204 S1250
M204 S800
G1 X66.928 Y44.949 E0.00976
M204 S1250
M204 S800
G1 X67.632 Y44.526 E0.01053
M204 S1250
M204 S800
G1 X68.351 Y44.125 E0.01179
M204 S1250
M204 S800
G1 X69.110 Y43.737 E0.01427
M204 S1250
M204 S800
G1 X70.238 Y43.233 E0.02427
M204 S1250
M204 S800
G1 X70.980 Y42.947 E0.01670
M73 P9 R11
M204 S1250
M204 S800
G1 X71.758 Y42.675 E0.01931
M204 S1250
M204 S800
G1 X72.572 Y42.424 E0.02273
M204 S1250
M204 S800
G1 X73.364 Y42.215 E0.02409
M204 S1250
M204 S800
G1 X74.166 Y42.037 E0.02651
M204 S1250
M204 S800
G1 X74.973 Y41.889 E0.02899
M204 S1250
M204 S800
G1 X75.787 Y41.772 E0.03172
M204 S1250
M204 S800
G1 X76.616 Y41.686 E0.03501
M204 S1250
M204 S800
G1 X77.843 Y41.618 E0.05368
