; generated by PrusaSlicer 2.2.0+win64 on 2020-10-05 at 13:38:22 UTC


;
;

;
;
; 

; external perimeters extrusion width = 0.45mm
; perimeters extrusion width = 0.45mm
; infill extrusion width = 0.45mm
; solid infill extrusion width = 0.45mm
; top infill extrusion width = 0.40mm
; first layer extrusion width = 0.42mm

M73 P0 R53
M201 X1250 Y1250 Z400 E5000 ; sets maximum accelerations, mm/sec^2
M203 X180 Y180 Z12 E80 ; sets maximum feedrates, mm/sec
M204 P1250 R1250 T1250 ; sets acceleration (P, T) and retract acceleration (R), mm/sec^2
M205 X8.00 Y8.00 Z2.00 E10.00 ; sets the jerk limits, mm/sec
M205 S0 T0 ; sets the minimum extruding and travel feed rate, mm/sec
M107
G90 ; use absolute coordinates
M83 ; extruder relative mode
M104 S170 ; set extruder temp for bed leveling
M140 S60 ; set bed temp
M109 R170 ; wait for bed leveling temp
M190 S60 ; wait for bed temp
G28 ; home all without mesh bed level
G29 ; mesh bed leveling 
M104 S215 ; set extruder temp
G92 E0.0
G1 Y-2.0 X179 F2400
G1 Z3 F720
M109 S215 ; wait for extruder temp

; intro line
G1 X170 F1000
G1 Z0.2 F720
G1 X110.0 E8.0 F900
M73 P0 R52
G1 X40.0 E10.0 F700
G92 E0.0

M221 S95 ; set flow
G21 ; set units to millimeters
G90 ; use absolute coordinates
M83 ; use relative distances for extrusion
M900 K0.2 ; Filament gcode LA 1.5
; ; Filament gcode LA 1.0
;BEFORE_LAYER_CHANGE
G92 E0.0
;0.2


G1 Z0.200 F9000.000
;AFTER_LAYER_CHANGE
;0.2
G1 E-3.20000 F4200.00000
G1 Z0.400 F9000.000
G1 X65.920 Y65.641
G1 Z0.200
G1 E3.20000 F2400.00000
M204 S800
G1 F1200.000
G1 X68.362 Y63.448 E0.10293
G1 X70.983 Y61.512 E0.10214
G1 X73.767 Y59.839 E0.10185
G1 X76.719 Y58.428 E0.10259
G1 X78.693 Y57.668 E0.06632
G1 X80.240 Y57.168 E0.05099
G1 X83.398 Y56.390 E0.10196
G1 X86.633 Y55.914 E0.10254
G1 X89.905 Y55.748 E0.10271
G1 X93.160 Y55.894 E0.10217
G1 X95.262 Y56.155 E0.06641
G1 X96.866 Y56.443 E0.05111
G1 X100.031 Y57.250 E0.10239
G1 X103.103 Y58.353 E0.10236
G1 X106.045 Y59.738 E0.10194
G1 X108.857 Y61.407 E0.10254
G1 X110.193 Y62.334 E0.05099
G1 X111.864 Y63.634 E0.06638
G1 X114.278 Y65.839 E0.10252
G1 X116.469 Y68.261 E0.10241
G1 X118.422 Y70.885 E0.10255
G1 X119.297 Y72.256 E0.05100
G1 X120.336 Y74.096 E0.06625
G1 X121.719 Y77.073 E0.10292
G1 X122.801 Y80.136 E0.10185
G1 X123.593 Y83.315 E0.10271
G1 X124.076 Y86.533 E0.10206
G1 X124.225 Y88.640 E0.06621
G1 X124.251 Y90.266 E0.05100
G1 X124.069 Y93.532 E0.10256
G1 X123.581 Y96.747 E0.10196
G1 X122.786 Y99.914 E0.10239
G1 X121.691 Y102.996 E0.10252
G1 X120.827 Y104.929 E0.06639
G1 X120.084 Y106.375 E0.05099
G1 X118.396 Y109.154 E0.10195
G1 X116.440 Y111.775 E0.10254
G1 X114.238 Y114.201 E0.10272
G1 X113.062 Y115.324 E0.05099
G1 X111.452 Y116.702 E0.06646
G1 X108.819 Y118.619 E0.10208
G1 X106.005 Y120.283 E0.10253
G1 X103.049 Y121.669 E0.10236
G1 X99.987 Y122.764 E0.10196
G1 X96.817 Y123.567 E0.10254
G1 X95.216 Y123.853 E0.05099
G1 X93.117 Y124.110 E0.06631
G1 X89.858 Y124.252 E0.10228
G1 X86.588 Y124.082 E0.10266
G1 X83.360 Y123.602 E0.10232
G1 X80.202 Y122.821 E0.10200
G1 X78.656 Y122.319 E0.05098
G1 X76.679 Y121.556 E0.06643
G1 X73.716 Y120.134 E0.10304
G1 X70.931 Y118.453 E0.10200
G1 X68.316 Y116.515 E0.10205
G1 X65.869 Y114.309 E0.10330
G1 X63.393 Y111.571 E0.11574
G1 X61.452 Y108.927 E0.10283
G1 X59.777 Y106.119 E0.10253
G1 X58.385 Y103.180 E0.10195
G1 X57.279 Y100.128 E0.10177
G1 X56.458 Y96.939 E0.10326
G1 X55.905 Y93.272 E0.11628
G1 X55.748 Y89.976 E0.10345
G1 X55.906 Y86.708 E0.10260
G1 X56.103 Y85.079 E0.05144
G1 X56.470 Y83.005 E0.06603
G1 X57.289 Y79.840 E0.10253
G1 X58.403 Y76.776 E0.10222
G1 X59.803 Y73.834 E0.10215
G1 X61.483 Y71.027 E0.10256
G1 X63.404 Y68.416 E0.10165
G1 X64.459 Y67.178 E0.05099
G1 X65.878 Y65.685 E0.06460
M204 S1250
G1 E-2.24000 F4200.00000
G1 F7200.000
G1 X67.101 Y64.584 E-0.91200
G1 E-0.04800 F4200.00000
G1 Z0.400 F9000.000
G1 X69.604 Y69.593
G1 Z0.200
G1 E3.20000 F2400.00000
M204 S800
G1 F1200.000
G1 X70.624 Y68.620 E0.04418
G1 X71.725 Y67.672 E0.04557
G1 X72.495 Y67.064 E0.03075
G1 X73.674 Y66.210 E0.04563
G1 X74.895 Y65.417 E0.04566
G1 X76.156 Y64.685 E0.04571
G1 X77.452 Y64.018 E0.04571
G1 X78.781 Y63.417 E0.04571
G1 X80.138 Y62.885 E0.04571
G1 X81.520 Y62.421 E0.04571
G1 X82.924 Y62.028 E0.04571
G1 X84.345 Y61.706 E0.04567
G1 X85.782 Y61.457 E0.04575
G1 X87.228 Y61.280 E0.04567
G1 X88.680 Y61.177 E0.04564
G1 X89.659 Y61.149 E0.03071
G1 X91.113 Y61.168 E0.04560
G1 X92.568 Y61.261 E0.04571
G1 X94.017 Y61.428 E0.04571
G1 X95.451 Y61.667 E0.04560
G1 X96.410 Y61.868 E0.03070
G1 X97.820 Y62.227 E0.04564
G1 X99.212 Y62.657 E0.04568
G1 X100.583 Y63.158 E0.04575
G1 X101.924 Y63.726 E0.04568
G1 X103.236 Y64.362 E0.04571
G1 X104.514 Y65.063 E0.04571
G1 X105.755 Y65.828 E0.04571
G1 X106.956 Y66.655 E0.04571
G1 X108.114 Y67.541 E0.04571
G1 X109.225 Y68.485 E0.04571
G1 X110.286 Y69.483 E0.04567
G1 X111.298 Y70.535 E0.04575
G1 X112.253 Y71.634 E0.04567
G1 X113.151 Y72.780 E0.04563
G1 X113.722 Y73.576 E0.03072
G1 X114.519 Y74.792 E0.04559
G1 X115.256 Y76.050 E0.04571
G1 X115.929 Y77.343 E0.04571
G1 X116.535 Y78.669 E0.04571
G1 X117.073 Y80.024 E0.04571
G1 X117.543 Y81.404 E0.04571
G1 X117.942 Y82.807 E0.04571
G1 X118.269 Y84.225 E0.04565
G1 X118.524 Y85.658 E0.04564
G1 X118.655 Y86.630 E0.03075
G1 X118.789 Y88.078 E0.04558
G1 X118.849 Y89.536 E0.04576
G1 X118.836 Y90.992 E0.04566
G1 X118.749 Y92.448 E0.04571
G1 X118.589 Y93.897 E0.04571
G1 X118.355 Y95.336 E0.04571
G1 X118.050 Y96.761 E0.04571
G1 X117.672 Y98.170 E0.04571
G1 X117.224 Y99.557 E0.04571
G1 X116.708 Y100.917 E0.04560
G1 X116.322 Y101.817 E0.03071
G1 X115.693 Y103.129 E0.04563
G1 X114.997 Y104.409 E0.04568
G1 X114.237 Y105.654 E0.04575
G1 X113.416 Y106.858 E0.04568
G1 X112.535 Y108.019 E0.04571
G1 X111.596 Y109.134 E0.04571
G1 X110.602 Y110.201 E0.04571
G1 X109.555 Y111.216 E0.04571
G1 X108.458 Y112.177 E0.04571
G1 X107.314 Y113.081 E0.04571
G1 X106.127 Y113.925 E0.04568
G1 X104.900 Y114.708 E0.04563
G1 X104.053 Y115.199 E0.03071
G1 X102.766 Y115.876 E0.04560
G1 X101.441 Y116.488 E0.04575
G1 X100.090 Y117.032 E0.04567
G1 X98.711 Y117.507 E0.04571
G1 X97.311 Y117.912 E0.04571
G1 X95.892 Y118.245 E0.04571
G1 X94.457 Y118.507 E0.04571
G1 X93.012 Y118.696 E0.04571
G1 X91.558 Y118.811 E0.04571
G1 X90.103 Y118.853 E0.04566
G1 X88.643 Y118.821 E0.04576
G1 X87.191 Y118.716 E0.04566
G1 X85.747 Y118.538 E0.04563
G1 X84.779 Y118.377 E0.03075
G1 X83.357 Y118.078 E0.04557
G1 X81.947 Y117.707 E0.04571
G1 X80.558 Y117.265 E0.04571
G1 X79.192 Y116.753 E0.04571
G1 X77.855 Y116.173 E0.04571
G1 X76.548 Y115.526 E0.04571
G1 X75.276 Y114.814 E0.04571
G1 X74.043 Y114.039 E0.04566
G1 X72.848 Y113.202 E0.04576
G1 X71.701 Y112.308 E0.04558
G1 X70.954 Y111.674 E0.03073
G1 X69.885 Y110.686 E0.04563
G1 X68.867 Y109.644 E0.04567
G1 X67.901 Y108.552 E0.04571
G1 X66.992 Y107.412 E0.04571
G1 X66.142 Y106.227 E0.04571
G1 X65.353 Y105.002 E0.04571
G1 X64.627 Y103.737 E0.04571
G1 X63.965 Y102.438 E0.04571
G1 X63.371 Y101.108 E0.04568
G1 X62.844 Y99.751 E0.04564
G1 X62.529 Y98.824 E0.03070
G1 X62.119 Y97.429 E0.04560
G1 X61.779 Y96.010 E0.04575
G1 X61.512 Y94.578 E0.04568
G1 X61.317 Y93.133 E0.04571
G1 X61.196 Y91.680 E0.04571
G1 X61.147 Y90.223 E0.04571
G1 X61.173 Y88.765 E0.04571
G1 X61.272 Y87.311 E0.04571
G1 X61.445 Y85.863 E0.04571
G1 X61.690 Y84.427 E0.04567
G1 X62.008 Y83.003 E0.04575
G1 X62.396 Y81.601 E0.04559
G1 X62.697 Y80.669 E0.03072
G1 X63.202 Y79.304 E0.04564
G1 X63.776 Y77.965 E0.04567
G1 X64.418 Y76.656 E0.04571
G1 X65.124 Y75.381 E0.04571
G1 X65.895 Y74.143 E0.04571
G1 X66.726 Y72.946 E0.04571
G1 X67.617 Y71.792 E0.04571
G1 X68.566 Y70.684 E0.04571
G1 X69.561 Y69.634 E0.04537
M204 S1250
G1 X69.834 Y69.894 F9000.000
M204 S800
G1 F1200.000
G1 X70.877 Y68.900 E0.04518
G1 X71.965 Y67.963 E0.04503
G1 X72.722 Y67.364 E0.03025
G1 X73.887 Y66.521 E0.04508
G1 X75.092 Y65.738 E0.04506
G1 X76.337 Y65.016 E0.04512
G1 X77.616 Y64.358 E0.04512
G1 X78.927 Y63.765 E0.04512
G1 X80.267 Y63.239 E0.04512
G1 X81.631 Y62.782 E0.04512
G1 X83.016 Y62.394 E0.04512
G1 X84.419 Y62.076 E0.04508
G1 X85.838 Y61.830 E0.04516
G1 X87.265 Y61.656 E0.04508
G1 X88.699 Y61.554 E0.04509
G1 X89.662 Y61.526 E0.03021
G1 X91.099 Y61.545 E0.04505
G1 X92.535 Y61.637 E0.04512
G1 X93.964 Y61.801 E0.04512
G1 X95.382 Y62.037 E0.04505
G1 X96.324 Y62.235 E0.03021
G1 X97.718 Y62.590 E0.04509
G1 X99.092 Y63.014 E0.04508
G1 X100.444 Y63.509 E0.04515
G1 X101.768 Y64.070 E0.04508
G1 X103.063 Y64.697 E0.04512
G1 X104.324 Y65.389 E0.04512
G1 X105.549 Y66.144 E0.04512
G1 X106.734 Y66.960 E0.04512
G1 X107.877 Y67.835 E0.04512
G1 X108.974 Y68.766 E0.04512
G1 X110.021 Y69.751 E0.04507
G1 X111.019 Y70.789 E0.04516
G1 X111.962 Y71.874 E0.04507
G1 X112.849 Y73.006 E0.04509
G1 X113.411 Y73.789 E0.03023
G1 X114.199 Y74.990 E0.04504
G1 X114.926 Y76.232 E0.04512
G1 X115.590 Y77.509 E0.04512
G1 X116.188 Y78.817 E0.04512
G1 X116.720 Y80.154 E0.04512
G1 X117.183 Y81.517 E0.04511
G1 X117.577 Y82.901 E0.04511
G1 X117.900 Y84.301 E0.04505
G1 X118.152 Y85.716 E0.04509
G1 X118.281 Y86.673 E0.03025
G1 X118.412 Y88.103 E0.04503
G1 X118.472 Y89.542 E0.04517
G1 X118.459 Y90.979 E0.04506
G1 X118.373 Y92.416 E0.04512
G1 X118.215 Y93.846 E0.04512
G1 X117.985 Y95.266 E0.04512
G1 X117.683 Y96.673 E0.04512
G1 X117.310 Y98.063 E0.04512
G1 X116.868 Y99.432 E0.04512
G1 X116.358 Y100.775 E0.04505
G1 X115.979 Y101.661 E0.03021
G1 X115.357 Y102.957 E0.04509
G1 X114.671 Y104.221 E0.04508
G1 X113.920 Y105.450 E0.04515
G1 X113.110 Y106.637 E0.04508
G1 X112.240 Y107.784 E0.04512
G1 X111.313 Y108.884 E0.04512
G1 X110.332 Y109.937 E0.04512
G1 X109.299 Y110.938 E0.04512
G1 X108.217 Y111.887 E0.04512
G1 X107.088 Y112.779 E0.04512
G1 X105.917 Y113.612 E0.04508
G1 X104.704 Y114.386 E0.04509
G1 X103.871 Y114.869 E0.03021
G1 X102.599 Y115.537 E0.04505
G1 X101.292 Y116.142 E0.04515
G1 X99.958 Y116.678 E0.04508
G1 X98.598 Y117.147 E0.04512
G1 X97.215 Y117.547 E0.04512
G1 X95.815 Y117.876 E0.04512
G1 X94.399 Y118.134 E0.04512
G1 X92.972 Y118.321 E0.04512
G1 X91.538 Y118.435 E0.04512
G1 X90.101 Y118.476 E0.04507
G1 X88.661 Y118.445 E0.04516
G1 X87.228 Y118.341 E0.04506
G1 X85.801 Y118.165 E0.04508
G1 X84.849 Y118.006 E0.03026
G1 X83.444 Y117.711 E0.04502
G1 X82.052 Y117.345 E0.04512
G1 X80.681 Y116.908 E0.04512
G1 X79.334 Y116.403 E0.04512
G1 X78.014 Y115.831 E0.04512
G1 X76.724 Y115.192 E0.04512
G1 X75.469 Y114.489 E0.04512
G1 X74.251 Y113.725 E0.04507
G1 X73.072 Y112.898 E0.04516
G1 X71.939 Y112.016 E0.04503
G1 X71.204 Y111.391 E0.03023
G1 X70.148 Y110.415 E0.04509
G1 X69.143 Y109.388 E0.04507
G1 X68.190 Y108.309 E0.04512
G1 X67.293 Y107.184 E0.04511
G1 X66.454 Y106.015 E0.04512
G1 X65.675 Y104.805 E0.04512
G1 X64.958 Y103.558 E0.04512
G1 X64.305 Y102.276 E0.04512
G1 X63.719 Y100.963 E0.04508
G1 X63.199 Y99.622 E0.04509
G1 X62.889 Y98.710 E0.03021
G1 X62.484 Y97.332 E0.04505
G1 X62.148 Y95.931 E0.04515
G1 X61.884 Y94.518 E0.04508
G1 X61.692 Y93.092 E0.04512
G1 X61.572 Y91.658 E0.04512
G1 X61.525 Y90.220 E0.04512
G1 X61.550 Y88.781 E0.04512
G1 X61.648 Y87.346 E0.04512
G1 X61.818 Y85.917 E0.04512
G1 X62.060 Y84.500 E0.04508
G1 X62.374 Y83.094 E0.04515
G1 X62.757 Y81.710 E0.04505
G1 X63.053 Y80.793 E0.03022
G1 X63.553 Y79.444 E0.04509
G1 X64.119 Y78.123 E0.04507
G1 X64.752 Y76.831 E0.04512
G1 X65.449 Y75.572 E0.04512
G1 X66.210 Y74.350 E0.04512
G1 X67.031 Y73.169 E0.04512
G1 X67.910 Y72.030 E0.04512
G1 X68.846 Y70.937 E0.04512
G1 X69.793 Y69.938 E0.04316
M204 S1250
G1 X69.730 Y69.508 F9000.000
G1 E-2.24000 F4200.00000
G1 F7200.000
G1 X70.877 Y68.900 E-0.83181
G1 X70.987 Y68.805 E-0.08019
G1 E-0.04800 F4200.00000
G1 Z0.400 F9000.000
G1 X67.931 Y68.110
G1 Z0.200
G1 E3.20000 F2400.00000
M204 S800
G1 F1200.000
G1 X69.238 Y66.862 E0.05666
G1 X70.359 Y65.902 E0.04628
G1 X71.525 Y64.997 E0.04628
G1 X72.733 Y64.149 E0.04628
G1 X73.979 Y63.358 E0.04628
G1 X75.262 Y62.628 E0.04628
G1 X76.579 Y61.958 E0.04635
G1 X77.470 Y61.549 E0.03074
G1 X78.376 Y61.167 E0.03082
G1 X79.760 Y60.647 E0.04635
G1 X81.163 Y60.195 E0.04624
G1 X82.589 Y59.809 E0.04632
G1 X84.029 Y59.491 E0.04624
G1 X85.485 Y59.242 E0.04631
G1 X86.950 Y59.062 E0.04628
G1 X88.421 Y58.953 E0.04623
G1 X90.144 Y58.914 E0.05404
G1 X91.866 Y58.968 E0.05401
G1 X93.335 Y59.092 E0.04623
G1 X94.798 Y59.285 E0.04628
G1 X96.248 Y59.547 E0.04621
G1 X97.689 Y59.878 E0.04634
G1 X99.110 Y60.277 E0.04628
G1 X100.510 Y60.743 E0.04628
G1 X101.887 Y61.275 E0.04628
G1 X103.237 Y61.871 E0.04628
G1 X104.557 Y62.531 E0.04628
G1 X105.844 Y63.253 E0.04628
G1 X107.099 Y64.037 E0.04638
G1 X107.909 Y64.589 E0.03074
G1 X108.702 Y65.167 E0.03074
G1 X109.861 Y66.084 E0.04635
G1 X110.975 Y67.054 E0.04631
G1 X112.039 Y68.075 E0.04624
G1 X113.056 Y69.147 E0.04631
G1 X114.020 Y70.264 E0.04628
G1 X114.929 Y71.427 E0.04628
G1 X115.783 Y72.632 E0.04632
G1 X116.578 Y73.874 E0.04623
G1 X117.314 Y75.155 E0.04632
G1 X117.989 Y76.470 E0.04635
G1 X118.402 Y77.359 E0.03073
G1 X118.786 Y78.261 E0.03073
G1 X119.312 Y79.644 E0.04640
G1 X119.770 Y81.047 E0.04628
G1 X120.162 Y82.470 E0.04628
G1 X120.485 Y83.910 E0.04628
G1 X120.740 Y85.364 E0.04628
G1 X120.925 Y86.828 E0.04628
G1 X121.041 Y88.302 E0.04635
G1 X121.079 Y89.281 E0.03073
G1 X121.086 Y90.264 E0.03083
G1 X121.039 Y91.742 E0.04635
G1 X120.921 Y93.213 E0.04628
G1 X120.734 Y94.677 E0.04628
G1 X120.477 Y96.129 E0.04624
G1 X120.152 Y97.570 E0.04632
G1 X119.759 Y98.993 E0.04628
G1 X119.298 Y100.395 E0.04628
G1 X118.772 Y101.774 E0.04628
G1 X118.181 Y103.126 E0.04628
G1 X117.526 Y104.449 E0.04628
G1 X116.809 Y105.739 E0.04628
G1 X116.030 Y106.996 E0.04638
G1 X115.481 Y107.809 E0.03075
G1 X114.907 Y108.604 E0.03075
G1 X113.994 Y109.767 E0.04635
G1 X113.028 Y110.884 E0.04631
G1 X112.011 Y111.953 E0.04628
G1 X110.944 Y112.973 E0.04628
G1 X109.830 Y113.942 E0.04628
G1 X108.672 Y114.856 E0.04628
G1 X107.468 Y115.716 E0.04638
G1 X106.648 Y116.254 E0.03075
G1 X105.812 Y116.766 E0.03075
G1 X104.522 Y117.487 E0.04635
G1 X103.200 Y118.146 E0.04631
G1 X101.849 Y118.741 E0.04628
G1 X100.472 Y119.271 E0.04628
G1 X99.071 Y119.735 E0.04628
G1 X97.649 Y120.132 E0.04628
G1 X96.209 Y120.461 E0.04632
G1 X94.758 Y120.722 E0.04624
G1 X93.293 Y120.913 E0.04632
G1 X91.820 Y121.035 E0.04635
G1 X90.840 Y121.077 E0.03074
G1 X89.860 Y121.088 E0.03073
G1 X88.381 Y121.046 E0.04640
G1 X86.909 Y120.934 E0.04628
G1 X85.445 Y120.752 E0.04628
G1 X83.988 Y120.501 E0.04634
G1 X82.545 Y120.181 E0.04635
G1 X81.598 Y119.931 E0.03072
G1 X80.659 Y119.651 E0.03072
G1 X79.258 Y119.173 E0.04641
G1 X77.887 Y118.631 E0.04622
G1 X76.540 Y118.023 E0.04633
G1 X75.225 Y117.353 E0.04628
G1 X73.944 Y116.621 E0.04628
G1 X72.699 Y115.829 E0.04628
G1 X71.492 Y114.978 E0.04628
G1 X70.327 Y114.072 E0.04628
G1 X69.207 Y113.111 E0.04627
G1 X68.128 Y112.092 E0.04654
G1 X67.445 Y111.395 E0.03059
G1 X66.782 Y110.673 E0.03075
G1 X65.828 Y109.549 E0.04623
G1 X64.924 Y108.376 E0.04643
G1 X64.080 Y107.165 E0.04628
G1 X63.295 Y105.916 E0.04627
G1 X62.570 Y104.630 E0.04629
G1 X61.906 Y103.311 E0.04628
G1 X61.306 Y101.963 E0.04630
G1 X60.771 Y100.588 E0.04626
G1 X60.301 Y99.189 E0.04628
G1 X59.898 Y97.768 E0.04628
G1 X59.562 Y96.324 E0.04649
G1 X59.378 Y95.365 E0.03064
G1 X59.225 Y94.399 E0.03065
G1 X59.051 Y92.931 E0.04635
G1 X58.946 Y91.455 E0.04640
G1 X58.912 Y89.979 E0.04628
G1 X58.948 Y88.504 E0.04627
G1 X59.054 Y87.032 E0.04628
G1 X59.230 Y85.567 E0.04628
G1 X59.475 Y84.108 E0.04639
G1 X59.676 Y83.148 E0.03074
G1 X59.908 Y82.195 E0.03075
G1 X60.313 Y80.774 E0.04634
G1 X60.785 Y79.374 E0.04632
G1 X61.322 Y77.999 E0.04628
G1 X61.924 Y76.652 E0.04628
G1 X62.589 Y75.334 E0.04628
G1 X63.316 Y74.050 E0.04628
G1 X64.104 Y72.800 E0.04633
G1 X64.948 Y71.591 E0.04623
G1 X65.852 Y70.422 E0.04633
G1 X66.810 Y69.296 E0.04635
G1 X67.889 Y68.152 E0.04930
M204 S1250
G1 X67.620 Y67.888 F9000.000
M204 S800
G1 F1200.000
G1 X68.986 Y66.581 E0.05929
G1 X70.121 Y65.610 E0.04684
G1 X71.301 Y64.694 E0.04684
G1 X72.523 Y63.835 E0.04684
G1 X73.785 Y63.035 E0.04684
G1 X75.083 Y62.296 E0.04684
G1 X76.415 Y61.619 E0.04686
G1 X77.318 Y61.204 E0.03116
G1 X78.236 Y60.817 E0.03124
G1 X79.636 Y60.291 E0.04686
G1 X81.056 Y59.833 E0.04680
G1 X82.499 Y59.442 E0.04688
