; generated by PrusaSlicer 2.2.0+win64 on 2020-10-05 at 17:56:16 UTC


;
;

;
;
; 

; external perimeters extrusion width = 0.45mm
; perimeters extrusion width = 0.45mm
; infill extrusion width = 0.45mm
; solid infill extrusion width = 0.45mm
; top infill extrusion width = 0.40mm
; first layer extrusion width = 0.42mm

M73 P0 R65
M201 X1250 Y1250 Z400 E5000 ; sets maximum accelerations, mm/sec^2
M203 X180 Y180 Z12 E80 ; sets maximum feedrates, mm/sec
M204 P1250 R1250 T1250 ; sets acceleration (P, T) and retract acceleration (R), mm/sec^2
M205 X8.00 Y8.00 Z2.00 E10.00 ; sets the jerk limits, mm/sec
M205 S0 T0 ; sets the minimum extruding and travel feed rate, mm/sec
M107
G90 ; use absolute coordinates
M83 ; extruder relative mode
M104 S170 ; set extruder temp for bed leveling
M140 S60 ; set bed temp
M109 R170 ; wait for bed leveling temp
M190 S60 ; wait for bed temp
G28 ; home all without mesh bed level
G29 ; mesh bed leveling 
M104 S215 ; set extruder temp
G92 E0.0
G1 Y-2.0 X179 F2400
G1 Z3 F720
M109 S215 ; wait for extruder temp

; intro line
G1 X170 F1000
G1 Z0.2 F720
G1 X110.0 E8.0 F900
M73 P0 R64
G1 X40.0 E10.0 F700
G92 E0.0

M221 S95 ; set flow
G21 ; set units to millimeters
G90 ; use absolute coordinates
M83 ; use relative distances for extrusion
M900 K0.2 ; Filament gcode LA 1.5
; ; Filament gcode LA 1.0
;BEFORE_LAYER_CHANGE
G92 E0.0
;0.2


G1 Z0.200 F9000.000
;AFTER_LAYER_CHANGE
;0.2
G1 E-3.20000 F4200.00000
G1 Z0.400 F9000.000
G1 X68.636 Y68.955
G1 Z0.200
G1 E3.20000 F2400.00000
M204 S800
G1 F1200.000
G1 X70.849 Y66.925 E0.09417
G1 X73.265 Y65.127 E0.09444
G1 X75.463 Y63.794 E0.08058
G1 X78.179 Y62.480 E0.09459
G1 X81.028 Y61.447 E0.09503
G1 X83.957 Y60.715 E0.09467
G1 X86.498 Y60.330 E0.08057
G1 X89.521 Y60.163 E0.09493
G1 X92.537 Y60.306 E0.09466
G1 X95.518 Y60.756 E0.09454
G1 X98.011 Y61.379 E0.08057
G1 X100.852 Y62.382 E0.09445
G1 X103.578 Y63.670 E0.09454
G1 X105.786 Y64.984 E0.08057
G1 X108.221 Y66.764 E0.09457
G1 X110.472 Y68.794 E0.09502
G1 X112.492 Y71.032 E0.09454
G1 X114.026 Y73.094 E0.08057
G1 X115.587 Y75.670 E0.09445
G1 X116.885 Y78.413 E0.09514
G1 X117.886 Y81.249 E0.09430
G1 X118.510 Y83.743 E0.08062
G1 X118.960 Y86.723 E0.09448
G1 X119.104 Y89.735 E0.09456
G1 X118.983 Y92.302 E0.08058
G1 X118.558 Y95.286 E0.09449
G1 X117.828 Y98.214 E0.09464
G1 X116.973 Y100.638 E0.08057
G1 X115.707 Y103.371 E0.09445
G1 X114.167 Y105.964 E0.09454
G1 X112.651 Y108.038 E0.08057
G1 X110.639 Y110.305 E0.09501
G1 X108.416 Y112.344 E0.09458
G1 X105.998 Y114.144 E0.09454
G1 X103.803 Y115.475 E0.08049
G1 X101.086 Y116.788 E0.09461
G1 X98.237 Y117.821 E0.09502
G1 X95.312 Y118.552 E0.09454
G1 X92.769 Y118.937 E0.08061
G1 X89.758 Y119.104 E0.09457
G1 X86.750 Y118.963 E0.09442
G1 X84.206 Y118.600 E0.08057
G1 X81.277 Y117.895 E0.09445
G1 X78.422 Y116.888 E0.09493
G1 X75.693 Y115.599 E0.09464
G1 X73.468 Y114.275 E0.08118
G1 X71.040 Y112.498 E0.09432
G1 X68.796 Y110.474 E0.09477
G1 X66.763 Y108.220 E0.09516
G1 X65.001 Y105.812 E0.09355
G1 X63.665 Y103.568 E0.08187
G1 X62.382 Y100.854 E0.09413
G1 X61.388 Y98.042 E0.09351
G1 X60.752 Y95.495 E0.08234
G1 X60.306 Y92.537 E0.09378
G1 X60.163 Y89.527 E0.09448
G1 X60.287 Y86.933 E0.08142
G1 X60.712 Y83.973 E0.09376
G1 X61.439 Y81.055 E0.09429
G1 X62.323 Y78.560 E0.08301
G1 X63.567 Y75.884 E0.09250
G1 X65.088 Y73.323 E0.09340
G1 X66.616 Y71.229 E0.08128
G1 X68.596 Y69.000 E0.09348
M204 S1250
G1 E-2.24000 F4200.00000
G1 F7200.000
G1 X69.807 Y67.885 E-0.91200
G1 E-0.04800 F4200.00000
G1 Z0.400 F9000.000
G1 X71.997 Y72.422
G1 Z0.200
G1 E3.20000 F2400.00000
M204 S800
G1 F1200.000
G1 X72.967 Y71.482 E0.04233
G1 X73.983 Y70.599 E0.04222
G1 X74.694 Y70.036 E0.02843
G1 X75.787 Y69.248 E0.04225
G1 X76.924 Y68.521 E0.04233
G1 X78.097 Y67.858 E0.04222
G1 X78.905 Y67.448 E0.02842
G1 X80.134 Y66.895 E0.04224
G1 X81.393 Y66.409 E0.04233
G1 X82.678 Y65.993 E0.04233
G1 X83.980 Y65.648 E0.04225
G1 X84.865 Y65.456 E0.02839
G1 X86.191 Y65.232 E0.04215
G1 X87.090 Y65.122 E0.02841
G1 X88.431 Y65.020 E0.04214
G1 X89.337 Y64.992 E0.02843
G1 X90.684 Y65.013 E0.04223
G1 X92.027 Y65.107 E0.04223
G1 X92.928 Y65.212 E0.02843
G1 X94.257 Y65.428 E0.04223
G1 X95.573 Y65.717 E0.04223
G1 X96.449 Y65.952 E0.02843
G1 X97.732 Y66.359 E0.04223
G1 X98.992 Y66.836 E0.04223
G1 X99.824 Y67.196 E0.02843
G1 X101.035 Y67.786 E0.04223
G1 X102.211 Y68.442 E0.04223
G1 X102.983 Y68.919 E0.02843
G1 X104.094 Y69.679 E0.04223
G1 X105.163 Y70.499 E0.04223
G1 X105.857 Y71.083 E0.02844
G1 X106.846 Y71.997 E0.04223
G1 X107.786 Y72.966 E0.04233
G1 X108.669 Y73.983 E0.04223
G1 X109.232 Y74.694 E0.02844
G1 X110.019 Y75.787 E0.04222
G1 X110.745 Y76.921 E0.04222
G1 X111.199 Y77.707 E0.02845
G1 X111.818 Y78.903 E0.04222
G1 X112.371 Y80.130 E0.04222
G1 X112.705 Y80.974 E0.02846
G1 X113.144 Y82.247 E0.04222
G1 X113.512 Y83.542 E0.04222
G1 X113.720 Y84.425 E0.02843
G1 X113.969 Y85.749 E0.04225
G1 X114.145 Y87.084 E0.04222
G1 X114.222 Y87.987 E0.02842
G1 X114.275 Y89.334 E0.04225
G1 X114.255 Y90.684 E0.04233
G1 X114.160 Y92.030 E0.04233
G1 X113.993 Y93.367 E0.04225
G1 X113.839 Y94.257 E0.02831
G1 X113.654 Y95.141 E0.02831
G1 X113.317 Y96.445 E0.04225
G1 X112.908 Y97.732 E0.04233
G1 X112.431 Y98.992 E0.04224
G1 X112.072 Y99.824 E0.02842
G1 X111.481 Y101.035 E0.04225
G1 X110.825 Y102.212 E0.04225
G1 X110.349 Y102.982 E0.02839
G1 X109.590 Y104.092 E0.04217
G1 X109.045 Y104.816 E0.02839
G1 X108.186 Y105.854 E0.04225
G1 X107.270 Y106.846 E0.04233
G1 X106.301 Y107.786 E0.04233
G1 X105.285 Y108.669 E0.04221
G1 X104.574 Y109.232 E0.02843
G1 X103.483 Y110.018 E0.04217
G1 X102.724 Y110.513 E0.02839
G1 X101.564 Y111.197 E0.04225
G1 X100.367 Y111.817 E0.04225
G1 X99.544 Y112.196 E0.02841
G1 X98.297 Y112.704 E0.04223
G1 X97.023 Y113.143 E0.04223
G1 X96.153 Y113.399 E0.02843
G1 X94.845 Y113.720 E0.04223
G1 X93.518 Y113.969 E0.04233
G1 X92.183 Y114.145 E0.04223
G1 X91.280 Y114.222 E0.02844
G1 X89.934 Y114.275 E0.04223
G1 X88.587 Y114.255 E0.04222
G1 X87.682 Y114.200 E0.02845
G1 X86.343 Y114.056 E0.04222
G1 X85.010 Y113.839 E0.04233
G1 X83.695 Y113.551 E0.04222
G1 X82.818 Y113.316 E0.02846
G1 X81.535 Y112.908 E0.04221
G1 X80.276 Y112.431 E0.04221
G1 X79.444 Y112.072 E0.02843
G1 X78.233 Y111.481 E0.04225
G1 X77.056 Y110.826 E0.04222
G1 X76.285 Y110.349 E0.02842
G1 X75.173 Y109.588 E0.04225
G1 X74.105 Y108.768 E0.04222
G1 X73.412 Y108.184 E0.02842
G1 X72.422 Y107.270 E0.04225
G1 X71.482 Y106.301 E0.04233
G1 X70.598 Y105.284 E0.04225
G1 X70.035 Y104.573 E0.02842
G1 X69.248 Y103.480 E0.04223
G1 X68.522 Y102.346 E0.04223
G1 X68.069 Y101.561 E0.02844
G1 X67.450 Y100.365 E0.04223
G1 X66.896 Y99.137 E0.04223
G1 X66.562 Y98.294 E0.02844
G1 X66.123 Y97.020 E0.04223
G1 X65.755 Y95.725 E0.04223
G1 X65.547 Y94.842 E0.02844
G1 X65.299 Y93.518 E0.04223
G1 X65.123 Y92.183 E0.04223
G1 X65.046 Y91.280 E0.02844
G1 X64.992 Y89.934 E0.04223
G1 X65.013 Y88.587 E0.04223
G1 X65.068 Y87.682 E0.02844
G1 X65.211 Y86.343 E0.04223
G1 X65.427 Y85.014 E0.04223
G1 X65.614 Y84.126 E0.02844
G1 X65.951 Y82.822 E0.04222
G1 X66.358 Y81.538 E0.04222
G1 X66.672 Y80.687 E0.02845
G1 X67.195 Y79.446 E0.04222
G1 X67.785 Y78.236 E0.04222
G1 X68.219 Y77.439 E0.02845
G1 X68.917 Y76.288 E0.04222
G1 X69.679 Y75.173 E0.04233
G1 X70.499 Y74.105 E0.04221
G1 X71.084 Y73.411 E0.02847
G1 X71.957 Y72.466 E0.04033
M204 S1250
G1 X72.234 Y72.722 F9000.000
M204 S800
G1 F1200.000
G1 X73.222 Y71.760 E0.04324
G1 X74.224 Y70.889 E0.04162
G1 X74.921 Y70.337 E0.02789
G1 X75.999 Y69.560 E0.04166
G1 X77.119 Y68.844 E0.04169
G1 X78.275 Y68.190 E0.04163
G1 X79.068 Y67.789 E0.02788
G1 X80.279 Y67.243 E0.04165
G1 X81.519 Y66.764 E0.04169
G1 X82.784 Y66.354 E0.04169
G1 X84.068 Y66.014 E0.04166
G1 X84.937 Y65.827 E0.02785
G1 X86.245 Y65.605 E0.04161
G1 X87.128 Y65.497 E0.02787
G1 X88.451 Y65.396 E0.04160
G1 X89.340 Y65.369 E0.02789
G1 X90.668 Y65.390 E0.04164
G1 X91.992 Y65.483 E0.04164
G1 X92.876 Y65.585 E0.02789
G1 X94.187 Y65.799 E0.04164
G1 X95.484 Y66.083 E0.04164
G1 X96.343 Y66.314 E0.02789
G1 X97.608 Y66.715 E0.04164
G1 X98.850 Y67.186 E0.04164
G1 X99.667 Y67.539 E0.02789
G1 X100.860 Y68.121 E0.04164
G1 X102.020 Y68.767 E0.04163
G1 X102.777 Y69.235 E0.02789
G1 X103.873 Y69.985 E0.04163
G1 X104.927 Y70.793 E0.04163
G1 X105.607 Y71.366 E0.02790
G1 X106.582 Y72.267 E0.04163
G1 X107.508 Y73.222 E0.04169
G1 X108.379 Y74.224 E0.04163
G1 X108.931 Y74.922 E0.02790
G1 X109.707 Y75.999 E0.04163
G1 X110.423 Y77.117 E0.04163
G1 X110.868 Y77.888 E0.02791
G1 X111.478 Y79.067 E0.04163
G1 X112.024 Y80.277 E0.04162
G1 X112.352 Y81.105 E0.02792
G1 X112.784 Y82.360 E0.04162
G1 X113.147 Y83.637 E0.04162
G1 X113.351 Y84.503 E0.02789
G1 X113.596 Y85.808 E0.04166
G1 X113.770 Y87.125 E0.04163
G1 X113.846 Y88.011 E0.02788
G1 X113.898 Y89.338 E0.04166
G1 X113.878 Y90.667 E0.04168
G1 X113.785 Y91.994 E0.04168
G1 X113.619 Y93.312 E0.04166
G1 X113.469 Y94.186 E0.02782
G1 X113.287 Y95.055 E0.02782
G1 X112.954 Y96.341 E0.04166
G1 X112.552 Y97.608 E0.04169
G1 X112.081 Y98.850 E0.04164
G1 X111.729 Y99.666 E0.02788
G1 X111.147 Y100.860 E0.04165
G1 X110.500 Y102.021 E0.04166
G1 X110.033 Y102.776 E0.02785
G1 X109.283 Y103.872 E0.04163
G1 X108.749 Y104.582 E0.02785
G1 X107.902 Y105.606 E0.04166
G1 X107.000 Y106.582 E0.04169
G1 X106.046 Y107.508 E0.04169
G1 X105.044 Y108.379 E0.04162
G1 X104.347 Y108.931 E0.02789
G1 X103.269 Y109.707 E0.04163
G1 X102.525 Y110.192 E0.02785
G1 X101.381 Y110.867 E0.04166
G1 X100.201 Y111.478 E0.04166
G1 X99.394 Y111.850 E0.02787
G1 X98.164 Y112.351 E0.04164
G1 X96.909 Y112.784 E0.04163
G1 X96.055 Y113.035 E0.02789
G1 X94.766 Y113.351 E0.04163
G1 X93.459 Y113.596 E0.04169
G1 X92.143 Y113.770 E0.04163
G1 X91.256 Y113.846 E0.02790
G1 X89.929 Y113.898 E0.04163
G1 X88.602 Y113.878 E0.04163
G1 X87.713 Y113.824 E0.02791
G1 X86.393 Y113.683 E0.04163
G1 X85.081 Y113.469 E0.04169
G1 X83.784 Y113.184 E0.04162
G1 X82.924 Y112.954 E0.02792
G1 X81.659 Y112.552 E0.04162
G1 X80.418 Y112.082 E0.04162
G1 X79.601 Y111.729 E0.02789
G1 X78.407 Y111.147 E0.04166
G1 X77.247 Y110.500 E0.04162
G1 X76.491 Y110.033 E0.02788
G1 X75.394 Y109.283 E0.04166
G1 X74.341 Y108.475 E0.04163
G1 X73.661 Y107.902 E0.02788
G1 X72.685 Y107.000 E0.04166
G1 X71.760 Y106.046 E0.04168
G1 X70.888 Y105.043 E0.04166
G1 X70.336 Y104.346 E0.02788
G1 X69.560 Y103.268 E0.04163
G1 X68.845 Y102.150 E0.04163
G1 X68.400 Y101.379 E0.02790
G1 X67.789 Y100.200 E0.04163
G1 X67.244 Y98.990 E0.04163
G1 X66.916 Y98.163 E0.02790
G1 X66.483 Y96.907 E0.04163
G1 X66.120 Y95.630 E0.04163
G1 X65.916 Y94.764 E0.02790
G1 X65.671 Y93.459 E0.04163
G1 X65.498 Y92.142 E0.04163
G1 X65.422 Y91.256 E0.02790
G1 X65.369 Y89.929 E0.04163
G1 X65.390 Y88.602 E0.04163
G1 X65.444 Y87.713 E0.02790
G1 X65.585 Y86.393 E0.04163
G1 X65.798 Y85.083 E0.04163
G1 X65.981 Y84.212 E0.02790
G1 X66.313 Y82.926 E0.04163
G1 X66.715 Y81.661 E0.04163
G1 X67.023 Y80.826 E0.02791
G1 X67.538 Y79.602 E0.04163
G1 X68.120 Y78.409 E0.04163
G1 X68.546 Y77.627 E0.02791
G1 X69.234 Y76.492 E0.04162
G1 X69.985 Y75.394 E0.04169
G1 X70.793 Y74.341 E0.04162
G1 X71.367 Y73.660 E0.02793
G1 X72.193 Y72.766 E0.03818
M204 S1250
G1 X72.126 Y72.336 F9000.000
G1 E-2.24000 F4200.00000
G1 F7200.000
G1 X73.222 Y71.760 E-0.79746
G1 X73.378 Y71.624 E-0.11454
G1 E-0.04800 F4200.00000
G1 Z0.400 F9000.000
G1 X70.730 Y71.352
G1 Z0.200
G1 E3.20000 F2400.00000
M204 S800
G1 F1200.000
G1 X71.193 Y70.873 E0.02088
G1 X72.183 Y69.949 E0.04247
G1 X73.220 Y69.076 E0.04252
G1 X73.933 Y68.526 E0.02822
G1 X75.043 Y67.745 E0.04255
G1 X76.188 Y67.023 E0.04245
G1 X77.370 Y66.361 E0.04247
G1 X78.584 Y65.760 E0.04247
G1 X79.828 Y65.223 E0.04247
G1 X81.098 Y64.751 E0.04247
G1 X82.392 Y64.344 E0.04253
G1 X83.261 Y64.111 E0.02820
G1 X84.585 Y63.816 E0.04253
G1 X85.920 Y63.591 E0.04248
G1 X87.266 Y63.434 E0.04247
G1 X88.618 Y63.347 E0.04248
G1 X89.974 Y63.329 E0.04251
G1 X90.873 Y63.356 E0.02820
G1 X92.226 Y63.455 E0.04255
G1 X93.570 Y63.623 E0.04247
G1 X94.904 Y63.861 E0.04247
G1 X96.224 Y64.166 E0.04248
G1 X97.527 Y64.539 E0.04251
G1 X98.381 Y64.824 E0.02820
G1 X99.649 Y65.308 E0.04255
G1 X100.888 Y65.856 E0.04247
G1 X102.097 Y66.467 E0.04247
G1 X103.273 Y67.139 E0.04247
G1 X104.413 Y67.871 E0.04247
G1 X105.513 Y68.661 E0.04247
G1 X106.572 Y69.506 E0.04247
G1 X107.588 Y70.406 E0.04255
G1 X108.234 Y71.031 E0.02818
G1 X109.168 Y72.014 E0.04253
G1 X110.049 Y73.043 E0.04247
G1 X110.876 Y74.116 E0.04247
G1 X111.647 Y75.231 E0.04247
G1 X112.360 Y76.385 E0.04255
G1 X112.800 Y77.169 E0.02819
G1 X113.411 Y78.380 E0.04253
G1 X113.959 Y79.619 E0.04247
G1 X114.443 Y80.884 E0.04247
G1 X114.860 Y82.173 E0.04247
G1 X115.211 Y83.482 E0.04248
G1 X115.494 Y84.808 E0.04252
G1 X115.644 Y85.695 E0.02822
G1 X115.812 Y87.042 E0.04255
G1 X115.911 Y88.392 E0.04245
G1 X115.940 Y89.747 E0.04250
G1 X115.899 Y91.101 E0.04245
G1 X115.789 Y92.451 E0.04247
G1 X115.609 Y93.794 E0.04247
G1 X115.360 Y95.126 E0.04251
G1 X115.158 Y96.003 E0.02820
G1 X114.795 Y97.311 E0.04255
G1 X114.367 Y98.596 E0.04247
G1 X113.872 Y99.859 E0.04255
G1 X113.508 Y100.681 E0.02816
G1 X112.907 Y101.897 E0.04255
G1 X112.245 Y103.079 E0.04247
G1 X111.522 Y104.225 E0.04247
G1 X110.742 Y105.333 E0.04247
G1 X109.906 Y106.399 E0.04247
G1 X109.016 Y107.420 E0.04247
G1 X108.075 Y108.394 E0.04247
G1 X107.085 Y109.319 E0.04247
G1 X106.048 Y110.191 E0.04247
G1 X104.968 Y111.009 E0.04248
G1 X103.847 Y111.770 E0.04247
G1 X102.689 Y112.472 E0.04247
G1 X101.496 Y113.114 E0.04247
G1 X100.269 Y113.694 E0.04255
G1 X99.442 Y114.043 E0.02816
G1 X98.170 Y114.517 E0.04255
G1 X96.878 Y114.923 E0.04247
G1 X95.564 Y115.263 E0.04255
G1 X94.685 Y115.451 E0.02818
G1 X93.347 Y115.677 E0.04254
G1 X92.002 Y115.833 E0.04248
G1 X90.650 Y115.921 E0.04247
G1 X89.295 Y115.938 E0.04247
G1 X87.941 Y115.886 E0.04247
G1 X86.592 Y115.764 E0.04247
G1 X85.249 Y115.572 E0.04255
G1 X84.365 Y115.407 E0.02819
G1 X83.044 Y115.101 E0.04252
G1 X81.741 Y114.728 E0.04247
G1 X80.460 Y114.289 E0.04247
G1 X79.203 Y113.784 E0.04248
G1 X77.973 Y113.215 E0.04248
G1 X76.777 Y112.585 E0.04239
G1 X75.993 Y112.127 E0.02845
G1 X74.850 Y111.393 E0.04261
G1 X73.754 Y110.607 E0.04228
G1 X72.695 Y109.761 E0.04249
G1 X71.682 Y108.863 E0.04247
G1 X70.716 Y107.913 E0.04247
G1 X69.800 Y106.915 E0.04247
G1 X68.936 Y105.871 E0.04247
G1 X68.128 Y104.784 E0.04247
G1 X67.378 Y103.659 E0.04242
G1 X66.910 Y102.887 E0.02830
G1 X66.256 Y101.697 E0.04257
G1 X65.666 Y100.478 E0.04245
G1 X65.140 Y99.230 E0.04248
G1 X64.678 Y97.956 E0.04248
G1 X64.284 Y96.662 E0.04240
G1 X64.056 Y95.783 E0.02847
G1 X63.774 Y94.461 E0.04239
G1 X63.560 Y93.123 E0.04248
G1 X63.415 Y91.780 E0.04238
G1 X63.357 Y90.878 E0.02834
G1 X63.328 Y89.516 E0.04272
G1 X63.368 Y88.167 E0.04231
G1 X63.479 Y86.817 E0.04248
G1 X63.658 Y85.474 E0.04247
G1 X63.907 Y84.142 E0.04248
G1 X64.224 Y82.825 E0.04248
G1 X64.472 Y81.957 E0.02831
G1 X64.901 Y80.671 E0.04249
G1 X65.395 Y79.410 E0.04246
G1 X65.953 Y78.176 E0.04247
G1 X66.575 Y76.972 E0.04247
G1 X67.257 Y75.802 E0.04248
G1 X67.998 Y74.670 E0.04243
G1 X68.524 Y73.936 E0.02830
G1 X69.362 Y72.868 E0.04257
G1 X70.251 Y71.847 E0.04244
G1 X70.688 Y71.395 E0.01972
M204 S1250
G1 X70.417 Y71.133 F9000.000
M204 S800
G1 F1200.000
G1 X70.928 Y70.604 E0.02306
G1 X71.933 Y69.667 E0.04308
G1 X72.984 Y68.782 E0.04308
G1 X73.710 Y68.223 E0.02873
G1 X74.834 Y67.431 E0.04311
G1 X75.995 Y66.699 E0.04306
G1 X77.194 Y66.027 E0.04308
G1 X78.426 Y65.418 E0.04308
G1 X79.687 Y64.873 E0.04308
G1 X80.975 Y64.394 E0.04308
G1 X82.286 Y63.982 E0.04309
G1 X83.171 Y63.745 E0.02871
G1 X84.512 Y63.446 E0.04309
G1 X85.867 Y63.217 E0.04308
G1 X87.232 Y63.058 E0.04308
G1 X88.603 Y62.970 E0.04308
G1 X89.977 Y62.952 E0.04307
G1 X90.892 Y62.980 E0.02871
G1 X92.263 Y63.080 E0.04311
G1 X93.627 Y63.251 E0.04308
G1 X94.980 Y63.491 E0.04308
G1 X96.318 Y63.801 E0.04308
G1 X97.639 Y64.179 E0.04307
G1 X98.508 Y64.469 E0.02871
G1 X99.792 Y64.959 E0.04311
G1 X101.049 Y65.515 E0.04308
G1 X102.275 Y66.135 E0.04308
G1 X103.468 Y66.817 E0.04308
G1 X104.625 Y67.559 E0.04308
G1 X105.741 Y68.360 E0.04308
G1 X106.815 Y69.217 E0.04308
G1 X107.844 Y70.130 E0.04311
G1 X108.502 Y70.765 E0.02869
G1 X109.448 Y71.762 E0.04309
