; generated by PrusaSlicer 2.2.0+win64 on 2020-10-05 at 14:48:51 UTC


;
;

;
;
; 

; external perimeters extrusion width = 0.45mm
; perimeters extrusion width = 0.45mm
; infill extrusion width = 0.45mm
; solid infill extrusion width = 0.45mm
; top infill extrusion width = 0.40mm
; first layer extrusion width = 0.42mm

M73 P0 R65
M201 X1250 Y1250 Z400 E5000 ; sets maximum accelerations, mm/sec^2
M203 X180 Y180 Z12 E80 ; sets maximum feedrates, mm/sec
M204 P1250 R1250 T1250 ; sets acceleration (P, T) and retract acceleration (R), mm/sec^2
M205 X8.00 Y8.00 Z2.00 E10.00 ; sets the jerk limits, mm/sec
M205 S0 T0 ; sets the minimum extruding and travel feed rate, mm/sec
M107
G90 ; use absolute coordinates
M83 ; extruder relative mode
M104 S170 ; set extruder temp for bed leveling
M140 S60 ; set bed temp
M109 R170 ; wait for bed leveling temp
M190 S60 ; wait for bed temp
G28 ; home all without mesh bed level
G29 ; mesh bed leveling 
M104 S215 ; set extruder temp
G92 E0.0
G1 Y-2.0 X179 F2400
G1 Z3 F720
M109 S215 ; wait for extruder temp

; intro line
G1 X170 F1000
G1 Z0.2 F720
G1 X110.0 E8.0 F900
M73 P0 R65
G1 X40.0 E10.0 F700
G92 E0.0

M221 S95 ; set flow
G21 ; set units to millimeters
G90 ; use absolute coordinates
M83 ; use relative distances for extrusion
M900 K0.2 ; Filament gcode LA 1.5
; ; Filament gcode LA 1.0
;BEFORE_LAYER_CHANGE
G92 E0.0
;0.2


G1 Z0.200 F9000.000
;AFTER_LAYER_CHANGE
;0.2
G1 E-3.20000 F4200.00000
G1 Z0.400 F9000.000
G1 X68.621 Y68.970
G1 Z0.200
G1 E3.20000 F2400.00000
M204 S800
G1 F1200.000
G1 X70.846 Y66.928 E0.09469
G1 X73.265 Y65.127 E0.09456
G1 X75.463 Y63.794 E0.08058
G1 X78.179 Y62.480 E0.09459
G1 X81.028 Y61.447 E0.09503
G1 X83.953 Y60.716 E0.09454
G1 X86.493 Y60.331 E0.08056
G1 X89.513 Y60.163 E0.09484
G1 X92.535 Y60.306 E0.09485
G1 X95.511 Y60.755 E0.09435
G1 X98.011 Y61.379 E0.08081
G1 X100.852 Y62.382 E0.09445
G1 X103.593 Y63.679 E0.09508
G1 X106.170 Y65.239 E0.09446
G1 X108.229 Y66.770 E0.08046
G1 X110.472 Y68.794 E0.09472
G1 X112.492 Y71.032 E0.09454
G1 X114.026 Y73.094 E0.08057
G1 X115.587 Y75.670 E0.09446
G1 X116.885 Y78.413 E0.09514
G1 X117.886 Y81.249 E0.09430
G1 X118.510 Y83.743 E0.08062
G1 X118.960 Y86.723 E0.09448
G1 X119.104 Y89.735 E0.09456
G1 X118.983 Y92.302 E0.08058
G1 X118.558 Y95.285 E0.09449
G1 X117.828 Y98.213 E0.09459
G1 X116.973 Y100.636 E0.08058
G1 X115.709 Y103.367 E0.09436
G1 X114.171 Y105.957 E0.09444
G1 X112.654 Y108.035 E0.08066
G1 X110.642 Y110.302 E0.09502
G1 X108.416 Y112.344 E0.09471
G1 X106.001 Y114.141 E0.09440
G1 X103.804 Y115.474 E0.08057
G1 X101.085 Y116.789 E0.09471
G1 X98.235 Y117.821 E0.09502
G1 X95.315 Y118.552 E0.09439
G1 X92.769 Y118.937 E0.08073
G1 X89.758 Y119.104 E0.09457
G1 X86.750 Y118.963 E0.09442
G1 X84.206 Y118.600 E0.08057
G1 X81.277 Y117.895 E0.09445
G1 X78.420 Y116.888 E0.09498
G1 X75.695 Y115.600 E0.09451
G1 X73.488 Y114.288 E0.08050
G1 X71.056 Y112.511 E0.09444
G1 X68.827 Y110.505 E0.09401
G1 X67.053 Y108.571 E0.08230
G1 X65.259 Y106.198 E0.09327
G1 X63.690 Y103.614 E0.09481
G1 X62.560 Y101.276 E0.08141
G1 X61.520 Y98.474 E0.09371
G1 X60.764 Y95.554 E0.09458
G1 X60.311 Y92.587 E0.09409
G1 X60.165 Y89.978 E0.08193
G1 X60.282 Y86.982 E0.09402
G1 X60.702 Y84.022 E0.09375
G1 X61.307 Y81.502 E0.08126
G1 X62.288 Y78.646 E0.09466
G1 X63.561 Y75.896 E0.09502
G1 X65.101 Y73.304 E0.09454
G1 X66.617 Y71.229 E0.08057
G1 X68.581 Y69.015 E0.09282
M204 S1250
G1 E-2.24000 F4200.00000
G1 F7200.000
G1 X69.792 Y67.899 E-0.91200
G1 E-0.04800 F4200.00000
G1 Z0.400 F9000.000
G1 X71.997 Y72.422
G1 Z0.200
G1 E3.20000 F2400.00000
M204 S800
G1 F1200.000
G1 X72.966 Y71.482 E0.04233
G1 X73.983 Y70.599 E0.04222
G1 X74.694 Y70.036 E0.02843
G1 X75.787 Y69.248 E0.04225
G1 X76.924 Y68.521 E0.04233
G1 X78.097 Y67.858 E0.04222
G1 X78.905 Y67.448 E0.02842
G1 X80.134 Y66.895 E0.04224
G1 X81.393 Y66.409 E0.04233
G1 X82.678 Y65.992 E0.04233
G1 X83.980 Y65.648 E0.04225
G1 X84.863 Y65.457 E0.02831
G1 X85.752 Y65.298 E0.02834
G1 X87.088 Y65.122 E0.04223
G1 X88.431 Y65.020 E0.04223
G1 X89.337 Y64.992 E0.02843
G1 X90.684 Y65.013 E0.04223
G1 X92.027 Y65.107 E0.04223
G1 X92.928 Y65.212 E0.02843
G1 X94.257 Y65.428 E0.04223
G1 X95.573 Y65.717 E0.04223
G1 X96.449 Y65.952 E0.02843
G1 X97.732 Y66.359 E0.04223
G1 X98.992 Y66.836 E0.04223
G1 X99.824 Y67.196 E0.02843
G1 X101.035 Y67.786 E0.04223
G1 X102.211 Y68.442 E0.04223
G1 X102.983 Y68.919 E0.02843
G1 X104.094 Y69.679 E0.04223
G1 X105.163 Y70.499 E0.04223
G1 X105.856 Y71.083 E0.02844
G1 X106.846 Y71.997 E0.04223
G1 X107.783 Y72.964 E0.04223
G1 X108.385 Y73.643 E0.02844
G1 X109.230 Y74.691 E0.04223
G1 X110.017 Y75.784 E0.04222
G1 X110.513 Y76.544 E0.02845
G1 X111.197 Y77.704 E0.04222
G1 X111.816 Y78.900 E0.04222
G1 X112.196 Y79.724 E0.02845
G1 X112.704 Y80.971 E0.04222
G1 X113.143 Y82.244 E0.04221
G1 X113.399 Y83.113 E0.02843
G1 X113.720 Y84.422 E0.04225
G1 X113.969 Y85.749 E0.04233
G1 X114.145 Y87.084 E0.04222
G1 X114.222 Y87.987 E0.02842
G1 X114.275 Y89.334 E0.04225
G1 X114.255 Y90.683 E0.04233
G1 X114.160 Y92.030 E0.04233
G1 X113.993 Y93.367 E0.04225
G1 X113.839 Y94.260 E0.02839
G1 X113.551 Y95.573 E0.04216
G1 X113.316 Y96.448 E0.02839
G1 X112.908 Y97.732 E0.04225
G1 X112.431 Y98.992 E0.04223
G1 X112.071 Y99.824 E0.02842
G1 X111.481 Y101.035 E0.04224
G1 X110.826 Y102.211 E0.04221
G1 X110.349 Y102.982 E0.02843
G1 X109.590 Y104.092 E0.04217
G1 X109.045 Y104.816 E0.02839
G1 X108.186 Y105.854 E0.04225
G1 X107.272 Y106.844 E0.04225
G1 X106.628 Y107.480 E0.02839
G1 X105.627 Y108.382 E0.04225
G1 X104.576 Y109.230 E0.04233
G1 X103.480 Y110.019 E0.04233
G1 X102.345 Y110.745 E0.04225
G1 X101.561 Y111.198 E0.02839
G1 X100.368 Y111.816 E0.04213
G1 X99.544 Y112.196 E0.02845
G1 X98.297 Y112.704 E0.04223
G1 X97.023 Y113.143 E0.04223
G1 X96.153 Y113.399 E0.02843
G1 X94.845 Y113.720 E0.04223
G1 X93.522 Y113.968 E0.04223
G1 X92.624 Y114.095 E0.02844
G1 X91.283 Y114.222 E0.04223
G1 X89.934 Y114.275 E0.04233
G1 X88.584 Y114.255 E0.04233
G1 X87.240 Y114.160 E0.04222
G1 X86.339 Y114.056 E0.02845
G1 X85.010 Y113.839 E0.04222
G1 X83.695 Y113.551 E0.04222
G1 X82.818 Y113.316 E0.02846
G1 X81.535 Y112.908 E0.04221
G1 X80.276 Y112.431 E0.04221
G1 X79.444 Y112.072 E0.02843
G1 X78.233 Y111.481 E0.04225
G1 X77.056 Y110.826 E0.04222
G1 X76.285 Y110.349 E0.02842
G1 X75.173 Y109.588 E0.04225
G1 X74.105 Y108.768 E0.04222
G1 X73.411 Y108.184 E0.02842
G1 X72.422 Y107.270 E0.04225
G1 X71.482 Y106.301 E0.04233
G1 X70.598 Y105.284 E0.04225
G1 X70.035 Y104.573 E0.02842
G1 X69.248 Y103.480 E0.04223
G1 X68.522 Y102.346 E0.04223
G1 X68.069 Y101.561 E0.02844
G1 X67.449 Y100.365 E0.04223
G1 X66.896 Y99.137 E0.04223
G1 X66.562 Y98.294 E0.02844
G1 X66.123 Y97.020 E0.04223
G1 X65.755 Y95.725 E0.04223
G1 X65.547 Y94.842 E0.02844
G1 X65.298 Y93.518 E0.04223
G1 X65.123 Y92.183 E0.04223
G1 X65.045 Y91.280 E0.02844
G1 X64.992 Y89.934 E0.04223
G1 X65.013 Y88.587 E0.04223
G1 X65.068 Y87.682 E0.02844
G1 X65.211 Y86.343 E0.04223
G1 X65.427 Y85.014 E0.04223
G1 X65.614 Y84.126 E0.02844
G1 X65.951 Y82.822 E0.04222
G1 X66.358 Y81.538 E0.04222
G1 X66.672 Y80.687 E0.02845
G1 X67.195 Y79.446 E0.04222
G1 X67.785 Y78.236 E0.04222
G1 X68.219 Y77.439 E0.02845
G1 X68.917 Y76.288 E0.04222
G1 X69.677 Y75.176 E0.04221
G1 X70.223 Y74.451 E0.02846
G1 X71.081 Y73.413 E0.04221
G1 X71.957 Y72.466 E0.04045
M204 S1250
G1 X72.234 Y72.722 F9000.000
M204 S800
G1 F1200.000
G1 X73.222 Y71.760 E0.04324
G1 X74.224 Y70.889 E0.04162
G1 X74.921 Y70.337 E0.02789
G1 X75.999 Y69.560 E0.04166
G1 X77.119 Y68.844 E0.04169
G1 X78.275 Y68.190 E0.04163
G1 X79.068 Y67.789 E0.02788
G1 X80.279 Y67.243 E0.04165
G1 X81.519 Y66.764 E0.04169
G1 X82.784 Y66.354 E0.04169
G1 X84.068 Y66.014 E0.04166
G1 X84.936 Y65.827 E0.02782
G1 X85.810 Y65.671 E0.02785
G1 X87.127 Y65.497 E0.04163
G1 X88.451 Y65.396 E0.04163
G1 X89.340 Y65.369 E0.02789
G1 X90.668 Y65.390 E0.04163
G1 X91.992 Y65.483 E0.04164
G1 X92.876 Y65.585 E0.02789
G1 X94.187 Y65.799 E0.04164
G1 X95.484 Y66.083 E0.04164
G1 X96.343 Y66.314 E0.02789
G1 X97.608 Y66.715 E0.04164
G1 X98.850 Y67.186 E0.04164
G1 X99.667 Y67.539 E0.02789
G1 X100.860 Y68.121 E0.04164
G1 X102.020 Y68.767 E0.04164
G1 X102.777 Y69.235 E0.02789
G1 X103.873 Y69.985 E0.04163
G1 X104.927 Y70.793 E0.04163
G1 X105.607 Y71.366 E0.02790
G1 X106.582 Y72.267 E0.04163
G1 X107.507 Y73.220 E0.04163
G1 X108.097 Y73.887 E0.02790
G1 X108.930 Y74.920 E0.04163
G1 X109.706 Y75.998 E0.04163
G1 X110.193 Y76.743 E0.02791
G1 X110.867 Y77.886 E0.04163
G1 X111.478 Y79.065 E0.04163
G1 X111.850 Y79.874 E0.02791
G1 X112.351 Y81.103 E0.04162
G1 X112.783 Y82.358 E0.04162
G1 X113.035 Y83.212 E0.02789
G1 X113.351 Y84.502 E0.04166
G1 X113.596 Y85.808 E0.04169
G1 X113.770 Y87.125 E0.04163
G1 X113.845 Y88.011 E0.02788
G1 X113.898 Y89.338 E0.04166
G1 X113.878 Y90.667 E0.04168
G1 X113.785 Y91.994 E0.04169
G1 X113.619 Y93.312 E0.04165
G1 X113.469 Y94.187 E0.02785
G1 X113.184 Y95.484 E0.04162
G1 X112.954 Y96.342 E0.02785
G1 X112.552 Y97.608 E0.04166
G1 X112.081 Y98.850 E0.04164
G1 X111.729 Y99.666 E0.02788
G1 X111.147 Y100.860 E0.04165
G1 X110.501 Y102.020 E0.04162
G1 X110.033 Y102.776 E0.02789
G1 X109.283 Y103.872 E0.04163
G1 X108.749 Y104.582 E0.02785
G1 X107.902 Y105.606 E0.04166
G1 X107.001 Y106.582 E0.04166
G1 X106.369 Y107.206 E0.02785
G1 X105.382 Y108.095 E0.04166
G1 X104.347 Y108.930 E0.04169
G1 X103.268 Y109.707 E0.04169
G1 X102.149 Y110.423 E0.04166
G1 X101.380 Y110.867 E0.02785
G1 X100.202 Y111.477 E0.04159
G1 X99.394 Y111.850 E0.02791
G1 X98.164 Y112.351 E0.04164
G1 X96.909 Y112.784 E0.04163
G1 X96.055 Y113.035 E0.02789
G1 X94.766 Y113.351 E0.04163
G1 X93.461 Y113.596 E0.04163
G1 X92.580 Y113.720 E0.02790
G1 X91.258 Y113.845 E0.04163
G1 X89.929 Y113.898 E0.04169
G1 X88.600 Y113.878 E0.04169
G1 X87.275 Y113.785 E0.04163
G1 X86.391 Y113.682 E0.02791
G1 X85.081 Y113.469 E0.04163
G1 X83.784 Y113.184 E0.04162
G1 X82.924 Y112.954 E0.02792
G1 X81.659 Y112.552 E0.04162
G1 X80.418 Y112.082 E0.04162
G1 X79.601 Y111.729 E0.02789
G1 X78.407 Y111.147 E0.04166
G1 X77.247 Y110.500 E0.04162
G1 X76.491 Y110.033 E0.02788
G1 X75.394 Y109.283 E0.04166
G1 X74.341 Y108.475 E0.04163
G1 X73.661 Y107.902 E0.02788
G1 X72.685 Y107.000 E0.04166
G1 X71.760 Y106.046 E0.04168
G1 X70.888 Y105.043 E0.04166
G1 X70.336 Y104.346 E0.02788
G1 X69.560 Y103.268 E0.04163
G1 X68.845 Y102.150 E0.04163
G1 X68.400 Y101.379 E0.02790
G1 X67.789 Y100.200 E0.04163
G1 X67.244 Y98.990 E0.04163
G1 X66.916 Y98.163 E0.02790
G1 X66.483 Y96.907 E0.04163
G1 X66.120 Y95.630 E0.04163
G1 X65.916 Y94.764 E0.02790
G1 X65.671 Y93.459 E0.04163
G1 X65.498 Y92.142 E0.04163
G1 X65.422 Y91.256 E0.02790
G1 X65.369 Y89.929 E0.04163
G1 X65.390 Y88.602 E0.04163
G1 X65.444 Y87.713 E0.02790
G1 X65.585 Y86.393 E0.04163
G1 X65.798 Y85.083 E0.04163
G1 X65.981 Y84.212 E0.02790
G1 X66.313 Y82.926 E0.04163
G1 X66.715 Y81.661 E0.04163
G1 X67.023 Y80.826 E0.02791
G1 X67.538 Y79.602 E0.04163
G1 X68.120 Y78.409 E0.04163
G1 X68.546 Y77.627 E0.02791
G1 X69.234 Y76.492 E0.04162
G1 X69.983 Y75.396 E0.04162
G1 X70.519 Y74.685 E0.02792
G1 X71.365 Y73.662 E0.04162
G1 X72.193 Y72.766 E0.03825
M204 S1250
G1 X72.125 Y72.337 F9000.000
G1 E-2.24000 F4200.00000
G1 F7200.000
G1 X73.222 Y71.760 E-0.79746
G1 X73.378 Y71.624 E-0.11454
G1 E-0.04800 F4200.00000
G1 Z0.400 F9000.000
G1 X70.730 Y71.352
G1 Z0.200
G1 E3.20000 F2400.00000
M204 S800
G1 F1200.000
G1 X71.193 Y70.873 E0.02088
G1 X72.183 Y69.949 E0.04247
G1 X73.220 Y69.076 E0.04252
G1 X73.933 Y68.526 E0.02822
G1 X75.043 Y67.745 E0.04255
G1 X76.188 Y67.023 E0.04245
G1 X77.370 Y66.361 E0.04247
G1 X78.584 Y65.760 E0.04247
G1 X79.828 Y65.223 E0.04247
G1 X81.099 Y64.750 E0.04253
G1 X81.955 Y64.473 E0.02820
G1 X83.262 Y64.110 E0.04253
G1 X84.585 Y63.816 E0.04248
G1 X85.920 Y63.591 E0.04247
G1 X87.266 Y63.434 E0.04247
G1 X88.618 Y63.347 E0.04248
G1 X89.974 Y63.329 E0.04251
G1 X90.873 Y63.356 E0.02820
G1 X92.226 Y63.455 E0.04255
G1 X93.570 Y63.623 E0.04247
G1 X94.907 Y63.861 E0.04255
G1 X95.783 Y64.056 E0.02816
G1 X97.094 Y64.407 E0.04255
G1 X98.383 Y64.825 E0.04247
G1 X99.649 Y65.308 E0.04247
G1 X100.888 Y65.856 E0.04247
G1 X102.097 Y66.467 E0.04247
G1 X103.273 Y67.139 E0.04247
G1 X104.413 Y67.871 E0.04247
G1 X105.513 Y68.661 E0.04247
G1 X106.573 Y69.507 E0.04251
G1 X107.251 Y70.098 E0.02821
G1 X108.236 Y71.033 E0.04256
G1 X109.168 Y72.014 E0.04245
G1 X110.049 Y73.043 E0.04247
G1 X110.876 Y74.116 E0.04247
G1 X111.647 Y75.231 E0.04247
G1 X112.360 Y76.385 E0.04255
G1 X112.800 Y77.169 E0.02819
G1 X113.411 Y78.380 E0.04253
G1 X113.959 Y79.619 E0.04248
G1 X114.443 Y80.884 E0.04247
G1 X114.860 Y82.173 E0.04247
G1 X115.211 Y83.482 E0.04247
G1 X115.494 Y84.808 E0.04252
G1 X115.644 Y85.695 E0.02822
G1 X115.812 Y87.042 E0.04255
G1 X115.911 Y88.392 E0.04245
G1 X115.940 Y89.747 E0.04250
G1 X115.899 Y91.101 E0.04245
G1 X115.789 Y92.451 E0.04247
G1 X115.609 Y93.794 E0.04247
G1 X115.361 Y95.125 E0.04247
G1 X115.044 Y96.442 E0.04247
G1 X114.659 Y97.743 E0.04251
G1 X114.367 Y98.593 E0.02820
G1 X113.872 Y99.857 E0.04255
G1 X113.314 Y101.091 E0.04247
G1 X112.693 Y102.295 E0.04247
G1 X112.010 Y103.465 E0.04248
G1 X111.268 Y104.600 E0.04251
G1 X110.744 Y105.331 E0.02820
G1 X109.906 Y106.399 E0.04255
G1 X109.016 Y107.420 E0.04247
G1 X108.075 Y108.394 E0.04247
G1 X107.085 Y109.319 E0.04247
G1 X106.048 Y110.191 E0.04247
G1 X104.968 Y111.009 E0.04247
G1 X103.845 Y111.771 E0.04255
G1 X103.081 Y112.243 E0.02816
G1 X101.897 Y112.907 E0.04255
G1 X100.683 Y113.507 E0.04247
G1 X99.439 Y114.044 E0.04247
G1 X98.170 Y114.517 E0.04247
G1 X96.878 Y114.923 E0.04247
G1 X95.564 Y115.263 E0.04255
G1 X94.685 Y115.451 E0.02818
G1 X93.347 Y115.677 E0.04254
G1 X92.001 Y115.833 E0.04247
G1 X90.650 Y115.921 E0.04247
G1 X89.295 Y115.938 E0.04247
G1 X87.941 Y115.886 E0.04247
G1 X86.592 Y115.764 E0.04247
G1 X85.249 Y115.572 E0.04255
G1 X84.365 Y115.407 E0.02819
G1 X83.043 Y115.101 E0.04252
G1 X81.741 Y114.728 E0.04247
G1 X80.460 Y114.289 E0.04247
G1 X79.203 Y113.784 E0.04247
G1 X77.973 Y113.215 E0.04247
G1 X76.773 Y112.583 E0.04252
G1 X75.996 Y112.129 E0.02822
G1 X74.854 Y111.396 E0.04255
G1 X73.754 Y110.607 E0.04245
G1 X72.695 Y109.761 E0.04247
G1 X71.682 Y108.863 E0.04247
G1 X70.718 Y107.915 E0.04238
G1 X70.097 Y107.251 E0.02852
G1 X69.217 Y106.223 E0.04243
G1 X68.391 Y105.151 E0.04242
G1 X67.621 Y104.037 E0.04247
G1 X66.907 Y102.882 E0.04256
G1 X66.467 Y102.098 E0.02819
G1 X65.856 Y100.888 E0.04252
G1 X65.308 Y99.648 E0.04249
G1 X64.825 Y98.383 E0.04246
G1 X64.407 Y97.094 E0.04248
G1 X64.057 Y95.785 E0.04248
G1 X63.774 Y94.461 E0.04246
G1 X63.560 Y93.123 E0.04248
G1 X63.415 Y91.778 E0.04241
G1 X63.357 Y90.877 E0.02832
G1 X63.328 Y89.518 E0.04264
G1 X63.368 Y88.167 E0.04237
G1 X63.479 Y86.817 E0.04248
G1 X63.658 Y85.474 E0.04248
G1 X63.906 Y84.144 E0.04242
G1 X64.110 Y83.263 E0.02833
G1 X64.473 Y81.956 E0.04253
G1 X64.901 Y80.672 E0.04245
G1 X65.395 Y79.410 E0.04247
G1 X65.953 Y78.176 E0.04247
G1 X66.575 Y76.972 E0.04247
G1 X67.258 Y75.800 E0.04255
G1 X67.744 Y75.043 E0.02819
G1 X68.525 Y73.935 E0.04252
G1 X69.361 Y72.869 E0.04247
G1 X70.251 Y71.847 E0.04247
G1 X70.688 Y71.395 E0.01972
M204 S1250
G1 X70.417 Y71.133 F9000.000
M204 S800
G1 F1200.000
G1 X70.928 Y70.604 E0.02306
G1 X71.933 Y69.667 E0.04308
G1 X72.984 Y68.782 E0.04308
G1 X73.710 Y68.222 E0.02873
G1 X74.834 Y67.431 E0.04311
G1 X75.995 Y66.699 E0.04306
G1 X77.194 Y66.027 E0.04308
G1 X78.426 Y65.418 E0.04308
G1 X79.687 Y64.873 E0.04308
G1 X80.975 Y64.394 E0.04309
G1 X81.847 Y64.112 E0.02871
G1 X83.171 Y63.745 E0.04309
G1 X84.512 Y63.446 E0.04308
G1 X85.867 Y63.217 E0.04308
G1 X87.232 Y63.058 E0.04308
G1 X88.603 Y62.970 E0.04308
G1 X89.977 Y62.952 E0.04307
G1 X90.892 Y62.980 E0.02871
G1 X92.263 Y63.080 E0.04311
G1 X93.627 Y63.251 E0.04308
G1 X94.981 Y63.491 E0.04311
G1 X95.873 Y63.690 E0.02867
G1 X97.201 Y64.046 E0.04311
G1 X98.509 Y64.469 E0.04308
G1 X99.792 Y64.959 E0.04308
G1 X101.049 Y65.515 E0.04308
G1 X102.275 Y66.135 E0.04308
G1 X103.468 Y66.817 E0.04308
G1 X104.625 Y67.559 E0.04308
G1 X105.741 Y68.360 E0.04308
G1 X106.815 Y69.217 E0.04307
G1 X107.505 Y69.819 E0.02872
G1 X108.502 Y70.766 E0.04312
G1 X109.448 Y71.762 E0.04306
