; generated by PrusaSlicer 2.2.0+win64 on 2020-10-05 at 12:30:28 UTC


;
;

;
;
; 

; external perimeters extrusion width = 0.45mm
; perimeters extrusion width = 0.45mm
; infill extrusion width = 0.45mm
; solid infill extrusion width = 0.45mm
; top infill extrusion width = 0.40mm
; first layer extrusion width = 0.42mm

M73 P0 R34
M201 X1250 Y1250 Z400 E5000 ; sets maximum accelerations, mm/sec^2
M203 X180 Y180 Z12 E80 ; sets maximum feedrates, mm/sec
M204 P1250 R1250 T1250 ; sets acceleration (P, T) and retract acceleration (R), mm/sec^2
M205 X8.00 Y8.00 Z2.00 E10.00 ; sets the jerk limits, mm/sec
M205 S0 T0 ; sets the minimum extruding and travel feed rate, mm/sec
M107
G90 ; use absolute coordinates
M83 ; extruder relative mode
M104 S170 ; set extruder temp for bed leveling
M140 S60 ; set bed temp
M109 R170 ; wait for bed leveling temp
M190 S60 ; wait for bed temp
G28 ; home all without mesh bed level
G29 ; mesh bed leveling 
M104 S215 ; set extruder temp
G92 E0.0
G1 Y-2.0 X179 F2400
G1 Z3 F720
M109 S215 ; wait for extruder temp

; intro line
G1 X170 F1000
G1 Z0.2 F720
G1 X110.0 E8.0 F900
M73 P0 R34
G1 X40.0 E10.0 F700
G92 E0.0

M221 S95 ; set flow
G21 ; set units to millimeters
G90 ; use absolute coordinates
M83 ; use relative distances for extrusion
M900 K0.2 ; Filament gcode LA 1.5
; ; Filament gcode LA 1.0
;BEFORE_LAYER_CHANGE
G92 E0.0
;0.2


G1 Z0.200 F9000.000
;AFTER_LAYER_CHANGE
;0.2
G1 E-3.20000 F4200.00000
G1 Z0.400 F9000.000
G1 X117.540 Y121.524
G1 Z0.200
G1 E3.20000 F2400.00000
M204 S800
G1 F1200.000
G1 X116.769 Y122.039 E0.02907
G1 X115.860 Y122.220 E0.02907
G1 X115.249 Y122.141 E0.01929
G1 X114.680 Y121.908 E0.01929
G1 X62.950 Y92.041 E1.87287
G1 X62.470 Y91.663 E0.01917
G1 X62.102 Y91.175 E0.01917
G1 X61.869 Y90.605 E0.01929
G1 X61.791 Y89.998 E0.01917
G1 X61.870 Y89.392 E0.01917
G1 X62.102 Y88.826 E0.01917
G1 X62.470 Y88.337 E0.01917
G1 X62.953 Y87.957 E0.01929
G1 X114.680 Y58.092 E1.87275
G1 X115.249 Y57.859 E0.01929
G1 X115.863 Y57.780 E0.01941
G1 X116.748 Y57.952 E0.02825
G1 X117.507 Y58.444 E0.02837
G1 X118.027 Y59.184 E0.02837
G1 X118.234 Y60.065 E0.02837
G1 X118.236 Y119.843 E1.87430
G1 X118.055 Y120.753 E0.02907
G1 X117.573 Y121.474 E0.02719
M204 S1250
G1 E-2.24000 F4200.00000
G1 F7200.000
G1 X116.769 Y122.039 E-0.54471
G1 X116.119 Y122.169 E-0.36729
G1 E-0.04800 F4200.00000
G1 Z0.400 F9000.000
G1 X105.589 Y101.147
G1 Z0.200
G1 E3.20000 F2400.00000
M204 S800
G1 F1200.000
G1 X104.802 Y101.601 E0.02850
G1 X85.495 Y90.454 E0.69901
G1 X85.495 Y89.546 E0.02850
G1 X105.589 Y77.944 E0.72751
G1 X105.589 Y101.087 E0.72563
M204 S1250
G1 X105.212 Y100.929 F9000.000
M204 S800
G1 F1200.000
G1 X104.802 Y101.166 E0.01484
G1 X85.872 Y90.237 E0.68536
G1 X85.872 Y89.763 E0.01484
G1 X105.212 Y78.597 E0.70020
G1 X105.212 Y100.869 E0.69832
M204 S1250
G1 X105.469 Y101.236 F9000.000
G1 E-2.24000 F4200.00000
G1 F7200.000
G1 X104.802 Y101.166 E-0.28046
G1 X103.815 Y100.596 E-0.63154
G1 E-0.04800 F4200.00000
G1 Z0.400 F9000.000
G1 X115.071 Y118.480
G1 Z0.200
G1 E3.20000 F2400.00000
M204 S800
G1 F1200.000
G1 X65.742 Y90.000 E1.78594
G1 X115.071 Y61.520 E1.78594
G1 X115.071 Y118.420 E1.78406
M204 S1250
G1 X115.448 Y119.133 F9000.000
M204 S800
G1 F1200.000
G1 X64.988 Y90.000 E1.82690
G1 X115.448 Y60.867 E1.82690
G1 X115.448 Y119.073 E1.82502
M204 S1250
G1 X115.795 Y118.933 F9000.000
G1 E-2.24000 F4200.00000
G1 F7200.000
G1 X114.023 Y118.252 E-0.91200
G1 E-0.04800 F4200.00000
G1 Z0.400 F9000.000
G1 X109.431 Y115.093
G1 Z0.200
G1 E3.20000 F2400.00000
M204 S800
G1 F1200.000
G1 X77.739 Y83.401 E1.40600
G1 X77.400 Y83.596 E0.01225
G1 X107.705 Y113.901 E1.34443
G1 X106.443 Y113.172 E0.04573
G1 X77.062 Y83.791 E1.30343
G1 X76.724 Y83.986 E0.01225
G1 X105.180 Y112.443 E1.26244
G1 X103.918 Y111.714 E0.04573
G1 X76.386 Y84.182 E1.22144
G1 X76.047 Y84.377 E0.01225
G1 X102.656 Y110.985 E1.18044
G1 X101.393 Y110.256 E0.04573
G1 X75.709 Y84.572 E1.13945
G1 X75.371 Y84.768 E0.01225
G1 X100.131 Y109.528 E1.09845
G1 X98.869 Y108.799 E0.04573
G1 X75.033 Y84.963 E1.05745
M73 P3 R33
G1 X74.694 Y85.158 E0.01225
G1 X97.606 Y108.070 E1.01646
G1 X96.344 Y107.341 E0.04573
G1 X74.356 Y85.353 E0.97546
G1 X74.018 Y85.549 E0.01225
G1 X95.082 Y106.612 E0.93446
G1 X93.819 Y105.884 E0.04573
G1 X73.680 Y85.744 E0.89346
G1 X73.341 Y85.939 E0.01225
G1 X92.557 Y105.155 E0.85247
G1 X91.295 Y104.426 E0.04573
G1 X73.003 Y86.135 E0.81147
G1 X72.665 Y86.330 E0.01225
G1 X90.032 Y103.697 E0.77047
G1 X88.770 Y102.968 E0.04573
G1 X72.327 Y86.525 E0.72948
G1 X71.988 Y86.720 E0.01225
G1 X87.507 Y102.239 E0.68848
G1 X86.245 Y101.511 E0.04573
G1 X71.650 Y86.916 E0.64748
G1 X71.312 Y87.111 E0.01225
G1 X84.983 Y100.782 E0.60649
G1 X83.720 Y100.053 E0.04573
G1 X70.974 Y87.306 E0.56549
G1 X70.635 Y87.502 E0.01225
G1 X82.458 Y99.324 E0.52449
G1 X81.196 Y98.595 E0.04573
G1 X70.297 Y87.697 E0.48350
G1 X69.959 Y87.892 E0.01225
G1 X79.933 Y97.867 E0.44250
G1 X78.671 Y97.138 E0.04573
G1 X69.621 Y88.087 E0.40150
G1 X69.282 Y88.283 E0.01225
G1 X77.409 Y96.409 E0.36050
G1 X76.146 Y95.680 E0.04573
G1 X68.944 Y88.478 E0.31951
G1 X68.606 Y88.673 E0.01225
G1 X74.884 Y94.951 E0.27851
G1 X73.621 Y94.222 E0.04573
G1 X68.268 Y88.869 E0.23751
G1 X67.929 Y89.064 E0.01225
G1 X72.359 Y93.494 E0.19652
G1 X71.097 Y92.765 E0.04573
G1 X67.591 Y89.259 E0.15552
G1 X67.253 Y89.454 E0.01225
G1 X69.834 Y92.036 E0.11452
G1 X68.572 Y91.307 E0.04573
G1 X66.915 Y89.650 E0.07353
G1 X66.576 Y89.845 E0.01225
G1 X67.773 Y91.042 E0.05309
M204 S1250
G1 E-2.24000 F4200.00000
G1 F7200.000
G1 X66.610 Y89.878 E-0.91200
G1 E-0.04800 F4200.00000
G1 Z0.400 F9000.000
G1 X98.924 Y70.973
G1 Z0.200
G1 E3.20000 F2400.00000
M204 S800
G1 F1200.000
G1 X105.576 Y77.625 E0.29510
G1 X105.238 Y77.820 E0.01225
G1 X98.710 Y71.293 E0.28959
G1 X98.372 Y71.488 E0.01225
G1 X104.899 Y78.016 E0.28959
G1 X104.561 Y78.211 E0.01225
G1 X98.034 Y71.683 E0.28959
G1 X97.695 Y71.879 E0.01225
G1 X104.223 Y78.406 E0.28959
G1 X103.885 Y78.602 E0.01225
G1 X97.357 Y72.074 E0.28959
G1 X97.019 Y72.269 E0.01225
G1 X103.546 Y78.797 E0.28959
G1 X103.208 Y78.992 E0.01225
G1 X96.681 Y72.464 E0.28959
G1 X96.342 Y72.660 E0.01225
G1 X102.870 Y79.187 E0.28959
G1 X102.532 Y79.383 E0.01225
G1 X96.004 Y72.855 E0.28959
G1 X95.666 Y73.050 E0.01225
G1 X102.193 Y79.578 E0.28959
G1 X101.855 Y79.773 E0.01225
G1 X95.328 Y73.246 E0.28959
G1 X94.989 Y73.441 E0.01225
G1 X101.517 Y79.969 E0.28959
G1 X101.179 Y80.164 E0.01225
G1 X94.651 Y73.636 E0.28959
G1 X94.313 Y73.831 E0.01225
G1 X100.840 Y80.359 E0.28959
G1 X100.502 Y80.554 E0.01225
G1 X93.975 Y74.027 E0.28959
G1 X93.636 Y74.222 E0.01225
G1 X100.164 Y80.750 E0.28959
G1 X99.826 Y80.945 E0.01225
G1 X93.298 Y74.417 E0.28959
G1 X92.960 Y74.613 E0.01225
G1 X99.487 Y81.140 E0.28959
G1 X99.149 Y81.336 E0.01225
G1 X92.622 Y74.808 E0.28959
G1 X92.283 Y75.003 E0.01225
G1 X98.811 Y81.531 E0.28959
G1 X98.473 Y81.726 E0.01225
G1 X91.945 Y75.198 E0.28959
G1 X91.607 Y75.394 E0.01225
G1 X98.134 Y81.921 E0.28959
G1 X97.796 Y82.117 E0.01225
G1 X91.269 Y75.589 E0.28959
G1 X90.930 Y75.784 E0.01225
G1 X97.458 Y82.312 E0.28959
G1 X97.120 Y82.507 E0.01225
G1 X90.592 Y75.980 E0.28959
G1 X90.254 Y76.175 E0.01225
G1 X96.781 Y82.703 E0.28959
G1 X96.443 Y82.898 E0.01225
G1 X89.916 Y76.370 E0.28959
G1 X89.577 Y76.565 E0.01225
G1 X96.105 Y83.093 E0.28959
G1 X95.767 Y83.288 E0.01225
G1 X89.239 Y76.761 E0.28959
G1 X88.901 Y76.956 E0.01225
G1 X95.428 Y83.484 E0.28959
G1 X95.090 Y83.679 E0.01225
G1 X88.563 Y77.151 E0.28959
G1 X88.224 Y77.347 E0.01225
G1 X94.752 Y83.874 E0.28959
G1 X94.414 Y84.070 E0.01225
G1 X87.886 Y77.542 E0.28959
G1 X87.548 Y77.737 E0.01225
G1 X94.075 Y84.265 E0.28959
G1 X93.737 Y84.460 E0.01225
G1 X87.210 Y77.933 E0.28959
G1 X86.871 Y78.128 E0.01225
G1 X93.399 Y84.655 E0.28959
G1 X93.061 Y84.851 E0.01225
G1 X86.533 Y78.323 E0.28959
G1 X86.195 Y78.518 E0.01225
G1 X92.723 Y85.046 E0.28959
G1 X92.384 Y85.241 E0.01225
G1 X85.857 Y78.714 E0.28959
G1 X85.518 Y78.909 E0.01225
G1 X92.046 Y85.437 E0.28959
G1 X91.708 Y85.632 E0.01225
G1 X85.180 Y79.104 E0.28959
G1 X84.842 Y79.300 E0.01225
G1 X91.370 Y85.827 E0.28959
G1 X91.031 Y86.022 E0.01225
G1 X84.504 Y79.495 E0.28959
G1 X84.165 Y79.690 E0.01225
G1 X90.693 Y86.218 E0.28959
G1 X90.355 Y86.413 E0.01225
G1 X83.827 Y79.885 E0.28959
G1 X83.489 Y80.081 E0.01225
G1 X90.017 Y86.608 E0.28959
G1 X89.678 Y86.804 E0.01225
G1 X83.151 Y80.276 E0.28959
G1 X82.812 Y80.471 E0.01225
G1 X89.340 Y86.999 E0.28959
G1 X89.002 Y87.194 E0.01225
G1 X82.474 Y80.667 E0.28959
G1 X82.136 Y80.862 E0.01225
G1 X88.664 Y87.389 E0.28959
G1 X88.325 Y87.585 E0.01225
G1 X81.798 Y81.057 E0.28959
G1 X81.459 Y81.252 E0.01225
G1 X87.987 Y87.780 E0.28959
G1 X87.649 Y87.975 E0.01225
G1 X81.121 Y81.448 E0.28959
G1 X80.783 Y81.643 E0.01225
G1 X87.311 Y88.171 E0.28959
G1 X86.972 Y88.366 E0.01225
G1 X80.445 Y81.838 E0.28959
G1 X80.106 Y82.034 E0.01225
G1 X86.634 Y88.561 E0.28959
G1 X86.296 Y88.756 E0.01225
G1 X79.768 Y82.229 E0.28959
G1 X79.430 Y82.424 E0.01225
G1 X85.958 Y88.952 E0.28959
G1 X85.619 Y89.147 E0.01225
G1 X79.092 Y82.619 E0.28959
G1 X78.753 Y82.815 E0.01225
G1 X85.281 Y89.342 E0.28959
G1 X85.212 Y89.382 E0.00251
G1 X85.212 Y89.807 E0.01331
G1 X78.415 Y83.010 E0.30153
G1 X78.077 Y83.205 E0.01225
G1 X85.212 Y90.340 E0.31653
G1 X85.212 Y90.618 E0.00871
G1 X85.868 Y90.997 E0.02378
G1 X110.230 Y115.358 E1.08077
G1 X111.492 Y116.087 E0.04573
G1 X87.131 Y91.726 E1.08077
G1 X88.393 Y92.454 E0.04573
G1 X112.755 Y116.816 E1.08077
G1 X114.017 Y117.545 E0.04573
G1 X89.655 Y93.183 E1.08077
M73 P6 R32
G1 X90.918 Y93.912 E0.04573
G1 X114.789 Y117.783 E1.05899
G1 X114.789 Y117.249 E0.01674
G1 X92.180 Y94.641 E1.00299
G1 X93.443 Y95.370 E0.04573
G1 X114.789 Y116.716 E0.94699
G1 X114.789 Y116.182 E0.01674
G1 X94.705 Y96.099 E0.89099
G1 X95.967 Y96.827 E0.04573
G1 X114.789 Y115.649 E0.83498
G1 X114.789 Y115.115 E0.01674
G1 X97.230 Y97.556 E0.77898
G1 X98.492 Y98.285 E0.04573
G1 X114.789 Y114.582 E0.72298
G1 X114.789 Y114.048 E0.01674
G1 X99.754 Y99.014 E0.66697
G1 X101.017 Y99.743 E0.04573
G1 X114.789 Y113.515 E0.61097
G1 X114.789 Y112.981 E0.01674
G1 X102.279 Y100.471 E0.55497
G1 X103.541 Y101.200 E0.04573
G1 X114.789 Y112.447 E0.49896
G1 X114.789 Y111.914 E0.01674
G1 X104.802 Y101.928 E0.44303
G1 X105.141 Y101.732 E0.01225
G1 X114.789 Y111.380 E0.42802
G1 X114.789 Y110.847 E0.01674
G1 X105.479 Y101.537 E0.41302
G1 X105.817 Y101.342 E0.01225
G1 X114.789 Y110.313 E0.39801
G1 X114.789 Y109.780 E0.01674
G1 X105.872 Y100.863 E0.39559
G1 X105.872 Y100.329 E0.01674
G1 X114.789 Y109.246 E0.39559
G1 X114.789 Y108.713 E0.01674
G1 X105.872 Y99.796 E0.39559
G1 X105.872 Y99.262 E0.01674
G1 X114.789 Y108.179 E0.39559
G1 X114.789 Y107.646 E0.01674
G1 X105.872 Y98.729 E0.39559
G1 X105.872 Y98.195 E0.01674
G1 X114.789 Y107.112 E0.39559
G1 X114.789 Y106.579 E0.01674
G1 X105.872 Y97.662 E0.39559
G1 X105.872 Y97.128 E0.01674
G1 X114.789 Y106.045 E0.39559
G1 X114.789 Y105.511 E0.01674
G1 X105.872 Y96.595 E0.39559
G1 X105.872 Y96.061 E0.01674
G1 X114.789 Y104.978 E0.39559
G1 X114.789 Y104.444 E0.01674
G1 X105.872 Y95.527 E0.39559
G1 X105.872 Y94.994 E0.01674
G1 X114.789 Y103.911 E0.39559
G1 X114.789 Y103.377 E0.01674
G1 X105.872 Y94.460 E0.39559
G1 X105.872 Y93.927 E0.01674
G1 X114.789 Y102.844 E0.39559
G1 X114.789 Y102.310 E0.01674
G1 X105.872 Y93.393 E0.39559
G1 X105.872 Y92.860 E0.01674
G1 X114.789 Y101.777 E0.39559
G1 X114.789 Y101.243 E0.01674
G1 X105.872 Y92.326 E0.39559
G1 X105.872 Y91.793 E0.01674
G1 X114.789 Y100.710 E0.39559
G1 X114.789 Y100.176 E0.01674
G1 X105.872 Y91.259 E0.39559
G1 X105.872 Y90.726 E0.01674
G1 X114.789 Y99.643 E0.39559
G1 X114.789 Y99.109 E0.01674
G1 X105.872 Y90.192 E0.39559
G1 X105.872 Y89.659 E0.01674
G1 X114.789 Y98.576 E0.39559
G1 X114.789 Y98.042 E0.01674
G1 X105.872 Y89.125 E0.39559
G1 X105.872 Y88.592 E0.01674
G1 X114.789 Y97.508 E0.39559
G1 X114.789 Y96.975 E0.01674
G1 X105.872 Y88.058 E0.39559
G1 X105.872 Y87.524 E0.01674
G1 X114.789 Y96.441 E0.39559
G1 X114.789 Y95.908 E0.01674
G1 X105.872 Y86.991 E0.39559
G1 X105.872 Y86.457 E0.01674
G1 X114.789 Y95.374 E0.39559
G1 X114.789 Y94.841 E0.01674
G1 X105.872 Y85.924 E0.39559
G1 X105.872 Y85.390 E0.01674
G1 X114.789 Y94.307 E0.39559
G1 X114.789 Y93.774 E0.01674
G1 X105.872 Y84.857 E0.39559
G1 X105.872 Y84.323 E0.01674
G1 X114.789 Y93.240 E0.39559
G1 X114.789 Y92.707 E0.01674
G1 X105.872 Y83.790 E0.39559
G1 X105.872 Y83.256 E0.01674
G1 X114.789 Y92.173 E0.39559
G1 X114.789 Y91.640 E0.01674
G1 X105.872 Y82.723 E0.39559
G1 X105.872 Y82.189 E0.01674
G1 X114.789 Y91.106 E0.39559
G1 X114.789 Y90.572 E0.01674
G1 X105.872 Y81.656 E0.39559
G1 X105.872 Y81.122 E0.01674
G1 X114.789 Y90.039 E0.39559
G1 X114.789 Y89.505 E0.01674
G1 X105.872 Y80.588 E0.39559
G1 X105.872 Y80.055 E0.01674
G1 X114.789 Y88.972 E0.39559
G1 X114.789 Y88.438 E0.01674
G1 X105.872 Y79.521 E0.39559
G1 X105.872 Y78.988 E0.01674
G1 X114.789 Y87.905 E0.39559
G1 X114.789 Y87.371 E0.01674
G1 X105.872 Y78.454 E0.39559
G1 X105.872 Y77.921 E0.01674
G1 X114.789 Y86.838 E0.39559
G1 X114.789 Y86.304 E0.01674
G1 X99.387 Y70.902 E0.68329
G1 X99.725 Y70.707 E0.01225
G1 X114.789 Y85.771 E0.66829
G1 X114.789 Y85.237 E0.01674
G1 X100.063 Y70.512 E0.65328
G1 X100.401 Y70.316 E0.01225
G1 X114.789 Y84.704 E0.63827
G1 X114.789 Y84.170 E0.01674
G1 X100.740 Y70.121 E0.62327
G1 X101.078 Y69.926 E0.01225
G1 X114.789 Y83.636 E0.60826
G1 X114.789 Y83.103 E0.01674
G1 X101.416 Y69.730 E0.59326
G1 X101.754 Y69.535 E0.01225
G1 X114.789 Y82.569 E0.57825
G1 X114.789 Y82.036 E0.01674
G1 X102.093 Y69.340 E0.56324
G1 X102.431 Y69.145 E0.01225
G1 X114.789 Y81.502 E0.54824
G1 X114.789 Y80.969 E0.01674
G1 X102.769 Y68.949 E0.53323
G1 X103.107 Y68.754 E0.01225
G1 X114.789 Y80.435 E0.51823
G1 X114.789 Y79.902 E0.01674
G1 X103.446 Y68.559 E0.50322
G1 X103.784 Y68.363 E0.01225
G1 X114.789 Y79.368 E0.48821
M73 P9 R30
G1 X114.789 Y78.835 E0.01674
G1 X104.122 Y68.168 E0.47321
G1 X104.460 Y67.973 E0.01225
G1 X114.789 Y78.301 E0.45820
G1 X114.789 Y77.768 E0.01674
G1 X104.799 Y67.778 E0.44320
G1 X105.137 Y67.582 E0.01225
G1 X114.789 Y77.234 E0.42819
G1 X114.789 Y76.701 E0.01674
G1 X105.475 Y67.387 E0.41318
G1 X105.813 Y67.192 E0.01225
G1 X114.789 Y76.167 E0.39818
G1 X114.789 Y75.633 E0.01674
G1 X106.152 Y66.996 E0.38317
G1 X106.490 Y66.801 E0.01225
G1 X114.789 Y75.100 E0.36817
G1 X114.789 Y74.566 E0.01674
G1 X106.828 Y66.606 E0.35316
G1 X107.166 Y66.411 E0.01225
G1 X114.789 Y74.033 E0.33815
G1 X114.789 Y73.499 E0.01674
G1 X107.505 Y66.215 E0.32315
G1 X107.843 Y66.020 E0.01225
G1 X114.789 Y72.966 E0.30814
G1 X114.789 Y72.432 E0.01674
G1 X108.181 Y65.825 E0.29314
G1 X108.519 Y65.629 E0.01225
G1 X114.789 Y71.899 E0.27813
G1 X114.789 Y71.365 E0.01674
G1 X108.858 Y65.434 E0.26312
G1 X109.196 Y65.239 E0.01225
G1 X114.789 Y70.832 E0.24812
G1 X114.789 Y70.298 E0.01674
G1 X109.534 Y65.044 E0.23311
G1 X109.872 Y64.848 E0.01225
G1 X114.789 Y69.765 E0.21811
G1 X114.789 Y69.231 E0.01674
G1 X110.210 Y64.653 E0.20310
G1 X110.549 Y64.458 E0.01225
G1 X114.789 Y68.697 E0.18810
G1 X114.789 Y68.164 E0.01674
G1 X110.887 Y64.262 E0.17309
G1 X111.225 Y64.067 E0.01225
G1 X114.789 Y67.630 E0.15808
G1 X114.789 Y67.097 E0.01674
G1 X111.563 Y63.872 E0.14308
G1 X111.902 Y63.676 E0.01225
G1 X114.789 Y66.563 E0.12807
G1 X114.789 Y66.030 E0.01674
G1 X112.240 Y63.481 E0.11307
G1 X112.578 Y63.286 E0.01225
G1 X114.789 Y65.496 E0.09806
G1 X114.789 Y64.963 E0.01674
G1 X112.916 Y63.091 E0.08305
G1 X113.255 Y62.895 E0.01225
G1 X114.789 Y64.429 E0.06805
G1 X114.789 Y63.896 E0.01674
G1 X113.593 Y62.700 E0.05304
G1 X113.931 Y62.505 E0.01225
G1 X114.789 Y63.362 E0.03804
G1 X114.789 Y62.829 E0.01674
G1 X114.269 Y62.309 E0.02303
G1 X114.608 Y62.114 E0.01225
G1 X114.958 Y62.465 E0.01555
M204 S1250
M106 S255
;BEFORE_LAYER_CHANGE
G92 E0.0
;0.45


G1 Z0.450 F9000.000
;AFTER_LAYER_CHANGE
;0.45
G1 E-3.20000 F4200.00000
G1 Z0.650 F9000.000
G1 X118.027 Y59.184
G1 Z0.450
G1 E3.20000 F2400.00000
G1 X118.234 Y60.065 E0.03445
G1 X118.236 Y119.843 E2.27621
G1 X118.055 Y120.753 E0.03531
G1 X117.540 Y121.524 E0.03531
G1 X116.769 Y122.039 E0.03531
G1 X115.860 Y122.220 E0.03531
