; generated by PrusaSlicer 2.3.0+win64 on 2022-05-25 at 14:06:30 UTC


;
;

;
;
; 

; external perimeters extrusion width = 0.45mm
; perimeters extrusion width = 0.45mm
; infill extrusion width = 0.45mm
; solid infill extrusion width = 0.45mm
; top infill extrusion width = 0.40mm
; first layer extrusion width = 0.42mm

M73 P0 R48
M201 X1250 Y1250 Z400 E5000 ; sets maximum accelerations, mm/sec^2
M203 X180 Y180 Z12 E80 ; sets maximum feedrates, mm/sec
M204 P1250 R1250 T1250 ; sets acceleration (P, T) and retract acceleration (R), mm/sec^2
M205 X8.00 Y8.00 Z2.00 E10.00 ; sets the jerk limits, mm/sec
M205 S0 T0 ; sets the minimum extruding and travel feed rate, mm/sec
M107
;TYPE:Custom
G90 ; use absolute coordinates
M83 ; extruder relative mode
M104 S170 ; set extruder temp for bed leveling
M140 S85 ; set bed temp
M109 R170 ; wait for bed leveling temp
M190 S85 ; wait for bed temp
G28 ; home all without mesh bed level
G29 ; mesh bed leveling 
M104 S240 ; set extruder temp
G92 E0.0
G1 Y-2.0 X179 F2400
G1 Z3 F720
M109 S240 ; wait for extruder temp

; intro line
G1 X170 F1000
G1 Z0.2 F720
M73 P0 R47
G1 X110.0 E8.0 F900
G1 X40.0 E10.0 F700
G92 E0.0

M221 S95 ; set flow
G21 ; set units to millimeters
G90 ; use absolute coordinates
M83 ; use relative distances for extrusion
M900 K0.2 ; Filament gcode
;LAYER_CHANGE
;Z:0.2
;HEIGHT:0.2
;BEFORE_LAYER_CHANGE
G92 E0.0
;0.2


G1 E-3.20000 F2400.000
G1 Z0.200 F9000.000
;AFTER_LAYER_CHANGE
;0.2
G1 Z0.400
G1 X56.862 Y63.215
G1 Z0.200
G1 E3.20000 F1500.000
M204 S800
;TYPE:Skirt
;WIDTH:0.42
G1 F1200.000
G1 X57.591 Y62.595 E0.03001
G1 X58.138 Y62.378 E0.01846
G1 X58.722 Y62.302 E0.01846
G1 X112.533 Y62.302 E1.68720
G1 X113.637 Y62.399 E0.03475
G1 X114.702 Y62.684 E0.03457
G1 X115.709 Y63.151 E0.03480
G1 X116.623 Y63.790 E0.03497
G1 X117.408 Y64.572 E0.03473
G1 X118.050 Y65.487 E0.03505
G1 X118.522 Y66.498 E0.03499
G1 X118.810 Y67.572 E0.03486
G1 X118.906 Y68.637 E0.03351
G1 X118.906 Y74.710 E0.19041
G1 X118.700 Y76.287 E0.04987
G1 X118.293 Y77.408 E0.03739
G1 X117.594 Y78.555 E0.04212
G1 X116.662 Y79.536 E0.04244
G1 X115.675 Y80.226 E0.03774
G1 X72.634 Y101.109 E1.49999
G1 X71.233 Y101.691 E0.04756
G1 X69.498 Y102.194 E0.05664
G1 X67.225 Y102.523 E0.07200
G1 X65.784 Y102.549 E0.04519
G1 X64.655 Y102.472 E0.03549
G1 X62.429 Y102.061 E0.07099
G1 X60.283 Y101.314 E0.07125
G1 X59.262 Y100.821 E0.03554
G1 X58.025 Y100.086 E0.04510
G1 X56.230 Y98.690 E0.07132
G1 X55.412 Y97.887 E0.03593
G1 X54.477 Y96.794 E0.04509
G1 X53.221 Y94.889 E0.07156
G1 X52.280 Y92.835 E0.07083
G1 X51.929 Y91.763 E0.03537
G1 X51.603 Y90.370 E0.04486
G1 X51.364 Y88.106 E0.07136
G1 X51.472 Y85.837 E0.07123
G1 X51.726 Y84.390 E0.04608
G1 X56.435 Y64.076 E0.65382
G1 X56.835 Y63.269 E0.02824
M204 S1250
; printing object ScrewFollower04 id:0 copy 0
G1 E-2.24000 F2400.000
;WIPE_START
G1 F7200.000
G1 X57.591 Y62.595 E-0.32062
G1 X58.138 Y62.378 E-0.18648
G1 X58.722 Y62.302 E-0.18648
G1 X59.412 Y62.302 E-0.21842
;WIPE_END
G1 E-0.04800 F2400.000
G1 Z0.400 F9000.000
G1 X99.197 Y73.680
G1 Z0.200
G1 E3.20000 F1500.000
M204 S800
;TYPE:Perimeter
G1 F1200.000
G1 X99.352 Y73.238 E0.01469
G1 X99.527 Y72.935 E0.01095
G1 X99.832 Y72.580 E0.01469
G1 X100.105 Y72.362 E0.01095
G1 X100.519 Y72.143 E0.01469
G1 X100.853 Y72.041 E0.01094
G1 X101.293 Y71.991 E0.01388
G1 X112.356 Y71.991 E0.34687
G1 X112.667 Y72.014 E0.00980
G1 X113.119 Y72.135 E0.01468
G1 X113.424 Y72.282 E0.01060
G1 X113.704 Y72.473 E0.01060
G1 X114.043 Y72.812 E0.01504
G1 X114.304 Y73.227 E0.01538
G1 X114.466 Y73.690 E0.01538
G1 X114.519 Y74.167 E0.01503
G1 X114.494 Y74.504 E0.01060
G1 X114.421 Y74.823 E0.01026
G1 X114.298 Y75.138 E0.01060
G1 X114.048 Y75.534 E0.01469
G1 X113.818 Y75.782 E0.01060
G1 X113.563 Y75.986 E0.01026
G1 X113.270 Y76.155 E0.01060
G1 X112.828 Y76.310 E0.01469
G1 X112.493 Y76.360 E0.01060
G1 X101.304 Y76.365 E0.35084
G1 X101.003 Y76.342 E0.00945
G1 X100.674 Y76.267 E0.01060
G1 X100.234 Y76.075 E0.01503
G1 X99.848 Y75.790 E0.01504
G1 X99.618 Y75.542 E0.01060
G1 X99.428 Y75.263 E0.01060
G1 X99.241 Y74.834 E0.01469
G1 X99.163 Y74.493 E0.01095
G1 X99.145 Y74.025 E0.01469
G1 X99.188 Y73.739 E0.00907
M204 S1250
G1 X99.561 Y73.795 F9000.000
M204 S800
;TYPE:External perimeter
G1 F1200.000
G1 X99.696 Y73.396 E0.01323
G1 X99.836 Y73.154 E0.00873
G1 X100.095 Y72.853 E0.01247
G1 X100.313 Y72.679 E0.00873
G1 X100.664 Y72.493 E0.01247
G1 X100.930 Y72.411 E0.00873
G1 X101.314 Y72.368 E0.01210
G1 X112.341 Y72.368 E0.34575
M73 P1 R47
G1 X112.604 Y72.388 E0.00825
G1 X112.988 Y72.490 E0.01247
G1 X113.235 Y72.610 E0.00861
G1 X113.462 Y72.764 E0.00861
G1 X113.746 Y73.048 E0.01259
G1 X113.962 Y73.392 E0.01272
G1 X114.096 Y73.775 E0.01272
G1 X114.141 Y74.174 E0.01259
G1 X114.120 Y74.448 E0.00861
G1 X114.060 Y74.711 E0.00849
G1 X113.960 Y74.967 E0.00861
G1 X113.748 Y75.304 E0.01247
G1 X113.561 Y75.505 E0.00861
G1 X113.350 Y75.674 E0.00849
G1 X113.112 Y75.811 E0.00861
G1 X112.736 Y75.942 E0.01247
G1 X112.465 Y75.983 E0.00861
G1 X101.318 Y75.988 E0.34951
G1 X101.060 Y75.968 E0.00812
G1 X100.792 Y75.907 E0.00861
G1 X100.424 Y75.747 E0.01259
G1 X100.101 Y75.508 E0.01259
G1 X99.914 Y75.307 E0.00861
G1 X99.759 Y75.080 E0.00861
G1 X99.600 Y74.715 E0.01247
G1 X99.538 Y74.444 E0.00873
G1 X99.523 Y74.046 E0.01247
G1 X99.552 Y73.855 E0.00608
M204 S1250
G1 X99.269 Y73.522 F9000.000
G1 E-2.24000 F2400.000
;WIPE_START
G1 F7200.000
G1 X99.696 Y73.396 E-0.15236
G1 X99.836 Y73.154 E-0.08820
G1 X100.095 Y72.853 E-0.12594
G1 X100.313 Y72.679 E-0.08821
G1 X100.664 Y72.493 E-0.12594
G1 X100.930 Y72.411 E-0.08818
G1 X101.314 Y72.368 E-0.12226
G1 X101.696 Y72.368 E-0.12092
;WIPE_END
G1 E-0.04800 F2400.000
G1 Z0.400 F9000.000
G1 X100.540 Y71.220
G1 Z0.200
G1 E3.20000 F1500.000
M204 S800
;TYPE:Perimeter
G1 F1200.000
G1 X100.225 Y71.069 E0.01095
G1 X99.848 Y70.790 E0.01469
G1 X99.618 Y70.542 E0.01060
G1 X99.428 Y70.263 E0.01060
G1 X99.240 Y69.834 E0.01469
G1 X99.163 Y69.493 E0.01095
G1 X99.145 Y69.025 E0.01469
G1 X99.197 Y68.680 E0.01095
G1 X99.356 Y68.227 E0.01504
G1 X99.611 Y67.821 E0.01503
G1 X99.848 Y67.565 E0.01095
G1 X100.225 Y67.287 E0.01469
G1 X100.530 Y67.140 E0.01060
G1 X100.853 Y67.041 E0.01060
G1 X101.293 Y66.991 E0.01388
G1 X112.356 Y66.991 E0.34687
G1 X112.656 Y67.013 E0.00945
G1 X112.986 Y67.089 E0.01060
G1 X113.425 Y67.280 E0.01504
G1 X113.811 Y67.565 E0.01503
G1 X114.048 Y67.821 E0.01095
G1 X114.304 Y68.227 E0.01503
G1 X114.466 Y68.690 E0.01538
G1 X114.519 Y69.167 E0.01503
G1 X114.494 Y69.504 E0.01060
G1 X114.421 Y69.823 E0.01026
G1 X114.298 Y70.138 E0.01060
G1 X114.049 Y70.534 E0.01469
G1 X113.818 Y70.782 E0.01060
G1 X113.563 Y70.986 E0.01026
G1 X113.270 Y71.155 E0.01060
G1 X112.828 Y71.310 E0.01469
G1 X112.493 Y71.360 E0.01060
G1 X101.304 Y71.365 E0.35084
G1 X100.992 Y71.341 E0.00980
G1 X100.598 Y71.236 E0.01280
M204 S1250
G1 X100.695 Y70.871 F9000.000
M204 S800
;TYPE:External perimeter
G1 F1200.000
G1 X100.421 Y70.744 E0.00949
G1 X100.101 Y70.508 E0.01247
G1 X99.914 Y70.307 E0.00861
G1 X99.759 Y70.080 E0.00861
G1 X99.600 Y69.715 E0.01247
G1 X99.538 Y69.444 E0.00873
G1 X99.523 Y69.046 E0.01247
G1 X99.565 Y68.771 E0.00873
G1 X99.698 Y68.392 E0.01259
G1 X99.911 Y68.052 E0.01259
G1 X100.101 Y67.847 E0.00873
G1 X100.421 Y67.611 E0.01247
G1 X100.668 Y67.492 E0.00861
G1 X100.930 Y67.411 E0.00861
G1 X101.314 Y67.368 E0.01210
G1 X112.341 Y67.368 E0.34575
G1 X112.600 Y67.387 E0.00812
G1 X112.867 Y67.448 E0.00861
G1 X113.235 Y67.609 E0.01259
G1 X113.559 Y67.847 E0.01259
G1 X113.748 Y68.052 E0.00873
G1 X113.962 Y68.392 E0.01259
G1 X114.096 Y68.775 E0.01272
G1 X114.141 Y69.174 E0.01259
G1 X114.120 Y69.448 E0.00861
G1 X114.060 Y69.711 E0.00849
G1 X113.960 Y69.967 E0.00861
G1 X113.748 Y70.304 E0.01247
G1 X113.561 Y70.505 E0.00861
G1 X113.350 Y70.674 E0.00849
G1 X113.112 Y70.811 E0.00861
G1 X112.736 Y70.942 E0.01247
G1 X112.465 Y70.983 E0.00861
G1 X101.318 Y70.988 E0.34951
G1 X101.056 Y70.968 E0.00825
G1 X100.753 Y70.887 E0.00981
M204 S1250
G1 X100.463 Y71.066 F9000.000
G1 E-2.24000 F2400.000
;WIPE_START
G1 F7200.000
G1 X100.421 Y70.744 E-0.11465
G1 X100.101 Y70.508 E-0.12594
G1 X99.914 Y70.307 E-0.08695
G1 X99.759 Y70.080 E-0.08695
G1 X99.600 Y69.715 E-0.12594
G1 X99.538 Y69.444 E-0.08821
G1 X99.523 Y69.046 E-0.12594
G1 X99.565 Y68.771 E-0.08820
G1 X99.637 Y68.565 E-0.06922
;WIPE_END
G1 E-0.04800 F2400.000
G1 Z0.400 F9000.000
G1 X72.427 Y87.229
G1 Z0.200
G1 E3.20000 F1500.000
M204 S800
;TYPE:Perimeter
G1 F1200.000
G1 X72.827 Y86.660 E0.02183
G1 X73.186 Y86.341 E0.01504
G1 X73.477 Y86.167 E0.01062
G1 X73.791 Y86.041 E0.01062
G1 X74.251 Y85.952 E0.01469
G1 X74.601 Y85.952 E0.01098
G1 X75.072 Y86.043 E0.01504
G1 X75.510 Y86.239 E0.01504
G1 X75.787 Y86.434 E0.01062
G1 X76.031 Y86.669 E0.01062
G1 X76.307 Y87.061 E0.01504
G1 X76.491 Y87.517 E0.01539
G1 X76.564 Y87.989 E0.01497
G1 X76.550 Y88.341 E0.01104
G1 X76.444 Y88.797 E0.01469
G1 X76.300 Y89.116 E0.01098
G1 X76.031 Y89.500 E0.01469
G1 X75.779 Y89.742 E0.01098
G1 X75.386 Y89.997 E0.01468
G1 X75.061 Y90.128 E0.01098
G1 X74.601 Y90.217 E0.01468
G1 X74.251 Y90.217 E0.01098
G1 X73.791 Y90.128 E0.01469
G1 X73.466 Y89.997 E0.01098
G1 X73.073 Y89.742 E0.01468
G1 X72.821 Y89.500 E0.01098
G1 X72.545 Y89.107 E0.01504
G1 X72.461 Y88.899 E0.00703
G1 X72.293 Y88.915 E0.00530
G1 X72.258 Y89.095 E0.00572
G1 X72.060 Y89.765 E0.02193
G1 X71.878 Y90.215 E0.01521
G1 X71.557 Y90.834 E0.02187
G1 X71.292 Y91.244 E0.01528
G1 X70.854 Y91.796 E0.02211
G1 X70.356 Y92.295 E0.02211
G1 X69.985 Y92.600 E0.01504
G1 X69.593 Y92.876 E0.01504
G1 X68.980 Y93.225 E0.02211
G1 X68.331 Y93.501 E0.02211
G1 X67.869 Y93.647 E0.01522
G1 X67.456 Y93.735 E0.01322
G1 X67.439 Y93.899 E0.00514
G1 X67.723 Y94.026 E0.00974
G1 X68.009 Y94.227 E0.01098
G1 X68.334 Y94.565 E0.01469
G1 X68.524 Y94.858 E0.01098
G1 X68.704 Y95.303 E0.01504
G1 X68.777 Y95.775 E0.01497
G1 X68.763 Y96.127 E0.01104
G1 X68.654 Y96.594 E0.01505
G1 X68.441 Y97.024 E0.01504
G1 X68.236 Y97.294 E0.01062
G1 X67.992 Y97.529 E0.01062
G1 X67.599 Y97.783 E0.01469
G1 X67.274 Y97.914 E0.01098
G1 X66.814 Y98.003 E0.01468
G1 X66.464 Y98.003 E0.01098
G1 X66.004 Y97.914 E0.01469
G1 X65.679 Y97.783 E0.01098
G1 X65.277 Y97.523 E0.01504
G1 X64.936 Y97.169 E0.01540
G1 X64.691 Y96.756 E0.01504
G1 X64.573 Y96.427 E0.01098
G1 X64.501 Y95.964 E0.01468
G1 X64.515 Y95.614 E0.01098
G1 X64.624 Y95.147 E0.01504
G1 X64.837 Y94.717 E0.01504
G1 X65.042 Y94.448 E0.01062
G1 X65.286 Y94.213 E0.01062
G1 X65.644 Y93.981 E0.01335
G1 X65.606 Y93.825 E0.00504
G1 X65.295 Y93.795 E0.00977
G1 X64.819 Y93.703 E0.01522
G1 X64.150 Y93.505 E0.02187
G1 X63.698 Y93.323 E0.01528
G1 X63.072 Y92.998 E0.02211
G1 X62.488 Y92.604 E0.02211
G1 X62.113 Y92.295 E0.01522
G1 X61.619 Y91.800 E0.02193
G1 X61.314 Y91.430 E0.01504
G1 X61.038 Y91.038 E0.01504
G1 X60.689 Y90.425 E0.02211
G1 X60.411 Y89.771 E0.02229
G1 X60.209 Y89.089 E0.02229
G1 X60.180 Y88.921 E0.00534
G1 X60.014 Y88.901 E0.00525
G1 X59.917 Y89.116 E0.00740
G1 X59.648 Y89.499 E0.01469
G1 X59.396 Y89.742 E0.01098
G1 X59.002 Y89.996 E0.01468
G1 X58.678 Y90.127 E0.01098
G1 X58.207 Y90.219 E0.01504
G1 X57.716 Y90.200 E0.01540
G1 X57.242 Y90.070 E0.01540
G1 X56.821 Y89.840 E0.01504
G1 X56.551 Y89.618 E0.01098
G1 X56.253 Y89.256 E0.01469
G1 X56.086 Y88.949 E0.01098
G1 X55.944 Y88.502 E0.01469
G1 X55.904 Y88.154 E0.01098
G1 X55.940 Y87.687 E0.01469
G1 X56.030 Y87.361 E0.01062
G1 X56.168 Y87.052 E0.01062
G1 X56.444 Y86.659 E0.01504
G1 X56.803 Y86.340 E0.01504
G1 X57.094 Y86.167 E0.01062
G1 X57.408 Y86.040 E0.01062
G1 X57.868 Y85.951 E0.01469
G1 X58.218 Y85.951 E0.01098
G1 X58.689 Y86.042 E0.01504
G1 X59.127 Y86.239 E0.01504
G1 X59.404 Y86.434 E0.01062
G1 X59.648 Y86.668 E0.01062
G1 X60.068 Y87.266 E0.02289
G1 X60.119 Y86.735 E0.01672
G1 X60.266 Y86.045 E0.02211
G1 X60.413 Y85.582 E0.01522
G1 X60.687 Y84.939 E0.02193
G1 X60.916 Y84.517 E0.01504
G1 X61.177 Y84.115 E0.01504
G1 X61.615 Y83.562 E0.02211
G1 X62.113 Y83.063 E0.02211
G1 X62.488 Y82.755 E0.01522
G1 X63.072 Y82.360 E0.02211
G1 X63.698 Y82.035 E0.02211
G1 X64.148 Y81.854 E0.01522
G1 X64.824 Y81.654 E0.02211
G1 X65.807 Y81.483 E0.03128
G1 X65.287 Y81.146 E0.01944
G1 X65.035 Y80.903 E0.01098
G1 X64.759 Y80.510 E0.01504
G1 X64.579 Y80.066 E0.01504
G1 X64.513 Y79.722 E0.01098
G1 X64.513 Y79.242 E0.01504
G1 X64.622 Y78.775 E0.01504
G1 X64.765 Y78.455 E0.01098
G1 X65.035 Y78.072 E0.01469
G1 X65.287 Y77.830 E0.01098
G1 X65.689 Y77.569 E0.01504
G1 X66.141 Y77.407 E0.01504
G1 X66.476 Y77.355 E0.01062
G1 X66.815 Y77.355 E0.01062
G1 X67.274 Y77.444 E0.01468
G1 X67.599 Y77.575 E0.01098
G1 X67.992 Y77.830 E0.01469
G1 X68.245 Y78.072 E0.01098
G1 X68.514 Y78.455 E0.01469
G1 X68.657 Y78.775 E0.01098
G1 X68.767 Y79.242 E0.01504
G1 X68.767 Y79.733 E0.01540
G1 X68.657 Y80.200 E0.01504
G1 X68.514 Y80.520 E0.01098
G1 X68.245 Y80.903 E0.01469
G1 X67.992 Y81.146 E0.01098
G1 X67.590 Y81.406 E0.01504
G1 X67.455 Y81.455 E0.00448
G1 X67.467 Y81.625 E0.00535
G1 X67.874 Y81.712 E0.01307
G1 X68.542 Y81.938 E0.02211
G1 X68.985 Y82.136 E0.01522
G1 X69.593 Y82.482 E0.02193
G1 X69.990 Y82.761 E0.01522
G1 X70.521 Y83.217 E0.02193
G1 X70.858 Y83.566 E0.01521
G1 X71.291 Y84.113 E0.02187
G1 X71.556 Y84.522 E0.01528
G1 X71.878 Y85.143 E0.02194
G1 X72.060 Y85.593 E0.01522
G1 X72.260 Y86.269 E0.02211
G1 X72.417 Y87.170 E0.02868
M204 S1250
G1 X72.829 Y87.355 F9000.000
M204 S800
;TYPE:External perimeter
G1 F1200.000
G1 X72.881 Y87.239 E0.00397
G1 X73.111 Y86.912 E0.01254
G1 X73.409 Y86.646 E0.01254
G1 X73.645 Y86.506 E0.00858
G1 X73.898 Y86.404 E0.00858
G1 X74.287 Y86.329 E0.01241
G1 X74.565 Y86.329 E0.00871
G1 X74.957 Y86.405 E0.01254
G1 X75.322 Y86.568 E0.01254
G1 X75.546 Y86.726 E0.00858
G1 X75.743 Y86.916 E0.00858
G1 X75.973 Y87.243 E0.01254
G1 X76.125 Y87.617 E0.01267
G1 X76.185 Y88.011 E0.01248
G1 X76.175 Y88.290 E0.00877
G1 X76.085 Y88.676 E0.01242
G1 X75.971 Y88.929 E0.00871
G1 X75.743 Y89.253 E0.01241
G1 X75.543 Y89.446 E0.00871
G1 X75.211 Y89.661 E0.01241
G1 X74.953 Y89.765 E0.00871
G1 X74.565 Y89.840 E0.01241
G1 X74.287 Y89.840 E0.00871
G1 X73.898 Y89.765 E0.01241
G1 X73.641 Y89.661 E0.00871
G1 X73.309 Y89.446 E0.01241
G1 X73.109 Y89.253 E0.00871
G1 X72.878 Y88.926 E0.01254
G1 X72.729 Y88.555 E0.01254
G1 X72.676 Y88.282 E0.00871
G1 X72.676 Y87.882 E0.01254
G1 X72.767 Y87.493 E0.01254
G1 X72.804 Y87.410 E0.00285
M204 S1250
G1 X72.750 Y87.256 F9000.000
G1 E-2.24000 F2400.000
;WIPE_START
G1 F7200.000
G1 X72.881 Y87.239 E-0.05910
G1 X73.111 Y86.912 E-0.12666
G1 X73.409 Y86.646 E-0.12666
G1 X73.645 Y86.506 E-0.08665
G1 X73.898 Y86.404 E-0.08665
G1 X74.287 Y86.329 E-0.12537
G1 X74.565 Y86.329 E-0.08793
G1 X74.957 Y86.405 E-0.12666
G1 X75.206 Y86.516 E-0.08633
;WIPE_END
G1 E-0.04800 F2400.000
G1 Z0.400 F9000.000
G1 X67.763 Y94.515
G1 Z0.200
G1 E3.20000 F1500.000
M204 S800
G1 F1200.000
G1 X68.037 Y94.800 E0.01241
G1 X68.188 Y95.033 E0.00871
G1 X68.338 Y95.404 E0.01254
G1 X68.398 Y95.797 E0.01248
G1 X68.388 Y96.077 E0.00877
G1 X68.297 Y96.466 E0.01254
G1 X68.119 Y96.825 E0.01254
G1 X67.953 Y97.042 E0.00858
G1 X67.756 Y97.232 E0.00858
G1 X67.424 Y97.447 E0.01241
G1 X67.166 Y97.551 E0.00871
G1 X66.778 Y97.626 E0.01241
G1 X66.500 Y97.626 E0.00871
G1 X66.111 Y97.551 E0.01241
G1 X65.854 Y97.447 E0.00871
G1 X65.518 Y97.230 E0.01254
G1 X65.238 Y96.939 E0.01267
G1 X65.034 Y96.595 E0.01254
G1 X64.940 Y96.333 E0.00871
G1 X64.879 Y95.942 E0.01241
G1 X64.890 Y95.665 E0.00871
G1 X64.981 Y95.275 E0.01254
G1 X65.159 Y94.917 E0.01254
G1 X65.324 Y94.699 E0.00858
G1 X65.522 Y94.510 E0.00858
G1 X65.854 Y94.294 E0.01241
G1 X66.111 Y94.191 E0.00871
G1 X66.504 Y94.114 E0.01254
G1 X66.904 Y94.130 E0.01254
G1 X67.174 Y94.193 E0.00871
G1 X67.535 Y94.355 E0.01241
G1 X67.713 Y94.480 E0.00682
M204 S1250
G1 X68.135 Y94.381 F9000.000
G1 E-2.24000 F2400.000
;WIPE_START
G1 F7200.000
G1 X68.037 Y94.800 E-0.14407
G1 X68.188 Y95.033 E-0.08793
G1 X68.338 Y95.404 E-0.12664
G1 X68.398 Y95.797 E-0.12602
G1 X68.388 Y96.077 E-0.08855
G1 X68.297 Y96.466 E-0.12669
G1 X68.119 Y96.825 E-0.12666
G1 X67.956 Y97.039 E-0.08544
;WIPE_END
G1 E-0.04800 F2400.000
G1 Z0.400 F9000.000
G1 X59.588 Y88.929
G1 Z0.200
G1 E3.20000 F1500.000
M204 S800
