; generated by PrusaSlicer 2.3.0+win64 on 2022-05-22 at 18:11:30 UTC


;
;

;
;
; 

; external perimeters extrusion width = 0.45mm
; perimeters extrusion width = 0.45mm
; infill extrusion width = 0.45mm
; solid infill extrusion width = 0.45mm
; top infill extrusion width = 0.40mm
; first layer extrusion width = 0.42mm

M73 P0 R37
M201 X1250 Y1250 Z400 E5000 ; sets maximum accelerations, mm/sec^2
M203 X180 Y180 Z12 E80 ; sets maximum feedrates, mm/sec
M204 P1250 R1250 T1250 ; sets acceleration (P, T) and retract acceleration (R), mm/sec^2
M205 X8.00 Y8.00 Z2.00 E10.00 ; sets the jerk limits, mm/sec
M205 S0 T0 ; sets the minimum extruding and travel feed rate, mm/sec
M107
;TYPE:Custom
G90 ; use absolute coordinates
M83 ; extruder relative mode
M104 S170 ; set extruder temp for bed leveling
M140 S85 ; set bed temp
M109 R170 ; wait for bed leveling temp
M190 S85 ; wait for bed temp
G28 ; home all without mesh bed level
G29 ; mesh bed leveling 
M104 S240 ; set extruder temp
G92 E0.0
G1 Y-2.0 X179 F2400
G1 Z3 F720
M109 S240 ; wait for extruder temp

; intro line
G1 X170 F1000
G1 Z0.2 F720
G1 X110.0 E8.0 F900
G1 X40.0 E10.0 F700
G92 E0.0

M221 S95 ; set flow
G21 ; set units to millimeters
G90 ; use absolute coordinates
M83 ; use relative distances for extrusion
M900 K0.2 ; Filament gcode
;LAYER_CHANGE
;Z:0.2
;HEIGHT:0.2
;BEFORE_LAYER_CHANGE
G92 E0.0
;0.2


M73 P0 R36
G1 E-3.20000 F2400.000
G1 Z0.200 F9000.000
;AFTER_LAYER_CHANGE
;0.2
G1 Z0.400
G1 X101.505 Y40.776
G1 Z0.200
G1 E3.20000 F1500.000
M204 S800
;TYPE:Skirt
;WIDTH:0.42
G1 F1200.000
G1 X102.035 Y40.197 E0.02461
G1 X102.710 Y39.827 E0.02414
G1 X103.468 Y39.693 E0.02414
G1 X143.503 Y39.692 E1.25526
G1 X144.330 Y39.843 E0.02637
G1 X145.054 Y40.272 E0.02637
G1 X145.583 Y40.926 E0.02637
G1 X145.851 Y41.723 E0.02637
G1 X145.875 Y52.138 E0.32656
G1 X145.773 Y52.760 E0.01977
G1 X145.510 Y53.337 E0.01989
G1 X145.112 Y53.816 E0.01952
G1 X120.962 Y76.118 E1.03069
G1 X120.088 Y76.847 E0.03568
G1 X118.851 Y77.706 E0.04722
G1 X117.556 Y78.424 E0.04642
G1 X116.177 Y79.016 E0.04704
G1 X115.050 Y79.384 E0.03718
G1 X113.616 Y79.714 E0.04614
G1 X112.124 Y79.904 E0.04718
G1 X110.628 Y79.942 E0.04691
G1 X109.126 Y79.828 E0.04722
G1 X107.649 Y79.564 E0.04706
G1 X106.209 Y79.154 E0.04694
G1 X104.817 Y78.601 E0.04696
G1 X103.508 Y77.923 E0.04623
G1 X102.509 Y77.286 E0.03716
G1 X101.327 Y76.373 E0.04682
M73 P1 R36
G1 X100.256 Y75.361 E0.04618
G1 X99.268 Y74.219 E0.04738
G1 X98.420 Y73.013 E0.04623
G1 X97.830 Y71.991 E0.03697
G1 X97.210 Y70.654 E0.04623
G1 X96.725 Y69.262 E0.04621
G1 X96.440 Y68.126 E0.03673
G1 X96.208 Y66.665 E0.04639
G1 X96.122 Y65.190 E0.04631
G1 X96.159 Y64.020 E0.03673
G1 X96.481 Y61.819 E0.06975
G1 X101.191 Y41.499 E0.65399
G1 X101.481 Y40.831 E0.02285
M204 S1250
; printing object ScrewFollower02 id:0 copy 0
G1 E-2.24000 F2400.000
;WIPE_START
G1 F7200.000
G1 X102.035 Y40.197 E-0.26657
G1 X102.710 Y39.827 E-0.24378
G1 X103.468 Y39.693 E-0.24378
G1 X103.966 Y39.693 E-0.15788
;WIPE_END
G1 E-0.04800 F2400.000
G1 Z0.400 F9000.000
G1 X110.376 Y58.749
G1 Z0.200
G1 E3.20000 F1500.000
M204 S800
;TYPE:Perimeter
G1 F1200.000
G1 X110.301 Y58.712 E0.00264
G1 X109.919 Y58.421 E0.01504
G1 X109.614 Y58.051 E0.01504
G1 X109.447 Y57.743 E0.01098
G1 X109.306 Y57.296 E0.01469
G1 X109.267 Y56.960 E0.01062
G1 X109.280 Y56.621 E0.01062
G1 X109.386 Y56.165 E0.01468
G1 X109.530 Y55.846 E0.01098
G1 X109.799 Y55.463 E0.01468
G1 X110.051 Y55.220 E0.01098
G1 X110.454 Y54.959 E0.01504
G1 X110.905 Y54.797 E0.01504
G1 X111.240 Y54.745 E0.01062
G1 X111.579 Y54.745 E0.01062
G1 X112.039 Y54.834 E0.01468
G1 X112.364 Y54.965 E0.01098
G1 X112.757 Y55.220 E0.01469
G1 X113.009 Y55.463 E0.01098
G1 X113.285 Y55.855 E0.01504
G1 X113.469 Y56.311 E0.01539
G1 X113.542 Y56.782 E0.01497
G1 X113.529 Y57.134 E0.01104
G1 X113.419 Y57.602 E0.01505
G1 X113.206 Y58.032 E0.01504
G1 X113.001 Y58.301 E0.01062
G1 X112.757 Y58.536 E0.01062
G1 X112.354 Y58.797 E0.01504
G1 X112.231 Y58.841 E0.00409
G1 X112.244 Y59.013 E0.00541
G1 X112.414 Y59.046 E0.00542
G1 X113.083 Y59.243 E0.02187
G1 X113.535 Y59.425 E0.01528
G1 X114.161 Y59.750 E0.02211
G1 X114.746 Y60.145 E0.02211
G1 X115.120 Y60.454 E0.01522
G1 X115.615 Y60.948 E0.02193
G1 X115.923 Y61.323 E0.01522
G1 X116.315 Y61.903 E0.02193
G1 X116.547 Y62.329 E0.01522
G1 X116.821 Y62.973 E0.02193
G1 X116.967 Y63.435 E0.01522
G1 X117.114 Y64.125 E0.02211
G1 X117.166 Y64.656 E0.01674
G1 X117.592 Y64.050 E0.02324
G1 X117.950 Y63.731 E0.01504
G1 X118.241 Y63.558 E0.01062
G1 X118.556 Y63.431 E0.01062
G1 X119.015 Y63.342 E0.01469
G1 X119.366 Y63.342 E0.01098
G1 X119.836 Y63.433 E0.01504
G1 X120.274 Y63.630 E0.01504
G1 X120.551 Y63.824 E0.01062
G1 X120.795 Y64.059 E0.01062
G1 X121.071 Y64.452 E0.01504
G1 X121.251 Y64.897 E0.01504
G1 X121.317 Y65.240 E0.01098
G1 X121.317 Y65.709 E0.01468
G1 X121.251 Y66.053 E0.01098
G1 X121.071 Y66.497 E0.01504
G1 X120.795 Y66.890 E0.01504
G1 X120.543 Y67.133 E0.01098
G1 X120.150 Y67.387 E0.01469
G1 X119.825 Y67.518 E0.01098
G1 X119.354 Y67.609 E0.01504
G1 X118.875 Y67.591 E0.01504
G1 X118.534 Y67.511 E0.01098
G1 X118.107 Y67.320 E0.01468
G1 X117.820 Y67.118 E0.01098
G1 X117.488 Y66.773 E0.01504
G1 X117.095 Y66.112 E0.02410
G1 X117.023 Y66.485 E0.01191
G1 X116.825 Y67.154 E0.02187
G1 X116.643 Y67.606 E0.01528
G1 X116.318 Y68.232 E0.02211
G1 X115.923 Y68.816 E0.02211
G1 X115.613 Y69.192 E0.01527
G1 X115.116 Y69.689 E0.02205
G1 X114.563 Y70.127 E0.02211
G1 X114.156 Y70.391 E0.01522
G1 X113.535 Y70.714 E0.02193
G1 X113.085 Y70.895 E0.01522
G1 X112.414 Y71.093 E0.02193
G1 X112.245 Y71.126 E0.00541
G1 X112.229 Y71.294 E0.00530
G1 X112.363 Y71.348 E0.00454
G1 X112.766 Y71.609 E0.01504
G1 X113.098 Y71.955 E0.01504
G1 X113.289 Y72.249 E0.01098
G1 X113.468 Y72.694 E0.01504
G1 X113.541 Y73.166 E0.01497
G1 X113.528 Y73.517 E0.01104
G1 X113.421 Y73.974 E0.01469
G1 X113.278 Y74.293 E0.01098
G1 X113.008 Y74.676 E0.01469
G1 X112.756 Y74.919 E0.01098
G1 X112.354 Y75.180 E0.01504
G1 X111.902 Y75.342 E0.01504
G1 X111.556 Y75.395 E0.01098
G1 X111.077 Y75.377 E0.01504
G1 X110.614 Y75.250 E0.01504
G1 X110.300 Y75.095 E0.01098
G1 X109.919 Y74.804 E0.01504
G1 X109.614 Y74.434 E0.01504
G1 X109.452 Y74.136 E0.01062
G1 X109.337 Y73.817 E0.01062
G1 X109.266 Y73.354 E0.01468
G1 X109.279 Y73.004 E0.01098
G1 X109.388 Y72.537 E0.01504
G1 X109.601 Y72.107 E0.01504
G1 X109.807 Y71.838 E0.01062
G1 X110.051 Y71.603 E0.01062
G1 X110.408 Y71.372 E0.01335
G1 X110.370 Y71.215 E0.00504
G1 X110.062 Y71.186 E0.00970
G1 X109.584 Y71.093 E0.01528
G1 X108.907 Y70.893 E0.02211
G1 X108.253 Y70.615 E0.02229
G1 X107.635 Y70.264 E0.02229
G1 X107.066 Y69.847 E0.02211
G1 X106.708 Y69.528 E0.01504
G1 X106.376 Y69.182 E0.01504
G1 X105.941 Y68.634 E0.02193
G1 X105.677 Y68.227 E0.01522
G1 X105.352 Y67.601 E0.02211
G1 X105.101 Y66.942 E0.02211
G1 X104.941 Y66.306 E0.02056
G1 X104.780 Y66.284 E0.00509
G1 X104.610 Y66.628 E0.01201
G1 X104.404 Y66.897 E0.01062
G1 X104.160 Y67.132 E0.01062
G1 X103.767 Y67.387 E0.01468
G1 X103.442 Y67.518 E0.01098
G1 X102.971 Y67.609 E0.01504
G1 X102.492 Y67.591 E0.01504
G1 X102.151 Y67.511 E0.01098
G1 X101.724 Y67.319 E0.01469
G1 X101.437 Y67.118 E0.01098
G1 X101.112 Y66.780 E0.01468
G1 X100.922 Y66.486 E0.01098
G1 X100.743 Y66.041 E0.01504
G1 X100.670 Y65.567 E0.01504
G1 X100.683 Y65.217 E0.01098
G1 X100.792 Y64.750 E0.01504
G1 X101.005 Y64.320 E0.01504
G1 X101.211 Y64.051 E0.01062
G1 X101.455 Y63.816 E0.01062
G1 X101.857 Y63.555 E0.01504
G1 X102.309 Y63.393 E0.01504
G1 X102.644 Y63.341 E0.01062
G1 X102.982 Y63.341 E0.01062
G1 X103.442 Y63.431 E0.01469
G1 X103.767 Y63.561 E0.01098
G1 X104.160 Y63.816 E0.01468
G1 X104.412 Y64.059 E0.01098
G1 X104.823 Y64.642 E0.02236
G1 X104.923 Y63.897 E0.02358
G1 X105.034 Y63.424 E0.01522
G1 X105.258 Y62.762 E0.02193
G1 X105.456 Y62.319 E0.01522
G1 X105.802 Y61.711 E0.02193
G1 X106.081 Y61.314 E0.01522
G1 X106.540 Y60.778 E0.02211
G1 X107.058 Y60.299 E0.02211
G1 X107.445 Y60.004 E0.01525
G1 X108.038 Y59.636 E0.02190
G1 X108.468 Y59.423 E0.01504
G1 X108.913 Y59.244 E0.01504
G1 X109.589 Y59.044 E0.02211
G1 X110.353 Y58.911 E0.02431
G1 X110.368 Y58.808 E0.00326
M204 S1250
G1 E-2.24000 F2400.000
;WIPE_START
G1 F7200.000
G1 X110.301 Y58.712 E-0.03722
G1 X109.919 Y58.421 E-0.15191
G1 X109.614 Y58.051 E-0.15191
G1 X109.447 Y57.743 E-0.11088
G1 X109.306 Y57.296 E-0.14831
G1 X109.267 Y56.960 E-0.10728
G1 X109.280 Y56.621 E-0.10729
G1 X109.350 Y56.322 E-0.09719
;WIPE_END
G1 E-0.04800 F2400.000
G1 Z0.400 F9000.000
G1 X117.875 Y64.303
G1 Z0.200
G1 E3.20000 F1500.000
M204 S800
;TYPE:External perimeter
G1 F1200.000
G1 X118.174 Y64.037 E0.01254
G1 X118.409 Y63.897 E0.00858
G1 X118.663 Y63.794 E0.00858
G1 X119.052 Y63.719 E0.01241
G1 X119.329 Y63.719 E0.00871
G1 X119.722 Y63.795 E0.01254
G1 X120.087 Y63.959 E0.01254
G1 X120.311 Y64.116 E0.00858
G1 X120.508 Y64.306 E0.00858
G1 X120.738 Y64.633 E0.01254
G1 X120.888 Y65.004 E0.01254
G1 X120.940 Y65.277 E0.00871
G1 X120.940 Y65.673 E0.01241
G1 X120.888 Y65.945 E0.00871
G1 X120.738 Y66.316 E0.01254
G1 X120.508 Y66.643 E0.01254
G1 X120.308 Y66.836 E0.00871
G1 X119.976 Y67.051 E0.01241
G1 X119.718 Y67.155 E0.00871
G1 X119.325 Y67.231 E0.01254
G1 X118.926 Y67.216 E0.01254
G1 X118.655 Y67.152 E0.00871
G1 X118.294 Y66.990 E0.01241
G1 X118.067 Y66.831 E0.00871
G1 X117.790 Y66.543 E0.01254
G1 X117.583 Y66.195 E0.01267
G1 X117.462 Y65.814 E0.01254
G1 X117.431 Y65.542 E0.00858
G1 X117.441 Y65.269 E0.00858
G1 X117.532 Y64.883 E0.01241
G1 X117.645 Y64.630 E0.00871
G1 X117.841 Y64.352 E0.01066
M204 S1250
G1 X117.754 Y63.921 F9000.000
G1 E-2.24000 F2400.000
;WIPE_START
G1 F7200.000
G1 X118.174 Y64.037 E-0.14522
G1 X118.409 Y63.897 E-0.08665
G1 X118.663 Y63.794 E-0.08665
G1 X119.052 Y63.719 E-0.12537
G1 X119.329 Y63.719 E-0.08793
G1 X119.722 Y63.795 E-0.12666
G1 X120.087 Y63.959 E-0.12666
G1 X120.311 Y64.116 E-0.08665
G1 X120.402 Y64.204 E-0.04022
;WIPE_END
G1 E-0.04800 F2400.000
G1 Z0.400 F9000.000
G1 X112.524 Y71.902
G1 Z0.200
G1 E3.20000 F1500.000
M204 S800
G1 F1200.000
G1 X112.802 Y72.190 E0.01254
G1 X112.953 Y72.423 E0.00871
G1 X113.102 Y72.794 E0.01254
G1 X113.163 Y73.188 E0.01248
G1 X113.153 Y73.467 E0.00877
G1 X113.062 Y73.853 E0.01242
G1 X112.949 Y74.106 E0.00871
G1 X112.721 Y74.430 E0.01241
G1 X112.521 Y74.622 E0.00871
G1 X112.185 Y74.840 E0.01254
G1 X111.809 Y74.975 E0.01254
G1 X111.534 Y75.017 E0.00871
G1 X111.135 Y75.002 E0.01254
G1 X110.749 Y74.896 E0.01254
G1 X110.500 Y74.773 E0.00871
G1 X110.182 Y74.530 E0.01254
G1 X109.928 Y74.222 E0.01254
G1 X109.797 Y73.981 E0.00858
G1 X109.704 Y73.724 E0.00858
G1 X109.644 Y73.333 E0.01241
G1 X109.654 Y73.055 E0.00871
G1 X109.746 Y72.666 E0.01254
G1 X109.923 Y72.307 E0.01254
G1 X110.089 Y72.090 E0.00858
G1 X110.286 Y71.900 E0.00858
G1 X110.622 Y71.682 E0.01254
G1 X110.998 Y71.547 E0.01254
G1 X111.273 Y71.505 E0.00871
G1 X111.668 Y71.520 E0.01241
G1 X111.935 Y71.582 E0.00858
G1 X112.189 Y71.685 E0.00858
G1 X112.474 Y71.869 E0.01066
M204 S1250
G1 X112.901 Y71.767 F9000.000
G1 E-2.24000 F2400.000
;WIPE_START
G1 F7200.000
G1 X112.802 Y72.190 E-0.14522
G1 X112.953 Y72.423 E-0.08793
G1 X113.102 Y72.794 E-0.12665
G1 X113.163 Y73.188 E-0.12602
G1 X113.153 Y73.467 E-0.08854
G1 X113.062 Y73.853 E-0.12540
G1 X112.949 Y74.106 E-0.08793
G1 X112.723 Y74.427 E-0.12430
;WIPE_END
G1 E-0.04800 F2400.000
G1 Z0.400 F9000.000
G1 X104.465 Y66.069
G1 Z0.200
G1 E3.20000 F1500.000
M204 S800
G1 F1200.000
G1 X104.288 Y66.428 E0.01254
G1 X104.122 Y66.646 E0.00858
G1 X103.925 Y66.835 E0.00858
G1 X103.592 Y67.050 E0.01241
G1 X103.335 Y67.154 E0.00871
G1 X102.942 Y67.230 E0.01254
G1 X102.543 Y67.215 E0.01254
G1 X102.272 Y67.152 E0.00871
G1 X101.911 Y66.990 E0.01241
G1 X101.684 Y66.830 E0.00871
G1 X101.409 Y66.545 E0.01241
G1 X101.258 Y66.312 E0.00871
G1 X101.109 Y65.941 E0.01254
G1 X101.048 Y65.546 E0.01254
G1 X101.058 Y65.268 E0.00871
G1 X101.150 Y64.879 E0.01254
G1 X101.327 Y64.520 E0.01254
G1 X101.493 Y64.303 E0.00858
G1 X101.690 Y64.113 E0.00858
G1 X102.026 Y63.895 E0.01254
G1 X102.402 Y63.760 E0.01254
G1 X102.673 Y63.718 E0.00858
G1 X102.946 Y63.718 E0.00858
G1 X103.335 Y63.794 E0.01241
G1 X103.592 Y63.898 E0.00871
G1 X103.925 Y64.113 E0.01241
G1 X104.125 Y64.305 E0.00871
G1 X104.355 Y64.633 E0.01254
G1 X104.506 Y65.007 E0.01267
G1 X104.567 Y65.401 E0.01248
G1 X104.556 Y65.680 E0.00877
G1 X104.479 Y66.011 E0.01066
M204 S1250
G1 X104.720 Y66.378 F9000.000
G1 X105.256 Y65.954
M204 S800
G1 F1200.000
G1 X105.193 Y65.292 E0.02086
G1 X105.206 Y64.625 E0.02093
G1 X105.295 Y63.965 E0.02086
G1 X105.397 Y63.528 E0.01408
G1 X105.609 Y62.899 E0.02080
G1 X105.793 Y62.490 E0.01408
G1 X106.121 Y61.913 E0.02080
G1 X106.379 Y61.546 E0.01408
G1 X106.812 Y61.040 E0.02086
G1 X107.301 Y60.588 E0.02086
G1 X107.659 Y60.315 E0.01412
G1 X108.221 Y59.966 E0.02076
G1 X108.622 Y59.768 E0.01402
G1 X109.037 Y59.601 E0.01402
G1 X109.675 Y59.412 E0.02086
G1 X110.331 Y59.298 E0.02086
G1 X110.778 Y59.263 E0.01408
G1 X111.442 Y59.276 E0.02080
G1 X111.886 Y59.327 E0.01402
G1 X112.325 Y59.413 E0.01402
G1 X112.959 Y59.600 E0.02073
G1 X113.378 Y59.768 E0.01415
G1 X113.968 Y60.075 E0.02087
G1 X114.520 Y60.447 E0.02086
G1 X114.866 Y60.733 E0.01408
G1 X115.335 Y61.202 E0.02080
G1 X115.621 Y61.549 E0.01408
G1 X115.992 Y62.099 E0.02080
G1 X116.207 Y62.493 E0.01408
G1 X116.467 Y63.104 E0.02080
G1 X116.602 Y63.532 E0.01408
G1 X116.741 Y64.183 E0.02086
G1 X116.805 Y64.847 E0.02093
G1 X116.792 Y65.512 E0.02086
G1 X116.741 Y65.956 E0.01402
G1 X116.656 Y66.395 E0.01402
G1 X116.469 Y67.030 E0.02073
G1 X116.300 Y67.448 E0.01415
G1 X115.993 Y68.039 E0.02087
G1 X115.621 Y68.590 E0.02087
G1 X115.334 Y68.938 E0.01414
G1 X114.865 Y69.407 E0.02081
G1 X114.343 Y69.821 E0.02086
G1 X113.966 Y70.065 E0.01408
G1 X113.378 Y70.371 E0.02080
G1 X112.961 Y70.538 E0.01408
G1 X112.325 Y70.726 E0.02080
G1 X111.884 Y70.812 E0.01408
G1 X111.223 Y70.875 E0.02080
G1 X110.774 Y70.875 E0.01408
G1 X110.116 Y70.812 E0.02073
G1 X109.673 Y70.726 E0.01415
G1 X109.035 Y70.538 E0.02087
G1 X108.421 Y70.277 E0.02093
G1 X107.841 Y69.947 E0.02093
G1 X107.304 Y69.553 E0.02086
G1 X106.970 Y69.256 E0.01402
G1 X106.660 Y68.934 E0.01402
G1 X106.248 Y68.414 E0.02080
G1 X106.004 Y68.037 E0.01408
G1 X105.697 Y67.446 E0.02086
G1 X105.460 Y66.824 E0.02087
G1 X105.342 Y66.393 E0.01402
G1 X105.268 Y66.013 E0.01214
M204 S1250
G1 X104.885 Y65.805 F9000.000
G1 E-2.24000 F2400.000
;WIPE_START
G1 F7200.000
G1 X105.193 Y65.292 E-0.22964
G1 X105.206 Y64.625 E-0.21136
G1 X105.295 Y63.965 E-0.21071
G1 X105.397 Y63.528 E-0.14223
G1 X105.516 Y63.175 E-0.11805
;WIPE_END
G1 E-0.04800 F2400.000
G1 Z0.400 F9000.000
G1 X110.183 Y58.147
G1 Z0.200
G1 E3.20000 F1500.000
M204 S800
G1 F1200.000
G1 X109.928 Y57.839 E0.01254
G1 X109.795 Y57.595 E0.00871
G1 X109.676 Y57.217 E0.01241
G1 X109.645 Y56.945 E0.00858
G1 X109.655 Y56.672 E0.00858
G1 X109.745 Y56.287 E0.01241
G1 X109.859 Y56.033 E0.00871
G1 X110.087 Y55.709 E0.01241
G1 X110.287 Y55.517 E0.00871
G1 X110.622 Y55.299 E0.01254
G1 X110.999 Y55.164 E0.01254
G1 X111.269 Y55.122 E0.00858
G1 X111.543 Y55.122 E0.00858
G1 X111.932 Y55.198 E0.01241
G1 X112.189 Y55.302 E0.00871
G1 X112.521 Y55.517 E0.01241
G1 X112.721 Y55.709 E0.00871
G1 X112.952 Y56.036 E0.01254
G1 X113.103 Y56.411 E0.01267
G1 X113.164 Y56.804 E0.01248
G1 X113.153 Y57.084 E0.00877
G1 X113.062 Y57.473 E0.01254
G1 X112.884 Y57.832 E0.01254
G1 X112.719 Y58.049 E0.00858
G1 X112.521 Y58.239 E0.00858
G1 X112.186 Y58.457 E0.01254
G1 X111.809 Y58.592 E0.01254
G1 X111.535 Y58.634 E0.00871
G1 X111.135 Y58.619 E0.01254
G1 X110.749 Y58.513 E0.01254
G1 X110.501 Y58.390 E0.00871
G1 X110.230 Y58.184 E0.01066
M204 S1250
G1 X109.797 Y58.253 F9000.000
G1 E-2.24000 F2400.000
;WIPE_START
G1 F7200.000
G1 X109.928 Y57.839 E-0.14522
G1 X109.795 Y57.595 E-0.08793
G1 X109.676 Y57.217 E-0.12537
G1 X109.645 Y56.945 E-0.08665
G1 X109.655 Y56.672 E-0.08665
G1 X109.745 Y56.287 E-0.12537
G1 X109.859 Y56.033 E-0.08793
G1 X110.087 Y55.709 E-0.12537
G1 X110.181 Y55.618 E-0.04152
;WIPE_END
G1 E-0.04800 F2400.000
G1 Z0.400 F9000.000
G1 X104.286 Y55.449
G1 Z0.200
G1 E3.20000 F1500.000
M204 S800
;TYPE:Perimeter
G1 F1200.000
