; generated by PrusaSlicer 2.3.0+win64 on 2022-05-22 at 18:12:29 UTC


;
;

;
;
; 

; external perimeters extrusion width = 0.45mm
; perimeters extrusion width = 0.45mm
; infill extrusion width = 0.45mm
; solid infill extrusion width = 0.45mm
; top infill extrusion width = 0.40mm
; first layer extrusion width = 0.42mm

M73 P0 R37
M201 X1250 Y1250 Z400 E5000 ; sets maximum accelerations, mm/sec^2
M203 X180 Y180 Z12 E80 ; sets maximum feedrates, mm/sec
M204 P1250 R1250 T1250 ; sets acceleration (P, T) and retract acceleration (R), mm/sec^2
M205 X8.00 Y8.00 Z2.00 E10.00 ; sets the jerk limits, mm/sec
M205 S0 T0 ; sets the minimum extruding and travel feed rate, mm/sec
M107
;TYPE:Custom
G90 ; use absolute coordinates
M83 ; extruder relative mode
M104 S170 ; set extruder temp for bed leveling
M140 S85 ; set bed temp
M109 R170 ; wait for bed leveling temp
M190 S85 ; wait for bed temp
G28 ; home all without mesh bed level
G29 ; mesh bed leveling 
M104 S240 ; set extruder temp
G92 E0.0
G1 Y-2.0 X179 F2400
G1 Z3 F720
M109 S240 ; wait for extruder temp

; intro line
G1 X170 F1000
G1 Z0.2 F720
G1 X110.0 E8.0 F900
G1 X40.0 E10.0 F700
G92 E0.0

M221 S95 ; set flow
G21 ; set units to millimeters
G90 ; use absolute coordinates
M83 ; use relative distances for extrusion
M900 K0.2 ; Filament gcode
;LAYER_CHANGE
;Z:0.2
;HEIGHT:0.2
;BEFORE_LAYER_CHANGE
G92 E0.0
;0.2


M73 P0 R36
G1 E-3.20000 F2400.000
G1 Z0.200 F9000.000
;AFTER_LAYER_CHANGE
;0.2
G1 Z0.400
G1 X102.693 Y31.874
G1 Z0.200
G1 E3.20000 F1500.000
M204 S800
;TYPE:Skirt
;WIDTH:0.42
G1 F1200.000
G1 X103.223 Y31.295 E0.02461
G1 X103.899 Y30.925 E0.02414
G1 X104.657 Y30.791 E0.02414
G1 X144.691 Y30.791 E1.25526
G1 X145.519 Y30.941 E0.02637
G1 X146.243 Y31.370 E0.02637
G1 X146.771 Y32.024 E0.02637
G1 X147.039 Y32.821 E0.02637
G1 X147.064 Y43.236 E0.32656
G1 X146.962 Y43.858 E0.01977
G1 X146.699 Y44.435 E0.01989
G1 X146.300 Y44.914 E0.01952
G1 X122.150 Y67.216 E1.03069
G1 X121.277 Y67.945 E0.03568
G1 X120.039 Y68.804 E0.04722
G1 X118.744 Y69.522 E0.04642
G1 X117.366 Y70.114 E0.04704
G1 X116.239 Y70.482 E0.03718
G1 X114.805 Y70.813 E0.04614
G1 X113.312 Y71.002 E0.04718
G1 X111.817 Y71.040 E0.04691
G1 X110.315 Y70.926 E0.04722
G1 X108.837 Y70.663 E0.04706
G1 X107.398 Y70.252 E0.04694
G1 X106.006 Y69.699 E0.04696
G1 X104.697 Y69.021 E0.04623
G1 X103.697 Y68.384 E0.03716
G1 X102.515 Y67.471 E0.04682
M73 P1 R36
G1 X101.445 Y66.459 E0.04618
G1 X100.456 Y65.317 E0.04738
G1 X99.609 Y64.111 E0.04623
G1 X99.019 Y63.089 E0.03697
G1 X98.398 Y61.752 E0.04623
G1 X97.914 Y60.360 E0.04621
G1 X97.628 Y59.224 E0.03673
G1 X97.396 Y57.763 E0.04639
G1 X97.311 Y56.289 E0.04631
G1 X97.348 Y55.118 E0.03673
G1 X97.670 Y52.917 E0.06975
G1 X102.380 Y32.598 E0.65399
G1 X102.670 Y31.929 E0.02285
M204 S1250
; printing object ScrewFollower03 id:0 copy 0
G1 E-2.24000 F2400.000
;WIPE_START
G1 F7200.000
G1 X103.223 Y31.295 E-0.26657
G1 X103.899 Y30.925 E-0.24378
G1 X104.657 Y30.791 E-0.24378
G1 X105.155 Y30.791 E-0.15788
;WIPE_END
G1 E-0.04800 F2400.000
G1 Z0.400 F9000.000
G1 X111.565 Y49.847
G1 Z0.200
G1 E3.20000 F1500.000
M204 S800
;TYPE:Perimeter
G1 F1200.000
G1 X111.490 Y49.810 E0.00264
G1 X111.108 Y49.519 E0.01504
G1 X110.803 Y49.149 E0.01504
G1 X110.636 Y48.841 E0.01098
G1 X110.494 Y48.395 E0.01469
G1 X110.455 Y48.058 E0.01062
G1 X110.468 Y47.719 E0.01062
G1 X110.575 Y47.263 E0.01468
G1 X110.718 Y46.944 E0.01098
G1 X110.988 Y46.561 E0.01468
G1 X111.240 Y46.318 E0.01098
G1 X111.643 Y46.057 E0.01504
G1 X112.094 Y45.895 E0.01504
G1 X112.429 Y45.843 E0.01062
G1 X112.768 Y45.843 E0.01062
G1 X113.228 Y45.933 E0.01468
G1 X113.552 Y46.063 E0.01098
G1 X113.945 Y46.318 E0.01469
G1 X114.198 Y46.561 E0.01098
G1 X114.474 Y46.953 E0.01504
G1 X114.657 Y47.409 E0.01539
G1 X114.730 Y47.881 E0.01497
G1 X114.717 Y48.232 E0.01104
G1 X114.608 Y48.700 E0.01505
G1 X114.395 Y49.130 E0.01504
G1 X114.190 Y49.399 E0.01062
G1 X113.945 Y49.634 E0.01062
G1 X113.543 Y49.895 E0.01504
G1 X113.420 Y49.939 E0.00409
G1 X113.433 Y50.111 E0.00541
G1 X113.603 Y50.144 E0.00542
G1 X114.272 Y50.341 E0.02187
G1 X114.724 Y50.524 E0.01528
G1 X115.350 Y50.849 E0.02211
G1 X115.934 Y51.243 E0.02211
G1 X116.309 Y51.552 E0.01522
G1 X116.803 Y52.047 E0.02193
G1 X117.112 Y52.421 E0.01522
G1 X117.504 Y53.001 E0.02193
G1 X117.735 Y53.427 E0.01522
G1 X118.009 Y54.071 E0.02193
G1 X118.156 Y54.533 E0.01522
G1 X118.303 Y55.223 E0.02211
G1 X118.354 Y55.754 E0.01674
G1 X118.781 Y55.148 E0.02324
G1 X119.139 Y54.829 E0.01504
G1 X119.430 Y54.656 E0.01062
G1 X119.744 Y54.529 E0.01062
G1 X120.204 Y54.440 E0.01469
G1 X120.554 Y54.440 E0.01098
G1 X121.025 Y54.531 E0.01504
G1 X121.463 Y54.728 E0.01504
G1 X121.740 Y54.923 E0.01062
G1 X121.984 Y55.157 E0.01062
G1 X122.260 Y55.550 E0.01504
G1 X122.439 Y55.995 E0.01504
G1 X122.506 Y56.339 E0.01098
G1 X122.506 Y56.807 E0.01468
G1 X122.439 Y57.151 E0.01098
G1 X122.260 Y57.596 E0.01504
G1 X121.984 Y57.988 E0.01504
G1 X121.732 Y58.231 E0.01098
G1 X121.339 Y58.485 E0.01469
G1 X121.014 Y58.616 E0.01098
G1 X120.543 Y58.708 E0.01504
G1 X120.064 Y58.689 E0.01504
G1 X119.723 Y58.609 E0.01098
G1 X119.295 Y58.418 E0.01468
G1 X119.009 Y58.216 E0.01098
G1 X118.676 Y57.871 E0.01504
G1 X118.284 Y57.210 E0.02410
G1 X118.211 Y57.583 E0.01191
G1 X118.014 Y58.252 E0.02187
G1 X117.832 Y58.704 E0.01528
G1 X117.507 Y59.330 E0.02211
G1 X117.112 Y59.914 E0.02211
G1 X116.802 Y60.290 E0.01527
G1 X116.305 Y60.787 E0.02205
G1 X115.752 Y61.226 E0.02211
G1 X115.345 Y61.489 E0.01522
G1 X114.724 Y61.812 E0.02193
G1 X114.274 Y61.993 E0.01522
G1 X113.603 Y62.191 E0.02193
G1 X113.434 Y62.224 E0.00541
G1 X113.418 Y62.392 E0.00530
G1 X113.552 Y62.447 E0.00454
G1 X113.954 Y62.707 E0.01504
G1 X114.287 Y63.053 E0.01504
G1 X114.477 Y63.347 E0.01098
G1 X114.657 Y63.792 E0.01504
G1 X114.730 Y64.264 E0.01497
G1 X114.717 Y64.616 E0.01104
G1 X114.610 Y65.072 E0.01469
G1 X114.467 Y65.391 E0.01098
G1 X114.197 Y65.774 E0.01469
G1 X113.945 Y66.017 E0.01098
G1 X113.542 Y66.278 E0.01504
G1 X113.091 Y66.440 E0.01504
G1 X112.745 Y66.494 E0.01098
G1 X112.265 Y66.475 E0.01504
G1 X111.803 Y66.348 E0.01504
G1 X111.489 Y66.193 E0.01098
G1 X111.107 Y65.902 E0.01504
G1 X110.802 Y65.532 E0.01504
G1 X110.640 Y65.234 E0.01062
G1 X110.526 Y64.915 E0.01062
G1 X110.454 Y64.452 E0.01468
G1 X110.468 Y64.103 E0.01098
G1 X110.577 Y63.635 E0.01504
G1 X110.790 Y63.206 E0.01504
G1 X110.995 Y62.936 E0.01062
G1 X111.239 Y62.701 E0.01062
G1 X111.597 Y62.470 E0.01335
G1 X111.559 Y62.314 E0.00504
G1 X111.251 Y62.284 E0.00970
G1 X110.772 Y62.191 E0.01528
G1 X110.096 Y61.991 E0.02211
G1 X109.442 Y61.713 E0.02229
G1 X108.824 Y61.362 E0.02229
G1 X108.255 Y60.945 E0.02211
G1 X107.897 Y60.626 E0.01504
G1 X107.564 Y60.280 E0.01504
G1 X107.130 Y59.732 E0.02193
G1 X106.866 Y59.325 E0.01522
G1 X106.541 Y58.699 E0.02211
G1 X106.290 Y58.040 E0.02211
G1 X106.129 Y57.404 E0.02056
G1 X105.968 Y57.382 E0.00509
G1 X105.798 Y57.726 E0.01201
G1 X105.593 Y57.995 E0.01062
G1 X105.349 Y58.230 E0.01062
G1 X104.956 Y58.485 E0.01468
G1 X104.631 Y58.616 E0.01098
G1 X104.160 Y58.707 E0.01504
G1 X103.681 Y58.689 E0.01504
G1 X103.340 Y58.609 E0.01098
G1 X102.912 Y58.417 E0.01469
G1 X102.626 Y58.216 E0.01098
G1 X102.301 Y57.878 E0.01468
G1 X102.111 Y57.584 E0.01098
G1 X101.931 Y57.140 E0.01504
G1 X101.858 Y56.665 E0.01504
G1 X101.872 Y56.316 E0.01098
G1 X101.981 Y55.848 E0.01504
G1 X102.194 Y55.419 E0.01504
G1 X102.399 Y55.149 E0.01062
G1 X102.643 Y54.914 E0.01062
G1 X103.046 Y54.653 E0.01504
G1 X103.497 Y54.491 E0.01504
G1 X103.832 Y54.439 E0.01062
G1 X104.171 Y54.439 E0.01062
G1 X104.631 Y54.529 E0.01469
G1 X104.956 Y54.660 E0.01098
G1 X105.349 Y54.914 E0.01468
G1 X105.601 Y55.157 E0.01098
G1 X106.011 Y55.740 E0.02236
G1 X106.112 Y54.995 E0.02358
G1 X106.223 Y54.523 E0.01522
G1 X106.446 Y53.860 E0.02193
G1 X106.645 Y53.417 E0.01522
G1 X106.991 Y52.809 E0.02193
G1 X107.270 Y52.412 E0.01522
G1 X107.729 Y51.877 E0.02211
G1 X108.246 Y51.397 E0.02211
G1 X108.633 Y51.103 E0.01525
G1 X109.227 Y50.734 E0.02190
G1 X109.656 Y50.521 E0.01504
G1 X110.101 Y50.342 E0.01504
G1 X110.778 Y50.142 E0.02211
G1 X111.541 Y50.009 E0.02431
G1 X111.556 Y49.906 E0.00326
M204 S1250
G1 E-2.24000 F2400.000
;WIPE_START
G1 F7200.000
G1 X111.490 Y49.810 E-0.03722
G1 X111.108 Y49.519 E-0.15191
G1 X110.803 Y49.149 E-0.15191
G1 X110.636 Y48.841 E-0.11088
G1 X110.494 Y48.395 E-0.14831
G1 X110.455 Y48.058 E-0.10728
G1 X110.468 Y47.719 E-0.10729
G1 X110.538 Y47.421 E-0.09719
;WIPE_END
G1 E-0.04800 F2400.000
G1 Z0.400 F9000.000
G1 X119.064 Y55.401
G1 Z0.200
G1 E3.20000 F1500.000
M204 S800
;TYPE:External perimeter
G1 F1200.000
G1 X119.363 Y55.135 E0.01254
G1 X119.598 Y54.995 E0.00858
G1 X119.852 Y54.893 E0.00858
G1 X120.240 Y54.817 E0.01241
G1 X120.518 Y54.817 E0.00871
G1 X120.911 Y54.893 E0.01254
G1 X121.276 Y55.057 E0.01254
G1 X121.499 Y55.214 E0.00858
G1 X121.697 Y55.404 E0.00858
G1 X121.927 Y55.731 E0.01254
G1 X122.076 Y56.102 E0.01254
G1 X122.129 Y56.375 E0.00871
G1 X122.129 Y56.771 E0.01241
G1 X122.076 Y57.043 E0.00871
G1 X121.927 Y57.414 E0.01254
G1 X121.697 Y57.741 E0.01254
G1 X121.496 Y57.934 E0.00871
G1 X121.164 Y58.149 E0.01241
G1 X120.907 Y58.253 E0.00871
G1 X120.514 Y58.329 E0.01254
G1 X120.114 Y58.314 E0.01254
G1 X119.844 Y58.251 E0.00871
G1 X119.483 Y58.089 E0.01241
G1 X119.256 Y57.929 E0.00871
G1 X118.978 Y57.641 E0.01254
G1 X118.772 Y57.293 E0.01267
G1 X118.651 Y56.912 E0.01254
G1 X118.620 Y56.640 E0.00858
G1 X118.630 Y56.367 E0.00858
G1 X118.720 Y55.981 E0.01241
G1 X118.834 Y55.728 E0.00871
G1 X119.030 Y55.450 E0.01066
M204 S1250
G1 X118.943 Y55.019 F9000.000
G1 E-2.24000 F2400.000
;WIPE_START
G1 F7200.000
G1 X119.363 Y55.135 E-0.14522
G1 X119.598 Y54.995 E-0.08665
G1 X119.852 Y54.893 E-0.08665
G1 X120.240 Y54.817 E-0.12537
G1 X120.518 Y54.817 E-0.08793
G1 X120.911 Y54.893 E-0.12666
G1 X121.276 Y55.057 E-0.12666
G1 X121.499 Y55.214 E-0.08665
G1 X121.591 Y55.302 E-0.04022
;WIPE_END
G1 E-0.04800 F2400.000
G1 Z0.400 F9000.000
G1 X113.713 Y63.000
G1 Z0.200
G1 E3.20000 F1500.000
M204 S800
G1 F1200.000
G1 X113.990 Y63.288 E0.01254
G1 X114.141 Y63.521 E0.00871
G1 X114.291 Y63.892 E0.01254
G1 X114.352 Y64.286 E0.01248
G1 X114.341 Y64.565 E0.00877
G1 X114.251 Y64.951 E0.01242
G1 X114.137 Y65.204 E0.00871
G1 X113.910 Y65.528 E0.01241
G1 X113.710 Y65.720 E0.00871
G1 X113.374 Y65.938 E0.01254
G1 X112.997 Y66.073 E0.01254
G1 X112.723 Y66.115 E0.00871
G1 X112.323 Y66.100 E0.01254
G1 X111.938 Y65.994 E0.01254
G1 X111.689 Y65.871 E0.00871
G1 X111.371 Y65.628 E0.01254
G1 X111.116 Y65.320 E0.01254
G1 X110.985 Y65.079 E0.00858
G1 X110.893 Y64.822 E0.00858
G1 X110.833 Y64.431 E0.01241
G1 X110.843 Y64.153 E0.00871
G1 X110.934 Y63.764 E0.01254
G1 X111.112 Y63.405 E0.01254
G1 X111.278 Y63.188 E0.00858
G1 X111.475 Y62.998 E0.00858
G1 X111.811 Y62.781 E0.01254
G1 X112.187 Y62.645 E0.01254
G1 X112.461 Y62.603 E0.00871
G1 X112.857 Y62.618 E0.01241
G1 X113.123 Y62.680 E0.00858
G1 X113.377 Y62.783 E0.00858
G1 X113.663 Y62.968 E0.01066
M204 S1250
G1 X114.089 Y62.865 F9000.000
G1 E-2.24000 F2400.000
;WIPE_START
G1 F7200.000
G1 X113.990 Y63.288 E-0.14522
G1 X114.141 Y63.521 E-0.08793
G1 X114.291 Y63.892 E-0.12665
G1 X114.352 Y64.286 E-0.12602
G1 X114.341 Y64.565 E-0.08854
G1 X114.251 Y64.951 E-0.12540
G1 X114.137 Y65.204 E-0.08793
G1 X113.912 Y65.525 E-0.12430
;WIPE_END
G1 E-0.04800 F2400.000
G1 Z0.400 F9000.000
G1 X105.654 Y57.168
G1 Z0.200
G1 E3.20000 F1500.000
M204 S800
G1 F1200.000
G1 X105.476 Y57.526 E0.01254
G1 X105.311 Y57.744 E0.00858
G1 X105.113 Y57.933 E0.00858
G1 X104.781 Y58.149 E0.01241
G1 X104.524 Y58.252 E0.00871
G1 X104.131 Y58.329 E0.01254
G1 X103.731 Y58.313 E0.01254
G1 X103.461 Y58.250 E0.00871
G1 X103.100 Y58.088 E0.01241
G1 X102.872 Y57.928 E0.00871
G1 X102.598 Y57.643 E0.01241
G1 X102.447 Y57.410 E0.00871
G1 X102.297 Y57.039 E0.01254
G1 X102.236 Y56.644 E0.01254
G1 X102.247 Y56.366 E0.00871
G1 X102.338 Y55.977 E0.01254
G1 X102.516 Y55.618 E0.01254
G1 X102.682 Y55.401 E0.00858
G1 X102.879 Y55.211 E0.00858
G1 X103.214 Y54.994 E0.01254
G1 X103.591 Y54.858 E0.01254
G1 X103.861 Y54.817 E0.00858
G1 X104.135 Y54.817 E0.00858
G1 X104.524 Y54.892 E0.01241
G1 X104.781 Y54.996 E0.00871
G1 X105.113 Y55.211 E0.01241
G1 X105.313 Y55.403 E0.00871
G1 X105.544 Y55.731 E0.01254
G1 X105.695 Y56.105 E0.01267
G1 X105.756 Y56.499 E0.01248
G1 X105.745 Y56.778 E0.00877
G1 X105.668 Y57.109 E0.01066
M204 S1250
G1 X105.909 Y57.476 F9000.000
G1 X106.445 Y57.053
M204 S800
G1 F1200.000
G1 X106.381 Y56.390 E0.02086
G1 X106.394 Y55.723 E0.02093
G1 X106.483 Y55.063 E0.02086
G1 X106.586 Y54.626 E0.01408
G1 X106.798 Y53.997 E0.02080
G1 X106.982 Y53.588 E0.01408
G1 X107.310 Y53.011 E0.02080
G1 X107.568 Y52.644 E0.01408
G1 X108.001 Y52.138 E0.02086
G1 X108.489 Y51.686 E0.02086
G1 X108.847 Y51.413 E0.01412
G1 X109.410 Y51.064 E0.02076
G1 X109.811 Y50.866 E0.01402
G1 X110.226 Y50.699 E0.01402
G1 X110.864 Y50.510 E0.02086
G1 X111.519 Y50.396 E0.02086
G1 X111.967 Y50.362 E0.01408
G1 X112.630 Y50.374 E0.02080
G1 X113.075 Y50.426 E0.01402
G1 X113.513 Y50.511 E0.01402
G1 X114.148 Y50.698 E0.02073
G1 X114.566 Y50.867 E0.01415
G1 X115.157 Y51.173 E0.02087
G1 X115.708 Y51.546 E0.02086
G1 X116.055 Y51.831 E0.01408
G1 X116.524 Y52.300 E0.02080
G1 X116.810 Y52.647 E0.01408
G1 X117.181 Y53.197 E0.02080
G1 X117.395 Y53.591 E0.01408
G1 X117.655 Y54.202 E0.02080
G1 X117.791 Y54.630 E0.01408
G1 X117.930 Y55.281 E0.02086
G1 X117.994 Y55.945 E0.02093
G1 X117.981 Y56.610 E0.02086
G1 X117.930 Y57.055 E0.01402
G1 X117.845 Y57.493 E0.01402
G1 X117.657 Y58.128 E0.02073
G1 X117.489 Y58.546 E0.01415
G1 X117.182 Y59.137 E0.02087
G1 X116.810 Y59.688 E0.02087
G1 X116.523 Y60.036 E0.01414
G1 X116.053 Y60.505 E0.02081
G1 X115.532 Y60.919 E0.02086
G1 X115.155 Y61.163 E0.01408
G1 X114.566 Y61.469 E0.02080
G1 X114.150 Y61.637 E0.01408
G1 X113.513 Y61.825 E0.02080
G1 X113.073 Y61.910 E0.01408
G1 X112.412 Y61.974 E0.02080
G1 X111.963 Y61.974 E0.01408
G1 X111.305 Y61.910 E0.02073
G1 X110.862 Y61.825 E0.01415
G1 X110.224 Y61.636 E0.02087
G1 X109.609 Y61.375 E0.02093
G1 X109.029 Y61.045 E0.02093
G1 X108.492 Y60.651 E0.02086
G1 X108.159 Y60.354 E0.01402
G1 X107.849 Y60.032 E0.01402
G1 X107.436 Y59.512 E0.02080
G1 X107.192 Y59.135 E0.01408
G1 X106.886 Y58.544 E0.02086
G1 X106.649 Y57.923 E0.02087
G1 X106.530 Y57.491 E0.01402
G1 X106.457 Y57.111 E0.01214
M204 S1250
G1 X106.074 Y56.903 F9000.000
G1 E-2.24000 F2400.000
;WIPE_START
G1 F7200.000
G1 X106.381 Y56.390 E-0.22964
G1 X106.394 Y55.723 E-0.21136
G1 X106.483 Y55.063 E-0.21071
G1 X106.586 Y54.626 E-0.14223
G1 X106.705 Y54.273 E-0.11805
;WIPE_END
G1 E-0.04800 F2400.000
G1 Z0.400 F9000.000
G1 X111.371 Y49.245
G1 Z0.200
G1 E3.20000 F1500.000
M204 S800
G1 F1200.000
G1 X111.117 Y48.937 E0.01254
G1 X110.984 Y48.693 E0.00871
G1 X110.865 Y48.315 E0.01241
G1 X110.833 Y48.044 E0.00858
G1 X110.844 Y47.770 E0.00858
G1 X110.934 Y47.385 E0.01241
G1 X111.048 Y47.131 E0.00871
G1 X111.275 Y46.807 E0.01241
G1 X111.475 Y46.615 E0.00871
G1 X111.811 Y46.397 E0.01254
G1 X112.188 Y46.262 E0.01254
G1 X112.458 Y46.220 E0.00858
G1 X112.732 Y46.220 E0.00858
G1 X113.120 Y46.296 E0.01241
G1 X113.378 Y46.400 E0.00871
G1 X113.710 Y46.615 E0.01241
G1 X113.910 Y46.807 E0.00871
G1 X114.140 Y47.135 E0.01254
G1 X114.291 Y47.509 E0.01267
G1 X114.352 Y47.903 E0.01248
G1 X114.342 Y48.182 E0.00877
G1 X114.251 Y48.571 E0.01254
G1 X114.073 Y48.930 E0.01254
G1 X113.907 Y49.148 E0.00858
G1 X113.710 Y49.337 E0.00858
G1 X113.374 Y49.555 E0.01254
G1 X112.998 Y49.690 E0.01254
G1 X112.724 Y49.732 E0.00871
G1 X112.324 Y49.717 E0.01254
G1 X111.938 Y49.611 E0.01254
G1 X111.689 Y49.488 E0.00871
G1 X111.419 Y49.282 E0.01066
M204 S1250
G1 X110.986 Y49.352 F9000.000
G1 E-2.24000 F2400.000
;WIPE_START
G1 F7200.000
G1 X111.117 Y48.937 E-0.14522
G1 X110.984 Y48.693 E-0.08793
G1 X110.865 Y48.315 E-0.12537
G1 X110.833 Y48.044 E-0.08665
G1 X110.844 Y47.770 E-0.08665
G1 X110.934 Y47.385 E-0.12537
G1 X111.048 Y47.131 E-0.08793
G1 X111.275 Y46.807 E-0.12537
G1 X111.370 Y46.716 E-0.04152
;WIPE_END
G1 E-0.04800 F2400.000
G1 Z0.400 F9000.000
G1 X105.475 Y46.547
G1 Z0.200
G1 E3.20000 F1500.000
M204 S800
;TYPE:Perimeter
G1 F1200.000
