; generated by PrusaSlicer 2.3.0+win64 on 2022-05-22 at 16:11:45 UTC


;
;

;
;
; 

; external perimeters extrusion width = 0.45mm
; perimeters extrusion width = 0.45mm
; infill extrusion width = 0.45mm
; solid infill extrusion width = 0.45mm
; top infill extrusion width = 0.40mm
; first layer extrusion width = 0.42mm

M73 P0 R14
M201 X1250 Y1250 Z400 E5000 ; sets maximum accelerations, mm/sec^2
M203 X180 Y180 Z12 E80 ; sets maximum feedrates, mm/sec
M204 P1250 R1250 T1250 ; sets acceleration (P, T) and retract acceleration (R), mm/sec^2
M205 X8.00 Y8.00 Z2.00 E10.00 ; sets the jerk limits, mm/sec
M205 S0 T0 ; sets the minimum extruding and travel feed rate, mm/sec
M107
;TYPE:Custom
G90 ; use absolute coordinates
M83 ; extruder relative mode
M104 S170 ; set extruder temp for bed leveling
M140 S85 ; set bed temp
M109 R170 ; wait for bed leveling temp
M190 S85 ; wait for bed temp
G28 ; home all without mesh bed level
G29 ; mesh bed leveling 
M104 S240 ; set extruder temp
G92 E0.0
G1 Y-2.0 X179 F2400
G1 Z3 F720
M109 S240 ; wait for extruder temp

; intro line
G1 X170 F1000
G1 Z0.2 F720
G1 X110.0 E8.0 F900
M73 P1 R14
G1 X40.0 E10.0 F700
G92 E0.0

M221 S95 ; set flow
G21 ; set units to millimeters
G90 ; use absolute coordinates
M83 ; use relative distances for extrusion
M900 K0.2 ; Filament gcode
;LAYER_CHANGE
;Z:0.2
;HEIGHT:0.2
;BEFORE_LAYER_CHANGE
G92 E0.0
;0.2


G1 E-3.20000 F2400.000
G1 Z0.200 F9000.000
;AFTER_LAYER_CHANGE
;0.2
G1 Z0.400
G1 X55.131 Y84.955
G1 Z0.200
G1 E3.20000 F1500.000
M204 S800
;TYPE:Skirt
;WIDTH:0.42
G1 F1200.000
G1 X54.344 Y84.397 E0.03024
G1 X54.014 Y83.947 E0.01752
G1 X53.798 Y83.432 E0.01752
G1 X48.991 Y65.676 E0.57676
M73 P2 R14
G1 X48.769 Y64.152 E0.04828
G1 X48.713 Y62.310 E0.05777
G1 X48.840 Y60.781 E0.04810
G1 X49.194 Y58.996 E0.05706
G1 X49.946 Y56.829 E0.07192
G1 X50.587 Y55.536 E0.04525
G1 X51.187 Y54.550 E0.03619
G1 X51.866 Y53.609 E0.03641
G1 X52.790 Y52.538 E0.04433
G1 X54.505 Y50.990 E0.07244
G1 X55.440 Y50.326 E0.03594
G1 X56.695 Y49.590 E0.04564
G1 X58.790 Y48.692 E0.07145
G1 X59.885 Y48.366 E0.03583
G1 X61.309 Y48.074 E0.04557
G1 X63.587 Y47.899 E0.07163
G1 X65.827 Y48.070 E0.07044
G1 X68.016 Y48.575 E0.07044
G1 X70.107 Y49.406 E0.07055
G1 X72.035 Y50.533 E0.07002
G1 X97.822 Y71.156 E1.03530
G1 X98.270 Y71.846 E0.02579
G1 X98.456 Y72.647 E0.02579
G1 X98.460 Y82.795 E0.31821
G1 X98.258 Y83.735 E0.03013
G1 X97.704 Y84.515 E0.03001
G1 X96.972 Y84.981 E0.02720
G1 X96.118 Y85.153 E0.02731
G1 X56.075 Y85.154 E1.25552
G1 X55.190 Y84.967 E0.02836
M204 S1250
; printing object ScrewFollower01 id:0 copy 0
G1 E-2.24000 F2400.000
;WIPE_START
G1 F7200.000
G1 X54.344 Y84.397 E-0.32297
G1 X54.014 Y83.947 E-0.17690
G1 X53.798 Y83.432 E-0.17690
G1 X53.604 Y82.715 E-0.23523
;WIPE_END
G1 E-0.04800 F2400.000
G1 Z0.400 F9000.000
G1 X72.264 Y63.814
G1 Z0.200
G1 E3.20000 F1500.000
M204 S800
;TYPE:External perimeter
G1 F1200.000
G1 X72.050 Y63.638 E0.00870
G1 X71.805 Y63.342 E0.01205
G1 X71.666 Y63.089 E0.00906
G1 X71.546 Y62.711 E0.01243
G1 X71.515 Y62.439 E0.00858
G1 X71.525 Y62.165 E0.00858
G1 X71.616 Y61.776 E0.01253
G1 X71.788 Y61.428 E0.01218
G1 X71.959 Y61.200 E0.00893
G1 X72.157 Y61.010 E0.00860
G1 X72.493 Y60.793 E0.01254
M73 P2 R13
G1 X72.873 Y60.656 E0.01266
G1 X73.258 Y60.611 E0.01218
G1 X73.547 Y60.631 E0.00906
G1 X73.933 Y60.737 E0.01256
G1 X74.284 Y60.929 E0.01254
G1 X74.495 Y61.103 E0.00858
G1 X74.677 Y61.307 E0.00858
G1 X74.882 Y61.651 E0.01254
G1 X75.003 Y62.034 E0.01261
G1 X75.035 Y62.371 E0.01062
G1 X75.003 Y62.709 E0.01062
G1 X74.882 Y63.092 E0.01261
G1 X74.677 Y63.436 E0.01254
G1 X74.495 Y63.640 E0.00858
G1 X74.284 Y63.814 E0.00858
G1 X73.936 Y64.003 E0.01241
G1 X73.672 Y64.087 E0.00871
G1 X73.274 Y64.133 E0.01254
G1 X72.877 Y64.087 E0.01254
G1 X72.612 Y64.003 E0.00871
G1 X72.317 Y63.843 E0.01053
M204 S1250
G1 X72.014 Y63.934 F9000.000
M73 P3 R13
G1 E-2.24000 F2400.000
;WIPE_START
G1 F7200.000
G1 X72.050 Y63.638 E-0.10656
G1 X71.805 Y63.342 E-0.12169
G1 X71.666 Y63.089 E-0.09151
G1 X71.546 Y62.711 E-0.12554
G1 X71.515 Y62.439 E-0.08665
G1 X71.525 Y62.165 E-0.08665
G1 X71.616 Y61.776 E-0.12657
G1 X71.788 Y61.428 E-0.12298
G1 X71.871 Y61.317 E-0.04385
;WIPE_END
G1 E-0.04800 F2400.000
G1 Z0.400 F9000.000
G1 X65.206 Y54.356
G1 Z0.200
G1 E3.20000 F1500.000
M204 S800
G1 F1200.000
G1 X64.901 Y54.590 E0.01205
G1 X64.646 Y54.718 E0.00893
G1 X64.385 Y54.801 E0.00860
G1 X63.987 Y54.846 E0.01254
G1 X63.590 Y54.801 E0.01254
G1 X63.325 Y54.717 E0.00871
G1 X62.977 Y54.528 E0.01241
G1 X62.763 Y54.351 E0.00870
G1 X62.518 Y54.055 E0.01205
G1 X62.381 Y53.806 E0.00893
G1 X62.288 Y53.548 E0.00860
G1 X62.228 Y53.156 E0.01241
G1 X62.238 Y52.879 E0.00871
G1 X62.329 Y52.490 E0.01253
G1 X62.501 Y52.141 E0.01218
G1 X62.675 Y51.911 E0.00906
G1 X62.971 Y51.647 E0.01243
G1 X63.209 Y51.505 E0.00871
G1 X63.586 Y51.370 E0.01253
G1 X63.971 Y51.324 E0.01218
G1 X64.260 Y51.345 E0.00906
G1 X64.645 Y51.451 E0.01255
G1 X64.987 Y51.636 E0.01218
G1 X65.208 Y51.816 E0.00893
G1 X65.390 Y52.020 E0.00860
G1 X65.595 Y52.364 E0.01254
G1 X65.716 Y52.748 E0.01261
G1 X65.748 Y53.085 E0.01062
G1 X65.716 Y53.422 E0.01062
G1 X65.595 Y53.805 E0.01261
G1 X65.390 Y54.149 E0.01254
G1 X65.246 Y54.312 E0.00682
M204 S1250
G1 X65.294 Y54.730 F9000.000
G1 E-2.24000 F2400.000
;WIPE_START
G1 F7200.000
G1 X64.901 Y54.590 E-0.14040
G1 X64.646 Y54.718 E-0.09023
G1 X64.385 Y54.801 E-0.08682
G1 X63.987 Y54.846 E-0.12666
G1 X63.590 Y54.801 E-0.12666
G1 X63.325 Y54.717 E-0.08793
G1 X62.977 Y54.528 E-0.12537
G1 X62.763 Y54.351 E-0.08785
G1 X62.683 Y54.254 E-0.04009
;WIPE_END
G1 E-0.04800 F2400.000
G1 Z0.400 F9000.000
G1 X63.499 Y70.383
G1 Z0.200
G1 E3.20000 F1500.000
M204 S800
;TYPE:Perimeter
G1 F1200.000
G1 X63.963 Y70.329 E0.01465
G1 X64.324 Y70.355 E0.01135
G1 X64.787 Y70.482 E0.01507
G1 X65.198 Y70.704 E0.01465
G1 X65.478 Y70.932 E0.01132
G1 X65.770 Y71.284 E0.01434
G1 X65.945 Y71.601 E0.01135
G1 X66.088 Y72.055 E0.01491
G1 X66.128 Y72.468 E0.01301
G1 X66.088 Y72.881 E0.01301
G1 X65.945 Y73.333 E0.01487
G1 X65.778 Y73.641 E0.01098
G1 X65.473 Y74.010 E0.01502
G1 X65.102 Y74.294 E0.01465
G1 X64.789 Y74.451 E0.01099
G1 X64.464 Y74.554 E0.01067
G1 X63.988 Y74.609 E0.01504
G1 X63.511 Y74.554 E0.01504
G1 X63.188 Y74.452 E0.01062
G1 X62.885 Y74.302 E0.01062
G1 X62.512 Y74.018 E0.01469
G1 X62.279 Y73.756 E0.01098
G1 X62.034 Y73.344 E0.01504
G1 X61.889 Y72.886 E0.01504
G1 X61.849 Y72.539 E0.01098
G1 X61.885 Y72.072 E0.01469
G1 X61.975 Y71.745 E0.01062
G1 X62.113 Y71.436 E0.01062
G1 X62.389 Y71.044 E0.01502
G1 X62.737 Y70.732 E0.01465
G1 X63.047 Y70.546 E0.01135
G1 X63.443 Y70.404 E0.01319
M204 S1250
G1 X63.570 Y70.759 F9000.000
M204 S800
;TYPE:External perimeter
G1 F1200.000
G1 X63.972 Y70.707 E0.01269
G1 X64.260 Y70.728 E0.00906
G1 X64.646 Y70.834 E0.01255
G1 X64.988 Y71.019 E0.01218
G1 X65.211 Y71.201 E0.00905
G1 X65.457 Y71.498 E0.01207
G1 X65.596 Y71.751 E0.00906
G1 X65.717 Y72.131 E0.01250
G1 X65.749 Y72.468 E0.01062
G1 X65.717 Y72.805 E0.01062
G1 X65.596 Y73.185 E0.01248
G1 X65.464 Y73.429 E0.00871
G1 X65.209 Y73.737 E0.01253
G1 X64.901 Y73.973 E0.01218
G1 X64.647 Y74.101 E0.00893
G1 X64.385 Y74.184 E0.00860
G1 X63.988 Y74.230 E0.01254
G1 X63.590 Y74.184 E0.01254
G1 X63.330 Y74.101 E0.00858
G1 X63.084 Y73.980 E0.00858
G1 X62.770 Y73.740 E0.01241
G1 X62.585 Y73.532 E0.00871
G1 X62.380 Y73.189 E0.01254
G1 X62.260 Y72.807 E0.01254
G1 X62.228 Y72.531 E0.00871
G1 X62.258 Y72.137 E0.01241
G1 X62.331 Y71.873 E0.00858
G1 X62.443 Y71.623 E0.00858
G1 X62.673 Y71.296 E0.01253
G1 X62.962 Y71.037 E0.01218
G1 X63.209 Y70.888 E0.00906
G1 X63.514 Y70.779 E0.01014
M204 S1250
G1 X63.687 Y70.376 F9000.000
G1 E-2.24000 F2400.000
;WIPE_START
G1 F7200.000
G1 X63.972 Y70.707 E-0.14682
G1 X64.260 Y70.728 E-0.09151
G1 X64.646 Y70.834 E-0.12675
G1 X64.988 Y71.019 E-0.12298
G1 X65.211 Y71.201 E-0.09142
G1 X65.457 Y71.498 E-0.12187
G1 X65.596 Y71.751 E-0.09151
G1 X65.710 Y72.109 E-0.11915
;WIPE_END
G1 E-0.04800 F2400.000
G1 Z0.400 F9000.000
G1 X63.583 Y68.965
G1 Z0.200
G1 E3.20000 F1500.000
M204 S800
;TYPE:Perimeter
G1 F1200.000
G1 X62.879 Y68.924 E0.02211
G1 X62.405 Y68.851 E0.01504
G1 X61.938 Y68.742 E0.01504
G1 X61.270 Y68.516 E0.02211
G1 X60.642 Y68.220 E0.02176
G1 X60.215 Y67.967 E0.01556
G1 X59.646 Y67.550 E0.02212
G1 X59.124 Y67.067 E0.02229
G1 X58.665 Y66.532 E0.02211
G1 X58.386 Y66.135 E0.01522
G1 X58.040 Y65.527 E0.02193
G1 X57.844 Y65.089 E0.01504
G1 X57.682 Y64.638 E0.01504
G1 X57.508 Y63.955 E0.02211
G1 X57.414 Y63.256 E0.02211
G1 X57.395 Y62.776 E0.01504
G1 X57.414 Y62.297 E0.01504
G1 X57.508 Y61.598 E0.02211
G1 X57.682 Y60.915 E0.02211
G1 X57.844 Y60.463 E0.01504
G1 X58.040 Y60.026 E0.01504
G1 X58.389 Y59.413 E0.02211
G1 X58.805 Y58.844 E0.02211
G1 X59.128 Y58.482 E0.01521
G1 X59.633 Y58.014 E0.02159
G1 X60.027 Y57.712 E0.01556
G1 X60.622 Y57.343 E0.02195
G1 X61.052 Y57.130 E0.01504
G1 X61.496 Y56.951 E0.01504
G1 X62.173 Y56.751 E0.02211
G1 X62.873 Y56.629 E0.02228
G1 X63.566 Y56.589 E0.02176
G1 X64.062 Y56.607 E0.01556
G1 X64.755 Y56.701 E0.02195
G1 X65.228 Y56.811 E0.01522
G1 X65.896 Y57.037 E0.02211
G1 X66.524 Y57.333 E0.02176
G1 X66.951 Y57.585 E0.01556
G1 X67.515 Y57.999 E0.02195
G1 X67.874 Y58.319 E0.01506
G1 X68.222 Y58.681 E0.01576
G1 X68.641 Y59.212 E0.02122
G1 X68.904 Y59.619 E0.01520
G1 X69.227 Y60.240 E0.02193
G1 X69.408 Y60.690 E0.01522
G1 X69.608 Y61.366 E0.02211
G1 X69.730 Y62.067 E0.02229
G1 X69.771 Y62.776 E0.02229
G1 X69.730 Y63.486 E0.02229
G1 X69.608 Y64.186 E0.02229
G1 X69.408 Y64.863 E0.02211
G1 X69.227 Y65.313 E0.01522
G1 X68.904 Y65.934 E0.02193
G1 X68.641 Y66.341 E0.01522
G1 X68.206 Y66.889 E0.02193
G1 X67.873 Y67.235 E0.01504
G1 X67.515 Y67.554 E0.01504
G1 X66.951 Y67.967 E0.02193
G1 X66.534 Y68.215 E0.01522
G1 X65.896 Y68.516 E0.02211
G1 X65.228 Y68.742 E0.02211
G1 X64.761 Y68.851 E0.01504
G1 X64.287 Y68.924 E0.01504
G1 X63.643 Y68.961 E0.02023
M204 S1250
G1 X63.621 Y68.585 F9000.000
M204 S800
;TYPE:External perimeter
G1 F1200.000
G1 X62.918 Y68.549 E0.02206
G1 X62.476 Y68.480 E0.01402
G1 X62.041 Y68.378 E0.01402
G1 X61.411 Y68.166 E0.02086
G1 X60.818 Y67.887 E0.02052
G1 X60.423 Y67.652 E0.01442
G1 X59.886 Y67.259 E0.02087
G1 X59.396 Y66.806 E0.02093
G1 X58.963 Y66.300 E0.02086
G1 X58.705 Y65.933 E0.01408
G1 X58.377 Y65.356 E0.02080
G1 X58.194 Y64.948 E0.01402
G1 X58.043 Y64.528 E0.01402
G1 X57.879 Y63.883 E0.02086
G1 X57.790 Y63.223 E0.02086
G1 X57.772 Y62.776 E0.01402
G1 X57.790 Y62.330 E0.01402
G1 X57.879 Y61.670 E0.02086
G1 X58.043 Y61.025 E0.02086
G1 X58.194 Y60.604 E0.01402
G1 X58.377 Y60.197 E0.01402
G1 X58.706 Y59.618 E0.02086
G1 X59.099 Y59.081 E0.02086
G1 X59.398 Y58.746 E0.01408
G1 X59.876 Y58.302 E0.02046
G1 X60.241 Y58.023 E0.01442
G1 X60.805 Y57.673 E0.02081
G1 X61.206 Y57.475 E0.01402
G1 X61.621 Y57.307 E0.01402
G1 X62.259 Y57.119 E0.02086
G1 X62.916 Y57.004 E0.02093
G1 X63.570 Y56.966 E0.02052
G1 X64.029 Y56.983 E0.01442
G1 X64.687 Y57.072 E0.02081
G1 X65.124 Y57.174 E0.01408
G1 X65.755 Y57.387 E0.02086
G1 X66.347 Y57.666 E0.02052
G1 X66.743 Y57.901 E0.01442
G1 X67.278 Y58.293 E0.02081
G1 X67.612 Y58.590 E0.01403
G1 X67.937 Y58.929 E0.01473
G1 X68.334 Y59.432 E0.02009
G1 X68.578 Y59.809 E0.01408
G1 X68.884 Y60.398 E0.02080
G1 X69.052 Y60.814 E0.01408
G1 X69.240 Y61.453 E0.02086
G1 X69.355 Y62.110 E0.02093
G1 X69.393 Y62.776 E0.02093
G1 X69.355 Y63.443 E0.02093
G1 X69.240 Y64.100 E0.02093
G1 X69.052 Y64.739 E0.02086
G1 X68.884 Y65.155 E0.01408
G1 X68.578 Y65.744 E0.02080
G1 X68.334 Y66.121 E0.01408
G1 X67.922 Y66.641 E0.02080
G1 X67.612 Y66.963 E0.01402
G1 X67.278 Y67.260 E0.01402
G1 X66.743 Y67.652 E0.02080
G1 X66.357 Y67.882 E0.01408
G1 X65.755 Y68.166 E0.02086
G1 X65.124 Y68.378 E0.02086
G1 X64.689 Y68.480 E0.01402
G1 X64.247 Y68.549 E0.01402
G1 X63.681 Y68.581 E0.01778
M204 S1250
G1 X63.420 Y68.931 F9000.000
G1 E-2.24000 F2400.000
;WIPE_START
G1 F7200.000
G1 X62.918 Y68.549 E-0.24167
G1 X62.476 Y68.480 E-0.14158
G1 X62.041 Y68.378 E-0.14158
G1 X61.411 Y68.166 E-0.21070
G1 X60.907 Y67.928 E-0.17646
;WIPE_END
G1 E-0.04800 F2400.000
G1 Z0.400 F9000.000
G1 X70.246 Y72.440
G1 Z0.200
G1 E3.20000 F1500.000
M204 S800
;TYPE:Perimeter
G1 F1200.000
G1 X70.628 Y73.564 E0.03720
G1 X95.296 Y73.564 E0.77343
M73 P4 R13
G1 X95.296 Y81.989 E0.26419
G1 X56.870 Y81.989 E1.20482
G1 X56.870 Y72.393 E0.30089
G1 X56.094 Y71.782 E0.03096
G1 X55.432 Y71.188 E0.02789
G1 X54.819 Y70.547 E0.02779
G1 X54.257 Y69.862 E0.02779
G1 X53.747 Y69.137 E0.02779
G1 X53.295 Y68.375 E0.02779
G1 X52.901 Y67.580 E0.02779
G1 X52.568 Y66.759 E0.02779
G1 X52.298 Y65.914 E0.02779
G1 X52.093 Y65.048 E0.02791
G1 X51.994 Y64.473 E0.01830
G1 X51.894 Y63.549 E0.02916
G1 X52.049 Y63.483 E0.00527
G1 X52.407 Y63.915 E0.01759
G1 X52.788 Y64.205 E0.01502
G1 X53.092 Y64.356 E0.01062
G1 X53.415 Y64.458 E0.01062
G1 X53.891 Y64.513 E0.01504
G1 X54.368 Y64.458 E0.01504
G1 X54.691 Y64.356 E0.01062
G1 X54.994 Y64.205 E0.01062
G1 X55.367 Y63.921 E0.01469
G1 X55.600 Y63.660 E0.01098
G1 X55.845 Y63.248 E0.01504
G1 X55.991 Y62.785 E0.01522
G1 X56.031 Y62.372 E0.01301
G1 X55.991 Y61.959 E0.01301
G1 X55.848 Y61.505 E0.01491
G1 X55.673 Y61.188 E0.01135
G1 X55.382 Y60.836 E0.01434
G1 X55.102 Y60.608 E0.01132
G1 X54.691 Y60.386 E0.01465
G1 X54.227 Y60.258 E0.01507
G1 X53.866 Y60.233 E0.01135
G1 X53.403 Y60.287 E0.01465
G1 X52.941 Y60.453 E0.01538
G1 X52.538 Y60.714 E0.01504
G1 X52.293 Y60.950 E0.01067
G1 X52.162 Y61.124 E0.00685
G1 X52.001 Y61.060 E0.00544
G1 X52.188 Y60.067 E0.03166
G1 X52.425 Y59.213 E0.02779
G1 X52.728 Y58.376 E0.02791
G1 X52.962 Y57.837 E0.01842
G1 X53.223 Y57.311 E0.01842
G1 X53.668 Y56.540 E0.02791
G1 X54.170 Y55.805 E0.02791
G1 X54.532 Y55.342 E0.01842
G1 X54.918 Y54.895 E0.01853
G1 X55.327 Y54.468 E0.01853
G1 X55.754 Y54.065 E0.01842
G1 X56.441 Y53.493 E0.02803
G1 X56.915 Y53.147 E0.01842
G1 X57.406 Y52.825 E0.01842
G1 X58.180 Y52.384 E0.02791
G1 X58.981 Y52.006 E0.02779
G1 X59.809 Y51.688 E0.02779
G1 X60.662 Y51.434 E0.02791
G1 X61.234 Y51.302 E0.01842
G1 X61.813 Y51.198 E0.01842
G1 X62.832 Y51.090 E0.03216
G1 X62.884 Y51.260 E0.00555
G1 X62.747 Y51.341 E0.00499
G1 X62.396 Y51.654 E0.01473
G1 X62.178 Y51.943 E0.01135
G1 X61.972 Y52.362 E0.01465
G1 X61.863 Y52.828 E0.01502
G1 X61.849 Y53.178 E0.01098
G1 X61.921 Y53.641 E0.01468
G1 X62.036 Y53.961 E0.01067
G1 X62.205 Y54.268 E0.01099
G1 X62.496 Y54.619 E0.01429
G1 X62.765 Y54.842 E0.01096
G1 X63.177 Y55.065 E0.01469
G1 X63.511 Y55.171 E0.01098
G1 X63.987 Y55.226 E0.01504
G1 X64.464 Y55.171 E0.01504
G1 X64.788 Y55.068 E0.01067
G1 X65.102 Y54.911 E0.01099
G1 X65.463 Y54.634 E0.01429
G1 X65.696 Y54.373 E0.01096
G1 X65.941 Y53.961 E0.01504
G1 X66.088 Y53.498 E0.01522
G1 X66.127 Y53.085 E0.01301
G1 X66.088 Y52.672 E0.01301
G1 X65.941 Y52.209 E0.01522
G1 X65.696 Y51.797 E0.01504
G1 X65.469 Y51.543 E0.01067
G1 X65.243 Y51.357 E0.00918
G1 X65.311 Y51.200 E0.00538
G1 X65.641 Y51.246 E0.01043
G1 X66.507 Y51.435 E0.02779
G1 X67.356 Y51.688 E0.02779
G1 X68.184 Y52.006 E0.02779
G1 X68.985 Y52.384 E0.02779
G1 X69.756 Y52.823 E0.02779
G1 X70.491 Y53.318 E0.02779
G1 X71.189 Y53.870 E0.02791
G1 X71.626 Y54.262 E0.01842
G1 X72.043 Y54.676 E0.01842
G1 X72.634 Y55.342 E0.02791
G1 X73.170 Y56.048 E0.02779
G1 X73.651 Y56.793 E0.02779
G1 X74.075 Y57.571 E0.02779
G1 X74.439 Y58.380 E0.02779
G1 X74.740 Y59.213 E0.02780
G1 X74.977 Y60.067 E0.02778
G1 X75.163 Y61.047 E0.03127
G1 X75.012 Y61.115 E0.00521
G1 X74.757 Y60.830 E0.01198
G1 X74.496 Y60.615 E0.01062
G1 X74.075 Y60.385 E0.01504
G1 X73.611 Y60.258 E0.01509
G1 X73.250 Y60.232 E0.01135
G1 X72.786 Y60.287 E0.01465
G1 X72.324 Y60.453 E0.01538
G1 X71.921 Y60.713 E0.01504
G1 X71.676 Y60.949 E0.01067
G1 X71.465 Y61.229 E0.01099
G1 X71.259 Y61.648 E0.01465
G1 X71.150 Y62.115 E0.01502
G1 X71.137 Y62.453 E0.01062
G1 X71.176 Y62.790 E0.01062
G1 X71.317 Y63.238 E0.01473
G1 X71.492 Y63.555 E0.01135
G1 X71.783 Y63.906 E0.01429
G1 X72.052 Y64.128 E0.01096
G1 X72.464 Y64.352 E0.01469
G1 X72.798 Y64.457 E0.01098
G1 X73.274 Y64.512 E0.01504
G1 X73.751 Y64.457 E0.01504
G1 X74.085 Y64.352 E0.01098
G1 X74.496 Y64.128 E0.01469
G1 X74.757 Y63.912 E0.01062
G1 X74.983 Y63.660 E0.01062
