; generated by PrusaSlicer 2.3.0+win64 on 2021-05-08 at 11:30:18 UTC


;
;

;
;
; 

; external perimeters extrusion width = 0.45mm
; perimeters extrusion width = 0.45mm
; infill extrusion width = 0.45mm
; solid infill extrusion width = 0.45mm
; top infill extrusion width = 0.40mm
; first layer extrusion width = 0.42mm

M73 P0 R6
M201 X1250 Y1250 Z400 E5000 ; sets maximum accelerations, mm/sec^2
M203 X180 Y180 Z12 E80 ; sets maximum feedrates, mm/sec
M204 P1250 R1250 T1250 ; sets acceleration (P, T) and retract acceleration (R), mm/sec^2
M205 X8.00 Y8.00 Z2.00 E10.00 ; sets the jerk limits, mm/sec
M205 S0 T0 ; sets the minimum extruding and travel feed rate, mm/sec
M107
;TYPE:Custom
G90 ; use absolute coordinates
M83 ; extruder relative mode
M104 S170 ; set extruder temp for bed leveling
M140 S60 ; set bed temp
M109 R170 ; wait for bed leveling temp
M190 S60 ; wait for bed temp
G28 ; home all without mesh bed level
G29 ; mesh bed leveling 
M104 S215 ; set extruder temp
G92 E0.0
G1 Y-2.0 X179 F2400
M73 P1 R6
G1 Z3 F720
M109 S215 ; wait for extruder temp

; intro line
G1 X170 F1000
G1 Z0.2 F720
G1 X110.0 E8.0 F900
M73 P2 R6
G1 X40.0 E10.0 F700
G92 E0.0

M221 S95 ; set flow
G21 ; set units to millimeters
G90 ; use absolute coordinates
M83 ; use relative distances for extrusion
M900 K0.2 ; Filament gcode LA 1.5
; ; Filament gcode LA 1.0
;LAYER_CHANGE
;Z:0.2
;HEIGHT:0.2
;BEFORE_LAYER_CHANGE
G92 E0.0
;0.2


M73 P4 R6
G1 E-3.20000 F4200.000
G1 Z0.200 F9000.000
;AFTER_LAYER_CHANGE
;0.2
G1 Z0.400
G1 X68.941 Y52.931
G1 Z0.200
G1 E3.20000 F2400.000
M204 S800
;TYPE:Skirt
;WIDTH:0.42
G1 F1200.000
G1 X69.251 Y51.836 E0.03568
G1 X69.616 Y51.041 E0.02743
G1 X70.078 Y50.307 E0.02719
G1 X70.630 Y49.643 E0.02708
G1 X71.292 Y49.037 E0.02814
G1 X72.001 Y48.543 E0.02710
G1 X72.937 Y48.075 E0.03280
G1 X73.790 Y47.797 E0.02814
G1 X74.632 Y47.642 E0.02684
G1 X104.539 Y47.599 E0.93771
M73 P5 R6
G1 X105.877 Y47.722 E0.04214
G1 X107.016 Y48.056 E0.03723
G1 X108.080 Y48.592 E0.03735
G1 X109.137 Y49.411 E0.04189
G1 X109.924 Y50.309 E0.03746
G1 X110.530 Y51.326 E0.03711
G1 X110.938 Y52.414 E0.03642
G1 X111.162 Y53.734 E0.04199
G1 X111.176 Y125.911 E2.26307
M73 P6 R6
G1 X111.059 Y127.069 E0.03649
G1 X110.749 Y128.164 E0.03568
G1 X110.381 Y128.966 E0.02767
G1 X109.902 Y129.720 E0.02803
G1 X109.340 Y130.387 E0.02734
G1 X108.557 Y131.081 E0.03280
G1 X107.805 Y131.571 E0.02814
G1 X107.021 Y131.942 E0.02720
G1 X106.195 Y132.207 E0.02719
G1 X105.323 Y132.363 E0.02779
G1 X75.250 Y132.400 E0.94289
G1 X74.093 Y132.272 E0.03652
G1 X73.023 Y131.959 E0.03496
G1 X72.203 Y131.575 E0.02838
G1 X71.447 Y131.084 E0.02827
G1 X70.655 Y130.382 E0.03318
M73 P6 R5
G1 X70.076 Y129.691 E0.02826
G1 X69.596 Y128.923 E0.02839
G1 X69.176 Y127.956 E0.03306
G1 X68.943 Y127.081 E0.02838
G1 X68.833 Y126.194 E0.02803
G1 X68.824 Y54.089 E2.26081
M73 P8 R5
G1 X68.935 Y52.991 E0.03461
M204 S1250
; printing object screw_layer.stl id:0 copy 0
G1 E-2.24000 F4200.000
;WIPE_START
G1 F7200.000
G1 X69.251 Y51.836 E-0.66340
G1 X69.438 Y51.428 E-0.24860
;WIPE_END
G1 E-0.04800 F4200.000
G1 Z0.400 F9000.000
G1 X103.802 Y123.949
G1 Z0.200
G1 E3.20000 F2400.000
M204 S800
;TYPE:Perimeter
G1 F1200.000
G1 X104.132 Y123.841 E0.01088
G1 X104.572 Y123.786 E0.01389
G1 X104.926 Y123.811 E0.01115
G1 X105.244 Y123.889 E0.01026
G1 X105.555 Y124.019 E0.01055
G1 X105.938 Y124.279 E0.01453
G1 X106.182 Y124.528 E0.01092
G1 X106.434 Y124.917 E0.01453
G1 X106.563 Y125.240 E0.01092
G1 X106.648 Y125.708 E0.01490
G1 X106.619 Y126.182 E0.01490
G1 X106.531 Y126.518 E0.01088
G1 X106.337 Y126.916 E0.01389
G1 X106.116 Y127.208 E0.01148
G1 X105.781 Y127.502 E0.01397
G1 X105.473 Y127.681 E0.01115
G1 X105.156 Y127.799 E0.01063
G1 X104.698 Y127.873 E0.01453
G1 X104.350 Y127.859 E0.01092
G1 X103.900 Y127.749 E0.01453
G1 X103.584 Y127.602 E0.01092
G1 X103.202 Y127.319 E0.01490
G1 X102.897 Y126.955 E0.01490
G1 X102.731 Y126.648 E0.01092
G1 X102.595 Y126.206 E0.01453
G1 X102.562 Y125.871 E0.01055
G1 X102.582 Y125.535 E0.01055
G1 X102.703 Y125.075 E0.01490
G1 X102.930 Y124.658 E0.01490
G1 X103.145 Y124.399 E0.01055
G1 X103.399 Y124.178 E0.01055
G1 X103.750 Y123.979 E0.01265
M204 S1250
G1 X103.937 Y124.307 F9000.000
M204 S800
;TYPE:External perimeter
G1 F1200.000
G1 X104.215 Y124.210 E0.00924
G1 X104.582 Y124.165 E0.01158
G1 X104.868 Y124.185 E0.00900
G1 X105.126 Y124.248 E0.00833
G1 X105.374 Y124.352 E0.00843
G1 X105.695 Y124.570 E0.01217
G1 X105.886 Y124.765 E0.00856
G1 X106.098 Y125.091 E0.01217
G1 X106.199 Y125.344 E0.00856
G1 X106.268 Y125.731 E0.01230
G1 X106.245 Y126.122 E0.01230
G1 X106.175 Y126.386 E0.00855
G1 X106.014 Y126.718 E0.01158
G1 X105.838 Y126.950 E0.00912
G1 X105.560 Y127.194 E0.01161
G1 X105.311 Y127.338 E0.00900
G1 X105.059 Y127.433 E0.00846
G1 X104.675 Y127.494 E0.01217
G1 X104.403 Y127.484 E0.00856
G1 X104.025 Y127.392 E0.01217
G1 X103.778 Y127.276 E0.00856
G1 X103.462 Y127.043 E0.01230
G1 X103.211 Y126.742 E0.01230
G1 X103.081 Y126.502 E0.00856
G1 X102.966 Y126.131 E0.01217
G1 X102.940 Y125.863 E0.00843
G1 X102.956 Y125.595 E0.00843
G1 X103.056 Y125.215 E0.01230
G1 X103.243 Y124.870 E0.01230
G1 X103.416 Y124.664 E0.00843
G1 X103.618 Y124.488 E0.00843
G1 X103.884 Y124.336 E0.00959
M204 S1250
G1 X103.966 Y124.014 F9000.000
G1 E-2.24000 F4200.000
;WIPE_START
G1 F7200.000
G1 X104.215 Y124.210 E-0.19604
G1 X104.582 Y124.165 E-0.20473
G1 X104.868 Y124.185 E-0.15913
G1 X105.126 Y124.248 E-0.14717
G1 X105.374 Y124.352 E-0.14900
G1 X105.457 Y124.409 E-0.05594
;WIPE_END
G1 E-0.04800 F4200.000
G1 Z0.400 F9000.000
G1 X77.435 Y125.696
G1 Z0.200
G1 E3.20000 F2400.000
M204 S800
;TYPE:Perimeter
G1 F1200.000
G1 X77.429 Y126.045 E0.01092
G1 X77.326 Y126.507 E0.01486
G1 X77.127 Y126.916 E0.01426
G1 X76.906 Y127.208 E0.01148
G1 X76.571 Y127.502 E0.01397
G1 X76.263 Y127.681 E0.01115
G1 X75.946 Y127.799 E0.01063
G1 X75.488 Y127.873 E0.01453
G1 X75.140 Y127.859 E0.01092
G1 X74.690 Y127.749 E0.01453
G1 X74.374 Y127.602 E0.01092
G1 X73.992 Y127.319 E0.01490
G1 X73.687 Y126.955 E0.01490
G1 X73.521 Y126.648 E0.01092
G1 X73.385 Y126.206 E0.01453
G1 X73.352 Y125.871 E0.01055
G1 X73.372 Y125.535 E0.01055
G1 X73.493 Y125.075 E0.01490
G1 X73.720 Y124.658 E0.01490
G1 X73.935 Y124.399 E0.01055
G1 X74.189 Y124.178 E0.01055
G1 X74.592 Y123.949 E0.01453
G1 X74.922 Y123.841 E0.01088
G1 X75.362 Y123.786 E0.01389
G1 X75.716 Y123.811 E0.01115
G1 X76.034 Y123.889 E0.01026
G1 X76.345 Y124.019 E0.01055
G1 X76.728 Y124.279 E0.01453
G1 X76.972 Y124.528 E0.01092
G1 X77.224 Y124.917 E0.01453
G1 X77.353 Y125.240 E0.01092
G1 X77.425 Y125.637 E0.01265
M204 S1250
G1 X77.054 Y125.704 F9000.000
M204 S800
;TYPE:External perimeter
M73 P9 R5
G1 F1200.000
G1 X77.052 Y126.000 E0.00925
G1 X76.967 Y126.382 E0.01229
G1 X76.804 Y126.718 E0.01172
G1 X76.628 Y126.950 E0.00912
G1 X76.350 Y127.194 E0.01161
G1 X76.101 Y127.338 E0.00900
G1 X75.849 Y127.433 E0.00846
G1 X75.465 Y127.494 E0.01217
G1 X75.193 Y127.484 E0.00856
G1 X74.815 Y127.392 E0.01217
G1 X74.568 Y127.276 E0.00856
G1 X74.252 Y127.043 E0.01230
G1 X74.001 Y126.742 E0.01230
G1 X73.871 Y126.502 E0.00856
G1 X73.756 Y126.131 E0.01217
G1 X73.730 Y125.863 E0.00843
G1 X73.746 Y125.595 E0.00843
G1 X73.846 Y125.215 E0.01230
G1 X74.033 Y124.870 E0.01230
G1 X74.206 Y124.664 E0.00843
G1 X74.408 Y124.488 E0.00843
G1 X74.746 Y124.296 E0.01217
G1 X75.005 Y124.210 E0.00855
G1 X75.372 Y124.165 E0.01158
G1 X75.658 Y124.185 E0.00900
G1 X75.916 Y124.248 E0.00833
G1 X76.164 Y124.352 E0.00843
G1 X76.485 Y124.570 E0.01217
G1 X76.676 Y124.765 E0.00856
G1 X76.888 Y125.091 E0.01217
G1 X76.989 Y125.344 E0.00856
G1 X77.043 Y125.645 E0.00959
M204 S1250
G1 X77.321 Y125.830 F9000.000
G1 E-2.24000 F4200.000
;WIPE_START
G1 F7200.000
G1 X77.052 Y126.000 E-0.19630
G1 X76.967 Y126.382 E-0.21722
G1 X76.804 Y126.718 E-0.20707
G1 X76.628 Y126.950 E-0.16121
G1 X76.452 Y127.105 E-0.13021
;WIPE_END
G1 E-0.04800 F4200.000
G1 Z0.400 F9000.000
G1 X75.488 Y56.213
G1 Z0.200
G1 E3.20000 F2400.000
M204 S800
;TYPE:Perimeter
G1 F1200.000
G1 X75.140 Y56.199 E0.01092
G1 X74.690 Y56.089 E0.01453
G1 X74.374 Y55.942 E0.01092
G1 X73.992 Y55.659 E0.01490
G1 X73.687 Y55.295 E0.01490
G1 X73.527 Y54.999 E0.01055
G1 X73.415 Y54.681 E0.01055
G1 X73.351 Y54.222 E0.01453
G1 X73.372 Y53.875 E0.01092
G1 X73.493 Y53.415 E0.01490
G1 X73.720 Y52.997 E0.01490
G1 X73.943 Y52.730 E0.01092
G1 X74.305 Y52.440 E0.01453
G1 X74.603 Y52.286 E0.01055
G1 X74.922 Y52.181 E0.01051
G1 X75.362 Y52.126 E0.01389
G1 X75.716 Y52.151 E0.01115
G1 X76.044 Y52.231 E0.01059
G1 X76.447 Y52.417 E0.01389
G1 X76.744 Y52.633 E0.01152
G1 X77.057 Y52.978 E0.01461
G1 X77.229 Y53.268 E0.01055
G1 X77.353 Y53.580 E0.01055
G1 X77.435 Y54.036 E0.01453
G1 X77.429 Y54.385 E0.01092
G1 X77.326 Y54.847 E0.01486
G1 X77.127 Y55.256 E0.01426
G1 X76.906 Y55.548 E0.01148
G1 X76.571 Y55.842 E0.01397
G1 X76.263 Y56.021 E0.01115
G1 X75.946 Y56.139 E0.01063
G1 X75.547 Y56.203 E0.01265
M204 S1250
G1 X75.488 Y55.831 F9000.000
M204 S800
;TYPE:External perimeter
G1 F1200.000
G1 X75.193 Y55.824 E0.00925
G1 X74.815 Y55.732 E0.01217
G1 X74.568 Y55.616 E0.00856
G1 X74.252 Y55.383 E0.01230
G1 X74.001 Y55.082 E0.01230
G1 X73.873 Y54.845 E0.00843
G1 X73.783 Y54.592 E0.00843
G1 X73.730 Y54.207 E0.01217
G1 X73.746 Y53.935 E0.00856
G1 X73.846 Y53.555 E0.01230
G1 X74.033 Y53.210 E0.01230
G1 X74.208 Y53.001 E0.00856
G1 X74.511 Y52.758 E0.01217
G1 X74.750 Y52.634 E0.00843
G1 X75.005 Y52.550 E0.00842
G1 X75.372 Y52.505 E0.01158
G1 X75.658 Y52.525 E0.00900
G1 X75.920 Y52.589 E0.00844
G1 X76.255 Y52.744 E0.01158
G1 X76.491 Y52.915 E0.00914
G1 X76.752 Y53.204 E0.01220
G1 X76.889 Y53.435 E0.00843
G1 X76.989 Y53.684 E0.00843
G1 X77.058 Y54.067 E0.01217
G1 X77.052 Y54.340 E0.00856
G1 X76.967 Y54.722 E0.01229
G1 X76.804 Y55.058 E0.01172
G1 X76.628 Y55.290 E0.00912
G1 X76.350 Y55.534 E0.01161
G1 X76.101 Y55.678 E0.00900
G1 X75.849 Y55.773 E0.00846
G1 X75.547 Y55.821 E0.00959
M204 S1250
G1 X75.357 Y56.095 F9000.000
G1 E-2.24000 F4200.000
;WIPE_START
G1 F7200.000
G1 X75.193 Y55.824 E-0.19630
G1 X74.815 Y55.732 E-0.21513
G1 X74.568 Y55.616 E-0.15133
G1 X74.252 Y55.383 E-0.21748
G1 X74.100 Y55.200 E-0.13176
;WIPE_END
G1 E-0.04800 F4200.000
G1 Z0.400 F9000.000
G1 X102.561 Y54.222
G1 Z0.200
G1 E3.20000 F2400.000
M204 S800
;TYPE:Perimeter
G1 F1200.000
G1 X102.582 Y53.875 E0.01092
G1 X102.703 Y53.415 E0.01490
G1 X102.930 Y52.997 E0.01490
G1 X103.153 Y52.730 E0.01092
G1 X103.515 Y52.440 E0.01453
G1 X103.813 Y52.286 E0.01055
G1 X104.132 Y52.181 E0.01051
G1 X104.572 Y52.126 E0.01389
G1 X104.926 Y52.151 E0.01115
G1 X105.254 Y52.231 E0.01059
G1 X105.657 Y52.417 E0.01389
G1 X105.954 Y52.633 E0.01152
G1 X106.267 Y52.978 E0.01461
G1 X106.439 Y53.268 E0.01055
G1 X106.563 Y53.580 E0.01055
M73 P10 R5
G1 X106.645 Y54.036 E0.01453
G1 X106.639 Y54.385 E0.01092
G1 X106.536 Y54.847 E0.01486
G1 X106.337 Y55.256 E0.01426
G1 X106.116 Y55.548 E0.01148
G1 X105.781 Y55.842 E0.01397
G1 X105.473 Y56.021 E0.01115
G1 X105.156 Y56.139 E0.01063
G1 X104.698 Y56.213 E0.01453
G1 X104.350 Y56.199 E0.01092
G1 X103.900 Y56.089 E0.01453
G1 X103.584 Y55.942 E0.01092
G1 X103.211 Y55.666 E0.01453
G1 X102.978 Y55.408 E0.01092
G1 X102.741 Y55.010 E0.01453
G1 X102.625 Y54.681 E0.01092
G1 X102.569 Y54.282 E0.01265
M204 S1250
G1 X102.943 Y54.229 F9000.000
M204 S800
;TYPE:External perimeter
G1 F1200.000
G1 X102.956 Y53.935 E0.00925
G1 X103.056 Y53.555 E0.01230
G1 X103.243 Y53.210 E0.01230
G1 X103.418 Y53.001 E0.00856
G1 X103.721 Y52.758 E0.01217
G1 X103.960 Y52.634 E0.00843
G1 X104.215 Y52.550 E0.00842
G1 X104.582 Y52.505 E0.01158
G1 X104.868 Y52.525 E0.00900
G1 X105.130 Y52.589 E0.00844
G1 X105.465 Y52.744 E0.01158
G1 X105.701 Y52.915 E0.00914
G1 X105.962 Y53.204 E0.01220
G1 X106.099 Y53.435 E0.00843
G1 X106.199 Y53.684 E0.00843
G1 X106.268 Y54.067 E0.01217
G1 X106.262 Y54.340 E0.00856
G1 X106.177 Y54.722 E0.01229
G1 X106.014 Y55.058 E0.01172
G1 X105.838 Y55.290 E0.00912
G1 X105.560 Y55.534 E0.01161
G1 X105.311 Y55.678 E0.00900
G1 X105.059 Y55.773 E0.00846
G1 X104.675 Y55.834 E0.01217
G1 X104.403 Y55.824 E0.00856
G1 X104.025 Y55.732 E0.01217
G1 X103.778 Y55.616 E0.00856
G1 X103.466 Y55.385 E0.01217
G1 X103.282 Y55.183 E0.00856
G1 X103.084 Y54.849 E0.01217
G1 X102.993 Y54.592 E0.00856
G1 X102.951 Y54.289 E0.00959
M204 S1250
G1 X102.681 Y54.094 F9000.000
G1 E-2.24000 F4200.000
;WIPE_START
G1 F7200.000
G1 X102.956 Y53.935 E-0.19630
G1 X103.056 Y53.555 E-0.21748
G1 X103.243 Y53.210 E-0.21748
G1 X103.418 Y53.001 E-0.15133
G1 X103.600 Y52.855 E-0.12942
;WIPE_END
G1 E-0.04800 F4200.000
G1 Z0.400 F9000.000
G1 X101.263 Y55.009
G1 Z0.200
G1 E3.20000 F2400.000
M204 S800
;TYPE:Perimeter
G1 F1200.000
G1 X101.210 Y54.883 E0.00428
G1 X91.713 Y54.883 E0.29776
G1 X91.713 Y125.117 E2.20214
M73 P11 R5
G1 X101.202 Y125.117 E0.29751
G1 X101.614 Y124.199 E0.03156
G1 X101.762 Y123.952 E0.00903
G1 X101.937 Y123.711 E0.00932
G1 X102.131 Y123.487 E0.00932
G1 X102.345 Y123.280 E0.00932
G1 X102.576 Y123.093 E0.00932
G1 X102.822 Y122.926 E0.00932
G1 X103.082 Y122.782 E0.00932
G1 X103.354 Y122.661 E0.00932
G1 X103.635 Y122.564 E0.00932
G1 X103.923 Y122.492 E0.00932
G1 X104.216 Y122.445 E0.00932
G1 X104.513 Y122.424 E0.00932
G1 X104.810 Y122.429 E0.00932
G1 X105.106 Y122.460 E0.00932
G1 X105.391 Y122.515 E0.00912
G1 X105.829 Y122.651 E0.01437
G1 X106.090 Y122.764 E0.00892
G1 X106.488 Y122.991 E0.01437
G1 X106.719 Y123.158 E0.00892
G1 X107.054 Y123.462 E0.01417
G1 X107.342 Y123.801 E0.01397
G1 X107.587 Y124.181 E0.01417
G1 X107.714 Y124.436 E0.00892
G1 X107.873 Y124.866 E0.01437
G1 X107.942 Y125.142 E0.00892
G1 X108.003 Y125.590 E0.01417
G1 X108.005 Y126.042 E0.01417
G1 X107.976 Y126.324 E0.00892
G1 X107.879 Y126.773 E0.01437
G1 X107.789 Y127.042 E0.00892
G1 X107.600 Y127.453 E0.01417
G1 X107.359 Y127.836 E0.01417
G1 X107.178 Y128.063 E0.00912
G1 X106.978 Y128.274 E0.00912
G1 X106.634 Y128.567 E0.01417
G1 X106.259 Y128.808 E0.01397
G1 X105.856 Y128.999 E0.01397
G1 X105.426 Y129.137 E0.01417
G1 X105.141 Y129.195 E0.00912
G1 X104.845 Y129.229 E0.00932
G1 X104.548 Y129.237 E0.00932
G1 X104.252 Y129.219 E0.00932
G1 X103.958 Y129.175 E0.00932
G1 X103.668 Y129.106 E0.00932
G1 X103.386 Y129.012 E0.00932
G1 X103.121 Y128.897 E0.00908
G1 X102.507 Y128.543 E0.02221
G1 X77.486 Y128.543 E0.78452
M73 P12 R5
G1 X77.023 Y128.823 E0.01697
G1 X76.613 Y129.011 E0.01414
G1 X76.188 Y129.143 E0.01397
G1 X75.748 Y129.218 E0.01397
G1 X75.297 Y129.236 E0.01417
G1 X75.013 Y129.216 E0.00892
G1 X74.568 Y129.135 E0.01417
G1 X74.144 Y128.999 E0.01397
G1 X73.735 Y128.805 E0.01417
G1 X73.487 Y128.653 E0.00912
G1 X73.249 Y128.476 E0.00932
G1 X72.835 Y128.078 E0.01801
G1 X72.552 Y127.707 E0.01460
G1 X72.329 Y127.315 E0.01415
G1 X72.213 Y127.048 E0.00912
G1 X72.121 Y126.773 E0.00912
G1 X72.024 Y126.324 E0.01437
G1 X71.989 Y125.757 E0.01781
G1 X72.031 Y125.294 E0.01460
G1 X72.131 Y124.853 E0.01415
G1 X72.226 Y124.579 E0.00912
G1 X72.344 Y124.313 E0.00912
G1 X72.576 Y123.917 E0.01437
G1 X72.749 Y123.684 E0.00912
G1 X72.942 Y123.466 E0.00912
G1 X73.281 Y123.158 E0.01437
G1 X73.517 Y122.987 E0.00912
G1 X73.766 Y122.838 E0.00912
G1 X74.183 Y122.646 E0.01437
G1 X74.459 Y122.554 E0.00912
G1 X74.742 Y122.486 E0.00913
G1 X75.183 Y122.430 E0.01396
G1 X75.481 Y122.424 E0.00934
G1 X75.937 Y122.466 E0.01435
G1 X76.222 Y122.525 E0.00912
G1 X76.507 Y122.609 E0.00932
G1 X76.784 Y122.718 E0.00932
G1 X77.049 Y122.851 E0.00932
G1 X77.298 Y123.004 E0.00913
G1 X77.650 Y123.276 E0.01396
G1 X77.864 Y123.483 E0.00934
G1 X78.157 Y123.835 E0.01435
G1 X78.317 Y124.078 E0.00912
G1 X78.458 Y124.337 E0.00926
G1 X78.790 Y125.117 E0.02658
G1 X88.287 Y125.117 E0.29776
G1 X88.287 Y54.883 E2.20214
M73 P13 R5
G1 X78.798 Y54.883 E0.29751
G1 X78.386 Y55.801 E0.03156
G1 X78.238 Y56.048 E0.00903
G1 X78.063 Y56.289 E0.00932
G1 X77.869 Y56.513 E0.00932
G1 X77.655 Y56.720 E0.00932
G1 X77.424 Y56.907 E0.00932
G1 X77.178 Y57.074 E0.00932
G1 X76.918 Y57.218 E0.00932
G1 X76.646 Y57.339 E0.00932
G1 X76.365 Y57.436 E0.00932
G1 X76.077 Y57.508 E0.00932
G1 X75.784 Y57.555 E0.00932
G1 X75.487 Y57.576 E0.00932
G1 X75.190 Y57.571 E0.00932
G1 X74.894 Y57.540 E0.00932
G1 X74.609 Y57.485 E0.00912
