; generated by PrusaSlicer 2.3.0+win64 on 2022-05-22 at 15:19:14 UTC


;
;

;
;
; 

; external perimeters extrusion width = 0.45mm
; perimeters extrusion width = 0.45mm
; infill extrusion width = 0.45mm
; solid infill extrusion width = 0.45mm
; top infill extrusion width = 0.40mm
; first layer extrusion width = 0.42mm

M73 P0 R38
M201 X1250 Y1250 Z400 E5000 ; sets maximum accelerations, mm/sec^2
M203 X180 Y180 Z12 E80 ; sets maximum feedrates, mm/sec
M204 P1250 R1250 T1250 ; sets acceleration (P, T) and retract acceleration (R), mm/sec^2
M205 X8.00 Y8.00 Z2.00 E10.00 ; sets the jerk limits, mm/sec
M205 S0 T0 ; sets the minimum extruding and travel feed rate, mm/sec
M107
;TYPE:Custom
G90 ; use absolute coordinates
M83 ; extruder relative mode
M104 S170 ; set extruder temp for bed leveling
M140 S85 ; set bed temp
M109 R170 ; wait for bed leveling temp
M190 S85 ; wait for bed temp
G28 ; home all without mesh bed level
G29 ; mesh bed leveling 
M104 S240 ; set extruder temp
G92 E0.0
G1 Y-2.0 X179 F2400
M73 P0 R37
G1 Z3 F720
M109 S240 ; wait for extruder temp

; intro line
G1 X170 F1000
G1 Z0.2 F720
G1 X110.0 E8.0 F900
G1 X40.0 E10.0 F700
G92 E0.0

M221 S95 ; set flow
G21 ; set units to millimeters
G90 ; use absolute coordinates
M83 ; use relative distances for extrusion
M900 K0.2 ; Filament gcode
;LAYER_CHANGE
;Z:0.2
;HEIGHT:0.2
;BEFORE_LAYER_CHANGE
G92 E0.0
;0.2


G1 E-3.20000 F2400.000
G1 Z0.200 F9000.000
;AFTER_LAYER_CHANGE
;0.2
G1 Z0.400
G1 X72.931 Y73.705
G1 Z0.200
G1 E3.20000 F1500.000
M204 S800
;TYPE:Skirt
;WIDTH:0.42
G1 F1200.000
G1 X72.143 Y73.147 E0.03024
G1 X71.813 Y72.697 E0.01752
G1 X71.597 Y72.182 E0.01752
G1 X66.793 Y54.437 E0.57639
G1 X66.569 Y52.905 E0.04857
G1 X66.512 Y51.063 E0.05776
G1 X66.638 Y49.542 E0.04785
G1 X66.991 Y47.756 E0.05709
G1 X67.746 Y45.578 E0.07227
G1 X68.390 Y44.278 E0.04550
G1 X68.986 Y43.301 E0.03588
G1 X70.395 Y41.497 E0.07177
G1 X71.419 Y40.479 E0.04527
G1 X72.301 Y39.742 E0.03605
G1 X73.247 Y39.070 E0.03637
G1 X74.483 Y38.346 E0.04492
G1 X76.579 Y37.446 E0.07151
G1 X78.794 Y36.876 E0.07171
G1 X80.227 Y36.694 E0.04530
G1 X81.376 Y36.649 E0.03606
G1 X83.626 Y36.820 E0.07075
G1 X85.815 Y37.325 E0.07043
G1 X87.906 Y38.156 E0.07055
G1 X89.829 Y39.280 E0.06984
G1 X115.621 Y59.906 E1.03547
G1 X116.069 Y60.596 E0.02579
G1 X116.256 Y61.397 E0.02579
G1 X116.259 Y71.545 E0.31821
G1 X116.057 Y72.485 E0.03013
G1 X115.503 Y73.265 E0.03001
G1 X114.771 Y73.731 E0.02720
G1 X113.917 Y73.903 E0.02731
G1 X73.875 Y73.903 E1.25552
M73 P1 R37
G1 X72.989 Y73.717 E0.02836
M204 S1250
; printing object ScrewFollower01 id:0 copy 0
G1 E-2.24000 F2400.000
;WIPE_START
G1 F7200.000
G1 X72.143 Y73.147 E-0.32297
G1 X71.813 Y72.697 E-0.17690
G1 X71.597 Y72.182 E-0.17690
G1 X71.403 Y71.465 E-0.23524
;WIPE_END
G1 E-0.04800 F2400.000
G1 Z0.400 F9000.000
G1 X89.526 Y51.963
G1 Z0.200
G1 E3.20000 F1500.000
M204 S800
;TYPE:External perimeter
G1 F1200.000
G1 X89.377 Y51.592 E0.01254
G1 X89.324 Y51.319 E0.00871
G1 X89.324 Y50.919 E0.01254
G1 X89.416 Y50.526 E0.01267
G1 X89.593 Y50.167 E0.01254
G1 X89.759 Y49.950 E0.00858
G1 X89.956 Y49.760 E0.00858
G1 X90.289 Y49.545 E0.01241
G1 X90.546 Y49.441 E0.00871
G1 X90.939 Y49.365 E0.01254
G1 X91.338 Y49.380 E0.01254
G1 X91.605 Y49.442 E0.00858
G1 X91.859 Y49.545 E0.00858
G1 X92.191 Y49.760 E0.01241
G1 X92.391 Y49.953 E0.00871
G1 X92.621 Y50.280 E0.01254
G1 X92.771 Y50.651 E0.01254
G1 X92.824 Y50.923 E0.00871
G1 X92.824 Y51.319 E0.01241
G1 X92.771 Y51.592 E0.00871
G1 X92.621 Y51.963 E0.01254
G1 X92.391 Y52.290 E0.01254
G1 X92.191 Y52.482 E0.00871
G1 X91.855 Y52.700 E0.01254
G1 X91.479 Y52.835 E0.01254
G1 X91.208 Y52.877 E0.00858
G1 X90.935 Y52.877 E0.00858
G1 X90.542 Y52.801 E0.01254
G1 X90.177 Y52.637 E0.01254
G1 X89.953 Y52.480 E0.00858
G1 X89.756 Y52.290 E0.00858
G1 X89.561 Y52.012 E0.01066
M204 S1250
G1 X89.126 Y51.948 F9000.000
G1 E-2.24000 F2400.000
;WIPE_START
G1 F7200.000
G1 X89.377 Y51.592 E-0.14522
G1 X89.324 Y51.319 E-0.08793
G1 X89.324 Y50.919 E-0.12666
G1 X89.416 Y50.526 E-0.12795
G1 X89.593 Y50.167 E-0.12666
G1 X89.759 Y49.950 E-0.08665
G1 X89.956 Y49.760 E-0.08665
G1 X90.286 Y49.547 E-0.12429
;WIPE_END
G1 E-0.04800 F2400.000
G1 Z0.400 F9000.000
G1 X82.568 Y43.413
G1 Z0.200
G1 E3.20000 F1500.000
M204 S800
G1 F1200.000
G1 X82.192 Y43.549 E0.01254
G1 X81.921 Y43.590 E0.00858
G1 X81.648 Y43.590 E0.00858
G1 X81.255 Y43.514 E0.01254
G1 X80.890 Y43.351 E0.01254
G1 X80.663 Y43.191 E0.00871
G1 X80.386 Y42.903 E0.01254
G1 X80.181 Y42.559 E0.01254
G1 X80.087 Y42.298 E0.00871
G1 X80.027 Y41.906 E0.01241
G1 X80.038 Y41.629 E0.00871
G1 X80.129 Y41.239 E0.01254
G1 X80.306 Y40.881 E0.01254
G1 X80.472 Y40.663 E0.00858
G1 X80.669 Y40.474 E0.00858
G1 X81.005 Y40.256 E0.01254
G1 X81.381 Y40.121 E0.01254
G1 X81.652 Y40.079 E0.00858
G1 X81.926 Y40.079 E0.00858
G1 X82.314 Y40.155 E0.01241
G1 X82.572 Y40.258 E0.00871
G1 X82.907 Y40.476 E0.01254
G1 X83.185 Y40.764 E0.01254
G1 X83.336 Y40.997 E0.00871
G1 X83.485 Y41.368 E0.01254
G1 X83.546 Y41.761 E0.01248
G1 X83.536 Y42.041 E0.00877
G1 X83.445 Y42.426 E0.01242
G1 X83.332 Y42.680 E0.00871
G1 X83.104 Y43.003 E0.01241
G1 X82.904 Y43.196 E0.00871
G1 X82.619 Y43.381 E0.01066
M204 S1250
G1 X82.538 Y43.812 F9000.000
G1 E-2.24000 F2400.000
;WIPE_START
G1 F7200.000
G1 X82.192 Y43.549 E-0.14522
G1 X81.921 Y43.590 E-0.08665
G1 X81.648 Y43.590 E-0.08664
G1 X81.255 Y43.514 E-0.12666
G1 X80.890 Y43.351 E-0.12666
G1 X80.663 Y43.191 E-0.08793
G1 X80.386 Y42.903 E-0.12666
G1 X80.183 Y42.562 E-0.12558
;WIPE_END
G1 E-0.04800 F2400.000
G1 Z0.400 F9000.000
G1 X82.433 Y59.177
G1 Z0.200
G1 E3.20000 F1500.000
M204 S800
;TYPE:Perimeter
G1 F1200.000
G1 X82.871 Y59.373 E0.01504
G1 X83.148 Y59.568 E0.01062
G1 X83.392 Y59.803 E0.01062
G1 X83.668 Y60.195 E0.01504
G1 X83.852 Y60.650 E0.01539
G1 X83.925 Y61.122 E0.01497
G1 X83.912 Y61.474 E0.01104
G1 X83.802 Y61.942 E0.01505
G1 X83.589 Y62.372 E0.01504
G1 X83.377 Y62.650 E0.01098
G1 X83.028 Y62.962 E0.01469
G1 X82.736 Y63.135 E0.01062
G1 X82.422 Y63.261 E0.01062
G1 X81.962 Y63.351 E0.01468
G1 X81.612 Y63.351 E0.01098
G1 X81.141 Y63.259 E0.01504
G1 X80.703 Y63.063 E0.01504
G1 X80.417 Y62.862 E0.01098
G1 X80.084 Y62.516 E0.01504
G1 X79.833 Y62.094 E0.01540
G1 X79.689 Y61.636 E0.01504
G1 X79.650 Y61.300 E0.01062
G1 X79.663 Y60.961 E0.01062
G1 X79.772 Y60.494 E0.01504
G1 X79.985 Y60.064 E0.01504
G1 X80.190 Y59.795 E0.01062
G1 X80.435 Y59.560 E0.01062
G1 X80.837 Y59.299 E0.01504
G1 X81.289 Y59.137 E0.01504
G1 X81.624 Y59.085 E0.01062
G1 X81.962 Y59.085 E0.01062
G1 X82.374 Y59.165 E0.01316
M204 S1250
G1 X82.303 Y59.535 F9000.000
M204 S800
;TYPE:External perimeter
G1 F1200.000
G1 X82.684 Y59.702 E0.01304
G1 X82.908 Y59.859 E0.00858
G1 X83.105 Y60.049 E0.00858
G1 X83.335 Y60.376 E0.01254
G1 X83.486 Y60.751 E0.01267
G1 X83.547 Y61.144 E0.01248
G1 X83.536 Y61.424 E0.00877
G1 X83.445 Y61.813 E0.01254
G1 X83.268 Y62.172 E0.01254
G1 X83.099 Y62.393 E0.00871
G1 X82.804 Y62.656 E0.01241
G1 X82.569 Y62.796 E0.00858
G1 X82.315 Y62.898 E0.00858
G1 X81.926 Y62.973 E0.01241
G1 X81.648 Y62.973 E0.00871
G1 X81.256 Y62.897 E0.01254
G1 X80.891 Y62.734 E0.01254
G1 X80.664 Y62.574 E0.00871
G1 X80.386 Y62.286 E0.01254
G1 X80.180 Y61.938 E0.01267
G1 X80.059 Y61.557 E0.01254
G1 X80.028 Y61.285 E0.00858
G1 X80.038 Y61.012 E0.00858
G1 X80.129 Y60.622 E0.01254
G1 X80.307 Y60.264 E0.01254
G1 X80.473 Y60.046 E0.00858
G1 X80.670 Y59.857 E0.00858
G1 X81.006 Y59.639 E0.01254
G1 X81.382 Y59.504 E0.01254
G1 X81.652 Y59.462 E0.00858
G1 X81.926 Y59.462 E0.00858
G1 X82.244 Y59.524 E0.01014
M204 S1250
G1 X82.599 Y59.267 F9000.000
G1 E-2.24000 F2400.000
;WIPE_START
G1 F7200.000
G1 X82.684 Y59.702 E-0.15034
G1 X82.908 Y59.859 E-0.08665
G1 X83.105 Y60.049 E-0.08665
G1 X83.335 Y60.376 E-0.12666
G1 X83.486 Y60.751 E-0.12794
G1 X83.547 Y61.144 E-0.12602
G1 X83.536 Y61.424 E-0.08855
G1 X83.450 Y61.790 E-0.11920
;WIPE_END
G1 E-0.04800 F2400.000
G1 Z0.400 F9000.000
G1 X81.946 Y57.382
G1 Z0.200
G1 E3.20000 F1500.000
M204 S800
;TYPE:Perimeter
G1 F1200.000
G1 X81.382 Y57.414 E0.01769
G1 X80.911 Y57.395 E0.01477
G1 X80.226 Y57.300 E0.02169
G1 X79.557 Y57.124 E0.02169
G1 X79.110 Y56.958 E0.01495
G1 X78.496 Y56.658 E0.02144
G1 X78.088 Y56.407 E0.01501
G1 X77.545 Y55.992 E0.02144
G1 X77.194 Y55.665 E0.01502
G1 X76.741 Y55.150 E0.02151
G1 X76.463 Y54.762 E0.01495
G1 X76.121 Y54.170 E0.02144
G1 X75.924 Y53.734 E0.01501
G1 X75.705 Y53.086 E0.02144
G1 X75.597 Y52.619 E0.01502
G1 X75.509 Y51.939 E0.02151
G1 X75.495 Y51.462 E0.01495
G1 X75.542 Y50.780 E0.02144
G1 X75.622 Y50.308 E0.01501
G1 X75.802 Y49.648 E0.02144
G1 X75.973 Y49.201 E0.01502
G1 X76.280 Y48.587 E0.02151
G1 X76.532 Y48.189 E0.01477
G1 X76.814 Y47.812 E0.01477
G1 X77.275 Y47.307 E0.02144
G1 X77.627 Y46.991 E0.01483
G1 X77.997 Y46.709 E0.01459
G1 X78.393 Y46.454 E0.01477
G1 X79.008 Y46.138 E0.02169
G1 X79.657 Y45.897 E0.02169
G1 X80.118 Y45.776 E0.01495
G1 X80.793 Y45.668 E0.02144
G1 X81.266 Y45.640 E0.01483
G1 X81.737 Y45.649 E0.01477
G1 X82.424 Y45.731 E0.02169
G1 X83.096 Y45.894 E0.02169
G1 X83.541 Y46.049 E0.01477
G1 X83.972 Y46.239 E0.01477
G1 X84.574 Y46.579 E0.02169
G1 X85.131 Y46.986 E0.02162
G1 X85.483 Y47.302 E0.01484
G1 X85.809 Y47.644 E0.01481
G1 X86.229 Y48.184 E0.02147
G1 X86.484 Y48.587 E0.01495
G1 X86.794 Y49.206 E0.02169
G1 X87.028 Y49.857 E0.02169
G1 X87.143 Y50.314 E0.01477
G1 X87.222 Y50.778 E0.01477
G1 X87.270 Y51.461 E0.02146
G1 X87.255 Y51.939 E0.01500
G1 X87.168 Y52.619 E0.02151
G1 X87.060 Y53.084 E0.01495
G1 X86.839 Y53.739 E0.02169
G1 X86.541 Y54.364 E0.02169
G1 X86.298 Y54.767 E0.01477
G1 X86.023 Y55.150 E0.01477
G1 X85.570 Y55.665 E0.02151
G1 X85.221 Y55.990 E0.01495
G1 X84.672 Y56.410 E0.02169
G1 X84.078 Y56.761 E0.02162
G1 X83.649 Y56.960 E0.01483
G1 X83.207 Y57.124 E0.01477
G1 X82.538 Y57.300 E0.02169
G1 X82.005 Y57.374 E0.01687
M204 S1250
G1 X82.464 Y56.930 F9000.000
M204 S800
;TYPE:External perimeter
G1 F1200.000
G1 X81.819 Y57.019 E0.02041
G1 X81.382 Y57.037 E0.01372
G1 X80.945 Y57.019 E0.01372
G1 X80.300 Y56.930 E0.02041
G1 X79.671 Y56.764 E0.02041
G1 X79.259 Y56.611 E0.01378
G1 X78.678 Y56.327 E0.02027
G1 X78.302 Y56.095 E0.01385
G1 X77.788 Y55.703 E0.02028
G1 X77.465 Y55.402 E0.01385
G1 X77.037 Y54.915 E0.02034
G1 X76.781 Y54.558 E0.01378
G1 X76.457 Y53.998 E0.02027
G1 X76.275 Y53.595 E0.01385
G1 X76.068 Y52.983 E0.02028
G1 X75.968 Y52.553 E0.01385
G1 X75.885 Y51.909 E0.02034
G1 X75.872 Y51.470 E0.01378
G1 X75.917 Y50.825 E0.02027
G1 X75.990 Y50.389 E0.01385
G1 X76.161 Y49.766 E0.02028
G1 X76.319 Y49.353 E0.01385
G1 X76.609 Y48.773 E0.02034
G1 X76.843 Y48.403 E0.01372
G1 X77.105 Y48.053 E0.01372
G1 X77.541 Y47.576 E0.02027
G1 X77.868 Y47.282 E0.01378
G1 X78.214 Y47.018 E0.01365
G1 X78.582 Y46.781 E0.01372
G1 X79.161 Y46.484 E0.02040
G1 X79.771 Y46.257 E0.02041
G1 X80.196 Y46.145 E0.01378
G1 X80.834 Y46.043 E0.02027
G1 X81.273 Y46.017 E0.01378
G1 X81.711 Y46.026 E0.01372
G1 X82.357 Y46.103 E0.02041
G1 X82.989 Y46.256 E0.02041
G1 X83.402 Y46.400 E0.01372
G1 X83.803 Y46.576 E0.01372
G1 X84.370 Y46.896 E0.02040
G1 X84.893 Y47.279 E0.02034
G1 X85.220 Y47.573 E0.01378
G1 X85.523 Y47.891 E0.01375
G1 X85.921 Y48.401 E0.02030
G1 X86.155 Y48.773 E0.01378
G1 X86.447 Y49.355 E0.02041
G1 X86.667 Y49.967 E0.02041
G1 X86.774 Y50.391 E0.01372
G1 X86.847 Y50.823 E0.01372
G1 X86.892 Y51.468 E0.02029
G1 X86.879 Y51.909 E0.01383
G1 X86.796 Y52.553 E0.02034
G1 X86.697 Y52.981 E0.01378
G1 X86.489 Y53.597 E0.02041
G1 X86.209 Y54.185 E0.02040
G1 X85.983 Y54.559 E0.01372
G1 X85.727 Y54.915 E0.01372
G1 X85.299 Y55.402 E0.02034
G1 X84.978 Y55.702 E0.01378
G1 X84.461 Y56.097 E0.02040
G1 X83.902 Y56.427 E0.02034
G1 X83.503 Y56.612 E0.01378
G1 X83.093 Y56.764 E0.01372
G1 X82.522 Y56.914 E0.01852
M204 S1250
G1 X82.333 Y57.308 F9000.000
G1 E-2.24000 F2400.000
;WIPE_START
G1 F7200.000
G1 X81.819 Y57.019 E-0.22496
G1 X81.382 Y57.037 E-0.13853
G1 X80.945 Y57.019 E-0.13853
G1 X80.300 Y56.930 E-0.20609
G1 X79.678 Y56.766 E-0.20389
;WIPE_END
G1 E-0.04800 F2400.000
G1 Z0.400 F9000.000
G1 X88.045 Y61.190
G1 Z0.200
G1 E3.20000 F1500.000
M204 S800
;TYPE:Perimeter
G1 F1200.000
G1 X88.427 Y62.313 E0.03720
G1 X113.095 Y62.313 E0.77343
G1 X113.095 Y70.739 E0.26419
G1 X74.669 Y70.739 E1.20482
G1 X74.669 Y61.143 E0.30089
G1 X73.893 Y60.532 E0.03096
G1 X73.231 Y59.938 E0.02789
G1 X72.619 Y59.297 E0.02779
G1 X72.056 Y58.612 E0.02779
G1 X71.547 Y57.886 E0.02779
G1 X71.094 Y57.124 E0.02779
G1 X70.700 Y56.330 E0.02779
G1 X70.367 Y55.509 E0.02779
G1 X70.099 Y54.667 E0.02770
G1 X69.892 Y53.798 E0.02801
G1 X69.793 Y53.223 E0.01830
G1 X69.691 Y52.278 E0.02981
G1 X69.860 Y52.218 E0.00560
G1 X69.996 Y52.428 E0.00784
G1 X70.320 Y52.765 E0.01468
G1 X70.607 Y52.967 E0.01098
G1 X71.045 Y53.163 E0.01504
G1 X71.516 Y53.254 E0.01504
G1 X71.854 Y53.254 E0.01062
G1 X72.189 Y53.203 E0.01062
G1 X72.641 Y53.041 E0.01504
G1 X73.043 Y52.780 E0.01504
G1 X73.287 Y52.545 E0.01062
G1 X73.493 Y52.275 E0.01062
G1 X73.706 Y51.845 E0.01504
G1 X73.815 Y51.378 E0.01505
G1 X73.828 Y51.026 E0.01104
G1 X73.755 Y50.554 E0.01497
G1 X73.576 Y50.109 E0.01504
G1 X73.386 Y49.816 E0.01098
G1 X73.053 Y49.470 E0.01504
G1 X72.650 Y49.209 E0.01504
G1 X72.336 Y49.082 E0.01062
G1 X72.006 Y49.005 E0.01062
G1 X71.527 Y48.987 E0.01504
G1 X71.056 Y49.078 E0.01504
G1 X70.731 Y49.209 E0.01098
G1 X70.328 Y49.470 E0.01504
G1 X69.949 Y49.864 E0.01714
G1 X69.802 Y49.794 E0.00511
G1 X69.815 Y49.687 E0.00339
G1 X69.987 Y48.817 E0.02779
G1 X70.225 Y47.963 E0.02779
G1 X70.528 Y47.126 E0.02791
G1 X70.762 Y46.587 E0.01842
G1 X71.023 Y46.061 E0.01842
G1 X71.468 Y45.290 E0.02791
G1 X71.970 Y44.555 E0.02791
G1 X72.331 Y44.092 E0.01841
G1 X72.718 Y43.645 E0.01853
G1 X73.126 Y43.218 E0.01853
G1 X73.551 Y42.817 E0.01832
G1 X74.238 Y42.245 E0.02801
G1 X74.963 Y41.729 E0.02791
G1 X75.462 Y41.420 E0.01842
G1 X75.973 Y41.137 E0.01832
G1 X76.781 Y40.755 E0.02801
G1 X77.612 Y40.437 E0.02791
G1 X78.170 Y40.263 E0.01832
G1 X78.741 Y40.115 E0.01851
G1 X79.616 Y39.948 E0.02791
G1 X80.646 Y39.840 E0.03249
G1 X80.700 Y40.005 E0.00544
G1 X80.434 Y40.177 E0.00992
G1 X80.190 Y40.412 E0.01062
G1 X79.984 Y40.681 E0.01062
G1 X79.772 Y41.111 E0.01504
G1 X79.662 Y41.578 E0.01504
G1 X79.649 Y41.928 E0.01098
G1 X79.720 Y42.391 E0.01468
G1 X79.839 Y42.720 E0.01098
G1 X80.084 Y43.133 E0.01504
G1 X80.417 Y43.478 E0.01504
G1 X80.703 Y43.680 E0.01098
G1 X81.141 Y43.876 E0.01504
G1 X81.612 Y43.967 E0.01504
G1 X81.950 Y43.967 E0.01062
G1 X82.285 Y43.916 E0.01062
G1 X82.737 Y43.754 E0.01504
G1 X83.139 Y43.493 E0.01504
G1 X83.392 Y43.250 E0.01098
G1 X83.661 Y42.867 E0.01469
G1 X83.804 Y42.547 E0.01098
G1 X83.911 Y42.091 E0.01469
G1 X83.924 Y41.739 E0.01104
G1 X83.851 Y41.267 E0.01497
G1 X83.672 Y40.822 E0.01504
G1 X83.482 Y40.529 E0.01098
G1 X83.149 Y40.183 E0.01504
G1 X83.054 Y40.121 E0.00356
G1 X83.117 Y39.951 E0.00569
G1 X83.440 Y39.996 E0.01023
G1 X84.306 Y40.185 E0.02779
G1 X85.156 Y40.438 E0.02779
G1 X85.983 Y40.756 E0.02779
G1 X86.785 Y41.134 E0.02779
G1 X87.555 Y41.573 E0.02779
G1 X88.290 Y42.068 E0.02779
G1 X88.986 Y42.618 E0.02779
G1 X89.638 Y43.218 E0.02779
G1 X90.245 Y43.869 E0.02791
G1 X90.618 Y44.323 E0.01842
G1 X90.965 Y44.792 E0.01832
G1 X91.451 Y45.542 E0.02801
G1 X91.874 Y46.321 E0.02779
G1 X92.238 Y47.129 E0.02779
G1 X92.539 Y47.963 E0.02779
G1 X92.777 Y48.817 E0.02779
G1 X92.965 Y49.815 E0.03185
G1 X92.800 Y49.879 E0.00553
G1 X92.679 Y49.706 E0.00662
G1 X92.426 Y49.463 E0.01098
G1 X92.033 Y49.209 E0.01469
G1 X91.719 Y49.082 E0.01062
G1 X91.389 Y49.005 E0.01062
G1 X90.910 Y48.986 E0.01504
G1 X90.439 Y49.078 E0.01504
G1 X90.114 Y49.209 E0.01098
G1 X89.721 Y49.463 E0.01469
G1 X89.477 Y49.698 E0.01062
G1 X89.271 Y49.968 E0.01062
G1 X89.059 Y50.397 E0.01504
G1 X88.947 Y50.876 E0.01540
G1 X88.947 Y51.355 E0.01504
G1 X89.013 Y51.699 E0.01098
G1 X89.193 Y52.144 E0.01504
G1 X89.469 Y52.536 E0.01504
G1 X89.713 Y52.771 E0.01062
G1 X89.990 Y52.966 E0.01062
G1 X90.428 Y53.163 E0.01504
G1 X90.899 Y53.254 E0.01504
G1 X91.237 Y53.254 E0.01062
G1 X91.572 Y53.202 E0.01062
G1 X92.024 Y53.040 E0.01504
G1 X92.426 Y52.779 E0.01504
G1 X92.679 Y52.536 E0.01098
G1 X92.910 Y52.208 E0.01260
