; generated by PrusaSlicer 2.3.0+win64 on 2022-05-22 at 17:30:57 UTC


;
;

;
;
; 

; external perimeters extrusion width = 0.45mm
; perimeters extrusion width = 0.45mm
; infill extrusion width = 0.45mm
; solid infill extrusion width = 0.45mm
; top infill extrusion width = 0.40mm
; first layer extrusion width = 0.42mm

M73 P0 R14
M201 X1250 Y1250 Z400 E5000 ; sets maximum accelerations, mm/sec^2
M203 X180 Y180 Z12 E80 ; sets maximum feedrates, mm/sec
M204 P1250 R1250 T1250 ; sets acceleration (P, T) and retract acceleration (R), mm/sec^2
M205 X8.00 Y8.00 Z2.00 E10.00 ; sets the jerk limits, mm/sec
M205 S0 T0 ; sets the minimum extruding and travel feed rate, mm/sec
M107
;TYPE:Custom
G90 ; use absolute coordinates
M83 ; extruder relative mode
M104 S170 ; set extruder temp for bed leveling
M140 S85 ; set bed temp
M109 R170 ; wait for bed leveling temp
M190 S85 ; wait for bed temp
G28 ; home all without mesh bed level
G29 ; mesh bed leveling 
M104 S240 ; set extruder temp
G92 E0.0
G1 Y-2.0 X179 F2400
G1 Z3 F720
M109 S240 ; wait for extruder temp

; intro line
G1 X170 F1000
G1 Z0.2 F720
G1 X110.0 E8.0 F900
M73 P1 R14
G1 X40.0 E10.0 F700
G92 E0.0

M221 S95 ; set flow
G21 ; set units to millimeters
G90 ; use absolute coordinates
M83 ; use relative distances for extrusion
M900 K0.2 ; Filament gcode
;LAYER_CHANGE
;Z:0.2
;HEIGHT:0.2
;BEFORE_LAYER_CHANGE
G92 E0.0
;0.2


G1 E-3.20000 F2400.000
G1 Z0.200 F9000.000
;AFTER_LAYER_CHANGE
;0.2
G1 Z0.400
G1 X43.246 Y42.043
M73 P1 R13
G1 Z0.200
G1 E3.20000 F1500.000
M204 S800
;TYPE:Skirt
;WIDTH:0.42
G1 F1200.000
G1 X43.821 Y41.481 E0.02520
G1 X44.455 Y41.171 E0.02213
G1 X45.148 Y41.060 E0.02201
G1 X85.175 Y41.060 E1.25502
M73 P2 R13
G1 X86.006 Y41.212 E0.02649
G1 X86.729 Y41.642 E0.02637
G1 X87.258 Y42.300 E0.02649
G1 X87.524 Y43.102 E0.02649
G1 X87.547 Y53.517 E0.32656
G1 X87.427 Y54.186 E0.02130
G1 X87.123 Y54.794 E0.02130
G1 X86.660 Y55.291 E0.02130
G1 X61.139 Y75.669 E1.02397
G1 X59.876 Y76.453 E0.04661
G1 X58.541 Y77.107 E0.04661
G1 X57.146 Y77.625 E0.04667
G1 X55.991 Y77.939 E0.03751
G1 X54.549 Y78.195 E0.04593
G1 X53.046 Y78.310 E0.04727
G1 X51.556 Y78.272 E0.04673
G1 X50.067 Y78.085 E0.04706
G1 X48.598 Y77.746 E0.04727
G1 X47.186 Y77.266 E0.04673
G1 X45.821 Y76.643 E0.04706
G1 X44.548 Y75.900 E0.04623
G1 X43.335 Y75.020 E0.04700
G1 X42.435 Y74.233 E0.03748
G1 X41.414 Y73.164 E0.04635
G1 X40.485 Y71.971 E0.04742
G1 X39.696 Y70.716 E0.04646
G1 X39.052 Y69.425 E0.04524
G1 X38.614 Y68.307 E0.03763
G1 X38.205 Y66.910 E0.04566
G1 X37.976 Y65.757 E0.03684
G1 X37.819 Y64.296 E0.04609
G1 X37.797 Y63.139 E0.03627
G1 X37.898 Y61.683 E0.04576
G1 X38.249 Y59.785 E0.06051
G1 X42.890 Y42.768 E0.55306
G1 X43.220 Y42.097 E0.02343
M204 S1250
; printing object ScrewFollower02 id:0 copy 0
G1 E-2.24000 F2400.000
;WIPE_START
G1 F7200.000
G1 X43.821 Y41.481 E-0.27247
G1 X44.455 Y41.171 E-0.22352
G1 X45.148 Y41.060 E-0.22233
G1 X45.760 Y41.060 E-0.19368
;WIPE_END
G1 E-0.04800 F2400.000
G1 Z0.400 F9000.000
G1 X52.048 Y57.117
G1 Z0.200
G1 E3.20000 F1500.000
M204 S800
;TYPE:Perimeter
G1 F1200.000
G1 X51.973 Y57.079 E0.00264
G1 X51.592 Y56.789 E0.01502
G1 X51.294 Y56.429 E0.01465
G1 X51.119 Y56.112 E0.01135
G1 X50.978 Y55.664 E0.01473
G1 X50.937 Y55.316 E0.01098
G1 X50.973 Y54.849 E0.01469
G1 X51.066 Y54.513 E0.01096
G1 X51.267 Y54.104 E0.01429
G1 X51.485 Y53.815 E0.01132
G1 X51.825 Y53.510 E0.01434
G1 X52.135 Y53.324 E0.01135
G1 X52.588 Y53.161 E0.01507
G1 X53.052 Y53.107 E0.01465
G1 X53.412 Y53.132 E0.01135
G1 X53.876 Y53.260 E0.01507
G1 X54.287 Y53.482 E0.01465
G1 X54.567 Y53.710 E0.01132
G1 X54.858 Y54.062 E0.01434
G1 X55.033 Y54.379 E0.01135
G1 X55.176 Y54.833 E0.01491
G1 X55.216 Y55.246 E0.01301
G1 X55.176 Y55.659 E0.01301
G1 X55.033 Y56.111 E0.01487
G1 X54.866 Y56.418 E0.01098
G1 X54.561 Y56.788 E0.01502
G1 X54.191 Y57.072 E0.01465
G1 X53.686 Y57.325 E0.01768
G1 X54.316 Y57.472 E0.02028
G1 X54.984 Y57.698 E0.02211
M73 P3 R13
G1 X55.612 Y57.993 E0.02176
G1 X56.039 Y58.246 E0.01556
G1 X56.604 Y58.660 E0.02195
G1 X56.962 Y58.979 E0.01504
G1 X57.294 Y59.325 E0.01504
G1 X57.729 Y59.873 E0.02193
G1 X57.993 Y60.280 E0.01522
G1 X58.315 Y60.901 E0.02193
G1 X58.496 Y61.351 E0.01522
G1 X58.696 Y62.027 E0.02211
G1 X58.864 Y62.987 E0.03055
G1 X59.264 Y62.418 E0.02181
G1 X59.612 Y62.107 E0.01465
G1 X59.922 Y61.920 E0.01135
G1 X60.374 Y61.758 E0.01507
G1 X60.838 Y61.703 E0.01465
G1 X61.199 Y61.729 E0.01135
G1 X61.663 Y61.857 E0.01509
G1 X62.084 Y62.086 E0.01504
G1 X62.346 Y62.301 E0.01062
G1 X62.571 Y62.554 E0.01062
G1 X62.816 Y62.967 E0.01504
G1 X62.963 Y63.429 E0.01522
G1 X63.002 Y63.842 E0.01301
G1 X62.963 Y64.255 E0.01301
G1 X62.816 Y64.718 E0.01522
G1 X62.571 Y65.131 E0.01504
G1 X62.346 Y65.384 E0.01062
G1 X62.084 Y65.599 E0.01062
G1 X61.673 Y65.823 E0.01469
G1 X61.339 Y65.929 E0.01098
G1 X60.863 Y65.984 E0.01504
G1 X60.386 Y65.929 E0.01504
G1 X60.053 Y65.823 E0.01096
G1 X59.652 Y65.606 E0.01429
G1 X59.372 Y65.378 E0.01132
G1 X59.080 Y65.026 E0.01434
G1 X58.882 Y64.665 E0.01292
G1 X58.723 Y64.691 E0.00503
G1 X58.696 Y64.847 E0.00496
G1 X58.496 Y65.524 E0.02211
G1 X58.315 Y65.974 E0.01522
G1 X57.993 Y66.595 E0.02193
G1 X57.729 Y67.001 E0.01520
G1 X57.310 Y67.532 E0.02122
G1 X56.958 Y67.899 E0.01593
G1 X56.427 Y68.355 E0.02195
G1 X56.030 Y68.634 E0.01522
G1 X55.422 Y68.980 E0.02193
G1 X54.979 Y69.179 E0.01522
G1 X54.316 Y69.402 E0.02193
G1 X53.698 Y69.547 E0.01990
G1 X54.286 Y69.865 E0.02096
G1 X54.566 Y70.093 E0.01132
G1 X54.858 Y70.445 E0.01434
G1 X55.032 Y70.762 E0.01135
G1 X55.176 Y71.216 E0.01491
G1 X55.215 Y71.629 E0.01301
G1 X55.176 Y72.042 E0.01301
G1 X55.029 Y72.505 E0.01522
G1 X54.784 Y72.917 E0.01504
G1 X54.559 Y73.170 E0.01062
G1 X54.297 Y73.386 E0.01062
G1 X53.877 Y73.614 E0.01502
G1 X53.426 Y73.739 E0.01465
G1 X53.066 Y73.769 E0.01135
G1 X52.599 Y73.715 E0.01473
G1 X52.265 Y73.609 E0.01098
G1 X51.854 Y73.386 E0.01468
G1 X51.584 Y73.163 E0.01096
G1 X51.293 Y72.812 E0.01429
G1 X51.124 Y72.505 E0.01099
G1 X51.009 Y72.185 E0.01067
G1 X50.938 Y71.722 E0.01469
G1 X50.951 Y71.372 E0.01098
G1 X51.060 Y70.906 E0.01502
G1 X51.267 Y70.487 E0.01465
G1 X51.478 Y70.207 E0.01099
G1 X51.723 Y69.971 E0.01067
G1 X52.269 Y69.617 E0.02041
G1 X51.493 Y69.512 E0.02457
G1 X50.809 Y69.338 E0.02211
G1 X50.353 Y69.174 E0.01521
G1 X49.730 Y68.881 E0.02159
G1 X49.303 Y68.628 E0.01556
G1 X48.734 Y68.211 E0.02212
G1 X48.212 Y67.728 E0.02229
G1 X47.753 Y67.193 E0.02211
G1 X47.474 Y66.796 E0.01522
G1 X47.128 Y66.188 E0.02193
G1 X46.932 Y65.750 E0.01504
G1 X46.770 Y65.299 E0.01504
G1 X46.566 Y64.495 E0.02600
G1 X46.188 Y65.130 E0.02316
G1 X45.963 Y65.383 E0.01062
G1 X45.701 Y65.599 E0.01062
G1 X45.290 Y65.822 E0.01469
G1 X44.956 Y65.928 E0.01098
G1 X44.479 Y65.983 E0.01504
G1 X44.003 Y65.928 E0.01504
G1 X43.680 Y65.826 E0.01062
G1 X43.376 Y65.675 E0.01062
G1 X42.995 Y65.385 E0.01502
G1 X42.697 Y65.025 E0.01465
G1 X42.528 Y64.718 E0.01099
G1 X42.413 Y64.398 E0.01067
G1 X42.342 Y63.935 E0.01469
G1 X42.355 Y63.585 E0.01098
G1 X42.464 Y63.119 E0.01502
G1 X42.670 Y62.700 E0.01465
G1 X42.882 Y62.420 E0.01099
G1 X43.127 Y62.184 E0.01067
G1 X43.529 Y61.923 E0.01504
G1 X43.991 Y61.757 E0.01538
G1 X44.455 Y61.703 E0.01465
G1 X44.816 Y61.728 E0.01135
G1 X45.280 Y61.856 E0.01509
G1 X45.701 Y62.085 E0.01504
G1 X45.971 Y62.307 E0.01096
G1 X46.262 Y62.658 E0.01429
G1 X46.361 Y62.839 E0.00646
G1 X46.522 Y62.809 E0.00513
G1 X46.596 Y62.259 E0.01740
G1 X46.770 Y61.576 E0.02211
G1 X46.932 Y61.124 E0.01504
G1 X47.128 Y60.687 E0.01504
G1 X47.477 Y60.074 E0.02211
G1 X47.894 Y59.505 E0.02211
G1 X48.217 Y59.142 E0.01522
G1 X48.730 Y58.667 E0.02194
G1 X49.117 Y58.372 E0.01525
G1 X49.710 Y58.004 E0.02190
G1 X50.140 Y57.791 E0.01504
G1 X50.585 Y57.612 E0.01504
G1 X51.261 Y57.412 E0.02211
G1 X52.025 Y57.279 E0.02431
G1 X52.040 Y57.176 E0.00326
M204 S1250
G1 E-2.24000 F2400.000
;WIPE_START
G1 F7200.000
G1 X51.973 Y57.079 E-0.03721
G1 X51.592 Y56.789 E-0.15168
G1 X51.294 Y56.429 E-0.14793
G1 X51.119 Y56.112 E-0.11460
G1 X50.978 Y55.664 E-0.14879
G1 X50.937 Y55.316 E-0.11088
G1 X50.973 Y54.849 E-0.14831
G1 X51.017 Y54.689 E-0.05259
;WIPE_END
G1 E-0.04800 F2400.000
G1 Z0.400 F9000.000
G1 X59.547 Y62.671
G1 Z0.200
G1 E3.20000 F1500.000
M204 S800
;TYPE:External perimeter
G1 F1200.000
G1 X59.837 Y62.412 E0.01218
G1 X60.084 Y62.263 E0.00906
G1 X60.461 Y62.127 E0.01255
G1 X60.847 Y62.082 E0.01218
G1 X61.135 Y62.102 E0.00906
G1 X61.521 Y62.209 E0.01256
G1 X61.872 Y62.400 E0.01254
G1 X62.084 Y62.574 E0.00858
G1 X62.266 Y62.778 E0.00858
G1 X62.470 Y63.122 E0.01254
G1 X62.591 Y63.505 E0.01261
G1 X62.624 Y63.842 E0.01062
G1 X62.591 Y64.180 E0.01062
G1 X62.470 Y64.563 E0.01261
G1 X62.266 Y64.907 E0.01254
G1 X62.084 Y65.111 E0.00858
G1 X61.872 Y65.285 E0.00858
G1 X61.525 Y65.474 E0.01241
G1 X61.260 Y65.558 E0.00871
G1 X60.863 Y65.604 E0.01254
G1 X60.465 Y65.558 E0.01254
G1 X60.201 Y65.474 E0.00870
G1 X59.863 Y65.292 E0.01205
G1 X59.639 Y65.109 E0.00905
G1 X59.393 Y64.813 E0.01207
G1 X59.254 Y64.560 E0.00905
G1 X59.137 Y64.193 E0.01207
G1 X59.103 Y63.907 E0.00905
G1 X59.131 Y63.523 E0.01207
G1 X59.205 Y63.248 E0.00893
G1 X59.317 Y62.998 E0.00860
G1 X59.513 Y62.720 E0.01065
M204 S1250
G1 X59.429 Y62.301 F9000.000
G1 E-2.24000 F2400.000
;WIPE_START
G1 F7200.000
G1 X59.837 Y62.412 E-0.14155
G1 X60.084 Y62.263 E-0.09151
G1 X60.461 Y62.127 E-0.12675
G1 X60.847 Y62.082 E-0.12298
G1 X61.135 Y62.102 E-0.09151
G1 X61.521 Y62.209 E-0.12683
G1 X61.872 Y62.400 E-0.12666
G1 X62.078 Y62.569 E-0.08422
;WIPE_END
G1 E-0.04800 F2400.000
G1 Z0.400 F9000.000
G1 X53.734 Y69.995
G1 Z0.200
G1 E3.20000 F1500.000
M204 S800
G1 F1200.000
G1 X54.075 Y70.180 E0.01218
G1 X54.299 Y70.362 E0.00905
G1 X54.545 Y70.658 E0.01207
G1 X54.684 Y70.912 E0.00906
G1 X54.804 Y71.292 E0.01250
G1 X54.837 Y71.629 E0.01062
G1 X54.804 Y71.966 E0.01062
G1 X54.683 Y72.349 E0.01261
G1 X54.479 Y72.693 E0.01254
G1 X54.297 Y72.898 E0.00858
G1 X54.085 Y73.072 E0.00858
G1 X53.734 Y73.263 E0.01253
G1 X53.360 Y73.366 E0.01218
G1 X53.072 Y73.390 E0.00906
G1 X52.678 Y73.345 E0.01243
G1 X52.414 Y73.261 E0.00871
G1 X52.066 Y73.072 E0.01241
G1 X51.852 Y72.895 E0.00870
G1 X51.606 Y72.599 E0.01205
G1 X51.469 Y72.350 E0.00893
G1 X51.376 Y72.092 E0.00860
G1 X51.316 Y71.700 E0.01241
G1 X51.327 Y71.423 E0.00871
G1 X51.418 Y71.034 E0.01253
G1 X51.589 Y70.685 E0.01218
G1 X51.761 Y70.458 E0.00893
G1 X51.958 Y70.268 E0.00860
G1 X52.294 Y70.050 E0.01254
G1 X52.674 Y69.914 E0.01266
G1 X53.060 Y69.868 E0.01218
G1 X53.348 Y69.889 E0.00906
G1 X53.676 Y69.979 E0.01067
M204 S1250
G1 X54.042 Y69.758 F9000.000
G1 E-2.24000 F2400.000
;WIPE_START
G1 F7200.000
G1 X54.075 Y70.180 E-0.14156
G1 X54.299 Y70.362 E-0.09142
G1 X54.545 Y70.658 E-0.12186
G1 X54.684 Y70.912 E-0.09151
G1 X54.804 Y71.292 E-0.12620
G1 X54.837 Y71.629 E-0.10729
G1 X54.804 Y71.966 E-0.10729
G1 X54.685 Y72.342 E-0.12486
;WIPE_END
G1 E-0.04800 F2400.000
G1 Z0.400 F9000.000
G1 X46.087 Y64.562
G1 Z0.200
G1 E3.20000 F1500.000
M204 S800
G1 F1200.000
G1 X45.882 Y64.906 E0.01254
G1 X45.700 Y65.111 E0.00858
G1 X45.489 Y65.285 E0.00858
G1 X45.142 Y65.474 E0.01241
G1 X44.877 Y65.558 E0.00871
G1 X44.479 Y65.603 E0.01254
G1 X44.082 Y65.558 E0.01254
G1 X43.821 Y65.475 E0.00858
G1 X43.576 Y65.354 E0.00858
G1 X43.258 Y65.111 E0.01253
G1 X43.010 Y64.812 E0.01218
G1 X42.873 Y64.563 E0.00893
G1 X42.780 Y64.305 E0.00860
G1 X42.720 Y63.913 E0.01241
G1 X42.730 Y63.636 E0.00871
G1 X42.822 Y63.247 E0.01253
G1 X42.993 Y62.898 E0.01218
G1 X43.165 Y62.671 E0.00893
G1 X43.362 Y62.481 E0.00860
G1 X43.698 Y62.263 E0.01254
G1 X44.078 Y62.127 E0.01266
G1 X44.464 Y62.081 E0.01218
G1 X44.752 Y62.102 E0.00906
G1 X45.138 Y62.208 E0.01256
G1 X45.489 Y62.399 E0.01254
G1 X45.703 Y62.576 E0.00870
G1 X45.949 Y62.871 E0.01205
G1 X46.088 Y63.125 E0.00906
G1 X46.208 Y63.505 E0.01250
G1 X46.240 Y63.842 E0.01062
G1 X46.208 Y64.179 E0.01062
G1 X46.105 Y64.505 E0.01072
M204 S1250
G1 X46.319 Y64.888 F9000.000
G1 X46.946 Y64.392
M204 S800
G1 F1200.000
G1 X46.878 Y63.884 E0.01606
G1 X46.861 Y63.437 E0.01402
G1 X46.878 Y62.991 E0.01402
G1 X46.967 Y62.331 E0.02086
G1 X47.131 Y61.686 E0.02086
G1 X47.282 Y61.265 E0.01402
G1 X47.465 Y60.857 E0.01402
G1 X47.794 Y60.279 E0.02086
G1 X48.187 Y59.742 E0.02086
G1 X48.486 Y59.407 E0.01408
G1 X48.973 Y58.956 E0.02080
G1 X49.331 Y58.683 E0.01412
G1 X49.894 Y58.334 E0.02076
G1 X50.294 Y58.135 E0.01402
G1 X50.709 Y57.968 E0.01402
G1 X51.347 Y57.780 E0.02086
G1 X52.005 Y57.665 E0.02093
G1 X52.658 Y57.627 E0.02052
G1 X53.118 Y57.644 E0.01442
G1 X53.775 Y57.733 E0.02081
G1 X54.213 Y57.835 E0.01408
G1 X54.843 Y58.048 E0.02086
G1 X55.435 Y58.327 E0.02052
G1 X55.831 Y58.561 E0.01442
G1 X56.366 Y58.953 E0.02081
G1 X56.700 Y59.251 E0.01402
G1 X57.010 Y59.573 E0.01402
G1 X57.422 Y60.093 E0.02080
G1 X57.666 Y60.470 E0.01408
G1 X57.972 Y61.059 E0.02080
G1 X58.140 Y61.475 E0.01408
G1 X58.329 Y62.113 E0.02086
G1 X58.443 Y62.771 E0.02093
G1 X58.481 Y63.437 E0.02093
G1 X58.443 Y64.104 E0.02093
G1 X58.329 Y64.761 E0.02093
G1 X58.140 Y65.399 E0.02086
G1 X57.972 Y65.816 E0.01408
G1 X57.666 Y66.405 E0.02080
G1 X57.422 Y66.782 E0.01408
G1 X57.025 Y67.285 E0.02010
G1 X56.699 Y67.625 E0.01479
G1 X56.195 Y68.057 E0.02081
G1 X55.828 Y68.315 E0.01408
G1 X55.251 Y68.643 E0.02080
G1 X54.841 Y68.827 E0.01408
G1 X54.213 Y69.039 E0.02080
G1 X53.775 Y69.142 E0.01408
G1 X53.129 Y69.229 E0.02046
G1 X52.671 Y69.248 E0.01436
M73 P4 R13
G1 X52.224 Y69.230 E0.01402
G1 X51.565 Y69.141 E0.02086
G1 X50.920 Y68.977 E0.02086
G1 X50.497 Y68.826 E0.01408
G1 X49.907 Y68.548 E0.02046
G1 X49.511 Y68.313 E0.01442
G1 X48.974 Y67.920 E0.02087
G1 X48.485 Y67.466 E0.02093
G1 X48.051 Y66.961 E0.02086
G1 X47.793 Y66.594 E0.01408
G1 X47.465 Y66.017 E0.02080
G1 X47.282 Y65.609 E0.01402
G1 X47.131 Y65.188 E0.01402
G1 X46.954 Y64.451 E0.02377
M204 S1250
G1 X46.570 Y64.257 F9000.000
G1 E-2.24000 F2400.000
;WIPE_START
G1 F7200.000
G1 X46.878 Y63.884 E-0.18121
G1 X46.861 Y63.437 E-0.14158
G1 X46.878 Y62.991 E-0.14158
G1 X46.967 Y62.331 E-0.21072
G1 X47.131 Y61.686 E-0.21072
G1 X47.159 Y61.608 E-0.02617
;WIPE_END
G1 E-0.04800 F2400.000
G1 Z0.400 F9000.000
G1 X51.855 Y56.515
G1 Z0.200
G1 E3.20000 F1500.000
M204 S800
G1 F1200.000
G1 X51.607 Y56.216 E0.01218
G1 X51.468 Y55.963 E0.00906
G1 X51.348 Y55.585 E0.01243
G1 X51.316 Y55.309 E0.00871
G1 X51.347 Y54.914 E0.01241
G1 X51.420 Y54.647 E0.00870
G1 X51.590 Y54.302 E0.01205
G1 X51.764 Y54.072 E0.00905
G1 X52.050 Y53.815 E0.01207
G1 X52.298 Y53.666 E0.00906
G1 X52.675 Y53.531 E0.01255
G1 X53.060 Y53.485 E0.01218
G1 X53.348 Y53.506 E0.00906
G1 X53.734 Y53.612 E0.01255
G1 X54.076 Y53.797 E0.01218
G1 X54.300 Y53.979 E0.00905
G1 X54.545 Y54.275 E0.01207
G1 X54.685 Y54.529 E0.00906
G1 X54.805 Y54.908 E0.01250
G1 X54.837 Y55.246 E0.01062
G1 X54.805 Y55.583 E0.01062
G1 X54.685 Y55.962 E0.01248
G1 X54.552 Y56.206 E0.00871
G1 X54.298 Y56.515 E0.01253
G1 X53.990 Y56.751 E0.01218
G1 X53.735 Y56.879 E0.00893
G1 X53.473 Y56.961 E0.00860
G1 X53.076 Y57.007 E0.01254
G1 X52.679 Y56.961 E0.01254
G1 X52.418 Y56.879 E0.00858
G1 X52.173 Y56.757 E0.00858
G1 X51.903 Y56.552 E0.01065
M204 S1250
G1 X51.481 Y56.619 F9000.000
G1 E-2.24000 F2400.000
;WIPE_START
G1 F7200.000
G1 X51.607 Y56.216 E-0.14156
G1 X51.468 Y55.963 E-0.09151
G1 X51.348 Y55.585 E-0.12554
G1 X51.316 Y55.309 E-0.08793
G1 X51.347 Y54.914 E-0.12537
G1 X51.420 Y54.647 E-0.08785
G1 X51.590 Y54.302 E-0.12169
G1 X51.764 Y54.072 E-0.09142
G1 X51.856 Y53.989 E-0.03913
;WIPE_END
G1 E-0.04800 F2400.000
G1 Z0.400 F9000.000
G1 X45.958 Y53.816
G1 Z0.200
G1 E3.20000 F1500.000
M204 S800
;TYPE:Perimeter
G1 F1200.000
G1 X45.958 Y44.224 E0.30075
G1 X84.384 Y44.224 E1.20482
G1 X84.384 Y52.650 E0.26419
G1 X59.716 Y52.650 E0.77343
G1 X59.334 Y53.773 E0.03720
G1 X60.387 Y54.626 E0.04248
G1 X61.031 Y55.234 E0.02778
G1 X61.630 Y55.893 E0.02791
G1 X61.997 Y56.351 E0.01842
G1 X62.343 Y56.831 E0.01853
G1 X62.662 Y57.324 E0.01842
G1 X63.099 Y58.104 E0.02803
G1 X63.352 Y58.630 E0.01830
G1 X63.686 Y59.455 E0.02791
G1 X63.955 Y60.299 E0.02779
G1 X64.160 Y61.162 E0.02779
G1 X64.300 Y62.041 E0.02791
G1 X64.356 Y62.626 E0.01842
G1 X64.381 Y63.212 E0.01842
G1 X64.365 Y64.102 E0.02791
