; generated by PrusaSlicer 2.3.0+win64 on 2021-08-22 at 15:40:02 UTC


;
;

;
;
; 

; external perimeters extrusion width = 0.45mm
; perimeters extrusion width = 0.45mm
; infill extrusion width = 0.45mm
; solid infill extrusion width = 0.45mm
; top infill extrusion width = 0.40mm
; first layer extrusion width = 0.42mm

M73 P0 R23
M201 X1250 Y1250 Z400 E5000 ; sets maximum accelerations, mm/sec^2
M203 X180 Y180 Z12 E80 ; sets maximum feedrates, mm/sec
M204 P1250 R1250 T1250 ; sets acceleration (P, T) and retract acceleration (R), mm/sec^2
M205 X8.00 Y8.00 Z2.00 E10.00 ; sets the jerk limits, mm/sec
M205 S0 T0 ; sets the minimum extruding and travel feed rate, mm/sec
M107
;TYPE:Custom
G90 ; use absolute coordinates
M83 ; extruder relative mode
M104 S170 ; set extruder temp for bed leveling
M140 S60 ; set bed temp
M109 R170 ; wait for bed leveling temp
M190 S60 ; wait for bed temp
G28 ; home all without mesh bed level
G29 ; mesh bed leveling 
M104 S215 ; set extruder temp
G92 E0.0
G1 Y-2.0 X179 F2400
G1 Z3 F720
M109 S215 ; wait for extruder temp

; intro line
G1 X170 F1000
G1 Z0.2 F720
G1 X110.0 E8.0 F900
G1 X40.0 E10.0 F700
G92 E0.0

M221 S95 ; set flow
G21 ; set units to millimeters
G90 ; use absolute coordinates
M83 ; use relative distances for extrusion
M900 K0.2 ; Filament gcode LA 1.5
; ; Filament gcode LA 1.0
;LAYER_CHANGE
;Z:0.2
;HEIGHT:0.2
;BEFORE_LAYER_CHANGE
G92 E0.0
;0.2


M73 P1 R23
G1 E-3.20000 F4200.000
G1 Z0.200 F9000.000
;AFTER_LAYER_CHANGE
;0.2
G1 Z0.400
G1 X76.080 Y75.984
G1 Z0.200
G1 E3.20000 F2400.000
M204 S800
;TYPE:Skirt
;WIDTH:0.42
G1 F1200.000
G1 X77.397 Y74.789 E0.05575
G1 X79.088 Y73.533 E0.06604
G1 X80.901 Y72.467 E0.06596
G1 X82.486 Y71.731 E0.05480
G1 X84.128 Y71.139 E0.05473
G1 X86.171 Y70.621 E0.06608
G1 X88.251 Y70.324 E0.06587
G1 X89.999 Y70.246 E0.05488
G1 X92.090 Y70.357 E0.06565
G1 X93.823 Y70.619 E0.05495
G1 X95.519 Y71.033 E0.05474
G1 X97.512 Y71.730 E0.06618
G1 X99.402 Y72.627 E0.06560
G1 X100.907 Y73.530 E0.05504
G1 X102.601 Y74.787 E0.06612
G1 X103.895 Y75.958 E0.05473
G1 X105.300 Y77.505 E0.06554
G1 X106.348 Y78.911 E0.05496
G1 X107.263 Y80.397 E0.05473
G1 X108.190 Y82.295 E0.06622
G1 X108.906 Y84.276 E0.06604
G1 X109.338 Y85.966 E0.05469
G1 X109.658 Y88.051 E0.06615
G1 X109.753 Y89.816 E0.05542
G1 X109.663 Y91.897 E0.06533
G1 X109.414 Y93.647 E0.05540
G1 X108.916 Y95.692 E0.06600
G1 X108.200 Y97.679 E0.06622
G1 X107.440 Y99.277 E0.05551
G1 X106.353 Y101.081 E0.06602
G1 X105.317 Y102.474 E0.05444
G1 X103.920 Y104.016 E0.06524
G1 X102.603 Y105.211 E0.05575
G1 X100.912 Y106.467 E0.06604
G1 X99.099 Y107.533 E0.06596
G1 X97.518 Y108.268 E0.05467
G1 X95.874 Y108.860 E0.05479
G1 X93.832 Y109.379 E0.06607
G1 X92.110 Y109.641 E0.05461
G1 X90.005 Y109.754 E0.06610
G1 X88.264 Y109.678 E0.05463
G1 X86.177 Y109.381 E0.06609
G1 X84.481 Y108.967 E0.05474
G1 X82.491 Y108.271 E0.06610
G1 X80.910 Y107.538 E0.05463
G1 X79.093 Y106.470 E0.06610
G1 X77.399 Y105.213 E0.06612
G1 X76.105 Y104.042 E0.05473
G1 X74.700 Y102.495 E0.06554
G1 X73.652 Y101.089 E0.05496
G1 X72.737 Y99.603 E0.05473
G1 X71.810 Y97.705 E0.06622
G1 X71.094 Y95.724 E0.06604
G1 X70.662 Y94.034 E0.05469
G1 X70.342 Y91.949 E0.06615
G1 X70.247 Y90.184 E0.05542
G1 X70.337 Y88.103 E0.06533
G1 X70.586 Y86.353 E0.05540
G1 X71.084 Y84.308 E0.06600
G1 X71.800 Y82.321 E0.06622
G1 X72.560 Y80.723 E0.05551
G1 X73.647 Y78.919 E0.06602
G1 X74.683 Y77.526 E0.05444
G1 X76.040 Y76.028 E0.06336
M204 S1250
G1 X76.319 Y76.281 F9000.000
M204 S800
G1 F1200.000
G1 X77.635 Y75.081 E0.05584
G1 X79.298 Y73.847 E0.06495
G1 X81.077 Y72.800 E0.06474
G1 X82.628 Y72.080 E0.05359
G1 X84.235 Y71.501 E0.05357
G1 X86.242 Y70.991 E0.06493
G1 X88.287 Y70.699 E0.06478
G1 X90.001 Y70.623 E0.05379
G1 X92.054 Y70.732 E0.06444
G1 X93.752 Y70.990 E0.05386
G1 X95.411 Y71.394 E0.05353
G1 X97.366 Y72.078 E0.06497
G1 X98.913 Y72.795 E0.05345
G1 X100.698 Y73.844 E0.06491
G1 X102.363 Y75.079 E0.06501
G1 X103.628 Y76.225 E0.05351
G1 X105.010 Y77.746 E0.06445
G1 X106.037 Y79.124 E0.05387
G1 X106.932 Y80.577 E0.05351
G1 X107.842 Y82.440 E0.06501
G1 X108.542 Y84.374 E0.06447
G1 X108.968 Y86.038 E0.05386
G1 X109.282 Y88.088 E0.06503
G1 X109.376 Y89.816 E0.05426
G1 X109.285 Y91.887 E0.06501
G1 X108.974 Y93.932 E0.06484
G1 X108.549 Y95.603 E0.05408
G1 X107.852 Y97.536 E0.06441
G1 X107.109 Y99.097 E0.05423
G1 X106.042 Y100.868 E0.06481
G1 X105.027 Y102.233 E0.05334
G1 X103.652 Y103.751 E0.06421
G1 X102.365 Y104.919 E0.05448
G1 X100.702 Y106.153 E0.06495
G1 X98.923 Y107.200 E0.06474
G1 X97.372 Y107.920 E0.05359
G1 X95.763 Y108.500 E0.05363
G1 X93.757 Y109.009 E0.06491
G1 X91.713 Y109.301 E0.06474
G1 X90.003 Y109.377 E0.05367
G1 X87.946 Y109.268 E0.06456
G1 X86.248 Y109.010 E0.05386
G1 X84.589 Y108.606 E0.05353
G1 X82.632 Y107.922 E0.06501
G1 X81.087 Y107.205 E0.05341
G1 X79.302 Y106.156 E0.06491
G1 X77.637 Y104.921 E0.06501
G1 X76.372 Y103.775 E0.05351
G1 X74.990 Y102.254 E0.06445
G1 X73.963 Y100.876 E0.05387
G1 X73.068 Y99.423 E0.05351
G1 X72.158 Y97.560 E0.06501
G1 X71.458 Y95.626 E0.06447
G1 X71.032 Y93.962 E0.05386
M73 P2 R23
G1 X70.718 Y91.912 E0.06503
G1 X70.624 Y90.184 E0.05426
G1 X70.715 Y88.113 E0.06501
G1 X71.026 Y86.068 E0.06484
G1 X71.451 Y84.397 E0.05408
G1 X72.148 Y82.464 E0.06441
G1 X72.892 Y80.901 E0.05429
G1 X73.958 Y79.132 E0.06475
G1 X74.973 Y77.767 E0.05334
G1 X76.279 Y76.326 E0.06097
M204 S1250
; printing object ScrollSawAdaptor02.stl id:0 copy 0
G1 E-2.24000 F4200.000
;WIPE_START
G1 F7200.000
G1 X77.491 Y75.213 E-0.91200
;WIPE_END
G1 E-0.04800 F4200.000
G1 Z0.400 F9000.000
G1 X78.550 Y78.524
G1 Z0.200
G1 E3.20000 F2400.000
M204 S800
;TYPE:Perimeter
G1 F1200.000
G1 X79.106 Y77.993 E0.02412
G1 X79.911 Y77.309 E0.03314
G1 X80.470 Y76.884 E0.02202
G1 X81.048 Y76.483 E0.02202
G1 X81.639 Y76.110 E0.02193
G1 X82.564 Y75.593 E0.03324
G1 X83.190 Y75.287 E0.02183
G1 X83.836 Y75.005 E0.02212
G1 X84.489 Y74.753 E0.02192
G1 X85.497 Y74.425 E0.03323
G1 X86.173 Y74.245 E0.02193
G1 X86.855 Y74.095 E0.02193
G1 X87.901 Y73.924 E0.03323
G1 X88.597 Y73.848 E0.02193
G1 X89.295 Y73.803 E0.02193
G1 X90.351 Y73.791 E0.03314
G1 X91.053 Y73.821 E0.02202
G1 X91.750 Y73.882 E0.02193
G1 X92.796 Y74.030 E0.03314
G1 X93.485 Y74.166 E0.02202
G1 X94.168 Y74.332 E0.02202
G1 X94.843 Y74.527 E0.02203
G1 X95.505 Y74.751 E0.02193
G1 X96.490 Y75.143 E0.03323
G1 X97.122 Y75.435 E0.02183
G1 X98.056 Y75.930 E0.03314
G1 X98.658 Y76.292 E0.02202
G1 X99.243 Y76.680 E0.02202
G1 X99.809 Y77.091 E0.02193
G1 X100.629 Y77.758 E0.03314
G1 X101.150 Y78.230 E0.02202
G1 X101.649 Y78.724 E0.02202
G1 X102.124 Y79.237 E0.02193
G1 X102.800 Y80.049 E0.03314
G1 X103.219 Y80.613 E0.02202
G1 X103.613 Y81.194 E0.02202
G1 X103.982 Y81.792 E0.02203
G1 X104.324 Y82.406 E0.02203
G1 X104.638 Y83.031 E0.02193
G1 X105.061 Y83.999 E0.03314
G1 X105.419 Y84.990 E0.03304
G1 X105.622 Y85.663 E0.02202
G1 X105.795 Y86.343 E0.02202
G1 X105.939 Y87.031 E0.02203
G1 X106.052 Y87.721 E0.02193
G1 X106.166 Y88.772 E0.03314
G1 X106.204 Y89.473 E0.02202
G1 X106.212 Y90.176 E0.02202
G1 X106.189 Y90.875 E0.02193
G1 X106.098 Y91.928 E0.03314
G1 X105.999 Y92.623 E0.02202
G1 X105.871 Y93.310 E0.02192
G1 X105.621 Y94.340 E0.03323
G1 X105.420 Y95.007 E0.02183
G1 X105.060 Y96.004 E0.03323
G1 X104.788 Y96.645 E0.02183
G1 X104.323 Y97.597 E0.03323
G1 X103.982 Y98.208 E0.02193
G1 X103.615 Y98.803 E0.02193
G1 X103.219 Y99.387 E0.02212
G1 X102.800 Y99.951 E0.02202
G1 X102.357 Y100.496 E0.02203
G1 X101.893 Y101.019 E0.02193
G1 X101.147 Y101.773 E0.03323
G1 X100.629 Y102.242 E0.02193
G1 X100.089 Y102.691 E0.02203
G1 X99.532 Y103.114 E0.02193
G1 X98.655 Y103.709 E0.03323
G1 X98.056 Y104.070 E0.02193
G1 X97.439 Y104.406 E0.02203
G1 X96.810 Y104.713 E0.02193
G1 X95.834 Y105.126 E0.03324
G1 X95.177 Y105.364 E0.02193
G1 X94.506 Y105.574 E0.02203
G1 X93.831 Y105.754 E0.02193
G1 X92.793 Y105.970 E0.03324
G1 X92.102 Y106.076 E0.02193
G1 X91.406 Y106.152 E0.02193
G1 X90.351 Y106.209 E0.03314
G1 X89.652 Y106.209 E0.02192
G1 X88.594 Y106.152 E0.03323
G1 X87.898 Y106.076 E0.02193
G1 X87.204 Y105.970 E0.02203
G1 X86.515 Y105.834 E0.02203
G1 X85.832 Y105.668 E0.02203
G1 X85.157 Y105.473 E0.02203
G1 X84.495 Y105.249 E0.02193
G1 X83.510 Y104.857 E0.03323
G1 X82.878 Y104.565 E0.02183
G1 X81.944 Y104.070 E0.03314
G1 X81.342 Y103.708 E0.02202
G1 X80.757 Y103.320 E0.02202
G1 X80.191 Y102.909 E0.02193
G1 X79.371 Y102.242 E0.03314
G1 X78.850 Y101.770 E0.02202
G1 X78.351 Y101.276 E0.02202
G1 X77.876 Y100.763 E0.02193
G1 X77.200 Y99.951 E0.03314
G1 X76.781 Y99.387 E0.02202
G1 X76.387 Y98.806 E0.02202
G1 X76.018 Y98.208 E0.02203
G1 X75.676 Y97.594 E0.02203
G1 X75.362 Y96.969 E0.02193
G1 X74.939 Y96.001 E0.03314
G1 X74.581 Y95.010 E0.03304
G1 X74.378 Y94.337 E0.02202
G1 X74.205 Y93.657 E0.02202
G1 X74.061 Y92.969 E0.02203
G1 X73.948 Y92.279 E0.02193
G1 X73.834 Y91.228 E0.03314
G1 X73.796 Y90.527 E0.02202
G1 X73.788 Y89.824 E0.02202
G1 X73.811 Y89.125 E0.02193
G1 X73.902 Y88.072 E0.03314
G1 X74.001 Y87.377 E0.02202
G1 X74.129 Y86.686 E0.02202
G1 X74.287 Y86.005 E0.02193
G1 X74.581 Y84.990 E0.03314
G1 X74.812 Y84.327 E0.02202
G1 X75.072 Y83.674 E0.02202
G1 X75.359 Y83.036 E0.02193
G1 X75.845 Y82.094 E0.03324
G1 X76.199 Y81.491 E0.02193
G1 X76.581 Y80.902 E0.02203
G1 X76.986 Y80.331 E0.02193
G1 X77.645 Y79.502 E0.03323
G1 X78.110 Y78.979 E0.02193
G1 X78.508 Y78.567 E0.01795
M204 S1250
G1 X78.237 Y78.305 F9000.000
M204 S800
;TYPE:External perimeter
G1 F1200.000
G1 X78.854 Y77.712 E0.02683
G1 X79.675 Y77.015 E0.03378
G1 X80.249 Y76.578 E0.02260
G1 X80.839 Y76.169 E0.02254
G1 X81.446 Y75.785 E0.02250
G1 X82.389 Y75.259 E0.03388
G1 X83.031 Y74.945 E0.02241
G1 X83.693 Y74.656 E0.02263
G1 X84.362 Y74.397 E0.02250
G1 X85.390 Y74.063 E0.03388
G1 X86.083 Y73.879 E0.02250
G1 X86.784 Y73.725 E0.02250
G1 X87.851 Y73.550 E0.03388
G1 X88.564 Y73.472 E0.02250
G1 X89.280 Y73.426 E0.02250
G1 X90.358 Y73.414 E0.03378
G1 X91.078 Y73.445 E0.02260
G1 X91.793 Y73.507 E0.02250
G1 X92.859 Y73.658 E0.03378
G1 X93.566 Y73.798 E0.02260
G1 X94.265 Y73.968 E0.02254
G1 X94.955 Y74.167 E0.02254
G1 X95.635 Y74.397 E0.02250
G1 X96.639 Y74.796 E0.03388
G1 X97.289 Y75.097 E0.02247
G1 X98.241 Y75.602 E0.03378
G1 X98.859 Y75.973 E0.02260
G1 X99.458 Y76.370 E0.02254
G1 X100.039 Y76.792 E0.02250
G1 X100.875 Y77.472 E0.03378
G1 X101.409 Y77.956 E0.02260
G1 X101.920 Y78.461 E0.02254
G1 X102.408 Y78.988 E0.02250
G1 X103.096 Y79.816 E0.03378
G1 X103.526 Y80.395 E0.02260
G1 X103.930 Y80.990 E0.02254
G1 X104.307 Y81.601 E0.02254
G1 X104.657 Y82.229 E0.02254
G1 X104.980 Y82.870 E0.02250
G1 X105.412 Y83.859 E0.03384
G1 X105.777 Y84.872 E0.03374
G1 X105.985 Y85.562 E0.02260
G1 X106.162 Y86.258 E0.02254
G1 X106.309 Y86.962 E0.02254
G1 X106.426 Y87.670 E0.02250
G1 X106.542 Y88.741 E0.03378
G1 X106.581 Y89.461 E0.02260
G1 X106.589 Y90.180 E0.02254
G1 X106.566 Y90.897 E0.02250
G1 X106.472 Y91.970 E0.03378
G1 X106.371 Y92.684 E0.02260
G1 X106.240 Y93.390 E0.02250
G1 X105.985 Y94.439 E0.03388
G1 X105.778 Y95.125 E0.02247
G1 X105.411 Y96.142 E0.03388
G1 X105.132 Y96.801 E0.02247
G1 X104.657 Y97.772 E0.03388
G1 X104.307 Y98.399 E0.02250
G1 X103.931 Y99.008 E0.02244
G1 X103.526 Y99.605 E0.02263
G1 X103.098 Y100.182 E0.02254
G1 X102.644 Y100.740 E0.02254
G1 X102.168 Y101.277 E0.02250
G1 X101.408 Y102.045 E0.03388
G1 X100.876 Y102.527 E0.02250
G1 X100.324 Y102.987 E0.02254
G1 X99.752 Y103.421 E0.02250
G1 X98.858 Y104.027 E0.03388
G1 X98.243 Y104.397 E0.02250
G1 X97.612 Y104.741 E0.02254
G1 X96.967 Y105.056 E0.02250
G1 X95.972 Y105.478 E0.03388
G1 X95.297 Y105.722 E0.02250
G1 X94.611 Y105.936 E0.02254
G1 X93.918 Y106.121 E0.02250
G1 X92.860 Y106.342 E0.03388
G1 X92.151 Y106.450 E0.02250
G1 X91.437 Y106.528 E0.02250
G1 X90.361 Y106.586 E0.03378
G1 X89.642 Y106.586 E0.02256
G1 X88.563 Y106.528 E0.03387
G1 X87.849 Y106.450 E0.02250
G1 X87.139 Y106.341 E0.02254
G1 X86.434 Y106.202 E0.02254
G1 X85.735 Y106.032 E0.02254
G1 X85.045 Y105.833 E0.02254
G1 X84.365 Y105.603 E0.02250
G1 X83.361 Y105.204 E0.03388
G1 X82.711 Y104.903 E0.02247
M73 P2 R22
G1 X81.759 Y104.398 E0.03378
G1 X81.141 Y104.027 E0.02260
G1 X80.542 Y103.630 E0.02254
G1 X79.961 Y103.208 E0.02250
G1 X79.125 Y102.528 E0.03378
G1 X78.591 Y102.044 E0.02260
G1 X78.080 Y101.539 E0.02254
G1 X77.592 Y101.012 E0.02250
G1 X76.904 Y100.184 E0.03378
G1 X76.474 Y99.605 E0.02260
G1 X76.070 Y99.010 E0.02254
G1 X75.693 Y98.399 E0.02254
G1 X75.343 Y97.771 E0.02254
G1 X75.020 Y97.130 E0.02250
G1 X74.588 Y96.141 E0.03384
G1 X74.223 Y95.128 E0.03374
G1 X74.015 Y94.438 E0.02260
G1 X73.838 Y93.742 E0.02254
G1 X73.691 Y93.038 E0.02254
G1 X73.574 Y92.330 E0.02250
G1 X73.458 Y91.259 E0.03378
G1 X73.419 Y90.539 E0.02260
G1 X73.411 Y89.820 E0.02254
G1 X73.434 Y89.103 E0.02250
G1 X73.528 Y88.030 E0.03378
G1 X73.629 Y87.316 E0.02260
G1 X73.760 Y86.609 E0.02254
G1 X73.922 Y85.910 E0.02250
G1 X74.221 Y84.875 E0.03378
G1 X74.459 Y84.195 E0.02260
G1 X74.725 Y83.527 E0.02254
G1 X75.019 Y82.872 E0.02250
G1 X75.515 Y81.912 E0.03388
G1 X75.878 Y81.294 E0.02250
G1 X76.269 Y80.690 E0.02254
G1 X76.684 Y80.105 E0.02250
G1 X77.357 Y79.259 E0.03388
G1 X77.833 Y78.722 E0.02250
G1 X78.195 Y78.348 E0.01633
M204 S1250
G1 X78.623 Y78.408 F9000.000
G1 E-2.24000 F4200.000
;WIPE_START
G1 F7200.000
G1 X78.854 Y77.712 E-0.50739
G1 X79.410 Y77.240 E-0.40461
;WIPE_END
G1 E-0.04800 F4200.000
G1 Z0.400 F9000.000
G1 X99.611 Y77.087
G1 Z0.200
G1 E3.20000 F2400.000
M204 S800
;TYPE:Solid infill
;WIDTH:0.422128
G1 F1200.000
G1 X101.465 Y78.942 E0.08269
G1 X101.912 Y79.423 E0.02070
G1 X102.577 Y80.224 E0.03284
G1 X102.988 Y80.777 E0.02171
G1 X103.440 Y81.452 E0.02562
G1 X98.543 Y76.556 E0.21835
G1 X97.917 Y76.177 E0.02310
G1 X97.302 Y75.851 E0.02193
G1 X104.160 Y82.709 E0.30580
G1 X104.382 Y83.151 E0.01560
G1 X104.627 Y83.712 E0.01933
G1 X96.278 Y75.363 E0.37233
M73 P3 R22
G1 X95.388 Y75.010 E0.03018
G1 X104.977 Y84.598 E0.42758
G1 X105.249 Y85.407 E0.02691
G1 X94.591 Y74.749 E0.47526
G1 X93.853 Y74.547 E0.02415
G1 X105.453 Y86.147 E0.51730
G1 X105.610 Y86.840 E0.02240
G1 X93.160 Y74.390 E0.55516
G1 X92.509 Y74.275 E0.02086
G1 X105.728 Y87.494 E0.58948
G1 X105.810 Y88.113 E0.01966
G1 X91.884 Y74.187 E0.62099
G1 X91.287 Y74.126 E0.01893
G1 X105.875 Y88.714 E0.65054
G1 X105.911 Y89.286 E0.01806
G1 X90.715 Y74.090 E0.67763
G1 X90.164 Y74.076 E0.01735
G1 X105.925 Y89.837 E0.70281
G1 X105.923 Y90.370 E0.01682
G1 X89.634 Y74.082 E0.72634
G1 X89.114 Y74.098 E0.01641
G1 X105.904 Y90.888 E0.74872
G1 X105.861 Y91.382 E0.01562
G1 X88.611 Y74.131 E0.76924
G1 X88.127 Y74.184 E0.01534
G1 X105.818 Y91.875 E0.78890
M73 P4 R22
G1 X105.753 Y92.346 E0.01499
G1 X87.657 Y74.250 E0.80692
G1 X87.197 Y74.326 E0.01472
G1 X105.677 Y92.807 E0.82409
G1 X105.593 Y93.258 E0.01449
G1 X86.744 Y74.409 E0.84051
G1 X86.304 Y74.506 E0.01419
G1 X105.488 Y93.690 E0.85544
G1 X105.383 Y94.121 E0.01400
G1 X85.878 Y74.616 E0.86976
G1 X85.460 Y74.735 E0.01370
G1 X105.265 Y94.540 E0.88316
G1 X105.140 Y94.951 E0.01354
G1 X85.055 Y74.866 E0.89561
G1 X84.651 Y74.998 E0.01342
G1 X104.998 Y95.345 E0.90731
G1 X104.855 Y95.738 E0.01321
G1 X84.261 Y75.144 E0.91835
G1 X83.876 Y75.296 E0.01303
G1 X104.703 Y96.122 E0.92870
M73 P5 R22
G1 X104.543 Y96.499 E0.01290
G1 X83.503 Y75.459 E0.93822
G1 X83.136 Y75.628 E0.01274
G1 X104.368 Y96.860 E0.94679
G1 X104.192 Y97.220 E0.01264
G1 X82.776 Y75.804 E0.95499
G1 X82.428 Y75.993 E0.01247
G1 X104.011 Y97.575 E0.96241
G1 X103.819 Y97.920 E0.01243
G1 X82.084 Y76.185 E0.96919
G1 X81.742 Y76.379 E0.01240
G1 X103.619 Y98.257 E0.97556
G1 X103.415 Y98.588 E0.01229
G1 X81.413 Y76.587 E0.98110
G1 X81.089 Y76.799 E0.01222
G1 X103.200 Y98.910 E0.98600
G1 X102.984 Y99.230 E0.01217
G1 X80.772 Y77.018 E0.99044
M73 P6 R22
G1 X80.462 Y77.245 E0.01210
G1 X102.755 Y99.537 E0.99406
G1 X102.524 Y99.842 E0.01207
G1 X80.158 Y77.476 E0.99733
G1 X79.865 Y77.719 E0.01201
G1 X102.283 Y100.138 E0.99969
G1 X102.038 Y100.429 E0.01200
G1 X79.575 Y77.966 E1.00168
G1 X79.285 Y78.213 E0.01199
G1 X101.786 Y100.713 E1.00335
G1 X101.525 Y100.989 E0.01196
G1 X79.010 Y78.474 E1.00399
G1 X78.737 Y78.737 E0.01196
G1 X101.258 Y101.258 E1.00426
G1 X100.991 Y101.528 E0.01196
