; generated by PrusaSlicer 2.3.0+win64 on 2021-08-22 at 14:16:32 UTC


;
;

;
;
; 

; external perimeters extrusion width = 0.45mm
; perimeters extrusion width = 0.45mm
; infill extrusion width = 0.45mm
; solid infill extrusion width = 0.45mm
; top infill extrusion width = 0.40mm
; first layer extrusion width = 0.42mm

M73 P0 R57
M201 X1250 Y1250 Z400 E5000 ; sets maximum accelerations, mm/sec^2
M203 X180 Y180 Z12 E80 ; sets maximum feedrates, mm/sec
M204 P1250 R1250 T1250 ; sets acceleration (P, T) and retract acceleration (R), mm/sec^2
M205 X8.00 Y8.00 Z2.00 E10.00 ; sets the jerk limits, mm/sec
M205 S0 T0 ; sets the minimum extruding and travel feed rate, mm/sec
M107
;TYPE:Custom
G90 ; use absolute coordinates
M83 ; extruder relative mode
M104 S170 ; set extruder temp for bed leveling
M140 S60 ; set bed temp
M109 R170 ; wait for bed leveling temp
M190 S60 ; wait for bed temp
G28 ; home all without mesh bed level
G29 ; mesh bed leveling 
M104 S215 ; set extruder temp
G92 E0.0
G1 Y-2.0 X179 F2400
G1 Z3 F720
M109 S215 ; wait for extruder temp

; intro line
G1 X170 F1000
G1 Z0.2 F720
G1 X110.0 E8.0 F900
G1 X40.0 E10.0 F700
G92 E0.0

M221 S95 ; set flow
G21 ; set units to millimeters
G90 ; use absolute coordinates
M83 ; use relative distances for extrusion
M900 K0.2 ; Filament gcode LA 1.5
; ; Filament gcode LA 1.0
;LAYER_CHANGE
;Z:0.2
;HEIGHT:0.2
;BEFORE_LAYER_CHANGE
G92 E0.0
;0.2


G1 E-3.20000 F4200.000
G1 Z0.200 F9000.000
;AFTER_LAYER_CHANGE
;0.2
G1 Z0.400
G1 X75.136 Y74.636
G1 Z0.200
G1 E3.20000 F2400.000
M204 S800
;TYPE:Skirt
;WIDTH:0.42
G1 F1200.000
G1 X76.484 Y73.438 E0.05655
G1 X78.235 Y72.151 E0.06815
G1 X80.108 Y71.049 E0.06814
G1 X82.093 Y70.139 E0.06846
G1 X84.147 Y69.439 E0.06804
G1 X85.889 Y69.022 E0.05617
G1 X88.032 Y68.713 E0.06787
G1 X90.198 Y68.623 E0.06798
G1 X91.990 Y68.715 E0.05626
G1 X94.141 Y69.028 E0.06815
G1 X96.250 Y69.556 E0.06816
G1 X98.295 Y70.297 E0.06819
G1 X100.254 Y71.242 E0.06821
G1 X101.794 Y72.171 E0.05638
G1 X103.537 Y73.455 E0.06787
G1 X105.159 Y74.927 E0.06868
G1 X106.607 Y76.539 E0.06794
G1 X107.887 Y78.293 E0.06809
G1 X108.809 Y79.842 E0.05652
G1 X109.740 Y81.795 E0.06785
G1 X110.470 Y83.840 E0.06808
G1 X110.990 Y85.949 E0.06810
G1 X111.294 Y88.118 E0.06868
G1 X111.377 Y90.009 E0.05933
G1 X111.276 Y92.077 E0.06492
G1 X110.952 Y94.239 E0.06856
G1 X110.411 Y96.353 E0.06843
G1 X109.662 Y98.388 E0.06798
G1 X108.706 Y100.346 E0.06832
G1 X107.770 Y101.882 E0.05641
G1 X106.479 Y103.617 E0.06780
G1 X105.014 Y105.216 E0.06801
G1 X103.387 Y106.666 E0.06832
G1 X101.936 Y107.734 E0.05650
G1 X100.091 Y108.845 E0.06751
G1 X98.106 Y109.780 E0.06881
G1 X96.047 Y110.504 E0.06844
G1 X93.943 Y111.010 E0.06783
G1 X92.172 Y111.266 E0.05610
G1 X90.002 Y111.376 E0.06814
G1 X87.821 Y111.265 E0.06846
G1 X85.679 Y110.935 E0.06797
G1 X83.582 Y110.390 E0.06795
G1 X81.873 Y109.771 E0.05699
G1 X79.918 Y108.850 E0.06775
G1 X78.045 Y107.721 E0.06856
G1 X76.306 Y106.415 E0.06819
G1 X74.709 Y104.938 E0.06819
G1 X73.275 Y103.313 E0.06795
G1 X72.206 Y101.847 E0.05691
G1 X71.098 Y99.984 E0.06796
G1 X70.178 Y98.004 E0.06844
G1 X69.467 Y95.949 E0.06819
G1 X68.972 Y93.844 E0.06780
G1 X68.722 Y92.053 E0.05670
G1 X68.623 Y89.892 E0.06783
G1 X68.746 Y87.708 E0.06858
G1 X69.086 Y85.576 E0.06771
G1 X69.642 Y83.478 E0.06804
G1 X70.265 Y81.783 E0.05662
G1 X71.201 Y79.821 E0.06816
G1 X72.339 Y77.955 E0.06855
G1 X73.662 Y76.214 E0.06856
G1 X75.095 Y74.680 E0.06581
M204 S1250
; printing object ScrollSawAdaptor01.stl id:0 copy 0
G1 E-2.24000 F4200.000
;WIPE_START
G1 F7200.000
G1 X76.322 Y73.583 E-0.91200
;WIPE_END
G1 E-0.04800 F4200.000
G1 Z0.400 F9000.000
G1 X77.267 Y76.841
G1 Z0.200
G1 E3.20000 F2400.000
M204 S800
;TYPE:External perimeter
G1 F1200.000
G1 X77.857 Y76.293 E0.02524
G1 X78.445 Y75.795 E0.02416
G1 X79.361 Y75.096 E0.03612
G1 X79.998 Y74.661 E0.02420
G1 X80.983 Y74.063 E0.03612
G1 X81.661 Y73.697 E0.02416
G1 X82.353 Y73.361 E0.02413
G1 X83.059 Y73.055 E0.02413
G1 X83.777 Y72.778 E0.02413
G1 X84.507 Y72.532 E0.02416
G1 X85.618 Y72.220 E0.03615
G1 X86.745 Y71.980 E0.03615
G1 X87.506 Y71.859 E0.02416
G1 X88.272 Y71.770 E0.02416
G1 X89.422 Y71.697 E0.03612
G1 X90.193 Y71.689 E0.02420
G1 X91.344 Y71.738 E0.03612
G1 X92.112 Y71.810 E0.02416
G1 X92.874 Y71.915 E0.02413
G1 X93.632 Y72.052 E0.02416
G1 X94.755 Y72.316 E0.03615
G1 X95.858 Y72.651 E0.03615
G1 X96.583 Y72.913 E0.02416
G1 X97.295 Y73.204 E0.02413
G1 X97.995 Y73.526 E0.02416
G1 X99.015 Y74.062 E0.03612
G1 X99.678 Y74.455 E0.02416
G1 X100.323 Y74.876 E0.02416
G1 X101.255 Y75.556 E0.03615
G1 X102.142 Y76.292 E0.03615
G1 X102.708 Y76.815 E0.02416
G1 X103.250 Y77.361 E0.02413
G1 X103.770 Y77.930 E0.02416
G1 X104.502 Y78.820 E0.03612
G1 X104.960 Y79.440 E0.02416
G1 X105.390 Y80.078 E0.02413
G1 X105.794 Y80.734 E0.02416
G1 X106.345 Y81.746 E0.03612
G1 X106.678 Y82.442 E0.02420
G1 X107.121 Y83.505 E0.03612
G1 X107.379 Y84.232 E0.02420
G1 X107.707 Y85.337 E0.03612
G1 X107.888 Y86.087 E0.02420
G1 X108.099 Y87.219 E0.03612
G1 X108.200 Y87.983 E0.02416
G1 X108.269 Y88.750 E0.02413
G1 X108.305 Y89.519 E0.02413
G1 X108.309 Y90.288 E0.02413
G1 X108.281 Y91.058 E0.02416
G1 X108.178 Y92.206 E0.03612
G1 X108.069 Y92.968 E0.02416
G1 X107.928 Y93.726 E0.02416
G1 X107.658 Y94.847 E0.03615
G1 X107.317 Y95.949 E0.03615
G1 X107.052 Y96.672 E0.02416
G1 X106.756 Y97.384 E0.02416
G1 X106.259 Y98.423 E0.03612
G1 X105.889 Y99.100 E0.02420
G1 X105.288 Y100.078 E0.03600
G1 X104.848 Y100.716 E0.02428
G1 X104.384 Y101.331 E0.02416
G1 X103.643 Y102.213 E0.03612
G1 X103.117 Y102.776 E0.02416
G1 X102.568 Y103.317 E0.02416
G1 X101.705 Y104.081 E0.03612
G1 X101.105 Y104.559 E0.02404
G1 X100.481 Y105.014 E0.02425
G1 X99.840 Y105.442 E0.02416
G1 X98.853 Y106.028 E0.03600
G1 X98.167 Y106.388 E0.02428
G1 X97.471 Y106.717 E0.02413
G1 X96.761 Y107.017 E0.02416
G1 X95.681 Y107.407 E0.03600
G1 X94.939 Y107.632 E0.02432
G1 X93.821 Y107.908 E0.03612
G1 X93.064 Y108.053 E0.02416
G1 X92.301 Y108.166 E0.02416
G1 X91.155 Y108.274 E0.03612
G1 X90.384 Y108.307 E0.02420
G1 X89.232 Y108.295 E0.03612
G1 X88.462 Y108.246 E0.02416
G1 X87.696 Y108.165 E0.02416
G1 X86.562 Y107.985 E0.03600
G1 X85.805 Y107.824 E0.02428
G1 X85.059 Y107.631 E0.02416
G1 X83.960 Y107.286 E0.03612
G1 X83.238 Y107.016 E0.02416
G1 X82.528 Y106.717 E0.02416
G1 X81.495 Y106.215 E0.03600
G1 X80.817 Y105.841 E0.02428
G1 X80.159 Y105.442 E0.02413
G1 X79.518 Y105.014 E0.02416
G1 X78.595 Y104.325 E0.03612
G1 X78.001 Y103.832 E0.02420
G1 X77.158 Y103.053 E0.03600
G1 X76.617 Y102.498 E0.02428
G1 X76.103 Y101.924 E0.02416
G1 X75.381 Y101.026 E0.03612
G1 X74.930 Y100.401 E0.02416
G1 X74.506 Y99.758 E0.02416
G1 X73.925 Y98.768 E0.03600
G1 X73.568 Y98.080 E0.02428
G1 X73.243 Y97.383 E0.02413
G1 X72.948 Y96.672 E0.02413
G1 X72.683 Y95.950 E0.02413
G1 X72.448 Y95.216 E0.02416
G1 X72.154 Y94.101 E0.03615
G1 X71.931 Y92.970 E0.03615
G1 X71.822 Y92.206 E0.02420
G1 X71.719 Y91.062 E0.03600
G1 X71.691 Y90.288 E0.02428
G1 X71.695 Y89.519 E0.02413
G1 X71.731 Y88.750 E0.02413
G1 X71.800 Y87.982 E0.02416
G1 X71.963 Y86.842 E0.03612
G1 X72.112 Y86.086 E0.02416
G1 X72.292 Y85.337 E0.02416
G1 X72.621 Y84.232 E0.03612
G1 X72.879 Y83.506 E0.02416
G1 X73.167 Y82.793 E0.02413
G1 X73.485 Y82.091 E0.02416
G1 X74.015 Y81.068 E0.03612
G1 X74.405 Y80.402 E0.02420
G1 X75.040 Y79.441 E0.03612
G1 X75.498 Y78.820 E0.02420
G1 X76.229 Y77.930 E0.03612
G1 X76.749 Y77.361 E0.02416
G1 X77.225 Y76.883 E0.02114
M204 S1250
G1 X77.170 Y76.453 F9000.000
G1 X76.957 Y76.617
M204 S800
G1 F1200.000
G1 X77.584 Y76.031 E0.02690
G1 X78.464 Y75.297 E0.03592
G1 X79.076 Y74.836 E0.02404
G1 X80.029 Y74.193 E0.03604
G1 X80.683 Y73.800 E0.02392
G1 X81.696 Y73.258 E0.03604
G1 X82.387 Y72.932 E0.02395
G1 X83.092 Y72.635 E0.02398
G1 X83.807 Y72.367 E0.02395
G1 X84.902 Y72.020 E0.03601
G1 X86.012 Y71.742 E0.03588
G1 X86.764 Y71.594 E0.02404
G1 X87.902 Y71.429 E0.03604
G1 X88.662 Y71.359 E0.02395
G1 X89.425 Y71.320 E0.02395
G1 X90.571 Y71.320 E0.03592
G1 X91.337 Y71.359 E0.02407
G1 X92.099 Y71.430 E0.02398
G1 X92.856 Y71.531 E0.02395
G1 X93.985 Y71.741 E0.03601
G1 X95.099 Y72.021 E0.03601
G1 X95.828 Y72.244 E0.02392
G1 X96.909 Y72.636 E0.03604
G1 X97.613 Y72.932 E0.02395
G1 X98.304 Y73.258 E0.02395
G1 X99.316 Y73.799 E0.03601
G1 X100.294 Y74.402 E0.03601
G1 X100.923 Y74.836 E0.02395
G1 X101.533 Y75.295 E0.02395
G1 X102.415 Y76.031 E0.03604
G1 X102.976 Y76.550 E0.02395
G1 X103.515 Y77.092 E0.02398
G1 X104.032 Y77.656 E0.02398
G1 X104.525 Y78.240 E0.02395
G1 X105.218 Y79.152 E0.03592
G1 X105.650 Y79.786 E0.02404
G1 X106.248 Y80.767 E0.03604
G1 X106.611 Y81.438 E0.02392
G1 X107.106 Y82.475 E0.03604
G1 X107.399 Y83.180 E0.02392
G1 X107.785 Y84.262 E0.03604
G1 X108.005 Y84.993 E0.02392
G1 X108.278 Y86.109 E0.03604
G1 X108.422 Y86.858 E0.02392
G1 X108.580 Y87.996 E0.03604
G1 X108.647 Y88.757 E0.02395
G1 X108.682 Y89.518 E0.02386
G1 X108.686 Y90.286 E0.02410
G1 X108.659 Y91.050 E0.02395
G1 X108.559 Y92.195 E0.03604
G1 X108.454 Y92.950 E0.02392
G1 X108.238 Y94.075 E0.03592
G1 X108.055 Y94.821 E0.02407
G1 X107.843 Y95.556 E0.02398
G1 X107.601 Y96.280 E0.02395
G1 X107.182 Y97.349 E0.03600
G1 X106.698 Y98.391 E0.03600
G1 X106.342 Y99.065 E0.02392
G1 X105.756 Y100.049 E0.03592
G1 X105.330 Y100.688 E0.02407
G1 X104.879 Y101.307 E0.02398
G1 X104.405 Y101.905 E0.02395
G1 X103.646 Y102.768 E0.03604
G1 X103.113 Y103.315 E0.02395
G1 X102.558 Y103.840 E0.02395
G1 X101.684 Y104.585 E0.03601
G1 X100.766 Y105.275 E0.03601
M73 P0 R56
G1 X100.133 Y105.702 E0.02395
G1 X99.483 Y106.103 E0.02395
G1 X98.475 Y106.655 E0.03604
G1 X97.788 Y106.987 E0.02392
G1 X96.732 Y107.433 E0.03592
G1 X96.011 Y107.694 E0.02407
G1 X95.282 Y107.926 E0.02398
G1 X94.545 Y108.127 E0.02395
G1 X93.423 Y108.371 E0.03601
G1 X92.288 Y108.547 E0.03601
G1 X91.529 Y108.625 E0.02392
G1 X90.385 Y108.684 E0.03592
G1 X89.619 Y108.684 E0.02404
G1 X88.471 Y108.625 E0.03604
G1 X87.712 Y108.547 E0.02392
G1 X86.576 Y108.371 E0.03604
G1 X85.828 Y108.216 E0.02395
G1 X85.086 Y108.030 E0.02398
G1 X84.353 Y107.814 E0.02395
G1 X83.269 Y107.433 E0.03604
G1 X82.562 Y107.144 E0.02395
G1 X81.868 Y106.825 E0.02395
G1 X80.849 Y106.294 E0.03604
G1 X80.191 Y105.907 E0.02392
G1 X79.235 Y105.276 E0.03592
G1 X78.617 Y104.821 E0.02407
G1 X78.021 Y104.344 E0.02395
G1 X77.161 Y103.580 E0.03604
G1 X76.617 Y103.044 E0.02395
G1 X76.095 Y102.486 E0.02395
G1 X75.355 Y101.609 E0.03601
G1 X74.670 Y100.687 E0.03601
G1 X74.246 Y100.053 E0.02392
G1 X73.660 Y99.069 E0.03592
G1 X73.301 Y98.390 E0.02407
G1 X72.972 Y97.700 E0.02395
G1 X72.532 Y96.640 E0.03601
G1 X72.157 Y95.555 E0.03600
G1 X71.944 Y94.821 E0.02395
M73 P1 R56
G1 X71.763 Y94.079 E0.02395
G1 X71.547 Y92.954 E0.03592
G1 X71.441 Y92.194 E0.02407
G1 X71.367 Y91.433 E0.02395
G1 X71.314 Y90.285 E0.03604
G1 X71.318 Y89.521 E0.02395
G1 X71.353 Y88.757 E0.02398
G1 X71.419 Y87.996 E0.02395
G1 X71.578 Y86.858 E0.03604
G1 X71.721 Y86.108 E0.02395
G1 X71.896 Y85.364 E0.02395
G1 X72.215 Y84.261 E0.03601
G1 X72.599 Y83.183 E0.03588
G1 X72.894 Y82.475 E0.02404
G1 X73.388 Y81.438 E0.03604
G1 X73.752 Y80.766 E0.02395
G1 X74.144 Y80.109 E0.02398
G1 X74.561 Y79.469 E0.02395
G1 X75.237 Y78.540 E0.03604
G1 X75.717 Y77.947 E0.02392
G1 X76.485 Y77.092 E0.03604
G1 X76.915 Y76.660 E0.01911
M204 S1250
G1 X77.343 Y76.725 F9000.000
; stop printing object ScrollSawAdaptor01.stl id:0 copy 0
M106 S84.15
;LAYER_CHANGE
;Z:0.4
;HEIGHT:0.2
;BEFORE_LAYER_CHANGE
G92 E0.0
;0.4


G1 E-2.24000 F4200.000
;WIPE_START
G1 F7200.000
G1 X77.584 Y76.031 E-0.50876
G1 X78.143 Y75.565 E-0.40324
;WIPE_END
G1 E-0.04800 F4200.000
G1 Z0.400 F9000.000
;AFTER_LAYER_CHANGE
;0.4
M104 S210 ; set temperature
G1 Z0.600
G1 X76.354 Y73.553
G1 Z0.400
G1 E3.20000 F2400.000
;TYPE:Skirt
G1 F2234
G1 X76.484 Y73.438 E0.00543
G1 X78.235 Y72.151 E0.06815
G1 X80.108 Y71.049 E0.06814
G1 X82.093 Y70.139 E0.06846
G1 X84.147 Y69.439 E0.06804
G1 X85.889 Y69.022 E0.05617
G1 X88.032 Y68.713 E0.06787
G1 X90.198 Y68.623 E0.06798
G1 X91.990 Y68.715 E0.05626
G1 X94.141 Y69.028 E0.06815
G1 X96.250 Y69.556 E0.06816
G1 X98.295 Y70.297 E0.06819
G1 X100.254 Y71.242 E0.06821
G1 X101.794 Y72.171 E0.05638
G1 X103.537 Y73.455 E0.06787
G1 X105.159 Y74.927 E0.06868
G1 X106.607 Y76.539 E0.06794
G1 X107.887 Y78.293 E0.06809
G1 X108.809 Y79.842 E0.05652
G1 X109.740 Y81.795 E0.06785
G1 X110.470 Y83.840 E0.06808
G1 X110.990 Y85.949 E0.06810
G1 X111.294 Y88.118 E0.06868
G1 X111.377 Y90.009 E0.05933
G1 X111.276 Y92.077 E0.06492
G1 X110.952 Y94.239 E0.06856
G1 X110.411 Y96.353 E0.06843
G1 X109.662 Y98.388 E0.06798
G1 X108.706 Y100.346 E0.06832
G1 X107.770 Y101.882 E0.05641
G1 X106.479 Y103.617 E0.06780
G1 X105.014 Y105.216 E0.06801
G1 X103.387 Y106.666 E0.06832
G1 X101.936 Y107.734 E0.05650
G1 X100.091 Y108.845 E0.06751
G1 X98.106 Y109.780 E0.06881
G1 X96.047 Y110.504 E0.06844
G1 X93.943 Y111.010 E0.06783
G1 X92.172 Y111.266 E0.05610
G1 X90.002 Y111.376 E0.06814
G1 X87.821 Y111.265 E0.06846
G1 X85.679 Y110.935 E0.06797
G1 X83.582 Y110.390 E0.06795
G1 X81.873 Y109.771 E0.05699
G1 X79.918 Y108.850 E0.06775
G1 X78.045 Y107.721 E0.06856
G1 X76.306 Y106.415 E0.06819
G1 X74.709 Y104.938 E0.06819
G1 X73.275 Y103.313 E0.06795
G1 X72.206 Y101.847 E0.05691
G1 X71.098 Y99.984 E0.06796
G1 X70.178 Y98.004 E0.06844
G1 X69.467 Y95.949 E0.06819
G1 X68.972 Y93.844 E0.06780
G1 X68.722 Y92.053 E0.05670
G1 X68.623 Y89.892 E0.06783
G1 X68.746 Y87.708 E0.06858
G1 X69.086 Y85.576 E0.06771
G1 X69.642 Y83.478 E0.06804
G1 X70.265 Y81.783 E0.05662
G1 X71.201 Y79.821 E0.06816
G1 X72.339 Y77.955 E0.06855
G1 X73.662 Y76.214 E0.06856
G1 X75.136 Y74.636 E0.06769
G1 X76.309 Y73.593 E0.04923
; printing object ScrollSawAdaptor01.stl id:0 copy 0
G1 E-2.24000 F4200.000
;WIPE_START
G1 F7200.000
G1 X76.484 Y73.438 E-0.12927
G1 X77.622 Y72.602 E-0.78273
;WIPE_END
G1 E-0.04800 F4200.000
G1 Z0.600 F9000.000
G1 X78.270 Y76.054
G1 Z0.400
G1 E3.20000 F2400.000
M204 S800
;TYPE:External perimeter
;WIDTH:0.45
G1 F1800.000
G1 X79.092 Y75.399 E0.03559
G1 X79.726 Y74.946 E0.02635
G1 X80.368 Y74.527 E0.02597
G1 X81.350 Y73.958 E0.03842
G1 X82.043 Y73.603 E0.02635
G1 X82.739 Y73.283 E0.02593
G1 X83.449 Y72.993 E0.02597
G1 X84.531 Y72.614 E0.03880
G1 X85.269 Y72.399 E0.02600
G1 X86.373 Y72.139 E0.03842
G1 X87.139 Y72.000 E0.02635
G1 X87.899 Y71.896 E0.02597
G1 X89.042 Y71.800 E0.03880
G1 X89.810 Y71.775 E0.02600
G1 X90.944 Y71.799 E0.03842
G1 X91.721 Y71.856 E0.02635
G1 X92.483 Y71.944 E0.02597
G1 X93.613 Y72.136 E0.03880
G1 X94.363 Y72.304 E0.02601
G1 X95.466 Y72.614 E0.03880
G1 X96.193 Y72.859 E0.02597
G1 X96.909 Y73.135 E0.02597
G1 X97.956 Y73.603 E0.03880
G1 X98.639 Y73.952 E0.02597
G1 X99.306 Y74.330 E0.02596
G1 X100.263 Y74.939 E0.03842
G1 X100.897 Y75.391 E0.02635
G1 X101.502 Y75.863 E0.02597
G1 X102.368 Y76.614 E0.03880
G1 X102.921 Y77.146 E0.02597
G1 X103.449 Y77.701 E0.02592
G1 X103.955 Y78.277 E0.02597
G1 X104.664 Y79.178 E0.03880
G1 X105.107 Y79.805 E0.02596
G1 X105.522 Y80.449 E0.02597
G1 X106.092 Y81.444 E0.03880
G1 X106.438 Y82.130 E0.02600
G1 X106.896 Y83.169 E0.03842
G1 X107.173 Y83.896 E0.02635
G1 X107.414 Y84.624 E0.02597
G1 X107.715 Y85.719 E0.03842
G1 X107.882 Y86.479 E0.02635
G1 X108.014 Y87.234 E0.02593
G1 X108.114 Y87.994 E0.02596
G1 X108.204 Y89.126 E0.03842
G1 X108.225 Y89.904 E0.02635
G1 X108.213 Y90.670 E0.02593
G1 X108.168 Y91.435 E0.02597
G1 X108.042 Y92.575 E0.03880
G1 X107.918 Y93.332 E0.02597
G1 X107.762 Y94.083 E0.02597
G1 X107.470 Y95.191 E0.03880
G1 X107.236 Y95.922 E0.02597
G1 X106.971 Y96.642 E0.02597
G1 X106.520 Y97.696 E0.03880
G1 X106.182 Y98.384 E0.02597
G1 X105.814 Y99.058 E0.02596
G1 X105.220 Y100.024 E0.03842
G1 X104.778 Y100.665 E0.02635
G1 X104.316 Y101.278 E0.02597
G1 X103.586 Y102.147 E0.03842
G1 X103.055 Y102.716 E0.02635
G1 X102.509 Y103.253 E0.02593
G1 X101.940 Y103.768 E0.02597
G1 X101.051 Y104.492 E0.03880
G1 X100.432 Y104.944 E0.02597
G1 X99.793 Y105.370 E0.02596
G1 X98.818 Y105.949 E0.03842
G1 X98.129 Y106.311 E0.02635
G1 X97.436 Y106.639 E0.02593
G1 X96.729 Y106.937 E0.02596
G1 X95.662 Y107.323 E0.03842
G1 X94.917 Y107.549 E0.02635
G1 X94.175 Y107.740 E0.02593
G1 X93.425 Y107.900 E0.02597
G1 X92.293 Y108.080 E0.03880
