; generated by PrusaSlicer 2.3.0+win64 on 2021-08-22 at 18:53:42 UTC


;
;

;
;
; 

; external perimeters extrusion width = 0.45mm
; perimeters extrusion width = 0.45mm
; infill extrusion width = 0.45mm
; solid infill extrusion width = 0.45mm
; top infill extrusion width = 0.40mm
; first layer extrusion width = 0.42mm

M73 P0 R31
M201 X1250 Y1250 Z400 E5000 ; sets maximum accelerations, mm/sec^2
M203 X180 Y180 Z12 E80 ; sets maximum feedrates, mm/sec
M204 P1250 R1250 T1250 ; sets acceleration (P, T) and retract acceleration (R), mm/sec^2
M205 X8.00 Y8.00 Z2.00 E10.00 ; sets the jerk limits, mm/sec
M205 S0 T0 ; sets the minimum extruding and travel feed rate, mm/sec
M107
;TYPE:Custom
G90 ; use absolute coordinates
M83 ; extruder relative mode
M104 S170 ; set extruder temp for bed leveling
M140 S60 ; set bed temp
M109 R170 ; wait for bed leveling temp
M190 S60 ; wait for bed temp
G28 ; home all without mesh bed level
G29 ; mesh bed leveling 
M104 S215 ; set extruder temp
G92 E0.0
G1 Y-2.0 X179 F2400
G1 Z3 F720
M109 S215 ; wait for extruder temp

; intro line
G1 X170 F1000
G1 Z0.2 F720
G1 X110.0 E8.0 F900
G1 X40.0 E10.0 F700
G92 E0.0

M221 S95 ; set flow
G21 ; set units to millimeters
G90 ; use absolute coordinates
M83 ; use relative distances for extrusion
M900 K0.2 ; Filament gcode LA 1.5
; ; Filament gcode LA 1.0
;LAYER_CHANGE
;Z:0.2
;HEIGHT:0.2
;BEFORE_LAYER_CHANGE
G92 E0.0
;0.2


G1 E-3.20000 F4200.000
G1 Z0.200 F9000.000
;AFTER_LAYER_CHANGE
;0.2
G1 Z0.400
G1 X74.392 Y74.315
G1 Z0.200
G1 E3.20000 F2400.000
M204 S800
;TYPE:Skirt
;WIDTH:0.42
G1 F1200.000
G1 X76.035 Y72.837 E0.06929
G1 X77.833 Y71.518 E0.06992
G1 X79.742 Y70.394 E0.06946
G1 X81.726 Y69.478 E0.06850
G1 X83.458 Y68.862 E0.05765
G1 X85.609 Y68.313 E0.06962
G1 X87.782 Y67.984 E0.06890
G1 X90.002 Y67.873 E0.06969
G1 X92.213 Y67.984 E0.06940
G1 X94.401 Y68.315 E0.06938
G1 X96.552 Y68.865 E0.06962
G1 X98.621 Y69.622 E0.06909
G1 X100.274 Y70.403 E0.05730
G1 X102.176 Y71.525 E0.06926
G1 X103.956 Y72.829 E0.06918
G1 X105.608 Y74.316 E0.06969
G1 X107.099 Y75.957 E0.06952
G1 X108.415 Y77.732 E0.06929
G1 X109.556 Y79.648 E0.06992
G1 X110.482 Y81.629 E0.06856
M73 P1 R31
G1 X111.105 Y83.352 E0.05745
G1 X111.665 Y85.503 E0.06967
G1 X112.005 Y87.675 E0.06893
G1 X112.127 Y89.899 E0.06986
G1 X112.027 Y92.106 E0.06925
G1 X111.707 Y94.292 E0.06929
G1 X111.165 Y96.455 E0.06991
G1 X110.424 Y98.513 E0.06859
G1 X109.464 Y100.525 E0.06988
G1 X108.536 Y102.083 E0.05687
G1 X107.245 Y103.865 E0.06898
G1 X105.763 Y105.528 E0.06984
G1 X104.129 Y107.029 E0.06956
G1 X102.352 Y108.359 E0.06961
G1 X100.451 Y109.503 E0.06957
G1 X98.457 Y110.447 E0.06918
G1 X96.355 Y111.195 E0.06993
G1 X94.217 Y111.721 E0.06906
G1 X92.012 Y112.035 E0.06983
G1 X90.001 Y112.127 E0.06313
G1 X87.993 Y112.036 E0.06301
G1 X85.792 Y111.723 E0.06970
G1 X83.660 Y111.199 E0.06883
G1 X81.551 Y110.451 E0.07017
G1 X79.552 Y109.505 E0.06935
G1 X77.658 Y108.365 E0.06929
G1 X75.872 Y107.030 E0.06992
G1 X74.253 Y105.545 E0.06890
G1 X72.777 Y103.892 E0.06948
G1 X71.692 Y102.426 E0.05719
G1 X70.549 Y100.548 E0.06895
G1 X69.585 Y98.533 E0.07003
G1 X68.836 Y96.457 E0.06918
G1 X68.296 Y94.307 E0.06950
G1 X67.975 Y92.118 E0.06940
G1 X67.873 Y89.902 E0.06955
G1 X67.995 Y87.677 E0.06987
G1 X68.339 Y85.483 E0.06961
G1 X68.898 Y83.343 E0.06936
G1 X69.665 Y81.277 E0.06910
G1 X70.453 Y79.631 E0.05721
G1 X71.586 Y77.731 E0.06937
G1 X72.893 Y75.966 E0.06886
G1 X74.352 Y74.360 E0.06804
M204 S1250
; printing object ScrollSawAdaptor04.stl id:0 copy 0
G1 E-2.24000 F4200.000
;WIPE_START
G1 F7200.000
G1 X75.572 Y73.255 E-0.91200
;WIPE_END
G1 E-0.04800 F4200.000
G1 Z0.400 F9000.000
G1 X76.625 Y76.558
G1 Z0.200
G1 E3.20000 F2400.000
M204 S800
;TYPE:Perimeter
G1 F1200.000
G1 X77.173 Y76.034 E0.02378
G1 X78.039 Y75.285 E0.03589
G1 X78.946 Y74.592 E0.03579
G1 X79.574 Y74.161 E0.02388
G1 X80.216 Y73.757 E0.02378
G1 X81.214 Y73.196 E0.03589
G1 X82.244 Y72.696 E0.03589
G1 X82.942 Y72.400 E0.02378
G1 X83.651 Y72.132 E0.02378
G1 X84.743 Y71.780 E0.03599
G1 X85.473 Y71.585 E0.02368
G1 X86.593 Y71.346 E0.03589
G1 X87.724 Y71.174 E0.03589
G1 X88.479 Y71.098 E0.02378
G1 X89.236 Y71.053 E0.02378
G1 X90.380 Y71.041 E0.03588
G1 X91.141 Y71.072 E0.02388
G1 X91.900 Y71.133 E0.02387
G1 X92.653 Y71.224 E0.02378
G1 X93.781 Y71.418 E0.03589
G1 X94.892 Y71.679 E0.03579
G1 X95.624 Y71.890 E0.02388
G1 X96.344 Y72.130 E0.02378
G1 X97.410 Y72.545 E0.03589
G1 X98.450 Y73.024 E0.03589
G1 X99.122 Y73.375 E0.02378
G1 X99.779 Y73.754 E0.02378
G1 X100.742 Y74.373 E0.03589
G1 X101.663 Y75.048 E0.03579
G1 X102.251 Y75.526 E0.02379
G1 X103.105 Y76.294 E0.03598
G1 X103.642 Y76.829 E0.02378
G1 X104.158 Y77.385 E0.02378
G1 X104.893 Y78.262 E0.03589
G1 X105.574 Y79.182 E0.03589
G1 X105.993 Y79.811 E0.02368
G1 X106.578 Y80.794 E0.03588
G1 X106.935 Y81.468 E0.02388
G1 X107.262 Y82.151 E0.02378
G1 X107.704 Y83.207 E0.03588
G1 X107.963 Y83.923 E0.02388
G1 X108.192 Y84.649 E0.02387
G1 X108.392 Y85.381 E0.02378
G1 X108.637 Y86.499 E0.03589
G1 X108.814 Y87.627 E0.03579
G1 X108.894 Y88.381 E0.02379
G1 X108.957 Y89.527 E0.03598
G1 X108.961 Y90.285 E0.02378
G1 X108.934 Y91.043 E0.02378
G1 X108.836 Y92.187 E0.03599
G1 X108.734 Y92.935 E0.02368
G1 X108.523 Y94.060 E0.03589
G1 X108.245 Y95.168 E0.03579
G1 X108.023 Y95.896 E0.02388
G1 X107.773 Y96.612 E0.02378
G1 X107.341 Y97.672 E0.03588
G1 X107.019 Y98.362 E0.02388
G1 X106.670 Y99.039 E0.02387
G1 X106.295 Y99.698 E0.02378
G1 X105.679 Y100.666 E0.03599
G1 X105.242 Y101.282 E0.02368
G1 X104.533 Y102.181 E0.03589
G1 X103.772 Y103.036 E0.03589
G1 X103.239 Y103.576 E0.02378
G1 X102.686 Y104.094 E0.02378
G1 X101.812 Y104.834 E0.03589
G1 X100.898 Y105.518 E0.03579
G1 X100.269 Y105.942 E0.02379
G1 X99.286 Y106.534 E0.03598
G1 X98.620 Y106.890 E0.02368
G1 X97.582 Y107.381 E0.03599
G1 X96.881 Y107.670 E0.02378
G1 X96.167 Y107.932 E0.02387
G1 X95.445 Y108.164 E0.02378
G1 X94.336 Y108.460 E0.03599
G1 X93.597 Y108.618 E0.02368
G1 X92.464 Y108.802 E0.03599
G1 X91.711 Y108.885 E0.02378
G1 X90.954 Y108.939 E0.02378
G1 X89.807 Y108.962 E0.03597
G1 X89.049 Y108.939 E0.02379
G1 X88.289 Y108.885 E0.02387
G1 X87.536 Y108.802 E0.02378
G1 X86.403 Y108.618 E0.03599
G1 X85.664 Y108.460 E0.02368
G1 X84.558 Y108.165 E0.03589
G1 X83.475 Y107.805 E0.03579
G1 X82.768 Y107.529 E0.02379
G1 X81.721 Y107.060 E0.03598
G1 X81.045 Y106.715 E0.02378
G1 X80.384 Y106.344 E0.02378
G1 X79.416 Y105.734 E0.03589
G1 X78.488 Y105.068 E0.03579
G1 X77.892 Y104.594 E0.02388
G1 X77.318 Y104.098 E0.02378
G1 X76.491 Y103.307 E0.03589
G1 X75.712 Y102.468 E0.03589
G1 X75.225 Y101.887 E0.02378
G1 X74.762 Y101.287 E0.02378
G1 X74.107 Y100.344 E0.03599
G1 X73.708 Y99.703 E0.02368
G1 X73.152 Y98.702 E0.03588
G1 X72.816 Y98.019 E0.02388
G1 X72.509 Y97.325 E0.02378
G1 X72.098 Y96.254 E0.03599
G1 X71.863 Y95.536 E0.02368
G1 X71.562 Y94.432 E0.03588
G1 X71.400 Y93.691 E0.02379
G1 X71.211 Y92.562 E0.03588
G1 X71.123 Y91.805 E0.02388
G1 X71.066 Y91.049 E0.02378
G1 X71.038 Y89.905 E0.03589
G1 X71.078 Y88.761 E0.03589
G1 X71.142 Y88.005 E0.02378
G1 X71.237 Y87.253 E0.02378
G1 X71.438 Y86.123 E0.03599
G1 X71.607 Y85.387 E0.02368
G1 X71.920 Y84.282 E0.03599
G1 X72.162 Y83.567 E0.02368
G1 X72.582 Y82.502 E0.03588
G1 X72.897 Y81.809 E0.02388
G1 X73.239 Y81.132 E0.02378
G1 X73.804 Y80.137 E0.03588
G1 X74.212 Y79.497 E0.02379
G1 X74.874 Y78.564 E0.03588
G1 X75.344 Y77.968 E0.02379
G1 X76.098 Y77.103 E0.03598
G1 X76.583 Y76.601 E0.02189
M204 S1250
G1 X76.312 Y76.339 F9000.000
M204 S800
;TYPE:External perimeter
G1 F1200.000
G1 X76.919 Y75.755 E0.02643
G1 X77.801 Y74.992 E0.03655
G1 X78.725 Y74.287 E0.03644
G1 X79.367 Y73.846 E0.02441
G1 X80.023 Y73.432 E0.02431
G1 X81.039 Y72.862 E0.03655
G1 X82.087 Y72.353 E0.03655
G1 X82.801 Y72.050 E0.02431
G1 X83.526 Y71.776 E0.02431
G1 X84.637 Y71.419 E0.03658
G1 X85.385 Y71.219 E0.02428
G1 X86.525 Y70.975 E0.03655
G1 X87.677 Y70.800 E0.03655
G1 X88.449 Y70.722 E0.02431
G1 X89.223 Y70.676 E0.02431
G1 X90.386 Y70.664 E0.03648
G1 X91.164 Y70.695 E0.02441
G1 X91.938 Y70.757 E0.02434
G1 X92.708 Y70.851 E0.02431
G1 X93.856 Y71.048 E0.03655
G1 X94.988 Y71.314 E0.03644
G1 X95.736 Y71.530 E0.02441
G1 X96.472 Y71.775 E0.02431
G1 X97.558 Y72.198 E0.03655
G1 X98.616 Y72.686 E0.03655
G1 X99.303 Y73.045 E0.02431
G1 X99.976 Y73.431 E0.02431
G1 X100.956 Y74.062 E0.03655
G1 X101.893 Y74.749 E0.03644
G1 X102.497 Y75.240 E0.02438
G1 X103.364 Y76.020 E0.03658
G1 X103.913 Y76.567 E0.02431
G1 X104.441 Y77.135 E0.02431
G1 X105.189 Y78.029 E0.03655
G1 X105.883 Y78.965 E0.03655
G1 X106.312 Y79.610 E0.02428
G1 X106.907 Y80.610 E0.03648
G1 X107.272 Y81.298 E0.02441
G1 X107.606 Y81.997 E0.02431
G1 X108.056 Y83.070 E0.03648
G1 X108.320 Y83.803 E0.02441
G1 X108.554 Y84.543 E0.02434
G1 X108.758 Y85.291 E0.02431
G1 X109.007 Y86.429 E0.03655
G1 X109.188 Y87.578 E0.03644
G1 X109.269 Y88.351 E0.02438
G1 X109.334 Y89.516 E0.03658
G1 X109.338 Y90.291 E0.02431
G1 X109.311 Y91.066 E0.02431
G1 X109.211 Y92.228 E0.03658
G1 X109.107 Y92.996 E0.02428
G1 X108.891 Y94.141 E0.03655
G1 X108.608 Y95.268 E0.03644
G1 X108.381 Y96.013 E0.02441
G1 X108.126 Y96.745 E0.02431
G1 X107.687 Y97.823 E0.03648
G1 X107.358 Y98.528 E0.02441
G1 X107.002 Y99.218 E0.02434
G1 X106.619 Y99.892 E0.02431
G1 X105.992 Y100.876 E0.03658
G1 X105.544 Y101.508 E0.02428
G1 X104.822 Y102.423 E0.03655
G1 X104.047 Y103.294 E0.03655
G1 X103.503 Y103.846 E0.02431
G1 X102.937 Y104.376 E0.02431
G1 X102.047 Y105.129 E0.03655
G1 X101.117 Y105.826 E0.03644
G1 X100.472 Y106.260 E0.02438
G1 X99.472 Y106.861 E0.03658
G1 X98.790 Y107.227 E0.02428
G1 X97.735 Y107.726 E0.03658
G1 X97.018 Y108.022 E0.02431
G1 X96.289 Y108.289 E0.02434
G1 X95.551 Y108.526 E0.02431
G1 X94.424 Y108.827 E0.03658
G1 X93.667 Y108.989 E0.02428
G1 X92.515 Y109.176 E0.03658
G1 X91.745 Y109.261 E0.02431
G1 X90.971 Y109.316 E0.02431
G1 X89.805 Y109.339 E0.03656
G1 X89.030 Y109.316 E0.02433
G1 X88.255 Y109.261 E0.02434
G1 X87.485 Y109.176 E0.02431
G1 X86.333 Y108.989 E0.03658
G1 X85.576 Y108.827 E0.02428
G1 X84.450 Y108.526 E0.03655
G1 X83.347 Y108.160 E0.03644
G1 X82.622 Y107.877 E0.02438
G1 X81.558 Y107.400 E0.03658
G1 X80.867 Y107.048 E0.02431
G1 X80.191 Y106.668 E0.02431
M73 P1 R30
G1 X79.205 Y106.047 E0.03655
G1 X78.261 Y105.369 E0.03644
G1 X77.651 Y104.884 E0.02441
G1 X77.065 Y104.377 E0.02431
G1 X76.222 Y103.572 E0.03655
G1 X75.429 Y102.717 E0.03655
G1 X74.931 Y102.123 E0.02431
G1 X74.458 Y101.509 E0.02431
G1 X73.792 Y100.551 E0.03658
G1 X73.383 Y99.894 E0.02428
G1 X72.818 Y98.877 E0.03648
G1 X72.474 Y98.178 E0.02441
G1 X72.161 Y97.469 E0.02431
G1 X71.743 Y96.380 E0.03658
G1 X71.502 Y95.644 E0.02428
G1 X71.196 Y94.522 E0.03648
G1 X71.030 Y93.762 E0.02438
G1 X70.838 Y92.615 E0.03648
G1 X70.748 Y91.841 E0.02441
G1 X70.690 Y91.068 E0.02431
G1 X70.660 Y89.903 E0.03655
G1 X70.701 Y88.738 E0.03655
G1 X70.767 Y87.966 E0.02431
G1 X70.864 Y87.196 E0.02431
G1 X71.068 Y86.048 E0.03658
G1 X71.242 Y85.293 E0.02428
G1 X71.560 Y84.171 E0.03658
G1 X71.808 Y83.437 E0.02428
G1 X72.235 Y82.355 E0.03648
G1 X72.557 Y81.646 E0.02441
G1 X72.906 Y80.954 E0.02431
G1 X73.481 Y79.942 E0.03648
G1 X73.899 Y79.286 E0.02438
G1 X74.572 Y78.338 E0.03648
G1 X75.053 Y77.727 E0.02438
G1 X75.820 Y76.848 E0.03658
G1 X76.270 Y76.382 E0.02031
M204 S1250
G1 X76.699 Y76.441 F9000.000
G1 E-2.24000 F4200.000
;WIPE_START
G1 F7200.000
G1 X76.919 Y75.755 E-0.50032
G1 X77.482 Y75.269 E-0.41168
;WIPE_END
G1 E-0.04800 F4200.000
G1 Z0.400 F9000.000
G1 X101.433 Y75.020
G1 Z0.200
G1 E3.20000 F2400.000
M204 S800
;TYPE:Solid infill
;WIDTH:0.420254
G1 F1200.000
G1 X103.442 Y77.029 E0.08914
G1 X103.946 Y77.572 E0.02325
G1 X104.671 Y78.437 E0.03543
G1 X105.343 Y79.345 E0.03543
G1 X105.579 Y79.699 E0.01336
G1 X100.313 Y74.433 E0.23366
G1 X99.632 Y73.995 E0.02540
G1 X98.951 Y73.605 E0.02463
G1 X106.391 Y81.045 E0.33014
M73 P2 R30
G1 X106.935 Y82.123 E0.03786
G1 X97.889 Y73.077 E0.40136
G1 X97.300 Y72.806 E0.02037
G1 X96.947 Y72.668 E0.01188
G1 X107.334 Y83.056 E0.46091
G1 X107.659 Y83.914 E0.02878
G1 X96.088 Y72.343 E0.51342
G1 X95.304 Y72.092 E0.02582
G1 X107.912 Y84.701 E0.55945
G1 X108.113 Y85.436 E0.02392
G1 X94.572 Y71.895 E0.60084
G1 X93.875 Y71.731 E0.02248
G1 X108.264 Y86.120 E0.63848
G1 X108.395 Y86.785 E0.02126
G1 X93.219 Y71.608 E0.67341
G1 X92.576 Y71.499 E0.02045
G1 X108.495 Y87.418 E0.70633
G1 X108.572 Y88.029 E0.01932
G1 X91.969 Y71.426 E0.73669
G1 X91.384 Y71.375 E0.01841
G1 X108.623 Y88.614 E0.76491
G1 X108.654 Y89.178 E0.01775
G1 X90.818 Y71.342 E0.79145
G1 X90.267 Y71.325 E0.01727
G1 X108.675 Y89.733 E0.81678
G1 X108.678 Y90.269 E0.01683
G1 X89.739 Y71.330 E0.84034
G1 X89.212 Y71.337 E0.01652
G1 X108.660 Y90.785 E0.86293
G1 X108.629 Y91.288 E0.01580
G1 X88.709 Y71.368 E0.88389
G1 X88.217 Y71.409 E0.01550
G1 X108.587 Y91.779 E0.90387
M73 P3 R30
G1 X108.540 Y92.266 E0.01533
G1 X87.733 Y71.459 E0.92323
G1 X87.270 Y71.529 E0.01470
G1 X108.476 Y92.736 E0.94095
G1 X108.398 Y93.191 E0.01451
G1 X86.806 Y71.600 E0.95807
G1 X86.359 Y71.685 E0.01431
G1 X108.314 Y93.641 E0.97420
G1 X108.225 Y94.085 E0.01423
G1 X85.919 Y71.779 E0.98975
G1 X85.482 Y71.876 E0.01404
G1 X108.118 Y94.512 E1.00440
G1 X108.011 Y94.939 E0.01380
G1 X85.061 Y71.988 E1.01834
G1 X84.647 Y72.108 E0.01351
G1 X107.893 Y95.354 E1.03144
G1 X107.768 Y95.763 E0.01341
G1 X84.243 Y72.238 E1.04382
G1 X83.840 Y72.368 E0.01331
G1 X107.631 Y96.160 E1.05567
G1 X107.491 Y96.553 E0.01311
G1 X83.448 Y72.511 E1.06682
G1 X83.061 Y72.657 E0.01299
G1 X107.337 Y96.933 E1.07715
M73 P4 R30
G1 X107.183 Y97.312 E0.01285
G1 X82.686 Y72.816 E1.08695
G1 X82.313 Y72.977 E0.01274
G1 X107.023 Y97.686 E1.09639
G1 X106.853 Y98.050 E0.01260
G1 X81.954 Y73.151 E1.10481
G1 X81.595 Y73.325 E0.01253
G1 X106.678 Y98.408 E1.11296
G1 X106.496 Y98.760 E0.01243
G1 X81.241 Y73.505 E1.12060
G1 X80.899 Y73.697 E0.01230
G1 X106.307 Y99.105 E1.12739
G1 X106.114 Y99.445 E0.01228
G1 X80.558 Y73.889 E1.13397
G1 X80.222 Y74.087 E0.01223
G1 X105.911 Y99.775 E1.13985
G1 X105.703 Y100.101 E0.01213
G1 X79.894 Y74.293 E1.14516
G1 X79.573 Y74.505 E0.01209
G1 X105.495 Y100.427 E1.15023
M73 P5 R29
G1 X105.277 Y100.743 E0.01203
G1 X79.256 Y74.722 E1.15459
G1 X78.948 Y74.947 E0.01198
G1 X105.056 Y101.055 E1.15845
G1 X104.823 Y101.356 E0.01194
G1 X78.645 Y75.178 E1.16155
G1 X78.343 Y75.409 E0.01194
G1 X104.588 Y101.654 E1.16454
G1 X104.353 Y101.953 E0.01192
G1 X78.050 Y75.650 E1.16710
G1 X77.763 Y75.897 E0.01187
G1 X104.104 Y102.238 E1.16876
G1 X103.852 Y102.520 E0.01186
G1 X77.477 Y76.145 E1.17031
G1 X77.199 Y76.400 E0.01185
G1 X103.601 Y102.802 E1.17149
G1 X103.338 Y103.073 E0.01184
G1 X76.926 Y76.661 E1.17194
G1 X76.660 Y76.928 E0.01184
G1 X103.073 Y103.342 E1.17199
M73 P6 R29
G1 X103.042 Y103.373 E0.00140
G1 X102.799 Y103.601 E0.01045
G1 X76.398 Y77.200 E1.17146
G1 X76.145 Y77.480 E0.01185
G1 X102.523 Y103.859 E1.17047
G1 X102.236 Y104.105 E0.01188
G1 X75.896 Y77.765 E1.16874
G1 X75.647 Y78.050 E0.01187
G1 X101.947 Y104.350 E1.16696
G1 X101.658 Y104.594 E0.01188
G1 X75.407 Y78.344 E1.16478
G1 X75.172 Y78.642 E0.01192
G1 X101.354 Y104.824 E1.16172
G1 X101.049 Y105.052 E0.01196
G1 X74.946 Y78.950 E1.15819
G1 X74.725 Y79.262 E0.01201
G1 X100.743 Y105.281 E1.15448
G1 X100.425 Y105.496 E0.01206
G1 X74.503 Y79.575 E1.15017
G1 X74.292 Y79.897 E0.01209
G1 X100.105 Y105.710 E1.14537
M73 P7 R29
G1 X99.772 Y105.911 E0.01220
G1 X74.085 Y80.223 E1.13980
G1 X73.889 Y80.561 E0.01225
G1 X99.439 Y106.111 E1.13372
G1 X99.104 Y106.310 E0.01222
G1 X73.695 Y80.901 E1.12744
G1 X73.502 Y81.241 E0.01228
G1 X98.757 Y106.496 E1.12060
G1 X98.406 Y106.679 E0.01241
G1 X73.322 Y81.595 E1.11301
G1 X73.144 Y81.950 E0.01248
G1 X98.043 Y106.850 E1.10483
G1 X97.681 Y107.021 E0.01257
G1 X72.977 Y82.317 E1.09615
G1 X72.813 Y82.687 E0.01269
G1 X97.312 Y107.186 E1.08706
G1 X96.935 Y107.342 E0.01282
G1 X72.662 Y83.070 E1.07701
G1 X72.511 Y83.452 E0.01290
G1 X96.550 Y107.491 E1.06662
M73 P8 R29
G1 X96.159 Y107.634 E0.01305
G1 X72.367 Y83.842 E1.05568
G1 X72.232 Y84.241 E0.01321
G1 X95.758 Y107.766 E1.04387
G1 X95.354 Y107.896 E0.01332
G1 X72.109 Y84.651 E1.03140
M73 P8 R28
G1 X71.991 Y85.067 E0.01356
G1 X94.933 Y108.008 E1.01794
