; generated by PrusaSlicer 2.3.0+win64 on 2021-08-22 at 16:36:25 UTC


;
;

;
;
; 

; external perimeters extrusion width = 0.45mm
; perimeters extrusion width = 0.45mm
; infill extrusion width = 0.45mm
; solid infill extrusion width = 0.45mm
; top infill extrusion width = 0.40mm
; first layer extrusion width = 0.42mm

M73 P0 R30
M201 X1250 Y1250 Z400 E5000 ; sets maximum accelerations, mm/sec^2
M203 X180 Y180 Z12 E80 ; sets maximum feedrates, mm/sec
M204 P1250 R1250 T1250 ; sets acceleration (P, T) and retract acceleration (R), mm/sec^2
M205 X8.00 Y8.00 Z2.00 E10.00 ; sets the jerk limits, mm/sec
M205 S0 T0 ; sets the minimum extruding and travel feed rate, mm/sec
M107
;TYPE:Custom
G90 ; use absolute coordinates
M83 ; extruder relative mode
M104 S170 ; set extruder temp for bed leveling
M140 S60 ; set bed temp
M109 R170 ; wait for bed leveling temp
M190 S60 ; wait for bed temp
G28 ; home all without mesh bed level
G29 ; mesh bed leveling 
M104 S215 ; set extruder temp
G92 E0.0
G1 Y-2.0 X179 F2400
G1 Z3 F720
M109 S215 ; wait for extruder temp

; intro line
G1 X170 F1000
G1 Z0.2 F720
G1 X110.0 E8.0 F900
G1 X40.0 E10.0 F700
G92 E0.0

M221 S95 ; set flow
G21 ; set units to millimeters
G90 ; use absolute coordinates
M83 ; use relative distances for extrusion
M900 K0.2 ; Filament gcode LA 1.5
; ; Filament gcode LA 1.0
;LAYER_CHANGE
;Z:0.2
;HEIGHT:0.2
;BEFORE_LAYER_CHANGE
G92 E0.0
;0.2


M73 P0 R29
G1 E-3.20000 F4200.000
G1 Z0.200 F9000.000
;AFTER_LAYER_CHANGE
;0.2
G1 Z0.400
G1 X74.976 Y74.793
G1 Z0.200
G1 E3.20000 F2400.000
M204 S800
;TYPE:Skirt
;WIDTH:0.42
G1 F1200.000
G1 X76.312 Y73.580 E0.05657
G1 X78.062 Y72.267 E0.06858
G1 X79.910 Y71.154 E0.06766
G1 X81.891 Y70.221 E0.06864
G1 X83.957 Y69.495 E0.06866
G1 X86.051 Y68.991 E0.06752
G1 X87.834 Y68.733 E0.05651
G1 X90.002 Y68.623 E0.06804
G1 X92.182 Y68.735 E0.06846
G1 X94.305 Y69.061 E0.06733
G1 X96.059 Y69.500 E0.05670
G1 X98.103 Y70.218 E0.06792
G1 X100.079 Y71.148 E0.06848
G1 X101.930 Y72.261 E0.06772
M73 P1 R29
G1 X103.681 Y73.575 E0.06864
G1 X105.015 Y74.784 E0.05643
G1 X106.476 Y76.380 E0.06786
G1 X107.781 Y78.134 E0.06854
G1 X108.895 Y80.003 E0.06824
G1 X109.812 Y81.971 E0.06805
G1 X110.416 Y83.664 E0.05638
G1 X110.955 Y85.776 E0.06833
G1 X111.275 Y87.913 E0.06778
G1 X111.377 Y90.086 E0.06820
G1 X111.294 Y91.881 E0.05634
G1 X110.992 Y94.041 E0.06837
G1 X110.475 Y96.146 E0.06796
G1 X109.743 Y98.198 E0.06832
G1 X108.801 Y100.174 E0.06864
G1 X107.673 Y102.026 E0.06798
G1 X106.359 Y103.760 E0.06821
G1 X105.146 Y105.086 E0.05636
G1 X103.536 Y106.545 E0.06812
G1 X101.797 Y107.827 E0.06773
G1 X100.254 Y108.757 E0.05649
G1 X98.294 Y109.702 E0.06823
G1 X96.249 Y110.443 E0.06820
G1 X94.143 Y110.972 E0.06808
G1 X91.990 Y111.284 E0.06821
G1 X90.001 Y111.377 E0.06243
G1 X88.024 Y111.285 E0.06206
G1 X85.860 Y110.972 E0.06854
G1 X83.754 Y110.444 E0.06809
G1 X81.705 Y109.702 E0.06832
G1 X79.746 Y108.757 E0.06820
G1 X78.208 Y107.831 E0.05629
G1 X76.469 Y106.549 E0.06774
G1 X74.860 Y105.091 E0.06808
G1 X73.400 Y103.469 E0.06843
G1 X72.329 Y102.029 E0.05626
G1 X71.203 Y100.181 E0.06787
G1 X70.261 Y98.207 E0.06856
G1 X69.526 Y96.148 E0.06856
G1 X69.011 Y94.054 E0.06762
G1 X68.744 Y92.268 E0.05661
G1 X68.623 Y90.096 E0.06823
G1 X68.724 Y87.927 E0.06808
G1 X69.043 Y85.786 E0.06786
G1 X69.581 Y83.671 E0.06843
G1 X70.187 Y81.974 E0.05649
G1 X71.100 Y80.011 E0.06787
G1 X72.217 Y78.136 E0.06844
G1 X73.522 Y76.382 E0.06854
G1 X74.936 Y74.837 E0.06567
M204 S1250
; printing object ScrollSawAdaptor03.stl id:0 copy 0
G1 E-2.24000 F4200.000
;WIPE_START
G1 F7200.000
G1 X76.151 Y73.727 E-0.91200
;WIPE_END
G1 E-0.04800 F4200.000
G1 Z0.400 F9000.000
G1 X77.201 Y77.044
G1 Z0.200
G1 E3.20000 F2400.000
M204 S800
;TYPE:Perimeter
G1 F1200.000
G1 X78.043 Y76.262 E0.03606
G1 X78.613 Y75.786 E0.02328
G1 X79.202 Y75.333 E0.02328
G1 X80.125 Y74.697 E0.03514
G1 X80.759 Y74.305 E0.02338
G1 X81.407 Y73.942 E0.02328
G1 X82.411 Y73.444 E0.03514
G1 X83.095 Y73.147 E0.02338
G1 X83.788 Y72.880 E0.02328
G1 X84.856 Y72.529 E0.03525
G1 X85.569 Y72.335 E0.02318
G1 X86.664 Y72.095 E0.03515
G1 X87.772 Y71.924 E0.03515
G1 X88.511 Y71.848 E0.02328
G1 X89.252 Y71.803 E0.02328
G1 X90.373 Y71.791 E0.03514
G1 X91.118 Y71.822 E0.02338
G1 X91.858 Y71.882 E0.02328
G1 X92.968 Y72.031 E0.03514
G1 X93.699 Y72.167 E0.02329
G1 X94.792 Y72.429 E0.03524
G1 X95.501 Y72.638 E0.02318
G1 X96.562 Y73.010 E0.03525
G1 X97.249 Y73.292 E0.02328
G1 X97.923 Y73.601 E0.02328
G1 X98.920 Y74.121 E0.03525
G1 X99.557 Y74.496 E0.02318
G1 X100.493 Y75.114 E0.03514
G1 X101.093 Y75.556 E0.02338
G1 X101.675 Y76.022 E0.02337
G1 X102.235 Y76.509 E0.02328
G1 X103.044 Y77.290 E0.03524
G1 X103.549 Y77.830 E0.02318
G1 X104.274 Y78.689 E0.03525
G1 X104.722 Y79.277 E0.02318
G1 X105.353 Y80.203 E0.03514
G1 X105.742 Y80.840 E0.02338
G1 X106.102 Y81.489 E0.02328
G1 X106.595 Y82.496 E0.03514
G1 X106.888 Y83.181 E0.02338
G1 X107.152 Y83.875 E0.02328
G1 X107.496 Y84.942 E0.03515
G1 X107.774 Y86.025 E0.03505
G1 X107.922 Y86.756 E0.02338
G1 X108.039 Y87.492 E0.02337
G1 X108.127 Y88.232 E0.02337
G1 X108.184 Y88.972 E0.02328
G1 X108.212 Y90.096 E0.03524
G1 X108.193 Y90.838 E0.02328
G1 X108.144 Y91.579 E0.02328
G1 X108.012 Y92.695 E0.03524
G1 X107.888 Y93.424 E0.02319
G1 X107.643 Y94.518 E0.03514
G1 X107.444 Y95.234 E0.02329
G1 X107.088 Y96.300 E0.03524
G1 X106.817 Y96.991 E0.02328
G1 X106.517 Y97.674 E0.02337
G1 X106.189 Y98.343 E0.02337
G1 X105.836 Y98.996 E0.02328
G1 X105.252 Y99.953 E0.03515
G1 X104.611 Y100.873 E0.03515
G1 X104.156 Y101.459 E0.02328
G1 X103.677 Y102.027 E0.02328
G1 X102.909 Y102.847 E0.03525
G1 X102.377 Y103.361 E0.02318
G1 X101.818 Y103.858 E0.02347
G1 X101.243 Y104.328 E0.02328
G1 X100.338 Y104.995 E0.03524
G1 X99.720 Y105.402 E0.02319
G1 X98.754 Y105.971 E0.03515
G1 X97.758 Y106.478 E0.03505
G1 X97.077 Y106.782 E0.02338
G1 X96.387 Y107.056 E0.02328
G1 X95.323 Y107.417 E0.03524
G1 X94.612 Y107.619 E0.02318
G1 X93.516 Y107.870 E0.03525
G1 X92.788 Y107.998 E0.02318
G1 X91.672 Y108.136 E0.03525
G1 X90.934 Y108.189 E0.02318
G1 X89.811 Y108.212 E0.03523
G1 X89.072 Y108.189 E0.02320
G1 X87.951 Y108.097 E0.03525
G1 X87.215 Y107.999 E0.02328
G1 X86.484 Y107.870 E0.02328
G1 X85.388 Y107.619 E0.03524
G1 X84.677 Y107.417 E0.02319
G1 X83.616 Y107.057 E0.03514
G1 X82.926 Y106.783 E0.02329
G1 X81.904 Y106.314 E0.03524
G1 X81.248 Y105.972 E0.02319
G1 X80.282 Y105.403 E0.03514
G1 X79.662 Y104.995 E0.02329
G1 X78.757 Y104.328 E0.03524
G1 X78.182 Y103.858 E0.02328
G1 X77.625 Y103.363 E0.02337
G1 X77.091 Y102.847 E0.02328
G1 X76.323 Y102.027 E0.03524
G1 X75.844 Y101.459 E0.02328
G1 X75.389 Y100.873 E0.02328
G1 X74.746 Y99.951 E0.03524
G1 X74.355 Y99.323 E0.02318
G1 X73.809 Y98.340 E0.03524
G1 X73.484 Y97.676 E0.02318
G1 X73.042 Y96.643 E0.03524
G1 X72.785 Y95.946 E0.02328
G1 X72.556 Y95.237 E0.02337
G1 X72.357 Y94.521 E0.02328
G1 X72.112 Y93.424 E0.03524
G1 X71.988 Y92.695 E0.02318
G1 X71.856 Y91.582 E0.03515
G1 X71.793 Y90.463 E0.03515
G1 X71.789 Y89.720 E0.02328
G1 X71.816 Y88.978 E0.02328
G1 X71.914 Y87.859 E0.03524
G1 X72.015 Y87.126 E0.02318
G1 X72.227 Y86.022 E0.03524
G1 X72.404 Y85.301 E0.02328
G1 X72.611 Y84.585 E0.02337
G1 X72.846 Y83.881 E0.02328
G1 X73.255 Y82.837 E0.03515
G1 X73.727 Y81.820 E0.03515
G1 X74.074 Y81.164 E0.02328
G1 X74.448 Y80.522 E0.02328
G1 X75.060 Y79.583 E0.03514
G1 X75.499 Y78.981 E0.02338
G1 X75.960 Y78.399 E0.02328
G1 X76.700 Y77.557 E0.03514
G1 X77.159 Y77.087 E0.02059
M204 S1250
G1 X76.889 Y76.824 F9000.000
M204 S800
;TYPE:External perimeter
G1 F1200.000
G1 X77.794 Y75.978 E0.03884
G1 X78.378 Y75.491 E0.02382
G1 X78.980 Y75.028 E0.02382
G1 X79.919 Y74.381 E0.03575
G1 X80.568 Y73.980 E0.02392
G1 X81.231 Y73.608 E0.02382
G1 X82.252 Y73.102 E0.03575
G1 X82.952 Y72.798 E0.02392
G1 X83.661 Y72.524 E0.02382
G1 X84.747 Y72.168 E0.03585
G1 X85.479 Y71.968 E0.02379
G1 X86.595 Y71.725 E0.03582
G1 X87.724 Y71.550 E0.03582
G1 X88.480 Y71.472 E0.02382
G1 X89.238 Y71.426 E0.02382
G1 X90.378 Y71.414 E0.03575
G1 X91.141 Y71.445 E0.02392
G1 X91.898 Y71.507 E0.02382
G1 X93.028 Y71.658 E0.03575
G1 X93.777 Y71.798 E0.02389
G1 X94.889 Y72.064 E0.03585
G1 X95.617 Y72.279 E0.02379
G1 X96.696 Y72.658 E0.03585
G1 X97.399 Y72.946 E0.02382
G1 X98.089 Y73.262 E0.02382
G1 X99.103 Y73.791 E0.03585
G1 X99.757 Y74.176 E0.02379
G1 X100.709 Y74.804 E0.03575
G1 X101.323 Y75.256 E0.02392
G1 X101.917 Y75.732 E0.02386
G1 X102.490 Y76.231 E0.02382
G1 X103.313 Y77.025 E0.03585
G1 X103.831 Y77.579 E0.02379
G1 X104.569 Y78.453 E0.03585
G1 X105.028 Y79.057 E0.02379
G1 X105.670 Y79.999 E0.03575
G1 X106.068 Y80.650 E0.02392
G1 X106.436 Y81.315 E0.02382
G1 X106.938 Y82.338 E0.03575
G1 X107.238 Y83.040 E0.02392
G1 X107.508 Y83.750 E0.02382
G1 X107.859 Y84.837 E0.03582
G1 X108.141 Y85.941 E0.03571
G1 X108.293 Y86.689 E0.02392
G1 X108.413 Y87.440 E0.02386
G1 X108.502 Y88.196 E0.02386
G1 X108.560 Y88.953 E0.02382
G1 X108.590 Y90.096 E0.03585
G1 X108.570 Y90.856 E0.02382
G1 X108.520 Y91.614 E0.02382
G1 X108.385 Y92.749 E0.03585
G1 X108.258 Y93.497 E0.02379
G1 X108.009 Y94.610 E0.03575
G1 X107.805 Y95.344 E0.02389
G1 X107.443 Y96.429 E0.03585
G1 X107.166 Y97.136 E0.02382
G1 X106.859 Y97.832 E0.02386
G1 X106.525 Y98.516 E0.02386
G1 X106.163 Y99.184 E0.02382
G1 X105.568 Y100.159 E0.03582
G1 X104.915 Y101.096 E0.03582
G1 X104.449 Y101.697 E0.02382
G1 X103.959 Y102.277 E0.02382
G1 X103.178 Y103.112 E0.03585
G1 X102.633 Y103.637 E0.02372
G1 X102.062 Y104.145 E0.02396
G1 X101.474 Y104.626 E0.02382
G1 X100.553 Y105.304 E0.03585
G1 X99.920 Y105.722 E0.02379
G1 X98.936 Y106.301 E0.03582
G1 X97.921 Y106.818 E0.03571
G1 X97.224 Y107.129 E0.02392
G1 X96.518 Y107.410 E0.02382
G1 X95.435 Y107.778 E0.03585
G1 X94.705 Y107.985 E0.02379
G1 X93.591 Y108.240 E0.03585
G1 X92.843 Y108.371 E0.02379
G1 X91.709 Y108.511 E0.03585
G1 X90.952 Y108.566 E0.02379
G1 X89.809 Y108.589 E0.03583
G1 X89.050 Y108.566 E0.02381
G1 X87.911 Y108.472 E0.03585
G1 X87.158 Y108.371 E0.02382
G1 X86.409 Y108.240 E0.02382
G1 X85.295 Y107.985 E0.03585
G1 X84.565 Y107.778 E0.02379
G1 X83.485 Y107.411 E0.03575
G1 X82.777 Y107.129 E0.02389
G1 X81.738 Y106.653 E0.03585
G1 X81.065 Y106.302 E0.02379
G1 X80.083 Y105.724 E0.03575
G1 X79.447 Y105.304 E0.02389
G1 X78.526 Y104.626 E0.03585
G1 X77.938 Y104.145 E0.02382
G1 X77.369 Y103.640 E0.02386
G1 X76.822 Y103.112 E0.02382
G1 X76.041 Y102.277 E0.03585
G1 X75.551 Y101.697 E0.02382
G1 X75.085 Y101.096 E0.02382
G1 X74.431 Y100.158 E0.03585
G1 X74.030 Y99.515 E0.02379
G1 X73.475 Y98.515 E0.03585
G1 X73.141 Y97.833 E0.02379
G1 X72.691 Y96.782 E0.03585
G1 X72.429 Y96.069 E0.02382
G1 X72.195 Y95.345 E0.02386
G1 X71.992 Y94.613 E0.02382
G1 X71.742 Y93.497 E0.03585
G1 X71.615 Y92.749 E0.02379
G1 X71.480 Y91.615 E0.03582
G1 X71.416 Y90.474 E0.03582
G1 X71.412 Y89.715 E0.02382
G1 X71.439 Y88.955 E0.02382
G1 X71.539 Y87.816 E0.03585
G1 X71.643 Y87.065 E0.02379
G1 X71.858 Y85.942 E0.03585
G1 X72.039 Y85.204 E0.02382
G1 X72.251 Y84.473 E0.02386
G1 X72.491 Y83.752 E0.02382
G1 X72.908 Y82.689 E0.03582
G1 X73.390 Y81.653 E0.03582
G1 X73.744 Y80.981 E0.02382
G1 X74.127 Y80.324 E0.02382
G1 X74.750 Y79.369 E0.03575
G1 X75.199 Y78.752 E0.02392
G1 X75.671 Y78.157 E0.02382
G1 X76.424 Y77.301 E0.03575
G1 X76.847 Y76.867 E0.01901
M204 S1250
G1 X77.274 Y76.930 F9000.000
G1 E-2.24000 F4200.000
;WIPE_START
G1 F7200.000
G1 X77.794 Y75.978 E-0.71976
G1 X78.061 Y75.756 E-0.19224
;WIPE_END
G1 E-0.04800 F4200.000
G1 Z0.400 F9000.000
G1 X100.930 Y75.576
G1 Z0.200
G1 E3.20000 F2400.000
M204 S800
;TYPE:Solid infill
;WIDTH:0.42037
M73 P2 R29
G1 F1200.000
G1 X102.846 Y77.492 E0.08506
G1 X103.338 Y78.017 E0.02258
G1 X104.054 Y78.865 E0.03483
G1 X104.492 Y79.443 E0.02275
G1 X104.984 Y80.163 E0.02738
G1 X99.846 Y75.026 E0.22803
G1 X99.408 Y74.736 E0.01650
G1 X98.516 Y74.229 E0.03219
G1 X105.782 Y81.495 E0.32249
G1 X106.310 Y82.557 E0.03723
G1 X97.446 Y73.694 E0.39341
G1 X96.517 Y73.297 E0.03172
G1 X106.699 Y83.480 E0.45197
G1 X106.995 Y84.310 E0.02764
G1 X95.689 Y73.004 E0.50183
G1 X94.910 Y72.759 E0.02562
G1 X107.242 Y85.091 E0.54738
G1 X107.426 Y85.809 E0.02325
G1 X94.194 Y72.576 E0.58731
G1 X93.502 Y72.418 E0.02230
G1 X107.581 Y86.497 E0.62490
G1 X107.698 Y87.148 E0.02076
G1 X92.850 Y72.300 E0.65900
G1 X92.234 Y72.218 E0.01951
G1 X107.788 Y87.771 E0.69034
G1 X107.854 Y88.371 E0.01895
G1 X91.630 Y72.147 E0.72011
G1 X91.051 Y72.102 E0.01824
G1 X107.898 Y88.950 E0.74779
G1 X107.914 Y89.499 E0.01726
G1 X90.494 Y72.079 E0.77321
G1 X89.959 Y72.078 E0.01678
G1 X107.928 Y90.047 E0.79756
G1 X107.917 Y90.570 E0.01642
G1 X89.431 Y72.084 E0.82053
G1 X88.920 Y72.106 E0.01605
G1 X107.894 Y91.080 E0.84217
G1 X107.859 Y91.580 E0.01570
G1 X88.421 Y72.142 E0.86276
M73 P3 R29
G1 X87.937 Y72.191 E0.01527
G1 X107.803 Y92.057 E0.88174
G1 X107.746 Y92.534 E0.01509
G1 X87.469 Y72.257 E0.90001
G1 X87.007 Y72.329 E0.01468
G1 X107.674 Y92.996 E0.91732
G1 X107.593 Y93.448 E0.01443
G1 X86.554 Y72.409 E0.93383
G1 X86.115 Y72.505 E0.01408
G1 X107.495 Y93.885 E0.94895
G1 X107.398 Y94.321 E0.01403
G1 X85.677 Y72.600 E0.96407
G1 X85.256 Y72.713 E0.01368
G1 X107.287 Y94.744 E0.97785
G1 X107.171 Y95.161 E0.01360
G1 X84.841 Y72.831 E0.99111
G1 X84.439 Y72.963 E0.01327
G1 X107.037 Y95.561 E1.00302
G1 X106.903 Y95.962 E0.01324
G1 X84.037 Y73.095 E1.01492
G1 X83.646 Y73.238 E0.01307
G1 X106.763 Y96.355 E1.02608
G1 X106.613 Y96.739 E0.01293
G1 X83.260 Y73.386 E1.03650
M73 P4 R29
G1 X82.886 Y73.546 E0.01277
G1 X106.454 Y97.114 E1.04608
G1 X106.291 Y97.485 E0.01271
G1 X82.515 Y73.708 E1.05534
M73 P4 R28
G1 X82.158 Y73.885 E0.01250
G1 X106.118 Y97.845 E1.06349
G1 X105.943 Y98.204 E0.01252
G1 X81.801 Y74.062 E1.07154
G1 X81.448 Y74.243 E0.01244
G1 X105.756 Y98.550 E1.07889
G1 X105.566 Y98.895 E0.01234
G1 X81.106 Y74.435 E1.08566
G1 X80.769 Y74.632 E0.01225
G1 X105.364 Y99.227 E1.09165
G1 X105.162 Y99.558 E0.01219
G1 X80.439 Y74.835 E1.09733
G1 X80.116 Y75.046 E0.01210
G1 X104.955 Y99.885 E1.10247
G1 X104.736 Y100.200 E0.01203
G1 X79.800 Y75.264 E1.10676
M73 P5 R28
G1 X79.485 Y75.482 E0.01204
G1 X104.517 Y100.514 E1.11105
G1 X104.292 Y100.823 E0.01199
G1 X79.178 Y75.709 E1.11470
G1 X78.876 Y75.941 E0.01195
G1 X104.058 Y101.124 E1.11775
G1 X103.820 Y101.419 E0.01191
G1 X78.582 Y76.181 E1.12021
G1 X78.291 Y76.423 E0.01189
G1 X103.576 Y101.708 E1.12228
G1 X103.324 Y101.990 E0.01187
G1 X78.011 Y76.677 E1.12353
G1 X77.734 Y76.934 E0.01186
G1 X103.066 Y102.266 E1.12437
G1 X102.808 Y102.542 E0.01185
G1 X77.456 Y77.191 E1.12522
G1 X77.191 Y77.459 E0.01185
G1 X102.541 Y102.809 E1.12518
G1 X102.270 Y103.071 E0.01185
G1 X76.928 Y77.729 E1.12482
M73 P6 R28
G1 X76.677 Y78.012 E0.01187
G1 X101.991 Y103.326 E1.12356
G1 X101.708 Y103.577 E0.01187
G1 X76.427 Y78.296 E1.12210
G1 X76.177 Y78.580 E0.01187
G1 X101.417 Y103.820 E1.12028
G1 X101.124 Y104.061 E0.01191
G1 X75.941 Y78.878 E1.11773
G1 X75.706 Y79.177 E0.01193
G1 X100.819 Y104.289 E1.11463
G1 X100.511 Y104.516 E0.01198
G1 X75.481 Y79.486 E1.11096
G1 X75.259 Y79.797 E0.01201
G1 X100.204 Y104.742 E1.10719
G1 X99.883 Y104.955 E0.01208
G1 X75.048 Y80.120 E1.10233
G1 X74.837 Y80.443 E0.01211
G1 X99.561 Y105.167 E1.09740
G1 X99.225 Y105.365 E0.01224
G1 X74.631 Y80.770 E1.09165
M73 P7 R28
G1 X74.434 Y81.108 E0.01225
G1 X98.889 Y105.563 E1.08545
G1 X98.550 Y105.757 E0.01228
G1 X74.243 Y81.450 E1.07888
G1 X74.058 Y81.799 E0.01240
G1 X98.196 Y105.937 E1.07137
G1 X97.843 Y106.117 E0.01246
G1 X73.883 Y82.157 E1.06347
G1 X73.713 Y82.522 E0.01261
G1 X97.482 Y106.291 E1.05500
M73 P7 R27
G1 X97.113 Y106.456 E0.01269
G1 X73.544 Y82.886 E1.04613
G1 X73.390 Y83.267 E0.01287
G1 X96.736 Y106.613 E1.03622
G1 X96.355 Y106.765 E0.01290
G1 X73.240 Y83.650 E1.02594
G1 X73.092 Y84.036 E0.01297
G1 X95.959 Y106.903 E1.01494
G1 X95.561 Y107.038 E0.01321
G1 X72.959 Y84.436 E1.00319
M73 P8 R27
G1 X72.831 Y84.842 E0.01336
G1 X95.159 Y107.170 E0.99103
G1 X94.743 Y107.288 E0.01357
G1 X72.711 Y85.256 E0.97788
G1 X72.602 Y85.681 E0.01376
G1 X94.317 Y107.396 E0.96385
G1 X93.883 Y107.496 E0.01398
G1 X72.498 Y86.111 E0.94919
G1 X72.412 Y86.559 E0.01432
G1 X93.448 Y107.595 E0.93370
G1 X92.994 Y107.675 E0.01447
G1 X72.326 Y87.007 E0.91735
