; generated by PrusaSlicer 2.3.0+win64 on 2022-05-27 at 11:45:55 UTC


;
;

;
;
; 

; external perimeters extrusion width = 0.45mm
; perimeters extrusion width = 0.45mm
; infill extrusion width = 0.45mm
; solid infill extrusion width = 0.45mm
; top infill extrusion width = 0.40mm
; first layer extrusion width = 0.42mm

M73 P0 R69
M201 X1250 Y1250 Z400 E5000 ; sets maximum accelerations, mm/sec^2
M203 X180 Y180 Z12 E80 ; sets maximum feedrates, mm/sec
M204 P1250 R1250 T1250 ; sets acceleration (P, T) and retract acceleration (R), mm/sec^2
M205 X8.00 Y8.00 Z2.00 E10.00 ; sets the jerk limits, mm/sec
M205 S0 T0 ; sets the minimum extruding and travel feed rate, mm/sec
M107
;TYPE:Custom
G90 ; use absolute coordinates
M83 ; extruder relative mode
M104 S170 ; set extruder temp for bed leveling
M140 S85 ; set bed temp
M109 R170 ; wait for bed leveling temp
M190 S85 ; wait for bed temp
G28 ; home all without mesh bed level
G29 ; mesh bed leveling 
M104 S240 ; set extruder temp
G92 E0.0
G1 Y-2.0 X179 F2400
G1 Z3 F720
M109 S240 ; wait for extruder temp

; intro line
G1 X170 F1000
G1 Z0.2 F720
G1 X110.0 E8.0 F900
G1 X40.0 E10.0 F700
G92 E0.0

M221 S95 ; set flow
G21 ; set units to millimeters
G90 ; use absolute coordinates
M83 ; use relative distances for extrusion
M900 K0.2 ; Filament gcode
;LAYER_CHANGE
;Z:0.2
;HEIGHT:0.2
;BEFORE_LAYER_CHANGE
G92 E0.0
;0.2


G1 E-3.20000 F2400.000
G1 Z0.200 F9000.000
;AFTER_LAYER_CHANGE
;0.2
G1 Z0.400
G1 X34.786 Y69.147
G1 Z0.200
G1 E3.20000 F1500.000
M204 S800
;TYPE:Skirt
;WIDTH:0.42
G1 F1200.000
G1 X34.532 Y68.345 E0.02637
G1 X34.520 Y61.735 E0.20726
G1 X34.667 Y60.648 E0.03440
G1 X35.014 Y59.562 E0.03574
G1 X35.372 Y58.844 E0.02515
G1 X35.835 Y58.152 E0.02610
G1 X36.381 Y57.531 E0.02593
G1 X37.011 Y56.979 E0.02627
G1 X37.701 Y56.518 E0.02602
G1 X38.448 Y56.149 E0.02611
G1 X39.234 Y55.882 E0.02603
G1 X40.063 Y55.717 E0.02653
G1 X40.884 Y55.663 E0.02580
G1 X132.894 Y55.663 E2.88489
G1 X133.949 Y55.752 E0.03320
G1 X134.842 Y55.970 E0.02881
G1 X135.826 Y56.379 E0.03342
G1 X136.723 Y56.945 E0.03327
G1 X137.421 Y57.554 E0.02904
G1 X138.103 Y58.367 E0.03327
G1 X138.566 Y59.135 E0.02812
G1 X138.966 Y60.105 E0.03291
G1 X139.170 Y60.932 E0.02669
G1 X139.262 Y61.783 E0.02686
G1 X139.246 Y68.352 E0.20594
G1 X139.068 Y68.992 E0.02083
G1 X138.717 Y69.560 E0.02095
G1 X138.222 Y70.009 E0.02095
G1 X137.622 Y70.302 E0.02095
G1 X136.895 Y70.417 E0.02308
G1 X36.844 Y70.417 E3.13702
G1 X36.019 Y70.252 E0.02637
G1 X35.303 Y69.810 E0.02637
G1 X34.823 Y69.194 E0.02449
M204 S1250
; printing object SideMountCombinedPlateSupport01 id:0 copy 0
G1 E-2.24000 F2400.000
;WIPE_START
G1 F7200.000
G1 X34.532 Y68.345 E-0.28425
G1 X34.529 Y66.363 E-0.62775
;WIPE_END
G1 E-0.04800 F2400.000
G1 Z0.400 F9000.000
G1 X84.825 Y63.608
G1 Z0.200
G1 E3.20000 F1500.000
M204 S800
;TYPE:Perimeter
G1 F1200.000
G1 X84.752 Y63.136 E0.01497
G1 X84.765 Y62.784 E0.01104
G1 X84.872 Y62.328 E0.01469
G1 X85.015 Y62.008 E0.01098
G1 X85.291 Y61.616 E0.01504
G1 X85.650 Y61.296 E0.01504
G1 X85.941 Y61.123 E0.01062
G1 X86.255 Y60.997 E0.01062
G1 X86.726 Y60.905 E0.01504
G1 X87.205 Y60.924 E0.01504
G1 X87.546 Y61.003 E0.01098
G1 X87.984 Y61.200 E0.01504
G1 X88.375 Y61.497 E0.01540
G1 X88.680 Y61.868 E0.01504
G1 X88.842 Y62.165 E0.01062
G1 X88.956 Y62.484 E0.01062
G1 X89.028 Y62.947 E0.01468
G1 X89.014 Y63.297 E0.01098
G1 X88.908 Y63.753 E0.01468
G1 X88.764 Y64.072 E0.01098
G1 X88.488 Y64.465 E0.01504
G1 X88.130 Y64.784 E0.01504
G1 X87.829 Y64.963 E0.01098
G1 X87.388 Y65.121 E0.01468
G1 X87.054 Y65.173 E0.01062
G1 X86.715 Y65.173 E0.01062
G1 X86.255 Y65.084 E0.01468
G1 X85.930 Y64.953 E0.01098
G1 X85.537 Y64.698 E0.01469
G1 X85.285 Y64.455 E0.01098
G1 X85.009 Y64.063 E0.01504
G1 X84.848 Y63.663 E0.01351
M204 S1250
G1 X85.197 Y63.522 F9000.000
M204 S800
;TYPE:External perimeter
G1 F1200.000
G1 X85.130 Y63.114 E0.01298
G1 X85.141 Y62.834 E0.00877
G1 X85.231 Y62.449 E0.01242
G1 X85.345 Y62.195 E0.00871
G1 X85.575 Y61.868 E0.01254
G1 X85.873 Y61.602 E0.01254
G1 X86.109 Y61.462 E0.00858
G1 X86.362 Y61.360 E0.00858
G1 X86.755 Y61.284 E0.01254
G1 X87.155 Y61.299 E0.01254
G1 X87.425 Y61.362 E0.00871
G1 X87.790 Y61.526 E0.01254
G1 X88.111 Y61.771 E0.01267
G1 X88.366 Y62.080 E0.01254
G1 X88.497 Y62.320 E0.00858
G1 X88.589 Y62.577 E0.00858
G1 X88.649 Y62.969 E0.01241
G1 X88.639 Y63.246 E0.00871
G1 X88.549 Y63.632 E0.01241
G1 X88.435 Y63.885 E0.00871
G1 X88.205 Y64.212 E0.01254
G1 X87.906 Y64.478 E0.01254
G1 X87.668 Y64.620 E0.00871
G1 X87.295 Y64.754 E0.01241
G1 X87.025 Y64.796 E0.00858
G1 X86.751 Y64.796 E0.00858
G1 X86.362 Y64.720 E0.01241
G1 X86.105 Y64.617 E0.00871
G1 X85.773 Y64.401 E0.01241
G1 X85.572 Y64.209 E0.00871
G1 X85.342 Y63.882 E0.01254
G1 X85.220 Y63.578 E0.01027
M204 S1250
G1 X84.810 Y63.424 F9000.000
G1 E-2.24000 F2400.000
;WIPE_START
G1 F7200.000
G1 X85.130 Y63.114 E-0.14972
G1 X85.141 Y62.834 E-0.08855
G1 X85.231 Y62.449 E-0.12540
G1 X85.345 Y62.195 E-0.08793
G1 X85.575 Y61.868 E-0.12666
G1 X85.873 Y61.602 E-0.12665
G1 X86.109 Y61.462 E-0.08665
G1 X86.362 Y61.360 E-0.08664
G1 X86.467 Y61.340 E-0.03379
;WIPE_END
G1 E-0.04800 F2400.000
G1 Z0.400 F9000.000
G1 X97.325 Y63.608
G1 Z0.200
G1 E3.20000 F1500.000
M204 S800
;TYPE:Perimeter
G1 F1200.000
G1 X97.252 Y63.136 E0.01497
G1 X97.265 Y62.784 E0.01104
G1 X97.372 Y62.328 E0.01469
G1 X97.515 Y62.008 E0.01098
G1 X97.791 Y61.616 E0.01504
G1 X98.150 Y61.296 E0.01504
G1 X98.441 Y61.123 E0.01062
G1 X98.755 Y60.997 E0.01062
G1 X99.226 Y60.905 E0.01504
G1 X99.705 Y60.924 E0.01504
G1 X100.046 Y61.003 E0.01098
G1 X100.484 Y61.200 E0.01504
G1 X100.866 Y61.491 E0.01504
G1 X101.099 Y61.752 E0.01098
G1 X101.338 Y62.155 E0.01468
G1 X101.456 Y62.484 E0.01098
G1 X101.528 Y62.947 E0.01468
G1 X101.514 Y63.297 E0.01098
G1 X101.408 Y63.753 E0.01468
G1 X101.264 Y64.072 E0.01098
G1 X100.988 Y64.465 E0.01504
G1 X100.630 Y64.784 E0.01504
G1 X100.329 Y64.963 E0.01098
G1 X99.888 Y65.121 E0.01468
G1 X99.554 Y65.173 E0.01062
G1 X99.215 Y65.173 E0.01062
G1 X98.755 Y65.084 E0.01468
G1 X98.430 Y64.953 E0.01098
G1 X98.037 Y64.698 E0.01469
G1 X97.785 Y64.455 E0.01098
G1 X97.509 Y64.063 E0.01504
G1 X97.348 Y63.663 E0.01351
M204 S1250
G1 X97.697 Y63.522 F9000.000
M204 S800
;TYPE:External perimeter
G1 F1200.000
G1 X97.630 Y63.114 E0.01298
G1 X97.641 Y62.834 E0.00877
G1 X97.731 Y62.449 E0.01242
G1 X97.845 Y62.195 E0.00871
G1 X98.075 Y61.868 E0.01254
G1 X98.373 Y61.602 E0.01254
G1 X98.609 Y61.462 E0.00858
G1 X98.862 Y61.360 E0.00858
G1 X99.255 Y61.284 E0.01254
G1 X99.655 Y61.299 E0.01254
G1 X99.925 Y61.362 E0.00871
G1 X100.290 Y61.526 E0.01254
G1 X100.608 Y61.768 E0.01254
G1 X100.793 Y61.976 E0.00871
G1 X100.995 Y62.316 E0.01241
G1 X101.089 Y62.577 E0.00871
G1 X101.149 Y62.969 E0.01241
G1 X101.139 Y63.246 E0.00871
G1 X101.049 Y63.632 E0.01241
G1 X100.935 Y63.885 E0.00871
G1 X100.705 Y64.212 E0.01254
G1 X100.406 Y64.478 E0.01254
G1 X100.168 Y64.620 E0.00871
G1 X99.795 Y64.754 E0.01241
G1 X99.525 Y64.796 E0.00858
G1 X99.251 Y64.796 E0.00858
G1 X98.862 Y64.720 E0.01241
G1 X98.605 Y64.617 E0.00871
G1 X98.273 Y64.401 E0.01241
G1 X98.072 Y64.209 E0.00871
G1 X97.842 Y63.882 E0.01254
G1 X97.720 Y63.578 E0.01027
M204 S1250
G1 X97.310 Y63.424 F9000.000
G1 E-2.24000 F2400.000
;WIPE_START
G1 F7200.000
G1 X97.630 Y63.114 E-0.14972
G1 X97.641 Y62.834 E-0.08856
G1 X97.731 Y62.449 E-0.12540
G1 X97.845 Y62.195 E-0.08793
G1 X98.075 Y61.868 E-0.12666
G1 X98.373 Y61.602 E-0.12665
G1 X98.609 Y61.462 E-0.08665
G1 X98.862 Y61.360 E-0.08664
G1 X98.967 Y61.340 E-0.03379
;WIPE_END
G1 E-0.04800 F2400.000
G1 Z0.400 F9000.000
G1 X109.825 Y63.608
G1 Z0.200
G1 E3.20000 F1500.000
M204 S800
;TYPE:Perimeter
G1 F1200.000
G1 X109.752 Y63.136 E0.01497
G1 X109.765 Y62.784 E0.01104
G1 X109.872 Y62.328 E0.01469
G1 X110.015 Y62.008 E0.01098
G1 X110.291 Y61.616 E0.01504
G1 X110.650 Y61.296 E0.01504
G1 X110.941 Y61.123 E0.01062
G1 X111.255 Y60.997 E0.01062
G1 X111.726 Y60.905 E0.01504
G1 X112.205 Y60.924 E0.01504
G1 X112.546 Y61.003 E0.01098
G1 X112.974 Y61.195 E0.01468
G1 X113.251 Y61.390 E0.01062
G1 X113.495 Y61.625 E0.01062
G1 X113.764 Y62.008 E0.01469
G1 X113.908 Y62.328 E0.01098
G1 X114.017 Y62.795 E0.01504
G1 X114.017 Y63.286 E0.01540
G1 X113.908 Y63.753 E0.01504
G1 X113.764 Y64.072 E0.01098
G1 X113.488 Y64.465 E0.01504
G1 X113.130 Y64.784 E0.01504
G1 X112.829 Y64.963 E0.01098
G1 X112.388 Y65.121 E0.01468
G1 X112.054 Y65.173 E0.01062
G1 X111.715 Y65.173 E0.01062
G1 X111.255 Y65.084 E0.01468
G1 X110.930 Y64.953 E0.01098
G1 X110.537 Y64.698 E0.01469
G1 X110.285 Y64.455 E0.01098
G1 X110.009 Y64.063 E0.01504
G1 X109.848 Y63.663 E0.01351
M204 S1250
G1 X110.197 Y63.522 F9000.000
M204 S800
;TYPE:External perimeter
G1 F1200.000
G1 X110.130 Y63.114 E0.01298
G1 X110.141 Y62.834 E0.00877
G1 X110.231 Y62.449 E0.01242
G1 X110.345 Y62.195 E0.00871
G1 X110.575 Y61.868 E0.01254
G1 X110.873 Y61.602 E0.01254
G1 X111.109 Y61.462 E0.00858
G1 X111.362 Y61.360 E0.00858
G1 X111.755 Y61.284 E0.01254
G1 X112.155 Y61.299 E0.01254
G1 X112.425 Y61.362 E0.00871
G1 X112.786 Y61.524 E0.01241
G1 X113.010 Y61.682 E0.00858
G1 X113.207 Y61.871 E0.00858
G1 X113.435 Y62.195 E0.01241
G1 X113.549 Y62.449 E0.00871
G1 X113.640 Y62.838 E0.01254
G1 X113.640 Y63.242 E0.01267
G1 X113.549 Y63.632 E0.01254
G1 X113.435 Y63.885 E0.00871
G1 X113.205 Y64.212 E0.01254
G1 X112.906 Y64.478 E0.01254
G1 X112.668 Y64.620 E0.00871
G1 X112.295 Y64.754 E0.01241
G1 X112.025 Y64.796 E0.00858
G1 X111.751 Y64.796 E0.00858
G1 X111.362 Y64.720 E0.01241
G1 X111.105 Y64.617 E0.00871
G1 X110.773 Y64.401 E0.01241
G1 X110.572 Y64.209 E0.00871
G1 X110.342 Y63.882 E0.01254
G1 X110.220 Y63.578 E0.01027
M204 S1250
G1 X109.810 Y63.424 F9000.000
G1 E-2.24000 F2400.000
;WIPE_START
G1 F7200.000
G1 X110.130 Y63.114 E-0.14972
G1 X110.141 Y62.834 E-0.08856
G1 X110.231 Y62.449 E-0.12540
G1 X110.345 Y62.195 E-0.08793
G1 X110.575 Y61.868 E-0.12666
G1 X110.873 Y61.602 E-0.12665
G1 X111.109 Y61.462 E-0.08665
G1 X111.362 Y61.360 E-0.08664
G1 X111.467 Y61.340 E-0.03379
;WIPE_END
G1 E-0.04800 F2400.000
G1 Z0.400 F9000.000
G1 X122.263 Y63.286
G1 Z0.200
G1 E3.20000 F1500.000
M204 S800
;TYPE:Perimeter
G1 F1200.000
G1 X122.263 Y62.795 E0.01540
G1 X122.372 Y62.327 E0.01504
G1 X122.515 Y62.008 E0.01098
G1 X122.791 Y61.616 E0.01504
G1 X123.150 Y61.296 E0.01504
G1 X123.441 Y61.123 E0.01062
G1 X123.755 Y60.997 E0.01062
G1 X124.226 Y60.905 E0.01504
G1 X124.705 Y60.924 E0.01504
G1 X125.046 Y61.003 E0.01098
G1 X125.474 Y61.195 E0.01468
G1 X125.751 Y61.390 E0.01062
G1 X125.995 Y61.625 E0.01062
G1 X126.264 Y62.008 E0.01469
G1 X126.408 Y62.328 E0.01098
G1 X126.517 Y62.795 E0.01504
G1 X126.517 Y63.286 E0.01540
G1 X126.408 Y63.753 E0.01504
G1 X126.264 Y64.072 E0.01098
G1 X125.988 Y64.465 E0.01504
G1 X125.630 Y64.784 E0.01504
G1 X125.329 Y64.963 E0.01098
G1 X124.888 Y65.121 E0.01468
G1 X124.554 Y65.173 E0.01062
G1 X124.215 Y65.173 E0.01062
G1 X123.755 Y65.084 E0.01468
G1 X123.430 Y64.953 E0.01098
G1 X123.037 Y64.698 E0.01468
G1 X122.785 Y64.455 E0.01098
G1 X122.515 Y64.072 E0.01468
G1 X122.372 Y63.753 E0.01098
G1 X122.277 Y63.344 E0.01316
M204 S1250
G1 X122.644 Y63.258 F9000.000
M204 S800
;TYPE:External perimeter
G1 F1200.000
G1 X122.640 Y62.838 E0.01317
G1 X122.731 Y62.449 E0.01254
G1 X122.845 Y62.195 E0.00871
G1 X123.075 Y61.868 E0.01254
G1 X123.373 Y61.602 E0.01254
G1 X123.609 Y61.462 E0.00858
G1 X123.862 Y61.360 E0.00858
G1 X124.255 Y61.284 E0.01254
G1 X124.655 Y61.299 E0.01254
G1 X124.925 Y61.362 E0.00871
G1 X125.286 Y61.524 E0.01241
G1 X125.510 Y61.682 E0.00858
G1 X125.707 Y61.871 E0.00858
G1 X125.935 Y62.195 E0.01241
G1 X126.049 Y62.449 E0.00871
G1 X126.140 Y62.838 E0.01254
G1 X126.140 Y63.242 E0.01267
G1 X126.049 Y63.632 E0.01254
G1 X125.935 Y63.885 E0.00871
G1 X125.705 Y64.212 E0.01254
G1 X125.406 Y64.478 E0.01254
G1 X125.168 Y64.620 E0.00871
G1 X124.795 Y64.754 E0.01241
G1 X124.525 Y64.796 E0.00858
G1 X124.251 Y64.796 E0.00858
G1 X123.862 Y64.720 E0.01241
G1 X123.605 Y64.617 E0.00871
G1 X123.273 Y64.401 E0.01241
G1 X123.072 Y64.209 E0.00871
G1 X122.845 Y63.885 E0.01241
G1 X122.731 Y63.632 E0.00871
G1 X122.657 Y63.317 E0.01014
M204 S1250
G1 X122.278 Y63.097 F9000.000
G1 E-2.24000 F2400.000
;WIPE_START
G1 F7200.000
G1 X122.640 Y62.838 E-0.15162
G1 X122.731 Y62.449 E-0.12666
G1 X122.845 Y62.195 E-0.08793
G1 X123.075 Y61.868 E-0.12665
G1 X123.373 Y61.602 E-0.12665
G1 X123.609 Y61.462 E-0.08665
G1 X123.862 Y61.360 E-0.08664
G1 X124.232 Y61.288 E-0.11918
;WIPE_END
G1 E-0.04800 F2400.000
G1 Z0.400 F9000.000
G1 X76.344 Y62.164
G1 Z0.200
G1 E3.20000 F1500.000
M204 S800
;TYPE:Perimeter
G1 F1200.000
G1 X76.488 Y62.622 E0.01504
G1 X76.527 Y62.958 E0.01062
G1 X76.514 Y63.297 E0.01062
G1 X76.408 Y63.753 E0.01468
G1 X76.264 Y64.072 E0.01098
G1 X75.988 Y64.465 E0.01504
G1 X75.630 Y64.784 E0.01504
G1 X75.329 Y64.963 E0.01098
G1 X74.888 Y65.121 E0.01468
G1 X74.554 Y65.173 E0.01062
G1 X74.215 Y65.173 E0.01062
G1 X73.755 Y65.084 E0.01468
G1 X73.430 Y64.953 E0.01098
G1 X73.037 Y64.698 E0.01469
G1 X72.785 Y64.455 E0.01098
G1 X72.509 Y64.063 E0.01504
G1 X72.325 Y63.608 E0.01540
G1 X72.252 Y63.136 E0.01497
G1 X72.265 Y62.784 E0.01104
G1 X72.372 Y62.328 E0.01469
G1 X72.515 Y62.008 E0.01098
G1 X72.791 Y61.616 E0.01504
G1 X73.150 Y61.296 E0.01504
G1 X73.441 Y61.123 E0.01062
G1 X73.755 Y60.997 E0.01062
G1 X74.226 Y60.905 E0.01504
G1 X74.705 Y60.924 E0.01504
G1 X75.046 Y61.003 E0.01098
G1 X75.484 Y61.200 E0.01504
G1 X75.866 Y61.491 E0.01504
G1 X76.099 Y61.752 E0.01098
G1 X76.313 Y62.113 E0.01316
M204 S1250
G1 X75.989 Y62.305 F9000.000
M204 S800
;TYPE:External perimeter
G1 F1200.000
G1 X76.118 Y62.701 E0.01304
G1 X76.149 Y62.973 E0.00858
G1 X76.139 Y63.246 E0.00858
G1 X76.049 Y63.632 E0.01241
G1 X75.935 Y63.885 E0.00871
G1 X75.705 Y64.212 E0.01254
G1 X75.406 Y64.478 E0.01254
G1 X75.168 Y64.620 E0.00871
G1 X74.795 Y64.754 E0.01241
G1 X74.525 Y64.796 E0.00858
G1 X74.251 Y64.796 E0.00858
G1 X73.862 Y64.720 E0.01241
G1 X73.605 Y64.617 E0.00871
G1 X73.273 Y64.401 E0.01241
G1 X73.072 Y64.209 E0.00871
G1 X72.842 Y63.882 E0.01254
G1 X72.691 Y63.507 E0.01267
G1 X72.630 Y63.114 E0.01248
G1 X72.641 Y62.834 E0.00877
G1 X72.731 Y62.449 E0.01242
G1 X72.845 Y62.195 E0.00871
G1 X73.075 Y61.868 E0.01254
G1 X73.373 Y61.602 E0.01254
G1 X73.609 Y61.462 E0.00858
G1 X73.862 Y61.360 E0.00858
G1 X74.255 Y61.284 E0.01254
G1 X74.655 Y61.299 E0.01254
G1 X74.925 Y61.362 E0.00871
G1 X75.290 Y61.526 E0.01254
G1 X75.608 Y61.768 E0.01254
G1 X75.793 Y61.976 E0.00871
G1 X75.958 Y62.254 E0.01014
M204 S1250
G1 X76.387 Y62.348 F9000.000
G1 E-2.24000 F2400.000
;WIPE_START
G1 F7200.000
G1 X76.118 Y62.701 E-0.15033
G1 X76.149 Y62.973 E-0.08665
G1 X76.139 Y63.246 E-0.08665
G1 X76.049 Y63.632 E-0.12537
G1 X75.935 Y63.885 E-0.08793
G1 X75.705 Y64.212 E-0.12666
G1 X75.406 Y64.478 E-0.12666
G1 X75.168 Y64.620 E-0.08793
G1 X75.067 Y64.656 E-0.03382
;WIPE_END
G1 E-0.04800 F2400.000
G1 Z0.400 F9000.000
G1 X63.844 Y62.164
G1 Z0.200
G1 E3.20000 F1500.000
M204 S800
;TYPE:Perimeter
G1 F1200.000
G1 X63.988 Y62.622 E0.01504
G1 X64.027 Y62.958 E0.01062
G1 X64.014 Y63.297 E0.01062
G1 X63.908 Y63.753 E0.01468
G1 X63.764 Y64.072 E0.01098
G1 X63.488 Y64.465 E0.01504
G1 X63.130 Y64.784 E0.01504
G1 X62.829 Y64.963 E0.01098
G1 X62.388 Y65.121 E0.01468
G1 X62.054 Y65.173 E0.01062
G1 X61.715 Y65.173 E0.01062
G1 X61.255 Y65.084 E0.01468
G1 X60.930 Y64.953 E0.01098
G1 X60.537 Y64.698 E0.01469
G1 X60.285 Y64.455 E0.01098
G1 X60.009 Y64.063 E0.01504
G1 X59.825 Y63.608 E0.01540
G1 X59.752 Y63.136 E0.01497
G1 X59.765 Y62.784 E0.01104
G1 X59.872 Y62.328 E0.01469
G1 X60.015 Y62.008 E0.01098
G1 X60.291 Y61.616 E0.01504
G1 X60.650 Y61.296 E0.01504
G1 X60.941 Y61.123 E0.01062
G1 X61.255 Y60.997 E0.01062
G1 X61.726 Y60.905 E0.01504
G1 X62.205 Y60.924 E0.01504
G1 X62.546 Y61.003 E0.01098
G1 X62.984 Y61.200 E0.01504
G1 X63.366 Y61.491 E0.01504
G1 X63.599 Y61.752 E0.01098
G1 X63.813 Y62.113 E0.01316
M204 S1250
G1 X63.489 Y62.305 F9000.000
M204 S800
;TYPE:External perimeter
G1 F1200.000
G1 X63.618 Y62.701 E0.01304
G1 X63.649 Y62.973 E0.00858
G1 X63.639 Y63.246 E0.00858
G1 X63.549 Y63.632 E0.01241
G1 X63.435 Y63.885 E0.00871
G1 X63.205 Y64.212 E0.01254
