; generated by PrusaSlicer 2.3.0+win64 on 2022-05-27 at 12:49:42 UTC


;
;

;
;
; 

; external perimeters extrusion width = 0.45mm
; perimeters extrusion width = 0.45mm
; infill extrusion width = 0.45mm
; solid infill extrusion width = 0.45mm
; top infill extrusion width = 0.40mm
; first layer extrusion width = 0.42mm

M73 P0 R78
M201 X1250 Y1250 Z400 E5000 ; sets maximum accelerations, mm/sec^2
M203 X180 Y180 Z12 E80 ; sets maximum feedrates, mm/sec
M204 P1250 R1250 T1250 ; sets acceleration (P, T) and retract acceleration (R), mm/sec^2
M205 X8.00 Y8.00 Z2.00 E10.00 ; sets the jerk limits, mm/sec
M205 S0 T0 ; sets the minimum extruding and travel feed rate, mm/sec
M107
;TYPE:Custom
G90 ; use absolute coordinates
M83 ; extruder relative mode
M104 S170 ; set extruder temp for bed leveling
M140 S85 ; set bed temp
M109 R170 ; wait for bed leveling temp
M190 S85 ; wait for bed temp
G28 ; home all without mesh bed level
G29 ; mesh bed leveling 
M104 S240 ; set extruder temp
G92 E0.0
G1 Y-2.0 X179 F2400
G1 Z3 F720
M109 S240 ; wait for extruder temp

; intro line
G1 X170 F1000
G1 Z0.2 F720
G1 X110.0 E8.0 F900
G1 X40.0 E10.0 F700
G92 E0.0

M221 S95 ; set flow
G21 ; set units to millimeters
G90 ; use absolute coordinates
M83 ; use relative distances for extrusion
M900 K0.2 ; Filament gcode
;LAYER_CHANGE
;Z:0.2
;HEIGHT:0.2
;BEFORE_LAYER_CHANGE
G92 E0.0
;0.2


G1 E-3.20000 F2400.000
G1 Z0.200 F9000.000
;AFTER_LAYER_CHANGE
;0.2
G1 Z0.400
G1 X154.030 Y52.365
G1 Z0.200
G1 E3.20000 F1500.000
M204 S800
;TYPE:Skirt
;WIDTH:0.42
G1 F1200.000
G1 X154.208 Y53.225 E0.02755
G1 X154.208 Y73.295 E0.62929
G1 X154.143 Y73.824 E0.01669
G1 X153.963 Y74.320 E0.01657
G1 X153.439 Y75.020 E0.02743
G1 X152.700 Y75.482 E0.02731
G1 X36.313 Y120.507 E3.91277
G1 X35.556 Y120.645 E0.02414
G1 X29.203 Y120.638 E0.19921
G1 X27.870 Y120.430 E0.04229
G1 X26.616 Y119.950 E0.04210
G1 X25.866 Y119.500 E0.02740
G1 X25.214 Y118.980 E0.02616
G1 X24.634 Y118.375 E0.02628
G1 X24.143 Y117.709 E0.02593
G1 X23.740 Y116.978 E0.02620
G1 X23.430 Y116.185 E0.02668
G1 X23.231 Y115.371 E0.02628
G1 X23.141 Y114.530 E0.02652
G1 X23.159 Y21.719 E2.91002
G1 X23.284 Y20.901 E0.02594
G1 X23.517 Y20.098 E0.02621
G1 X23.852 Y19.331 E0.02625
G1 X24.288 Y18.613 E0.02633
G1 X24.811 Y17.961 E0.02621
G1 X25.409 Y17.387 E0.02599
G1 X26.077 Y16.897 E0.02598
G1 X26.809 Y16.493 E0.02620
G1 X27.857 Y16.110 E0.03500
G1 X28.998 Y15.913 E0.03631
G1 X35.516 Y15.892 E0.20437
G1 X102.783 Y21.400 E2.11617
G1 X103.633 Y21.637 E0.02767
G1 X153.056 Y51.231 E1.80620
G1 X153.551 Y51.628 E0.01989
G1 X153.997 Y52.314 E0.02567
M204 S1250
; printing object SideMountBCombinedPlate01 id:0 copy 0
G1 E-2.24000 F2400.000
;WIPE_START
G1 F7200.000
G1 X154.208 Y53.225 E-0.29601
G1 X154.208 Y55.170 E-0.61599
;WIPE_END
G1 E-0.04800 F2400.000
G1 Z0.400 F9000.000
G1 X106.286 Y62.529
M73 P0 R77
G1 Z0.200
G1 E3.20000 F1500.000
M204 S800
;TYPE:Perimeter
G1 F1200.000
G1 X106.349 Y62.901 E0.01182
G1 X106.370 Y63.269 E0.01156
G1 X106.349 Y63.637 E0.01156
G1 X106.286 Y64.009 E0.01182
G1 X106.123 Y64.520 E0.01682
G1 X105.959 Y64.859 E0.01182
G1 X105.759 Y65.178 E0.01182
G1 X105.413 Y65.588 E0.01682
G1 X105.132 Y65.839 E0.01181
G1 X104.832 Y66.053 E0.01154
G1 X104.348 Y66.304 E0.01709
G1 X103.992 Y66.428 E0.01183
G1 X103.633 Y66.510 E0.01154
G1 X103.082 Y66.558 E0.01735
G1 X102.539 Y66.512 E0.01710
G1 X102.171 Y66.428 E0.01182
G1 X101.815 Y66.304 E0.01182
G1 X101.339 Y66.058 E0.01682
G1 X101.031 Y65.839 E0.01182
G1 X100.757 Y65.594 E0.01156
G1 X100.511 Y65.319 E0.01156
G1 X100.293 Y65.011 E0.01182
G1 X100.043 Y64.527 E0.01708
G1 X99.877 Y64.009 E0.01708
G1 X99.814 Y63.637 E0.01182
G1 X99.793 Y63.269 E0.01156
G1 X99.814 Y62.901 E0.01156
G1 X99.877 Y62.529 E0.01182
G1 X100.040 Y62.018 E0.01682
G1 X100.204 Y61.678 E0.01181
G1 X100.399 Y61.367 E0.01154
G1 X100.755 Y60.943 E0.01735
G1 X101.172 Y60.592 E0.01710
G1 X101.491 Y60.391 E0.01182
G1 X101.831 Y60.227 E0.01182
G1 X102.342 Y60.064 E0.01682
G1 X102.713 Y60.001 E0.01181
G1 X103.081 Y59.980 E0.01154
G1 X103.624 Y60.025 E0.01709
G1 X103.992 Y60.109 E0.01184
G1 X104.348 Y60.234 E0.01182
G1 X104.824 Y60.480 E0.01682
G1 X105.132 Y60.698 E0.01182
G1 X105.413 Y60.949 E0.01182
G1 X105.759 Y61.359 E0.01682
G1 X105.959 Y61.678 E0.01182
G1 X106.123 Y62.018 E0.01182
G1 X106.268 Y62.472 E0.01494
M204 S1250
G1 X105.908 Y62.586 F9000.000
M204 S800
;TYPE:External perimeter
G1 F1200.000
G1 X105.974 Y62.943 E0.01137
G1 X105.992 Y63.269 E0.01023
G1 X105.974 Y63.595 E0.01023
G1 X105.918 Y63.919 E0.01033
G1 X105.772 Y64.380 E0.01516
G1 X105.629 Y64.677 E0.01033
G1 X105.454 Y64.955 E0.01033
G1 X105.142 Y65.325 E0.01516
G1 X104.896 Y65.544 E0.01032
G1 X104.635 Y65.730 E0.01006
G1 X104.198 Y65.957 E0.01542
G1 X103.887 Y66.065 E0.01033
G1 X103.575 Y66.137 E0.01006
G1 X103.082 Y66.180 E0.01551
G1 X102.597 Y66.139 E0.01526
G1 X102.276 Y66.065 E0.01033
G1 X101.965 Y65.957 E0.01033
G1 X101.536 Y65.735 E0.01516
G1 X101.267 Y65.544 E0.01033
G1 X101.024 Y65.327 E0.01023
G1 X100.806 Y65.083 E0.01023
G1 X100.616 Y64.815 E0.01033
G1 X100.392 Y64.383 E0.01525
G1 X100.245 Y63.919 E0.01525
G1 X100.189 Y63.595 E0.01033
G1 X100.171 Y63.269 E0.01023
G1 X100.189 Y62.943 E0.01023
G1 X100.245 Y62.618 E0.01033
G1 X100.391 Y62.158 E0.01516
G1 X100.534 Y61.861 E0.01032
G1 X100.705 Y61.589 E0.01006
G1 X101.023 Y61.211 E0.01551
G1 X101.395 Y60.897 E0.01526
G1 X101.674 Y60.721 E0.01033
G1 X101.970 Y60.579 E0.01033
G1 X102.431 Y60.432 E0.01516
G1 X102.756 Y60.377 E0.01032
G1 X103.076 Y60.358 E0.01006
G1 X103.566 Y60.399 E0.01542
G1 X103.887 Y60.472 E0.01033
G1 X104.198 Y60.581 E0.01033
G1 X104.628 Y60.803 E0.01516
G1 X104.896 Y60.993 E0.01033
G1 X105.142 Y61.213 E0.01033
G1 X105.454 Y61.582 E0.01516
G1 X105.629 Y61.861 E0.01033
G1 X105.772 Y62.158 E0.01033
G1 X105.890 Y62.529 E0.01222
M204 S1250
G1 X106.257 Y62.687 F9000.000
G1 E-2.24000 F2400.000
;WIPE_START
G1 F7200.000
G1 X105.974 Y62.943 E-0.13367
G1 X105.992 Y63.269 E-0.10335
G1 X105.974 Y63.595 E-0.10335
G1 X105.918 Y63.919 E-0.10429
G1 X105.772 Y64.380 E-0.15307
G1 X105.629 Y64.677 E-0.10429
G1 X105.454 Y64.955 E-0.10429
G1 X105.238 Y65.210 E-0.10569
;WIPE_END
G1 E-0.04800 F2400.000
G1 Z0.400 F9000.000
G1 X92.396 Y34.008
G1 Z0.200
G1 E3.20000 F1500.000
M204 S800
;TYPE:Perimeter
G1 F1200.000
G1 X92.055 Y34.147 E0.01156
G1 X91.699 Y34.244 E0.01156
G1 X91.180 Y34.306 E0.01638
G1 X90.812 Y34.295 E0.01155
G1 X90.459 Y34.243 E0.01118
G1 X89.940 Y34.086 E0.01701
G1 X89.459 Y33.839 E0.01695
G1 X89.037 Y33.517 E0.01665
G1 X88.780 Y33.252 E0.01156
G1 X88.556 Y32.959 E0.01156
G1 X88.304 Y32.502 E0.01638
G1 X88.176 Y32.156 E0.01156
G1 X88.089 Y31.798 E0.01156
G1 X88.042 Y31.269 E0.01665
G1 X88.090 Y30.731 E0.01692
G1 X88.230 Y30.219 E0.01665
G1 X88.379 Y29.881 E0.01156
G1 X88.566 Y29.564 E0.01156
G1 X88.901 Y29.152 E0.01665
G1 X89.310 Y28.799 E0.01692
G1 X89.767 Y28.529 E0.01665
G1 X90.108 Y28.391 E0.01156
G1 X90.464 Y28.293 E0.01156
G1 X90.983 Y28.232 E0.01638
G1 X91.351 Y28.242 E0.01155
G1 X91.704 Y28.295 E0.01118
G1 X92.223 Y28.452 E0.01701
G1 X92.704 Y28.699 E0.01695
G1 X93.126 Y29.021 E0.01665
G1 X93.383 Y29.285 E0.01156
G1 X93.607 Y29.578 E0.01156
G1 X93.859 Y30.036 E0.01638
G1 X93.987 Y30.381 E0.01156
G1 X94.074 Y30.740 E0.01156
G1 X94.121 Y31.269 E0.01665
G1 X94.073 Y31.806 E0.01692
G1 X93.933 Y32.319 E0.01665
G1 X93.784 Y32.656 E0.01156
G1 X93.597 Y32.974 E0.01156
G1 X93.262 Y33.386 E0.01665
G1 X92.854 Y33.738 E0.01692
G1 X92.448 Y33.978 E0.01477
M204 S1250
G1 X92.633 Y33.431 F9000.000
M204 S800
;TYPE:External perimeter
G1 F1200.000
G1 X92.229 Y33.669 E0.01472
G1 X91.934 Y33.789 E0.00998
G1 X91.627 Y33.873 E0.00998
G1 X91.163 Y33.928 E0.01462
G1 X90.845 Y33.919 E0.00998
G1 X90.542 Y33.874 E0.00962
G1 X90.082 Y33.735 E0.01507
G1 X89.661 Y33.519 E0.01483
G1 X89.288 Y33.234 E0.01472
G1 X89.066 Y33.006 E0.00998
G1 X88.873 Y32.752 E0.00998
G1 X88.648 Y32.344 E0.01462
G1 X88.537 Y32.046 E0.00998
G1 X88.462 Y31.736 E0.00998
G1 X88.421 Y31.269 E0.01472
G1 X88.463 Y30.798 E0.01482
G1 X88.586 Y30.345 E0.01472
G1 X88.715 Y30.054 E0.00998
G1 X88.877 Y29.780 E0.00998
G1 X89.172 Y29.415 E0.01472
G1 X89.530 Y29.107 E0.01482
G1 X89.934 Y28.868 E0.01472
G1 X90.229 Y28.748 E0.00998
G1 X90.537 Y28.664 E0.00998
G1 X91.000 Y28.609 E0.01462
G1 X91.318 Y28.619 E0.00998
G1 X91.621 Y28.664 E0.00962
G1 X92.081 Y28.803 E0.01507
G1 X92.502 Y29.019 E0.01483
G1 X92.875 Y29.303 E0.01472
G1 X93.097 Y29.532 E0.00998
G1 X93.290 Y29.785 E0.00998
G1 X93.515 Y30.193 E0.01462
G1 X93.626 Y30.492 E0.00998
G1 X93.701 Y30.801 E0.00998
G1 X93.742 Y31.269 E0.01472
G1 X93.700 Y31.739 E0.01482
G1 X93.577 Y32.192 E0.01472
G1 X93.448 Y32.484 E0.00998
G1 X93.287 Y32.758 E0.00998
G1 X92.991 Y33.122 E0.01472
G1 X92.678 Y33.391 E0.01294
M204 S1250
G1 X92.672 Y33.829 F9000.000
G1 E-2.24000 F2400.000
;WIPE_START
G1 F7200.000
G1 X92.229 Y33.669 E-0.16738
G1 X91.934 Y33.789 E-0.10081
G1 X91.627 Y33.873 E-0.10081
G1 X91.163 Y33.928 E-0.14766
G1 X90.845 Y33.919 E-0.10077
G1 X90.542 Y33.874 E-0.09714
G1 X90.082 Y33.735 E-0.15223
G1 X89.955 Y33.670 E-0.04520
;WIPE_END
G1 E-0.04800 F2400.000
G1 Z0.400 F9000.000
G1 X72.073 Y31.806
G1 Z0.200
G1 E3.20000 F1500.000
M204 S800
;TYPE:Perimeter
G1 F1200.000
G1 X71.933 Y32.319 E0.01665
G1 X71.784 Y32.656 E0.01156
G1 X71.597 Y32.974 E0.01156
G1 X71.262 Y33.386 E0.01665
G1 X70.860 Y33.733 E0.01665
G1 X70.549 Y33.929 E0.01155
G1 X70.227 Y34.083 E0.01118
G1 X69.708 Y34.243 E0.01701
G1 X69.180 Y34.306 E0.01668
G1 X68.812 Y34.295 E0.01155
G1 X68.459 Y34.243 E0.01118
G1 X67.940 Y34.086 E0.01701
G1 X67.459 Y33.839 E0.01695
G1 X67.037 Y33.517 E0.01665
G1 X66.780 Y33.252 E0.01156
G1 X66.556 Y32.959 E0.01156
G1 X66.300 Y32.494 E0.01665
G1 X66.130 Y31.991 E0.01665
G1 X66.065 Y31.628 E0.01156
G1 X66.043 Y31.260 E0.01156
G1 X66.090 Y30.731 E0.01665
G1 X66.230 Y30.219 E0.01665
G1 X66.379 Y29.881 E0.01156
G1 X66.566 Y29.564 E0.01156
G1 X66.901 Y29.152 E0.01665
G1 X67.303 Y28.805 E0.01665
G1 X67.614 Y28.608 E0.01155
G1 X67.936 Y28.455 E0.01118
G1 X68.455 Y28.294 E0.01701
G1 X68.983 Y28.232 E0.01668
G1 X69.351 Y28.242 E0.01155
G1 X69.704 Y28.295 E0.01118
G1 X70.223 Y28.452 E0.01701
G1 X70.704 Y28.699 E0.01695
G1 X71.126 Y29.021 E0.01665
G1 X71.383 Y29.285 E0.01156
G1 X71.607 Y29.578 E0.01156
G1 X71.863 Y30.043 E0.01665
G1 X72.033 Y30.546 E0.01665
G1 X72.098 Y30.909 E0.01156
G1 X72.120 Y31.277 E0.01156
G1 X72.078 Y31.747 E0.01477
M204 S1250
G1 X71.703 Y31.713 F9000.000
M204 S800
;TYPE:External perimeter
G1 F1200.000
G1 X71.577 Y32.192 E0.01553
G1 X71.448 Y32.484 E0.00998
G1 X71.287 Y32.758 E0.00998
G1 X70.991 Y33.122 E0.01472
G1 X70.635 Y33.429 E0.01472
G1 X70.366 Y33.598 E0.00998
G1 X70.089 Y33.731 E0.00962
G1 X69.630 Y33.873 E0.01507
G1 X69.163 Y33.928 E0.01473
G1 X68.845 Y33.919 E0.00998
G1 X68.542 Y33.874 E0.00962
G1 X68.082 Y33.735 E0.01507
G1 X67.661 Y33.519 E0.01483
G1 X67.288 Y33.234 E0.01472
G1 X67.066 Y33.006 E0.00998
G1 X66.873 Y32.752 E0.00998
G1 X66.646 Y32.341 E0.01472
G1 X66.496 Y31.897 E0.01472
G1 X66.440 Y31.583 E0.00998
G1 X66.421 Y31.266 E0.00998
G1 X66.463 Y30.798 E0.01472
G1 X66.586 Y30.345 E0.01472
G1 X66.715 Y30.054 E0.00998
G1 X66.877 Y29.780 E0.00998
G1 X67.172 Y29.415 E0.01472
G1 X67.528 Y29.109 E0.01472
G1 X67.797 Y28.939 E0.00998
G1 X68.074 Y28.807 E0.00962
G1 X68.533 Y28.665 E0.01507
G1 X69.000 Y28.609 E0.01473
G1 X69.318 Y28.619 E0.00998
G1 X69.621 Y28.664 E0.00962
G1 X70.081 Y28.803 E0.01507
G1 X70.502 Y29.019 E0.01483
G1 X70.875 Y29.303 E0.01472
G1 X71.097 Y29.532 E0.00998
G1 X71.290 Y29.785 E0.00998
G1 X71.517 Y30.196 E0.01472
G1 X71.667 Y30.641 E0.01472
G1 X71.723 Y30.954 E0.00998
G1 X71.742 Y31.272 E0.00998
G1 X71.708 Y31.653 E0.01201
M204 S1250
G1 X72.008 Y31.972 F9000.000
G1 E-2.24000 F2400.000
;WIPE_START
G1 F7200.000
G1 X71.577 Y32.192 E-0.17564
G1 X71.448 Y32.484 E-0.10081
G1 X71.287 Y32.758 E-0.10081
G1 X70.991 Y33.122 E-0.14865
G1 X70.635 Y33.429 E-0.14865
G1 X70.366 Y33.598 E-0.10077
G1 X70.089 Y33.731 E-0.09714
G1 X69.970 Y33.768 E-0.03953
;WIPE_END
G1 E-0.04800 F2400.000
G1 Z0.400 F9000.000
G1 X32.629 Y31.096
G1 Z0.200
G1 E3.20000 F1500.000
M204 S800
;TYPE:Perimeter
G1 F1200.000
G1 X32.499 Y31.569 E0.01540
G1 X32.269 Y31.991 E0.01504
G1 X32.054 Y32.252 E0.01062
G1 X31.801 Y32.477 E0.01062
G1 X31.398 Y32.717 E0.01468
G1 X31.069 Y32.835 E0.01098
G1 X30.606 Y32.907 E0.01468
G1 X30.256 Y32.893 E0.01098
G1 X29.789 Y32.784 E0.01504
G1 X29.359 Y32.571 E0.01504
G1 X29.081 Y32.359 E0.01098
G1 X28.769 Y32.009 E0.01469
G1 X28.596 Y31.718 E0.01062
G1 X28.469 Y31.404 E0.01062
G1 X28.378 Y30.933 E0.01504
G1 X28.396 Y30.453 E0.01504
G1 X28.476 Y30.112 E0.01098
G1 X28.668 Y29.685 E0.01469
G1 X28.862 Y29.408 E0.01062
G1 X29.097 Y29.164 E0.01062
G1 X29.490 Y28.888 E0.01504
G1 X29.945 Y28.704 E0.01539
G1 X30.417 Y28.631 E0.01497
G1 X30.769 Y28.644 E0.01104
G1 X31.225 Y28.751 E0.01469
G1 X31.545 Y28.894 E0.01098
G1 X31.937 Y29.170 E0.01504
G1 X32.256 Y29.528 E0.01504
G1 X32.435 Y29.829 E0.01098
G1 X32.594 Y30.270 E0.01469
G1 X32.647 Y30.616 E0.01098
G1 X32.631 Y31.036 E0.01316
M204 S1250
G1 X32.254 Y31.021 F9000.000
M204 S800
;TYPE:External perimeter
G1 F1200.000
G1 X32.146 Y31.427 E0.01317
G1 X31.955 Y31.779 E0.01254
G1 X31.781 Y31.990 E0.00858
G1 X31.577 Y32.172 E0.00858
G1 X31.237 Y32.374 E0.01241
G1 X30.975 Y32.468 E0.00871
G1 X30.584 Y32.528 E0.01241
G1 X30.307 Y32.518 E0.00871
G1 X29.917 Y32.427 E0.01254
G1 X29.559 Y32.249 E0.01254
G1 X29.338 Y32.081 E0.00871
G1 X29.075 Y31.785 E0.01241
G1 X28.935 Y31.550 E0.00858
G1 X28.832 Y31.296 E0.00858
G1 X28.756 Y30.904 E0.01254
G1 X28.772 Y30.504 E0.01254
G1 X28.835 Y30.234 E0.00871
G1 X28.997 Y29.872 E0.01241
G1 X29.154 Y29.648 E0.00858
G1 X29.344 Y29.451 E0.00858
G1 X29.671 Y29.221 E0.01254
G1 X30.046 Y29.070 E0.01267
G1 X30.439 Y29.009 E0.01248
G1 X30.719 Y29.020 E0.00877
G1 X31.104 Y29.110 E0.01242
G1 X31.357 Y29.224 E0.00871
G1 X31.685 Y29.454 E0.01254
G1 X31.951 Y29.752 E0.01254
G1 X32.093 Y29.991 E0.00871
G1 X32.226 Y30.363 E0.01241
G1 X32.269 Y30.638 E0.00871
G1 X32.256 Y30.961 E0.01014
M204 S1250
G1 X32.565 Y31.273 F9000.000
G1 E-2.24000 F2400.000
;WIPE_START
G1 F7200.000
G1 X32.146 Y31.427 E-0.15162
G1 X31.955 Y31.779 E-0.12666
G1 X31.781 Y31.990 E-0.08664
G1 X31.577 Y32.172 E-0.08665
G1 X31.237 Y32.374 E-0.12537
G1 X30.975 Y32.468 E-0.08793
G1 X30.584 Y32.528 E-0.12536
G1 X30.307 Y32.518 E-0.08794
G1 X30.203 Y32.493 E-0.03382
;WIPE_END
G1 E-0.04800 F2400.000
G1 Z0.400 F9000.000
G1 X30.769 Y41.144
M73 P1 R77
G1 Z0.200
G1 E3.20000 F1500.000
M204 S800
;TYPE:Perimeter
G1 F1200.000
G1 X31.225 Y41.251 E0.01469
G1 X31.545 Y41.394 E0.01098
G1 X31.937 Y41.670 E0.01504
G1 X32.256 Y42.028 E0.01504
G1 X32.435 Y42.329 E0.01098
G1 X32.594 Y42.770 E0.01468
G1 X32.647 Y43.116 E0.01098
G1 X32.629 Y43.596 E0.01504
G1 X32.499 Y44.069 E0.01540
G1 X32.269 Y44.491 E0.01504
G1 X32.054 Y44.752 E0.01062
G1 X31.801 Y44.977 E0.01062
G1 X31.388 Y45.222 E0.01504
G1 X30.931 Y45.367 E0.01504
G1 X30.583 Y45.407 E0.01098
G1 X30.116 Y45.372 E0.01469
G1 X29.790 Y45.282 E0.01062
G1 X29.480 Y45.143 E0.01062
G1 X29.088 Y44.867 E0.01504
G1 X28.769 Y44.509 E0.01504
G1 X28.596 Y44.218 E0.01062
G1 X28.469 Y43.904 E0.01062
G1 X28.378 Y43.433 E0.01504
G1 X28.396 Y42.953 E0.01504
G1 X28.476 Y42.612 E0.01098
G1 X28.668 Y42.185 E0.01468
G1 X28.862 Y41.908 E0.01062
G1 X29.097 Y41.664 E0.01062
G1 X29.490 Y41.388 E0.01504
G1 X29.945 Y41.204 E0.01539
G1 X30.417 Y41.131 E0.01497
G1 X30.709 Y41.142 E0.00916
M204 S1250
G1 X30.695 Y41.519 F9000.000
M204 S800
;TYPE:External perimeter
G1 F1200.000
G1 X31.104 Y41.610 E0.01314
G1 X31.357 Y41.724 E0.00871
G1 X31.685 Y41.954 E0.01254
G1 X31.951 Y42.252 E0.01254
G1 X32.093 Y42.491 E0.00871
G1 X32.226 Y42.864 E0.01241
G1 X32.269 Y43.138 E0.00871
G1 X32.254 Y43.538 E0.01254
G1 X32.146 Y43.927 E0.01267
G1 X31.955 Y44.279 E0.01254
G1 X31.781 Y44.490 E0.00858
G1 X31.577 Y44.672 E0.00858
G1 X31.233 Y44.876 E0.01254
G1 X30.852 Y44.997 E0.01254
G1 X30.576 Y45.029 E0.00871
G1 X30.181 Y44.998 E0.01241
G1 X29.917 Y44.926 E0.00858
G1 X29.668 Y44.814 E0.00858
G1 X29.341 Y44.584 E0.01254
G1 X29.075 Y44.285 E0.01254
