; generated by PrusaSlicer 2.3.0+win64 on 2022-05-24 at 19:35:43 UTC


;
;

;
;
; 

; external perimeters extrusion width = 0.45mm
; perimeters extrusion width = 0.45mm
; infill extrusion width = 0.45mm
; solid infill extrusion width = 0.45mm
; top infill extrusion width = 0.40mm
; first layer extrusion width = 0.42mm

M73 P0 R10
M201 X1250 Y1250 Z400 E5000 ; sets maximum accelerations, mm/sec^2
M203 X180 Y180 Z12 E80 ; sets maximum feedrates, mm/sec
M204 P1250 R1250 T1250 ; sets acceleration (P, T) and retract acceleration (R), mm/sec^2
M205 X8.00 Y8.00 Z2.00 E10.00 ; sets the jerk limits, mm/sec
M205 S0 T0 ; sets the minimum extruding and travel feed rate, mm/sec
M107
;TYPE:Custom
G90 ; use absolute coordinates
M83 ; extruder relative mode
M104 S170 ; set extruder temp for bed leveling
M140 S85 ; set bed temp
M109 R170 ; wait for bed leveling temp
M190 S85 ; wait for bed temp
G28 ; home all without mesh bed level
G29 ; mesh bed leveling 
M104 S240 ; set extruder temp
G92 E0.0
G1 Y-2.0 X179 F2400
G1 Z3 F720
M109 S240 ; wait for extruder temp

; intro line
G1 X170 F1000
G1 Z0.2 F720
G1 X110.0 E8.0 F900
M73 P1 R10
G1 X40.0 E10.0 F700
G92 E0.0

M221 S95 ; set flow
G21 ; set units to millimeters
G90 ; use absolute coordinates
M83 ; use relative distances for extrusion
M900 K0.2 ; Filament gcode
;LAYER_CHANGE
;Z:0.2
;HEIGHT:0.2
;BEFORE_LAYER_CHANGE
G92 E0.0
;0.2


M73 P2 R10
G1 E-3.20000 F2400.000
G1 Z0.200 F9000.000
;AFTER_LAYER_CHANGE
;0.2
G1 Z0.400
G1 X52.178 Y65.279
M73 P2 R9
G1 Z0.200
G1 E3.20000 F1500.000
M204 S800
;TYPE:Skirt
;WIDTH:0.42
G1 F1200.000
G1 X53.022 Y64.762 E0.03103
G1 X53.956 Y64.310 E0.03255
G1 X54.891 Y63.966 E0.03123
G1 X56.087 Y63.670 E0.03863
G1 X58.081 Y63.499 E0.06276
G1 X59.763 Y63.659 E0.05298
G1 X61.365 Y64.082 E0.05194
G1 X62.889 Y64.763 E0.05234
G1 X64.273 Y65.677 E0.05201
G1 X65.493 Y66.801 E0.05201
G1 X66.517 Y68.111 E0.05214
G1 X67.315 Y69.565 E0.05201
G1 X67.875 Y71.161 E0.05303
G1 X68.121 Y72.422 E0.04027
G1 X68.208 Y73.724 E0.04092
G1 X68.208 Y103.769 E0.94203
M73 P3 R9
G1 X68.014 Y105.737 E0.06201
G1 X67.440 Y107.646 E0.06251
G1 X66.510 Y109.404 E0.06238
G1 X65.921 Y110.208 E0.03123
G1 X65.234 Y110.973 E0.03225
G1 X64.503 Y111.642 E0.03104
G1 X63.523 Y112.361 E0.03812
G1 X62.609 Y112.889 E0.03311
G1 X61.727 Y113.287 E0.03033
G1 X59.789 Y113.841 E0.06320
G1 X57.818 Y114.005 E0.06199
G1 X56.141 Y113.845 E0.05285
G1 X54.537 Y113.420 E0.05201
G1 X53.019 Y112.741 E0.05214
G1 X51.640 Y111.832 E0.05181
G1 X50.420 Y110.708 E0.05201
G1 X49.395 Y109.399 E0.05214
G1 X48.594 Y107.939 E0.05221
G1 X48.036 Y106.353 E0.05271
G1 X47.787 Y105.085 E0.04052
G1 X47.700 Y103.780 E0.04099
G1 X47.700 Y73.736 E0.94203
G1 X47.893 Y71.772 E0.06189
G1 X48.466 Y69.864 E0.06244
G1 X49.394 Y68.107 E0.06231
G1 X49.985 Y67.300 E0.03137
G1 X50.670 Y66.535 E0.03220
G1 X52.132 Y65.318 E0.05965
M204 S1250
G1 X52.372 Y65.606 F9000.000
M204 S800
G1 F1200.000
G1 X54.099 Y64.659 E0.06175
G1 X55.000 Y64.328 E0.03008
G1 X56.160 Y64.040 E0.03749
G1 X58.081 Y63.876 E0.06046
G1 X59.700 Y64.031 E0.05099
G1 X61.242 Y64.439 E0.05002
G1 X62.710 Y65.095 E0.05041
G1 X64.064 Y65.992 E0.05093
G1 X65.220 Y67.062 E0.04938
G1 X66.221 Y68.347 E0.05107
M73 P4 R9
G1 X67.080 Y69.974 E0.05768
G1 X67.570 Y71.496 E0.05013
G1 X67.751 Y72.500 E0.03199
G1 X67.831 Y73.733 E0.03874
G1 X67.831 Y103.764 E0.94160
G1 X67.646 Y105.657 E0.05964
G1 X67.092 Y107.502 E0.06040
G1 X66.196 Y109.196 E0.06008
G1 X64.967 Y110.707 E0.06106
G1 X64.095 Y111.487 E0.03670
G1 X63.295 Y112.060 E0.03087
G1 X61.584 Y112.938 E0.06028
G1 X59.718 Y113.470 E0.06084
G1 X57.819 Y113.628 E0.05975
G1 X56.208 Y113.474 E0.05075
G1 X54.660 Y113.064 E0.05022
G1 X53.198 Y112.409 E0.05021
G1 X51.849 Y111.516 E0.05073
G1 X50.673 Y110.426 E0.05029
G1 X49.561 Y108.959 E0.05768
G1 X48.821 Y107.512 E0.05099
G1 X48.338 Y106.007 E0.04955
G1 X48.157 Y105.003 E0.03199
G1 X48.077 Y103.772 E0.03868
G1 X48.077 Y73.741 E0.94160
G1 X48.263 Y71.845 E0.05972
G1 X48.813 Y70.012 E0.06001
G1 X49.706 Y68.319 E0.06002
G1 X50.935 Y66.804 E0.06117
G1 X52.326 Y65.644 E0.05678
M204 S1250
; printing object SideMount02 id:0 copy 0
G1 E-2.24000 F2400.000
;WIPE_START
G1 F7200.000
G1 X54.099 Y64.659 E-0.64234
G1 X54.898 Y64.365 E-0.26966
;WIPE_END
G1 E-0.04800 F2400.000
G1 Z0.400 F9000.000
G1 X58.484 Y96.911
G1 Z0.200
M73 P5 R9
G1 E3.20000 F1500.000
M204 S800
;TYPE:Perimeter
G1 F1200.000
G1 X58.998 Y97.058 E0.01676
G1 X59.475 Y97.295 E0.01672
G1 X59.901 Y97.617 E0.01672
G1 X60.260 Y98.011 E0.01672
G1 X60.541 Y98.464 E0.01672
G1 X60.730 Y98.953 E0.01643
G1 X60.808 Y99.309 E0.01143
G1 X60.842 Y99.672 E0.01143
G1 X60.810 Y100.186 E0.01615
G1 X60.732 Y100.542 E0.01142
G1 X60.617 Y100.871 E0.01093
G1 X60.364 Y101.347 E0.01691
G1 X60.029 Y101.764 E0.01676
G1 X59.624 Y102.111 E0.01672
G1 X59.170 Y102.373 E0.01643
G1 X58.830 Y102.505 E0.01143
G1 X58.476 Y102.594 E0.01143
G1 X57.954 Y102.642 E0.01643
G1 X57.432 Y102.594 E0.01643
G1 X57.078 Y102.505 E0.01143
G1 X56.738 Y102.373 E0.01143
G1 X56.284 Y102.111 E0.01643
G1 X55.879 Y101.764 E0.01672
G1 X55.545 Y101.348 E0.01672
G1 X55.293 Y100.879 E0.01672
G1 X55.134 Y100.379 E0.01643
G1 X55.079 Y100.023 E0.01130
G1 X55.066 Y99.752 E0.00850
G1 X55.079 Y99.481 E0.00850
G1 X55.134 Y99.125 E0.01130
G1 X55.293 Y98.626 E0.01643
G1 X55.545 Y98.156 E0.01672
G1 X55.879 Y97.741 E0.01672
G1 X56.284 Y97.394 E0.01672
G1 X56.746 Y97.127 E0.01672
G1 X57.241 Y96.953 E0.01643
G1 X57.599 Y96.886 E0.01142
G1 X57.947 Y96.864 E0.01093
G1 X58.424 Y96.906 E0.01503
M204 S1250
G1 X58.391 Y97.282 F9000.000
M204 S800
;TYPE:External perimeter
G1 F1200.000
G1 X58.861 Y97.411 E0.01529
G1 X59.276 Y97.617 E0.01453
G1 X59.646 Y97.897 E0.01453
G1 X59.958 Y98.239 E0.01453
G1 X60.202 Y98.633 E0.01453
G1 X60.368 Y99.062 E0.01443
G1 X60.435 Y99.367 E0.00979
G1 X60.464 Y99.678 E0.00979
G1 X60.436 Y100.134 E0.01432
G1 X60.369 Y100.439 E0.00979
G1 X60.270 Y100.719 E0.00932
G1 X60.047 Y101.139 E0.01489
G1 X59.757 Y101.500 E0.01454
G1 X59.405 Y101.802 E0.01453
G1 X59.006 Y102.032 E0.01443
G1 X58.715 Y102.145 E0.00979
G1 X58.412 Y102.221 E0.00979
G1 X57.954 Y102.263 E0.01443
G1 X57.496 Y102.221 E0.01443
G1 X57.193 Y102.145 E0.00979
G1 X56.902 Y102.032 E0.00979
G1 X56.503 Y101.802 E0.01443
G1 X56.151 Y101.500 E0.01453
G1 X55.861 Y101.139 E0.01453
G1 X55.642 Y100.731 E0.01453
G1 X55.502 Y100.292 E0.01443
G1 X55.455 Y99.985 E0.00974
G1 X55.444 Y99.752 E0.00732
G1 X55.455 Y99.519 E0.00732
G1 X55.502 Y99.212 E0.00974
G1 X55.642 Y98.773 E0.01443
G1 X55.861 Y98.365 E0.01453
G1 X56.151 Y98.004 E0.01453
G1 X56.503 Y97.703 E0.01453
G1 X56.905 Y97.471 E0.01453
G1 X57.339 Y97.318 E0.01443
G1 X57.645 Y97.261 E0.00979
G1 X57.942 Y97.242 E0.00932
G1 X58.331 Y97.276 E0.01225
M204 S1250
G1 X58.652 Y96.979 F9000.000
G1 E-2.24000 F2400.000
;WIPE_START
G1 F7200.000
G1 X58.861 Y97.411 E-0.17315
G1 X59.276 Y97.617 E-0.14673
G1 X59.646 Y97.897 E-0.14673
G1 X59.958 Y98.239 E-0.14673
G1 X60.202 Y98.633 E-0.14674
G1 X60.368 Y99.062 E-0.14570
G1 X60.372 Y99.081 E-0.00621
;WIPE_END
G1 E-0.04800 F2400.000
G1 Z0.400 F9000.000
G1 X57.954 Y80.640
G1 Z0.200
G1 E3.20000 F1500.000
M204 S800
;TYPE:Perimeter
G1 F1200.000
G1 X57.600 Y80.619 E0.01113
G1 X57.257 Y80.555 E0.01093
G1 X56.747 Y80.378 E0.01691
G1 X56.284 Y80.111 E0.01676
G1 X55.880 Y79.764 E0.01672
G1 X55.545 Y79.348 E0.01672
G1 X55.293 Y78.879 E0.01672
G1 X55.134 Y78.379 E0.01643
G1 X55.079 Y78.023 E0.01130
G1 X55.066 Y77.752 E0.00850
G1 X55.079 Y77.481 E0.00850
G1 X55.134 Y77.125 E0.01130
G1 X55.293 Y76.626 E0.01643
G1 X55.545 Y76.156 E0.01672
G1 X55.880 Y75.741 E0.01672
G1 X56.284 Y75.394 E0.01672
G1 X56.746 Y75.127 E0.01672
G1 X57.241 Y74.953 E0.01643
G1 X57.599 Y74.886 E0.01142
G1 X57.947 Y74.864 E0.01093
G1 X58.484 Y74.911 E0.01691
G1 X58.998 Y75.058 E0.01676
G1 X59.475 Y75.295 E0.01672
G1 X59.901 Y75.617 E0.01672
G1 X60.260 Y76.011 E0.01672
G1 X60.536 Y76.456 E0.01643
G1 X60.678 Y76.792 E0.01142
G1 X60.774 Y77.127 E0.01093
G1 X60.842 Y77.662 E0.01691
G1 X60.810 Y78.186 E0.01647
G1 X60.732 Y78.542 E0.01142
G1 X60.617 Y78.871 E0.01093
G1 X60.364 Y79.347 E0.01691
G1 X60.029 Y79.764 E0.01676
G1 X59.624 Y80.111 E0.01672
G1 X59.162 Y80.377 E0.01672
G1 X58.667 Y80.552 E0.01643
G1 X58.309 Y80.619 E0.01143
G1 X58.014 Y80.637 E0.00927
M204 S1250
G1 X57.991 Y80.260 F9000.000
M204 S800
;TYPE:External perimeter
G1 F1200.000
G1 X57.646 Y80.244 E0.01083
G1 X57.354 Y80.190 E0.00932
G1 X56.905 Y80.034 E0.01489
G1 X56.503 Y79.802 E0.01454
G1 X56.151 Y79.500 E0.01453
G1 X55.861 Y79.139 E0.01453
G1 X55.642 Y78.731 E0.01453
G1 X55.502 Y78.292 E0.01443
G1 X55.455 Y77.985 E0.00974
G1 X55.444 Y77.752 E0.00732
G1 X55.455 Y77.519 E0.00732
G1 X55.502 Y77.212 E0.00974
G1 X55.642 Y76.773 E0.01443
G1 X55.861 Y76.365 E0.01453
G1 X56.151 Y76.004 E0.01453
G1 X56.503 Y75.703 E0.01453
G1 X56.905 Y75.471 E0.01453
G1 X57.339 Y75.318 E0.01443
G1 X57.645 Y75.261 E0.00979
G1 X57.942 Y75.242 E0.00932
G1 X58.415 Y75.284 E0.01489
G1 X58.861 Y75.411 E0.01454
G1 X59.276 Y75.617 E0.01453
G1 X59.646 Y75.897 E0.01453
G1 X59.958 Y76.239 E0.01453
G1 X60.200 Y76.630 E0.01443
G1 X60.322 Y76.918 E0.00979
G1 X60.404 Y77.203 E0.00932
G1 X60.464 Y77.674 E0.01489
G1 X60.436 Y78.134 E0.01444
G1 X60.369 Y78.439 E0.00979
G1 X60.270 Y78.719 E0.00932
G1 X60.047 Y79.139 E0.01489
G1 X59.757 Y79.500 E0.01454
G1 X59.405 Y79.802 E0.01453
G1 X59.004 Y80.033 E0.01453
G1 X58.570 Y80.186 E0.01443
G1 X58.263 Y80.244 E0.00979
G1 X58.051 Y80.257 E0.00666
M204 S1250
G1 X57.821 Y80.561 F9000.000
G1 E-2.24000 F2400.000
;WIPE_START
G1 F7200.000
G1 X57.646 Y80.244 E-0.12828
G1 X57.354 Y80.190 E-0.09409
G1 X56.905 Y80.034 E-0.15041
G1 X56.503 Y79.802 E-0.14687
G1 X56.151 Y79.500 E-0.14673
G1 X55.861 Y79.139 E-0.14673
G1 X55.713 Y78.864 E-0.09888
;WIPE_END
G1 E-0.04800 F2400.000
G1 Z0.400 F9000.000
G1 X64.667 Y80.257
G1 Z0.200
G1 E3.20000 F1500.000
M204 S800
;TYPE:Perimeter
G1 F1200.000
G1 X64.667 Y103.736 E0.73619
M73 P6 R9
G1 X64.635 Y104.403 E0.02094
G1 X64.540 Y105.048 E0.02044
G1 X64.383 Y105.681 E0.02044
G1 X64.166 Y106.296 E0.02044
G1 X63.890 Y106.886 E0.02044
G1 X63.558 Y107.447 E0.02044
G1 X63.173 Y107.974 E0.02044
G1 X62.739 Y108.460 E0.02044
G1 X62.259 Y108.902 E0.02044
G1 X61.739 Y109.295 E0.02044
G1 X61.184 Y109.636 E0.02044
G1 X60.598 Y109.922 E0.02044
G1 X59.982 Y110.151 E0.02059
G1 X59.569 Y110.268 E0.01348
G1 X59.151 Y110.357 E0.01339
G1 X58.497 Y110.442 E0.02069
G1 X57.845 Y110.464 E0.02044
G1 X57.190 Y110.421 E0.02059
G1 X56.765 Y110.359 E0.01348
G1 X56.344 Y110.269 E0.01348
G1 X55.715 Y110.080 E0.02059
G1 X55.112 Y109.833 E0.02044
G1 X54.534 Y109.528 E0.02050
G1 X54.172 Y109.298 E0.01343
G1 X53.645 Y108.899 E0.02074
G1 X53.328 Y108.616 E0.01333
G1 X52.875 Y108.140 E0.02059
G1 X52.473 Y107.627 E0.02044
G1 X52.122 Y107.075 E0.02050
G1 X51.922 Y106.697 E0.01343
G1 X51.663 Y106.093 E0.02059
G1 X51.465 Y105.470 E0.02050
G1 X51.369 Y105.053 E0.01343
G1 X51.274 Y104.403 E0.02059
G1 X51.241 Y103.736 E0.02094
G1 X51.241 Y73.768 E0.93963
G1 X51.274 Y73.101 E0.02094
G1 X51.368 Y72.456 E0.02044
G1 X51.525 Y71.823 E0.02044
G1 X51.744 Y71.204 E0.02059
G1 X51.920 Y70.812 E0.01348
G1 X52.121 Y70.432 E0.01348
G1 X52.473 Y69.878 E0.02059
G1 X52.875 Y69.364 E0.02044
G1 X53.324 Y68.892 E0.02044
G1 X53.818 Y68.466 E0.02044
G1 X54.350 Y68.090 E0.02044
G1 X54.916 Y67.767 E0.02044
G1 X55.511 Y67.500 E0.02044
G1 X56.129 Y67.293 E0.02044
G1 X56.765 Y67.146 E0.02044
G1 X57.416 Y67.061 E0.02059
G1 X57.845 Y67.040 E0.01348
G1 X58.277 Y67.047 E0.01354
G1 X58.709 Y67.082 E0.01358
G1 X59.361 Y67.189 E0.02074
G1 X59.774 Y67.291 E0.01333
G1 X60.397 Y67.500 E0.02059
G1 X60.996 Y67.769 E0.02059
G1 X61.369 Y67.973 E0.01333
G1 X61.921 Y68.337 E0.02074
G1 X62.256 Y68.599 E0.01333
G1 X62.742 Y69.048 E0.02074
G1 X63.030 Y69.360 E0.01333
G1 X63.435 Y69.878 E0.02059
G1 X63.785 Y70.428 E0.02044
G1 X64.082 Y71.013 E0.02059
G1 X64.243 Y71.407 E0.01333
G1 X64.444 Y72.037 E0.02074
G1 X64.539 Y72.451 E0.01333
G1 X64.635 Y73.101 E0.02059
G1 X64.667 Y73.768 E0.02094
G1 X64.667 Y80.197 E0.20157
M204 S1250
G1 X65.044 Y80.197 F9000.000
M204 S800
;TYPE:External perimeter
G1 F1200.000
G1 X65.044 Y103.745 E0.73835
G1 X65.010 Y104.440 E0.02180
G1 X64.910 Y105.121 E0.02159
G1 X64.745 Y105.790 E0.02159
G1 X64.515 Y106.439 E0.02159
G1 X64.223 Y107.063 E0.02159
G1 X63.873 Y107.655 E0.02159
G1 X63.466 Y108.211 E0.02159
G1 X63.008 Y108.725 E0.02159
G1 X62.501 Y109.191 E0.02159
G1 X61.952 Y109.607 E0.02159
G1 X61.366 Y109.967 E0.02159
G1 X60.747 Y110.269 E0.02159
G1 X60.100 Y110.510 E0.02164
G1 X59.659 Y110.634 E0.01434
G1 X59.215 Y110.729 E0.01425
G1 X58.527 Y110.819 E0.02174
G1 X57.839 Y110.841 E0.02159
G1 X57.150 Y110.796 E0.02164
G1 X56.698 Y110.730 E0.01434
M73 P7 R9
G1 X56.250 Y110.634 E0.01434
G1 X55.589 Y110.436 E0.02164
G1 X54.952 Y110.175 E0.02159
G1 X54.344 Y109.854 E0.02155
G1 X53.957 Y109.608 E0.01439
G1 X53.405 Y109.190 E0.02170
G1 X53.065 Y108.887 E0.01429
G1 X52.589 Y108.387 E0.02164
G1 X52.165 Y107.845 E0.02159
G1 X51.796 Y107.265 E0.02155
G1 X51.581 Y106.859 E0.01439
G1 X51.309 Y106.225 E0.02164
G1 X51.101 Y105.570 E0.02155
G1 X50.998 Y105.123 E0.01439
G1 X50.898 Y104.440 E0.02164
G1 X50.864 Y103.745 E0.02180
G1 X50.864 Y73.759 E0.94021
G1 X50.898 Y73.064 E0.02180
G1 X50.998 Y72.383 E0.02159
G1 X51.163 Y71.715 E0.02159
G1 X51.394 Y71.064 E0.02164
G1 X51.581 Y70.646 E0.01434
G1 X51.794 Y70.242 E0.01434
G1 X52.165 Y69.660 E0.02164
G1 X52.589 Y69.117 E0.02159
G1 X53.064 Y68.619 E0.02159
G1 X53.585 Y68.169 E0.02159
G1 X54.147 Y67.771 E0.02159
G1 X54.746 Y67.430 E0.02159
G1 X55.374 Y67.149 E0.02159
G1 X56.027 Y66.929 E0.02159
G1 X56.698 Y66.775 E0.02159
G1 X57.382 Y66.685 E0.02164
G1 X57.839 Y66.663 E0.01434
G1 X58.295 Y66.671 E0.01430
G1 X58.754 Y66.708 E0.01444
G1 X59.437 Y66.819 E0.02170
G1 X59.880 Y66.929 E0.01429
G1 X60.534 Y67.149 E0.02164
G1 X61.164 Y67.431 E0.02164
G1 X61.564 Y67.650 E0.01429
G1 X62.141 Y68.031 E0.02170
G1 X62.500 Y68.312 E0.01429
G1 X63.009 Y68.781 E0.02170
G1 X63.318 Y69.116 E0.01429
G1 X63.743 Y69.660 E0.02164
G1 X64.113 Y70.241 E0.02159
G1 X64.425 Y70.856 E0.02164
G1 X64.598 Y71.278 E0.01429
G1 X64.808 Y71.937 E0.02170
G1 X64.910 Y72.381 E0.01429
G1 X65.010 Y73.064 E0.02164
G1 X65.044 Y73.759 E0.02180
G1 X65.044 Y80.137 E0.19997
M204 S1250
G1 X64.698 Y80.397 F9000.000
G1 E-2.24000 F2400.000
;WIPE_START
G1 F7200.000
G1 X65.044 Y83.017 E-0.91200
;WIPE_END
G1 E-0.04800 F2400.000
G1 Z0.400 F9000.000
G1 X61.466 Y68.173
G1 Z0.200
G1 E3.20000 F1500.000
M204 S800
;TYPE:Solid infill
;WIDTH:0.421459
G1 F1200.000
G1 X62.552 Y69.259 E0.04836
G1 X62.815 Y69.544 E0.01218
G1 X63.204 Y70.041 E0.01988
G1 X63.539 Y70.568 E0.01965
G1 X63.759 Y71.001 E0.01530
G1 X60.707 Y67.949 E0.13587
G1 X60.294 Y67.764 E0.01425
G1 X59.831 Y67.609 E0.01535
G1 X64.094 Y71.872 E0.18977
G1 X64.171 Y72.112 E0.00792
G1 X64.273 Y72.586 E0.01527
G1 X59.124 Y67.437 E0.22921
G1 X58.501 Y67.349 E0.01979
G1 X64.356 Y73.205 E0.26064
G1 X64.384 Y73.767 E0.01773
G1 X57.941 Y67.325 E0.28677
M73 P8 R9
G1 X57.426 Y67.345 E0.01622
G1 X64.384 Y74.303 E0.30972
G1 X64.384 Y74.838 E0.01685
G1 X56.953 Y67.407 E0.33080
G1 X56.506 Y67.496 E0.01432
G1 X64.384 Y75.374 E0.35066
G1 X64.384 Y75.909 E0.01685
G1 X56.082 Y67.607 E0.36955
G1 X55.681 Y67.741 E0.01331
G1 X64.384 Y76.444 E0.38739
G1 X64.384 Y76.980 E0.01685
G1 X55.306 Y67.902 E0.40408
G1 X54.945 Y68.076 E0.01262
G1 X64.384 Y77.515 E0.42017
G1 X64.384 Y78.050 E0.01685
G1 X54.604 Y68.270 E0.43534
G1 X54.282 Y68.484 E0.01216
G1 X64.384 Y78.586 E0.44967
M73 P9 R9
G1 X64.384 Y79.121 E0.01685
G1 X53.971 Y68.708 E0.46354
G1 X53.683 Y68.956 E0.01195
G1 X64.384 Y79.656 E0.47632
G1 X64.384 Y80.192 E0.01685
G1 X60.967 Y76.775 E0.15210
G1 X60.788 Y76.326 E0.01521
G1 X60.487 Y75.840 E0.01801
G1 X60.092 Y75.407 E0.01843
G1 X59.625 Y75.054 E0.01843
G1 X59.101 Y74.793 E0.01843
G1 X58.939 Y74.747 E0.00527
G1 X53.407 Y69.215 E0.24625
G1 X53.146 Y69.489 E0.01192
G1 X58.265 Y74.608 E0.22786
G1 X57.950 Y74.580 E0.00996
G1 X57.717 Y74.595 E0.00736
G1 X52.906 Y69.784 E0.21417
G1 X52.674 Y70.088 E0.01203
G1 X57.250 Y74.663 E0.20367
G1 X56.844 Y74.793 E0.01341
