; generated by PrusaSlicer 2.3.0+win64 on 2022-05-28 at 11:14:33 UTC


;
;

;
;
; 

; external perimeters extrusion width = 0.45mm
; perimeters extrusion width = 0.45mm
; infill extrusion width = 0.45mm
; solid infill extrusion width = 0.45mm
; top infill extrusion width = 0.40mm
; first layer extrusion width = 0.42mm

M73 P0 R73
M201 X1250 Y1250 Z400 E5000 ; sets maximum accelerations, mm/sec^2
M203 X180 Y180 Z12 E80 ; sets maximum feedrates, mm/sec
M204 P1250 R1250 T1250 ; sets acceleration (P, T) and retract acceleration (R), mm/sec^2
M205 X8.00 Y8.00 Z2.00 E10.00 ; sets the jerk limits, mm/sec
M205 S0 T0 ; sets the minimum extruding and travel feed rate, mm/sec
M107
;TYPE:Custom
G90 ; use absolute coordinates
M83 ; extruder relative mode
M104 S170 ; set extruder temp for bed leveling
M140 S85 ; set bed temp
M109 R170 ; wait for bed leveling temp
M190 S85 ; wait for bed temp
G28 ; home all without mesh bed level
G29 ; mesh bed leveling 
M104 S240 ; set extruder temp
G92 E0.0
G1 Y-2.0 X179 F2400
G1 Z3 F720
M109 S240 ; wait for extruder temp

; intro line
G1 X170 F1000
G1 Z0.2 F720
G1 X110.0 E8.0 F900
G1 X40.0 E10.0 F700
G92 E0.0

M221 S95 ; set flow
G21 ; set units to millimeters
G90 ; use absolute coordinates
M83 ; use relative distances for extrusion
M900 K0.2 ; Filament gcode
;LAYER_CHANGE
;Z:0.2
;HEIGHT:0.2
;BEFORE_LAYER_CHANGE
G92 E0.0
;0.2


G1 E-3.20000 F2400.000
G1 Z0.200 F9000.000
;AFTER_LAYER_CHANGE
;0.2
G1 Z0.400
G1 X41.317 Y75.988
G1 Z0.200
G1 E3.20000 F1500.000
M204 S800
;TYPE:Skirt
;WIDTH:0.42
G1 F1200.000
G1 X41.064 Y75.186 E0.02637
G1 X41.051 Y68.576 E0.20726
G1 X41.198 Y67.489 E0.03440
G1 X41.546 Y66.403 E0.03574
G1 X41.903 Y65.685 E0.02515
G1 X42.366 Y64.993 E0.02610
G1 X42.912 Y64.372 E0.02593
G1 X43.542 Y63.820 E0.02627
G1 X44.232 Y63.359 E0.02602
G1 X44.979 Y62.991 E0.02611
G1 X45.765 Y62.723 E0.02603
G1 X46.595 Y62.558 E0.02653
G1 X47.416 Y62.504 E0.02580
G1 X139.425 Y62.504 E2.88489
G1 X140.480 Y62.593 E0.03320
G1 X141.373 Y62.811 E0.02881
G1 X142.357 Y63.220 E0.03342
G1 X143.255 Y63.786 E0.03327
G1 X143.953 Y64.395 E0.02904
G1 X144.634 Y65.208 E0.03327
G1 X145.098 Y65.976 E0.02812
G1 X145.497 Y66.946 E0.03291
G1 X145.701 Y67.773 E0.02669
G1 X145.793 Y68.624 E0.02686
G1 X145.778 Y75.193 E0.20594
G1 X145.599 Y75.833 E0.02083
G1 X145.249 Y76.401 E0.02095
G1 X144.753 Y76.850 E0.02095
G1 X144.153 Y77.143 E0.02095
G1 X143.426 Y77.258 E0.02308
G1 X43.375 Y77.258 E3.13702
G1 X42.551 Y77.093 E0.02637
G1 X41.835 Y76.652 E0.02637
G1 X41.354 Y76.036 E0.02449
M204 S1250
; printing object SideMountCombinedPlateSupportB02 id:0 copy 0
G1 E-2.24000 F2400.000
;WIPE_START
G1 F7200.000
G1 X41.064 Y75.186 E-0.28425
G1 X41.060 Y73.204 E-0.62775
;WIPE_END
G1 E-0.04800 F2400.000
G1 Z0.400 F9000.000
G1 X91.357 Y70.449
G1 Z0.200
G1 E3.20000 F1500.000
M204 S800
;TYPE:Perimeter
G1 F1200.000
G1 X91.283 Y69.977 E0.01497
G1 X91.297 Y69.625 E0.01104
G1 X91.403 Y69.169 E0.01469
G1 X91.547 Y68.849 E0.01098
G1 X91.823 Y68.457 E0.01504
G1 X92.181 Y68.138 E0.01504
G1 X92.472 Y67.964 E0.01062
G1 X92.786 Y67.838 E0.01062
G1 X93.257 Y67.746 E0.01504
G1 X93.737 Y67.765 E0.01504
G1 X94.077 Y67.845 E0.01098
G1 X94.515 Y68.041 E0.01504
G1 X94.906 Y68.339 E0.01540
G1 X95.211 Y68.709 E0.01504
G1 X95.373 Y69.006 E0.01062
G1 X95.487 Y69.325 E0.01062
G1 X95.559 Y69.788 E0.01468
G1 X95.546 Y70.138 E0.01098
G1 X95.439 Y70.594 E0.01468
G1 X95.296 Y70.913 E0.01098
G1 X95.020 Y71.306 E0.01504
G1 X94.661 Y71.625 E0.01504
G1 X94.360 Y71.804 E0.01098
G1 X93.920 Y71.962 E0.01468
G1 X93.585 Y72.014 E0.01062
G1 X93.246 Y72.014 E0.01062
G1 X92.786 Y71.925 E0.01468
G1 X92.461 Y71.794 E0.01098
G1 X92.068 Y71.539 E0.01469
G1 X91.816 Y71.297 E0.01098
G1 X91.540 Y70.904 E0.01504
G1 X91.379 Y70.504 E0.01351
M204 S1250
G1 X91.729 Y70.363 F9000.000
M204 S800
;TYPE:External perimeter
G1 F1200.000
G1 X91.662 Y69.955 E0.01298
G1 X91.672 Y69.675 E0.00877
G1 X91.762 Y69.290 E0.01242
G1 X91.876 Y69.036 E0.00871
G1 X92.106 Y68.709 E0.01254
G1 X92.405 Y68.443 E0.01254
G1 X92.640 Y68.303 E0.00858
G1 X92.894 Y68.201 E0.00858
G1 X93.286 Y68.125 E0.01254
G1 X93.686 Y68.140 E0.01254
G1 X93.956 Y68.204 E0.00871
G1 X94.321 Y68.367 E0.01254
G1 X94.643 Y68.612 E0.01267
G1 X94.897 Y68.921 E0.01254
G1 X95.028 Y69.161 E0.00858
G1 X95.120 Y69.419 E0.00858
G1 X95.181 Y69.810 E0.01241
G1 X95.170 Y70.087 E0.00871
G1 X95.080 Y70.473 E0.01241
G1 X94.966 Y70.726 E0.00871
G1 X94.736 Y71.053 E0.01254
G1 X94.438 Y71.319 E0.01254
G1 X94.199 Y71.461 E0.00871
G1 X93.826 Y71.595 E0.01241
G1 X93.556 Y71.637 E0.00858
G1 X93.282 Y71.637 E0.00858
G1 X92.894 Y71.562 E0.01241
G1 X92.636 Y71.458 E0.00871
G1 X92.304 Y71.243 E0.01241
G1 X92.104 Y71.050 E0.00871
G1 X91.874 Y70.723 E0.01254
G1 X91.751 Y70.419 E0.01027
M204 S1250
G1 X91.341 Y70.265 F9000.000
G1 E-2.24000 F2400.000
;WIPE_START
G1 F7200.000
G1 X91.662 Y69.955 E-0.14972
G1 X91.672 Y69.675 E-0.08855
G1 X91.762 Y69.290 E-0.12540
G1 X91.876 Y69.036 E-0.08794
G1 X92.106 Y68.709 E-0.12666
G1 X92.405 Y68.443 E-0.12666
G1 X92.640 Y68.303 E-0.08665
G1 X92.894 Y68.201 E-0.08664
G1 X92.998 Y68.181 E-0.03378
;WIPE_END
G1 E-0.04800 F2400.000
G1 Z0.400 F9000.000
G1 X103.857 Y70.449
G1 Z0.200
G1 E3.20000 F1500.000
M204 S800
;TYPE:Perimeter
G1 F1200.000
G1 X103.783 Y69.977 E0.01497
G1 X103.797 Y69.625 E0.01104
G1 X103.903 Y69.169 E0.01469
G1 X104.047 Y68.849 E0.01098
G1 X104.323 Y68.457 E0.01504
G1 X104.681 Y68.138 E0.01504
G1 X104.972 Y67.964 E0.01062
G1 X105.286 Y67.838 E0.01062
G1 X105.757 Y67.746 E0.01504
G1 X106.237 Y67.765 E0.01504
G1 X106.577 Y67.845 E0.01098
G1 X107.015 Y68.041 E0.01504
G1 X107.397 Y68.332 E0.01504
G1 X107.630 Y68.593 E0.01098
G1 X107.869 Y68.996 E0.01469
G1 X107.987 Y69.325 E0.01098
G1 X108.059 Y69.788 E0.01469
G1 X108.046 Y70.138 E0.01098
G1 X107.939 Y70.594 E0.01468
G1 X107.796 Y70.913 E0.01098
G1 X107.520 Y71.306 E0.01504
G1 X107.161 Y71.625 E0.01504
G1 X106.860 Y71.804 E0.01098
G1 X106.420 Y71.962 E0.01468
G1 X106.085 Y72.014 E0.01062
G1 X105.746 Y72.014 E0.01062
G1 X105.286 Y71.925 E0.01468
G1 X104.961 Y71.794 E0.01098
G1 X104.568 Y71.539 E0.01469
G1 X104.316 Y71.297 E0.01098
G1 X104.040 Y70.904 E0.01504
G1 X103.879 Y70.504 E0.01351
M204 S1250
G1 X104.229 Y70.363 F9000.000
M204 S800
;TYPE:External perimeter
G1 F1200.000
G1 X104.162 Y69.955 E0.01298
G1 X104.172 Y69.675 E0.00877
G1 X104.262 Y69.290 E0.01242
G1 X104.376 Y69.036 E0.00871
G1 X104.606 Y68.709 E0.01254
G1 X104.905 Y68.443 E0.01254
G1 X105.140 Y68.303 E0.00858
G1 X105.394 Y68.201 E0.00858
G1 X105.786 Y68.125 E0.01254
G1 X106.186 Y68.140 E0.01254
G1 X106.456 Y68.204 E0.00871
G1 X106.821 Y68.367 E0.01254
G1 X107.139 Y68.610 E0.01254
G1 X107.324 Y68.817 E0.00871
G1 X107.526 Y69.157 E0.01241
G1 X107.620 Y69.419 E0.00871
G1 X107.681 Y69.810 E0.01241
G1 X107.670 Y70.087 E0.00871
G1 X107.580 Y70.473 E0.01241
G1 X107.466 Y70.726 E0.00871
G1 X107.236 Y71.053 E0.01254
G1 X106.938 Y71.319 E0.01254
G1 X106.699 Y71.461 E0.00871
G1 X106.326 Y71.595 E0.01241
G1 X106.056 Y71.637 E0.00858
G1 X105.782 Y71.637 E0.00858
G1 X105.394 Y71.562 E0.01241
G1 X105.136 Y71.458 E0.00871
G1 X104.804 Y71.243 E0.01241
G1 X104.604 Y71.050 E0.00871
G1 X104.374 Y70.723 E0.01254
G1 X104.251 Y70.419 E0.01027
M204 S1250
G1 X103.841 Y70.265 F9000.000
G1 E-2.24000 F2400.000
;WIPE_START
G1 F7200.000
G1 X104.162 Y69.955 E-0.14973
G1 X104.172 Y69.675 E-0.08855
G1 X104.262 Y69.290 E-0.12540
G1 X104.376 Y69.036 E-0.08793
G1 X104.606 Y68.709 E-0.12666
G1 X104.905 Y68.443 E-0.12665
G1 X105.140 Y68.303 E-0.08665
G1 X105.394 Y68.201 E-0.08664
G1 X105.498 Y68.181 E-0.03379
;WIPE_END
G1 E-0.04800 F2400.000
G1 Z0.400 F9000.000
G1 X116.357 Y70.449
G1 Z0.200
G1 E3.20000 F1500.000
M204 S800
;TYPE:Perimeter
G1 F1200.000
G1 X116.283 Y69.977 E0.01497
G1 X116.297 Y69.625 E0.01104
G1 X116.403 Y69.169 E0.01469
G1 X116.547 Y68.849 E0.01098
G1 X116.823 Y68.457 E0.01504
G1 X117.181 Y68.138 E0.01504
G1 X117.472 Y67.964 E0.01062
G1 X117.786 Y67.838 E0.01062
G1 X118.257 Y67.746 E0.01504
G1 X118.737 Y67.765 E0.01504
G1 X119.077 Y67.845 E0.01098
G1 X119.505 Y68.036 E0.01468
G1 X119.782 Y68.231 E0.01062
G1 X120.026 Y68.466 E0.01062
G1 X120.296 Y68.849 E0.01469
G1 X120.439 Y69.169 E0.01098
G1 X120.548 Y69.636 E0.01504
G1 X120.548 Y70.127 E0.01540
G1 X120.439 Y70.594 E0.01504
G1 X120.296 Y70.913 E0.01098
G1 X120.020 Y71.306 E0.01504
G1 X119.661 Y71.625 E0.01504
G1 X119.360 Y71.804 E0.01098
G1 X118.920 Y71.962 E0.01468
G1 X118.585 Y72.014 E0.01062
G1 X118.246 Y72.014 E0.01062
G1 X117.786 Y71.925 E0.01468
G1 X117.461 Y71.794 E0.01098
G1 X117.068 Y71.539 E0.01468
G1 X116.816 Y71.297 E0.01098
G1 X116.540 Y70.904 E0.01504
G1 X116.379 Y70.504 E0.01351
M204 S1250
G1 X116.729 Y70.363 F9000.000
M204 S800
;TYPE:External perimeter
G1 F1200.000
G1 X116.662 Y69.955 E0.01298
G1 X116.672 Y69.675 E0.00877
G1 X116.762 Y69.290 E0.01242
G1 X116.876 Y69.036 E0.00871
G1 X117.106 Y68.709 E0.01254
G1 X117.405 Y68.443 E0.01254
G1 X117.640 Y68.303 E0.00858
G1 X117.894 Y68.201 E0.00858
G1 X118.286 Y68.125 E0.01254
G1 X118.686 Y68.140 E0.01254
G1 X118.956 Y68.204 E0.00871
G1 X119.318 Y68.365 E0.01241
G1 X119.541 Y68.523 E0.00858
G1 X119.739 Y68.713 E0.00858
G1 X119.966 Y69.036 E0.01241
G1 X120.080 Y69.290 E0.00871
G1 X120.171 Y69.679 E0.01254
G1 X120.171 Y70.083 E0.01267
G1 X120.080 Y70.473 E0.01254
G1 X119.966 Y70.726 E0.00871
G1 X119.736 Y71.053 E0.01254
G1 X119.438 Y71.319 E0.01254
G1 X119.199 Y71.461 E0.00871
G1 X118.826 Y71.595 E0.01241
G1 X118.556 Y71.637 E0.00858
G1 X118.282 Y71.637 E0.00858
G1 X117.894 Y71.562 E0.01241
G1 X117.636 Y71.458 E0.00871
G1 X117.304 Y71.243 E0.01241
G1 X117.104 Y71.050 E0.00871
G1 X116.874 Y70.723 E0.01254
G1 X116.751 Y70.419 E0.01027
M204 S1250
G1 X116.341 Y70.265 F9000.000
G1 E-2.24000 F2400.000
;WIPE_START
G1 F7200.000
G1 X116.662 Y69.955 E-0.14973
G1 X116.672 Y69.675 E-0.08855
G1 X116.762 Y69.290 E-0.12540
G1 X116.876 Y69.036 E-0.08793
G1 X117.106 Y68.709 E-0.12666
G1 X117.405 Y68.443 E-0.12665
G1 X117.640 Y68.303 E-0.08665
G1 X117.894 Y68.201 E-0.08664
G1 X117.998 Y68.181 E-0.03379
;WIPE_END
G1 E-0.04800 F2400.000
G1 Z0.400 F9000.000
G1 X128.794 Y70.127
G1 Z0.200
G1 E3.20000 F1500.000
M204 S800
;TYPE:Perimeter
G1 F1200.000
G1 X128.794 Y69.636 E0.01540
G1 X128.903 Y69.169 E0.01504
G1 X129.047 Y68.849 E0.01098
G1 X129.323 Y68.457 E0.01504
G1 X129.681 Y68.138 E0.01504
G1 X129.972 Y67.964 E0.01062
G1 X130.286 Y67.838 E0.01062
G1 X130.757 Y67.746 E0.01504
G1 X131.237 Y67.765 E0.01504
G1 X131.578 Y67.845 E0.01098
G1 X132.005 Y68.036 E0.01468
G1 X132.282 Y68.231 E0.01062
G1 X132.526 Y68.466 E0.01062
G1 X132.796 Y68.849 E0.01468
G1 X132.939 Y69.169 E0.01098
G1 X133.048 Y69.636 E0.01504
G1 X133.048 Y70.127 E0.01540
G1 X132.939 Y70.594 E0.01504
G1 X132.796 Y70.913 E0.01098
G1 X132.520 Y71.306 E0.01504
G1 X132.161 Y71.625 E0.01504
G1 X131.860 Y71.804 E0.01098
G1 X131.420 Y71.962 E0.01468
G1 X131.085 Y72.014 E0.01062
G1 X130.746 Y72.014 E0.01062
G1 X130.286 Y71.925 E0.01468
G1 X129.961 Y71.794 E0.01098
G1 X129.568 Y71.539 E0.01468
G1 X129.316 Y71.297 E0.01098
G1 X129.047 Y70.913 E0.01468
G1 X128.903 Y70.594 E0.01098
G1 X128.808 Y70.185 E0.01316
M204 S1250
G1 X129.175 Y70.099 F9000.000
M204 S800
;TYPE:External perimeter
G1 F1200.000
G1 X129.171 Y69.679 E0.01317
G1 X129.262 Y69.290 E0.01254
G1 X129.376 Y69.036 E0.00871
G1 X129.606 Y68.709 E0.01254
G1 X129.905 Y68.443 E0.01254
G1 X130.140 Y68.303 E0.00858
G1 X130.394 Y68.201 E0.00858
G1 X130.786 Y68.125 E0.01254
G1 X131.186 Y68.140 E0.01254
G1 X131.456 Y68.204 E0.00871
G1 X131.818 Y68.365 E0.01241
G1 X132.041 Y68.523 E0.00858
G1 X132.239 Y68.713 E0.00858
G1 X132.466 Y69.036 E0.01241
G1 X132.580 Y69.290 E0.00871
G1 X132.671 Y69.679 E0.01254
G1 X132.671 Y70.083 E0.01267
G1 X132.580 Y70.473 E0.01254
G1 X132.466 Y70.726 E0.00871
G1 X132.236 Y71.053 E0.01254
G1 X131.938 Y71.319 E0.01254
G1 X131.699 Y71.461 E0.00871
G1 X131.326 Y71.595 E0.01241
G1 X131.056 Y71.637 E0.00858
G1 X130.782 Y71.637 E0.00858
G1 X130.394 Y71.562 E0.01241
G1 X130.136 Y71.458 E0.00871
G1 X129.804 Y71.243 E0.01241
G1 X129.604 Y71.050 E0.00871
G1 X129.376 Y70.726 E0.01241
G1 X129.262 Y70.473 E0.00871
G1 X129.189 Y70.158 E0.01014
M204 S1250
G1 X128.809 Y69.938 F9000.000
G1 E-2.24000 F2400.000
;WIPE_START
G1 F7200.000
G1 X129.171 Y69.679 E-0.15162
G1 X129.262 Y69.290 E-0.12666
G1 X129.376 Y69.036 E-0.08793
G1 X129.606 Y68.709 E-0.12665
G1 X129.905 Y68.443 E-0.12666
G1 X130.140 Y68.303 E-0.08665
G1 X130.394 Y68.201 E-0.08664
G1 X130.763 Y68.129 E-0.11918
;WIPE_END
G1 E-0.04800 F2400.000
G1 Z0.400 F9000.000
G1 X83.048 Y70.115
G1 Z0.200
G1 E3.20000 F1500.000
M204 S800
;TYPE:Perimeter
G1 F1200.000
G1 X82.981 Y70.459 E0.01098
G1 X82.802 Y70.904 E0.01504
G1 X82.520 Y71.306 E0.01540
G1 X82.161 Y71.625 E0.01504
G1 X81.860 Y71.804 E0.01098
G1 X81.420 Y71.962 E0.01468
G1 X81.085 Y72.014 E0.01062
G1 X80.746 Y72.014 E0.01062
G1 X80.286 Y71.925 E0.01468
G1 X79.961 Y71.794 E0.01098
G1 X79.568 Y71.539 E0.01468
G1 X79.316 Y71.297 E0.01098
G1 X79.047 Y70.913 E0.01468
G1 X78.903 Y70.594 E0.01098
G1 X78.794 Y70.127 E0.01504
G1 X78.794 Y69.647 E0.01504
G1 X78.861 Y69.303 E0.01098
G1 X79.040 Y68.858 E0.01504
G1 X79.323 Y68.457 E0.01540
G1 X79.681 Y68.138 E0.01504
G1 X79.972 Y67.964 E0.01062
G1 X80.286 Y67.838 E0.01062
G1 X80.757 Y67.746 E0.01504
G1 X81.237 Y67.765 E0.01504
G1 X81.578 Y67.845 E0.01098
G1 X82.005 Y68.036 E0.01468
G1 X82.282 Y68.231 E0.01062
G1 X82.526 Y68.466 E0.01062
G1 X82.802 Y68.858 E0.01504
G1 X82.981 Y69.303 E0.01504
G1 X83.048 Y69.647 E0.01098
G1 X83.048 Y70.055 E0.01280
M204 S1250
G1 X82.671 Y70.055 F9000.000
M204 S800
;TYPE:External perimeter
G1 F1200.000
G1 X82.618 Y70.352 E0.00944
G1 X82.469 Y70.723 E0.01254
G1 X82.236 Y71.053 E0.01267
G1 X81.938 Y71.319 E0.01254
G1 X81.699 Y71.461 E0.00871
G1 X81.326 Y71.595 E0.01241
G1 X81.056 Y71.637 E0.00858
G1 X80.782 Y71.637 E0.00858
G1 X80.394 Y71.562 E0.01241
G1 X80.136 Y71.458 E0.00871
G1 X79.804 Y71.243 E0.01241
G1 X79.604 Y71.050 E0.00871
G1 X79.376 Y70.726 E0.01241
G1 X79.262 Y70.473 E0.00871
G1 X79.171 Y70.083 E0.01254
G1 X79.171 Y69.683 E0.01254
G1 X79.224 Y69.411 E0.00871
G1 X79.374 Y69.040 E0.01254
G1 X79.606 Y68.709 E0.01267
G1 X79.905 Y68.443 E0.01254
G1 X80.140 Y68.303 E0.00858
G1 X80.394 Y68.201 E0.00858
G1 X80.786 Y68.125 E0.01254
G1 X81.186 Y68.140 E0.01254
G1 X81.456 Y68.204 E0.00871
G1 X81.818 Y68.365 E0.01241
G1 X82.041 Y68.523 E0.00858
G1 X82.239 Y68.713 E0.00858
G1 X82.469 Y69.040 E0.01254
G1 X82.618 Y69.411 E0.01254
G1 X82.671 Y69.683 E0.00871
G1 X82.671 Y69.995 E0.00979
M204 S1250
G1 X82.917 Y70.229 F9000.000
G1 E-2.24000 F2400.000
;WIPE_START
G1 F7200.000
G1 X82.618 Y70.352 E-0.11408
G1 X82.469 Y70.723 E-0.12666
G1 X82.236 Y71.053 E-0.12794
G1 X81.938 Y71.319 E-0.12666
G1 X81.699 Y71.461 E-0.08793
G1 X81.326 Y71.595 E-0.12537
G1 X81.056 Y71.637 E-0.08665
G1 X80.782 Y71.637 E-0.08665
G1 X80.689 Y71.619 E-0.03006
;WIPE_END
G1 E-0.04800 F2400.000
G1 Z0.400 F9000.000
G1 X70.548 Y70.115
G1 Z0.200
G1 E3.20000 F1500.000
M204 S800
;TYPE:Perimeter
G1 F1200.000
G1 X70.481 Y70.459 E0.01098
G1 X70.306 Y70.894 E0.01469
G1 X70.116 Y71.188 E0.01098
G1 X69.783 Y71.533 E0.01504
G1 X69.371 Y71.800 E0.01540
G1 X68.920 Y71.962 E0.01504
G1 X68.585 Y72.014 E0.01062
G1 X68.246 Y72.014 E0.01062
G1 X67.786 Y71.925 E0.01468
G1 X67.461 Y71.794 E0.01098
G1 X67.068 Y71.539 E0.01468
G1 X66.816 Y71.297 E0.01098
G1 X66.547 Y70.913 E0.01468
G1 X66.403 Y70.594 E0.01098
G1 X66.294 Y70.127 E0.01504
G1 X66.294 Y69.636 E0.01540
G1 X66.403 Y69.169 E0.01504
M73 P0 R72
G1 X66.547 Y68.849 E0.01098
G1 X66.823 Y68.457 E0.01504
G1 X67.181 Y68.138 E0.01504
G1 X67.472 Y67.964 E0.01062
G1 X67.786 Y67.838 E0.01062
G1 X68.257 Y67.746 E0.01504
G1 X68.737 Y67.765 E0.01504
G1 X69.078 Y67.845 E0.01098
G1 X69.505 Y68.036 E0.01468
G1 X69.782 Y68.231 E0.01062
G1 X70.026 Y68.466 E0.01062
G1 X70.302 Y68.858 E0.01504
G1 X70.481 Y69.303 E0.01504
G1 X70.548 Y69.647 E0.01098
G1 X70.548 Y70.055 E0.01280
M204 S1250
G1 X70.171 Y70.055 F9000.000
M204 S800
;TYPE:External perimeter
G1 F1200.000
G1 X70.118 Y70.352 E0.00944
G1 X69.970 Y70.719 E0.01241
G1 X69.819 Y70.952 E0.00871
