; generated by PrusaSlicer 2.3.0+win64 on 2022-05-27 at 19:04:59 UTC


;
;

;
;
; 

; external perimeters extrusion width = 0.45mm
; perimeters extrusion width = 0.45mm
; infill extrusion width = 0.45mm
; solid infill extrusion width = 0.45mm
; top infill extrusion width = 0.40mm
; first layer extrusion width = 0.42mm

M73 P0 R73
M201 X1250 Y1250 Z400 E5000 ; sets maximum accelerations, mm/sec^2
M203 X180 Y180 Z12 E80 ; sets maximum feedrates, mm/sec
M204 P1250 R1250 T1250 ; sets acceleration (P, T) and retract acceleration (R), mm/sec^2
M205 X8.00 Y8.00 Z2.00 E10.00 ; sets the jerk limits, mm/sec
M205 S0 T0 ; sets the minimum extruding and travel feed rate, mm/sec
M107
;TYPE:Custom
G90 ; use absolute coordinates
M83 ; extruder relative mode
M104 S170 ; set extruder temp for bed leveling
M140 S85 ; set bed temp
M109 R170 ; wait for bed leveling temp
M190 S85 ; wait for bed temp
G28 ; home all without mesh bed level
G29 ; mesh bed leveling 
M104 S240 ; set extruder temp
G92 E0.0
G1 Y-2.0 X179 F2400
G1 Z3 F720
M109 S240 ; wait for extruder temp

; intro line
G1 X170 F1000
G1 Z0.2 F720
G1 X110.0 E8.0 F900
G1 X40.0 E10.0 F700
G92 E0.0

M221 S95 ; set flow
G21 ; set units to millimeters
G90 ; use absolute coordinates
M83 ; use relative distances for extrusion
M900 K0.2 ; Filament gcode
;LAYER_CHANGE
;Z:0.2
;HEIGHT:0.2
;BEFORE_LAYER_CHANGE
G92 E0.0
;0.2


G1 E-3.20000 F2400.000
G1 Z0.200 F9000.000
;AFTER_LAYER_CHANGE
;0.2
G1 Z0.400
G1 X39.721 Y72.256
G1 Z0.200
G1 E3.20000 F1500.000
M204 S800
;TYPE:Skirt
;WIDTH:0.42
G1 F1200.000
G1 X39.467 Y71.454 E0.02637
G1 X39.455 Y64.844 E0.20726
G1 X39.602 Y63.756 E0.03440
G1 X39.949 Y62.671 E0.03574
G1 X40.307 Y61.952 E0.02515
G1 X40.770 Y61.261 E0.02610
G1 X41.316 Y60.640 E0.02593
G1 X41.946 Y60.087 E0.02627
G1 X42.636 Y59.626 E0.02602
G1 X43.383 Y59.258 E0.02611
G1 X44.169 Y58.991 E0.02603
G1 X44.998 Y58.826 E0.02653
G1 X45.819 Y58.772 E0.02580
G1 X137.829 Y58.772 E2.88489
G1 X138.884 Y58.861 E0.03320
G1 X139.777 Y59.078 E0.02881
G1 X140.761 Y59.488 E0.03342
G1 X141.658 Y60.053 E0.03327
G1 X142.356 Y60.662 E0.02904
G1 X143.038 Y61.476 E0.03327
G1 X143.501 Y62.243 E0.02812
G1 X143.901 Y63.214 E0.03291
G1 X144.105 Y64.040 E0.02669
G1 X144.197 Y64.892 E0.02686
G1 X144.181 Y71.460 E0.20594
G1 X144.003 Y72.100 E0.02083
G1 X143.652 Y72.669 E0.02095
G1 X143.157 Y73.118 E0.02095
G1 X142.557 Y73.411 E0.02095
G1 X141.830 Y73.526 E0.02308
G1 X41.779 Y73.526 E3.13702
G1 X40.954 Y73.361 E0.02637
G1 X40.238 Y72.919 E0.02637
G1 X39.758 Y72.303 E0.02449
M204 S1250
; printing object SideMountCombinedPlateSupportB01 id:0 copy 0
G1 E-2.24000 F2400.000
;WIPE_START
G1 F7200.000
G1 X39.467 Y71.454 E-0.28425
G1 X39.464 Y69.471 E-0.62775
;WIPE_END
G1 E-0.04800 F2400.000
G1 Z0.400 F9000.000
G1 X89.760 Y66.716
G1 Z0.200
G1 E3.20000 F1500.000
M204 S800
;TYPE:Perimeter
G1 F1200.000
G1 X89.687 Y66.244 E0.01497
G1 X89.700 Y65.893 E0.01104
G1 X89.807 Y65.436 E0.01469
G1 X89.950 Y65.117 E0.01098
G1 X90.226 Y64.724 E0.01504
G1 X90.585 Y64.405 E0.01504
G1 X90.876 Y64.232 E0.01062
G1 X91.190 Y64.105 E0.01062
G1 X91.661 Y64.014 E0.01504
G1 X92.140 Y64.032 E0.01504
G1 X92.481 Y64.112 E0.01098
G1 X92.919 Y64.308 E0.01504
G1 X93.310 Y64.606 E0.01540
G1 X93.615 Y64.976 E0.01504
G1 X93.777 Y65.274 E0.01062
G1 X93.891 Y65.593 E0.01062
G1 X93.963 Y66.056 E0.01468
G1 X93.949 Y66.406 E0.01098
G1 X93.843 Y66.862 E0.01468
G1 X93.699 Y67.181 E0.01098
G1 X93.423 Y67.573 E0.01504
G1 X93.065 Y67.893 E0.01504
G1 X92.764 Y68.072 E0.01098
G1 X92.323 Y68.230 E0.01468
G1 X91.989 Y68.282 E0.01062
G1 X91.650 Y68.282 E0.01062
G1 X91.190 Y68.192 E0.01468
G1 X90.865 Y68.062 E0.01098
G1 X90.472 Y67.807 E0.01469
G1 X90.220 Y67.564 E0.01098
G1 X89.944 Y67.172 E0.01504
G1 X89.783 Y66.772 E0.01351
M204 S1250
G1 X90.132 Y66.631 F9000.000
M204 S800
;TYPE:External perimeter
G1 F1200.000
G1 X90.065 Y66.222 E0.01298
G1 X90.076 Y65.943 E0.00877
G1 X90.166 Y65.557 E0.01242
G1 X90.280 Y65.304 E0.00871
G1 X90.510 Y64.977 E0.01254
G1 X90.808 Y64.711 E0.01254
G1 X91.044 Y64.571 E0.00858
G1 X91.297 Y64.469 E0.00858
G1 X91.690 Y64.393 E0.01254
G1 X92.090 Y64.408 E0.01254
G1 X92.360 Y64.471 E0.00871
G1 X92.725 Y64.635 E0.01254
G1 X93.046 Y64.880 E0.01267
G1 X93.301 Y65.188 E0.01254
G1 X93.432 Y65.429 E0.00858
G1 X93.524 Y65.686 E0.00858
G1 X93.584 Y66.077 E0.01241
G1 X93.574 Y66.355 E0.00871
G1 X93.484 Y66.740 E0.01241
G1 X93.370 Y66.994 E0.00871
G1 X93.140 Y67.321 E0.01254
G1 X92.841 Y67.587 E0.01254
G1 X92.603 Y67.729 E0.00871
G1 X92.230 Y67.863 E0.01241
G1 X91.960 Y67.904 E0.00858
G1 X91.686 Y67.904 E0.00858
G1 X91.297 Y67.829 E0.01241
G1 X91.040 Y67.725 E0.00871
G1 X90.707 Y67.510 E0.01241
G1 X90.507 Y67.318 E0.00871
G1 X90.277 Y66.990 E0.01254
G1 X90.155 Y66.687 E0.01027
M204 S1250
G1 X89.745 Y66.533 F9000.000
G1 E-2.24000 F2400.000
;WIPE_START
G1 F7200.000
G1 X90.065 Y66.222 E-0.14972
G1 X90.076 Y65.943 E-0.08855
G1 X90.166 Y65.557 E-0.12540
G1 X90.280 Y65.304 E-0.08794
G1 X90.510 Y64.977 E-0.12666
G1 X90.808 Y64.711 E-0.12666
G1 X91.044 Y64.571 E-0.08665
G1 X91.297 Y64.469 E-0.08664
G1 X91.402 Y64.448 E-0.03378
;WIPE_END
G1 E-0.04800 F2400.000
G1 Z0.400 F9000.000
G1 X102.260 Y66.716
G1 Z0.200
G1 E3.20000 F1500.000
M204 S800
;TYPE:Perimeter
G1 F1200.000
G1 X102.187 Y66.244 E0.01497
G1 X102.200 Y65.893 E0.01104
G1 X102.307 Y65.436 E0.01469
G1 X102.450 Y65.117 E0.01098
G1 X102.726 Y64.724 E0.01504
G1 X103.085 Y64.405 E0.01504
G1 X103.376 Y64.232 E0.01062
G1 X103.690 Y64.105 E0.01062
G1 X104.161 Y64.014 E0.01504
G1 X104.640 Y64.032 E0.01504
G1 X104.981 Y64.112 E0.01098
G1 X105.419 Y64.308 E0.01504
G1 X105.801 Y64.599 E0.01504
G1 X106.033 Y64.861 E0.01098
G1 X106.273 Y65.263 E0.01469
G1 X106.391 Y65.593 E0.01098
G1 X106.463 Y66.056 E0.01469
G1 X106.449 Y66.406 E0.01098
G1 X106.343 Y66.862 E0.01468
G1 X106.199 Y67.181 E0.01098
G1 X105.923 Y67.573 E0.01504
G1 X105.565 Y67.893 E0.01504
G1 X105.264 Y68.072 E0.01098
G1 X104.823 Y68.230 E0.01468
G1 X104.489 Y68.282 E0.01062
G1 X104.150 Y68.282 E0.01062
G1 X103.690 Y68.192 E0.01468
G1 X103.365 Y68.062 E0.01098
G1 X102.972 Y67.807 E0.01469
G1 X102.720 Y67.564 E0.01098
G1 X102.444 Y67.172 E0.01504
G1 X102.283 Y66.772 E0.01351
M204 S1250
G1 X102.632 Y66.631 F9000.000
M204 S800
;TYPE:External perimeter
G1 F1200.000
G1 X102.565 Y66.222 E0.01298
G1 X102.576 Y65.943 E0.00877
G1 X102.666 Y65.557 E0.01242
G1 X102.780 Y65.304 E0.00871
G1 X103.010 Y64.977 E0.01254
G1 X103.308 Y64.711 E0.01254
G1 X103.544 Y64.571 E0.00858
G1 X103.797 Y64.469 E0.00858
G1 X104.190 Y64.393 E0.01254
G1 X104.590 Y64.408 E0.01254
G1 X104.860 Y64.471 E0.00871
G1 X105.225 Y64.635 E0.01254
G1 X105.543 Y64.877 E0.01254
G1 X105.728 Y65.084 E0.00871
G1 X105.930 Y65.425 E0.01241
G1 X106.024 Y65.686 E0.00871
G1 X106.084 Y66.077 E0.01241
G1 X106.074 Y66.355 E0.00871
G1 X105.984 Y66.740 E0.01241
G1 X105.870 Y66.994 E0.00871
G1 X105.640 Y67.321 E0.01254
G1 X105.341 Y67.587 E0.01254
G1 X105.103 Y67.729 E0.00871
G1 X104.730 Y67.863 E0.01241
G1 X104.460 Y67.904 E0.00858
G1 X104.186 Y67.904 E0.00858
G1 X103.797 Y67.829 E0.01241
G1 X103.540 Y67.725 E0.00871
G1 X103.207 Y67.510 E0.01241
G1 X103.007 Y67.318 E0.00871
G1 X102.777 Y66.990 E0.01254
G1 X102.655 Y66.687 E0.01027
M204 S1250
G1 X102.245 Y66.533 F9000.000
G1 E-2.24000 F2400.000
;WIPE_START
G1 F7200.000
G1 X102.565 Y66.222 E-0.14973
G1 X102.576 Y65.943 E-0.08855
G1 X102.666 Y65.557 E-0.12540
G1 X102.780 Y65.304 E-0.08793
G1 X103.010 Y64.977 E-0.12666
G1 X103.308 Y64.711 E-0.12665
G1 X103.544 Y64.571 E-0.08665
G1 X103.797 Y64.469 E-0.08664
G1 X103.902 Y64.448 E-0.03379
;WIPE_END
G1 E-0.04800 F2400.000
G1 Z0.400 F9000.000
G1 X114.760 Y66.716
G1 Z0.200
G1 E3.20000 F1500.000
M204 S800
;TYPE:Perimeter
G1 F1200.000
G1 X114.687 Y66.244 E0.01497
G1 X114.700 Y65.893 E0.01104
G1 X114.807 Y65.436 E0.01469
G1 X114.950 Y65.117 E0.01098
G1 X115.226 Y64.724 E0.01504
G1 X115.585 Y64.405 E0.01504
G1 X115.876 Y64.232 E0.01062
G1 X116.190 Y64.105 E0.01062
G1 X116.661 Y64.014 E0.01504
G1 X117.140 Y64.032 E0.01504
G1 X117.481 Y64.112 E0.01098
G1 X117.909 Y64.304 E0.01468
G1 X118.186 Y64.499 E0.01062
G1 X118.430 Y64.734 E0.01062
G1 X118.699 Y65.117 E0.01469
G1 X118.843 Y65.436 E0.01098
G1 X118.952 Y65.903 E0.01504
G1 X118.952 Y66.394 E0.01540
G1 X118.843 Y66.862 E0.01504
G1 X118.699 Y67.181 E0.01098
G1 X118.423 Y67.573 E0.01504
G1 X118.065 Y67.893 E0.01504
G1 X117.764 Y68.072 E0.01098
G1 X117.323 Y68.230 E0.01468
G1 X116.989 Y68.282 E0.01062
G1 X116.650 Y68.282 E0.01062
G1 X116.190 Y68.192 E0.01468
G1 X115.865 Y68.062 E0.01098
G1 X115.472 Y67.807 E0.01468
G1 X115.220 Y67.564 E0.01098
G1 X114.944 Y67.172 E0.01504
G1 X114.783 Y66.772 E0.01351
M204 S1250
G1 X115.132 Y66.631 F9000.000
M204 S800
;TYPE:External perimeter
G1 F1200.000
G1 X115.065 Y66.222 E0.01298
G1 X115.076 Y65.943 E0.00877
G1 X115.166 Y65.557 E0.01242
G1 X115.280 Y65.304 E0.00871
G1 X115.510 Y64.977 E0.01254
G1 X115.808 Y64.711 E0.01254
G1 X116.044 Y64.571 E0.00858
G1 X116.297 Y64.469 E0.00858
G1 X116.690 Y64.393 E0.01254
G1 X117.090 Y64.408 E0.01254
G1 X117.360 Y64.471 E0.00871
G1 X117.721 Y64.633 E0.01241
G1 X117.945 Y64.790 E0.00858
G1 X118.142 Y64.980 E0.00858
G1 X118.370 Y65.304 E0.01241
G1 X118.484 Y65.557 E0.00871
G1 X118.575 Y65.947 E0.01254
G1 X118.575 Y66.351 E0.01267
G1 X118.484 Y66.740 E0.01254
G1 X118.370 Y66.994 E0.00871
G1 X118.140 Y67.321 E0.01254
G1 X117.841 Y67.587 E0.01254
G1 X117.603 Y67.729 E0.00871
G1 X117.230 Y67.863 E0.01241
G1 X116.960 Y67.904 E0.00858
G1 X116.686 Y67.904 E0.00858
G1 X116.297 Y67.829 E0.01241
G1 X116.040 Y67.725 E0.00871
G1 X115.707 Y67.510 E0.01241
G1 X115.507 Y67.318 E0.00871
G1 X115.277 Y66.990 E0.01254
G1 X115.155 Y66.687 E0.01027
M204 S1250
G1 X114.745 Y66.533 F9000.000
G1 E-2.24000 F2400.000
;WIPE_START
G1 F7200.000
G1 X115.065 Y66.222 E-0.14973
G1 X115.076 Y65.943 E-0.08855
G1 X115.166 Y65.557 E-0.12540
G1 X115.280 Y65.304 E-0.08793
G1 X115.510 Y64.977 E-0.12666
G1 X115.808 Y64.711 E-0.12665
G1 X116.044 Y64.571 E-0.08665
G1 X116.297 Y64.469 E-0.08664
G1 X116.402 Y64.448 E-0.03379
;WIPE_END
G1 E-0.04800 F2400.000
G1 Z0.400 F9000.000
G1 X127.198 Y66.394
G1 Z0.200
G1 E3.20000 F1500.000
M204 S800
;TYPE:Perimeter
G1 F1200.000
G1 X127.198 Y65.903 E0.01540
G1 X127.307 Y65.436 E0.01504
G1 X127.450 Y65.117 E0.01098
G1 X127.726 Y64.724 E0.01504
G1 X128.085 Y64.405 E0.01504
G1 X128.376 Y64.232 E0.01062
G1 X128.690 Y64.105 E0.01062
G1 X129.161 Y64.014 E0.01504
G1 X129.640 Y64.032 E0.01504
G1 X129.981 Y64.112 E0.01098
G1 X130.409 Y64.304 E0.01468
G1 X130.686 Y64.499 E0.01062
G1 X130.930 Y64.734 E0.01062
G1 X131.199 Y65.117 E0.01468
G1 X131.343 Y65.436 E0.01098
G1 X131.452 Y65.903 E0.01504
G1 X131.452 Y66.394 E0.01540
G1 X131.343 Y66.862 E0.01504
G1 X131.199 Y67.181 E0.01098
G1 X130.923 Y67.573 E0.01504
G1 X130.565 Y67.893 E0.01504
G1 X130.264 Y68.072 E0.01098
G1 X129.823 Y68.230 E0.01468
G1 X129.489 Y68.282 E0.01062
G1 X129.150 Y68.282 E0.01062
G1 X128.690 Y68.192 E0.01468
G1 X128.365 Y68.061 E0.01098
G1 X127.972 Y67.807 E0.01468
G1 X127.720 Y67.564 E0.01098
G1 X127.450 Y67.181 E0.01468
G1 X127.307 Y66.862 E0.01098
G1 X127.212 Y66.453 E0.01316
M204 S1250
G1 X127.579 Y66.367 F9000.000
M204 S800
;TYPE:External perimeter
G1 F1200.000
G1 X127.575 Y65.947 E0.01317
G1 X127.666 Y65.557 E0.01254
G1 X127.780 Y65.304 E0.00871
G1 X128.010 Y64.977 E0.01254
G1 X128.308 Y64.711 E0.01254
G1 X128.544 Y64.571 E0.00858
G1 X128.797 Y64.469 E0.00858
G1 X129.190 Y64.393 E0.01254
G1 X129.590 Y64.408 E0.01254
G1 X129.860 Y64.471 E0.00871
G1 X130.221 Y64.633 E0.01241
G1 X130.445 Y64.790 E0.00858
G1 X130.642 Y64.980 E0.00858
G1 X130.870 Y65.304 E0.01241
G1 X130.984 Y65.557 E0.00871
G1 X131.075 Y65.947 E0.01254
G1 X131.075 Y66.351 E0.01267
G1 X130.984 Y66.740 E0.01254
G1 X130.870 Y66.994 E0.00871
G1 X130.640 Y67.321 E0.01254
G1 X130.341 Y67.587 E0.01254
G1 X130.103 Y67.729 E0.00871
G1 X129.730 Y67.863 E0.01241
G1 X129.460 Y67.904 E0.00858
G1 X129.186 Y67.904 E0.00858
G1 X128.797 Y67.829 E0.01241
G1 X128.540 Y67.725 E0.00871
G1 X128.208 Y67.510 E0.01241
G1 X128.007 Y67.318 E0.00871
G1 X127.780 Y66.994 E0.01241
G1 X127.666 Y66.740 E0.00871
G1 X127.592 Y66.425 E0.01014
M204 S1250
G1 X127.213 Y66.206 F9000.000
G1 E-2.24000 F2400.000
;WIPE_START
G1 F7200.000
G1 X127.575 Y65.947 E-0.15162
G1 X127.666 Y65.557 E-0.12666
G1 X127.780 Y65.304 E-0.08793
G1 X128.010 Y64.977 E-0.12665
G1 X128.308 Y64.711 E-0.12666
G1 X128.544 Y64.571 E-0.08665
G1 X128.797 Y64.469 E-0.08664
G1 X129.167 Y64.397 E-0.11918
;WIPE_END
G1 E-0.04800 F2400.000
G1 Z0.400 F9000.000
G1 X81.452 Y66.383
G1 Z0.200
G1 E3.20000 F1500.000
M204 S800
;TYPE:Perimeter
G1 F1200.000
G1 X81.385 Y66.727 E0.01098
G1 X81.206 Y67.172 E0.01504
G1 X80.923 Y67.573 E0.01540
G1 X80.565 Y67.893 E0.01504
G1 X80.264 Y68.072 E0.01098
G1 X79.823 Y68.230 E0.01468
G1 X79.489 Y68.282 E0.01062
G1 X79.150 Y68.282 E0.01062
G1 X78.690 Y68.192 E0.01468
G1 X78.365 Y68.061 E0.01098
G1 X77.972 Y67.807 E0.01468
G1 X77.720 Y67.564 E0.01098
G1 X77.450 Y67.181 E0.01468
G1 X77.307 Y66.862 E0.01098
G1 X77.198 Y66.394 E0.01504
G1 X77.198 Y65.915 E0.01504
G1 X77.265 Y65.571 E0.01098
G1 X77.444 Y65.126 E0.01504
G1 X77.726 Y64.724 E0.01540
G1 X78.085 Y64.405 E0.01504
G1 X78.376 Y64.232 E0.01062
G1 X78.690 Y64.105 E0.01062
G1 X79.161 Y64.014 E0.01504
G1 X79.640 Y64.032 E0.01504
G1 X79.981 Y64.112 E0.01098
G1 X80.409 Y64.304 E0.01468
G1 X80.686 Y64.499 E0.01062
G1 X80.930 Y64.734 E0.01062
G1 X81.206 Y65.126 E0.01504
G1 X81.385 Y65.571 E0.01504
G1 X81.452 Y65.915 E0.01098
G1 X81.452 Y66.323 E0.01280
M204 S1250
G1 X81.075 Y66.323 F9000.000
M204 S800
;TYPE:External perimeter
G1 F1200.000
G1 X81.022 Y66.619 E0.00944
G1 X80.872 Y66.990 E0.01254
G1 X80.640 Y67.321 E0.01267
G1 X80.341 Y67.587 E0.01254
G1 X80.103 Y67.729 E0.00871
G1 X79.730 Y67.863 E0.01241
G1 X79.460 Y67.904 E0.00858
G1 X79.186 Y67.904 E0.00858
G1 X78.797 Y67.829 E0.01241
G1 X78.540 Y67.725 E0.00871
G1 X78.207 Y67.510 E0.01241
G1 X78.007 Y67.318 E0.00871
G1 X77.780 Y66.994 E0.01241
G1 X77.666 Y66.740 E0.00871
G1 X77.575 Y66.351 E0.01254
G1 X77.575 Y65.951 E0.01254
G1 X77.628 Y65.678 E0.00871
G1 X77.777 Y65.307 E0.01254
G1 X78.010 Y64.977 E0.01267
G1 X78.308 Y64.711 E0.01254
G1 X78.544 Y64.571 E0.00858
G1 X78.797 Y64.469 E0.00858
G1 X79.190 Y64.393 E0.01254
G1 X79.590 Y64.408 E0.01254
G1 X79.860 Y64.471 E0.00871
G1 X80.221 Y64.633 E0.01241
G1 X80.445 Y64.790 E0.00858
G1 X80.642 Y64.980 E0.00858
G1 X80.872 Y65.307 E0.01254
G1 X81.022 Y65.678 E0.01254
G1 X81.075 Y65.951 E0.00871
G1 X81.075 Y66.263 E0.00979
M204 S1250
G1 X81.321 Y66.496 F9000.000
G1 E-2.24000 F2400.000
;WIPE_START
G1 F7200.000
G1 X81.022 Y66.619 E-0.11408
G1 X80.872 Y66.990 E-0.12666
G1 X80.640 Y67.321 E-0.12794
G1 X80.341 Y67.587 E-0.12666
G1 X80.103 Y67.729 E-0.08793
G1 X79.730 Y67.863 E-0.12537
G1 X79.460 Y67.904 E-0.08665
G1 X79.186 Y67.904 E-0.08665
G1 X79.093 Y67.886 E-0.03006
;WIPE_END
G1 E-0.04800 F2400.000
G1 Z0.400 F9000.000
G1 X68.952 Y66.383
G1 Z0.200
G1 E3.20000 F1500.000
M204 S800
;TYPE:Perimeter
G1 F1200.000
G1 X68.885 Y66.727 E0.01098
G1 X68.710 Y67.161 E0.01469
G1 X68.520 Y67.455 E0.01098
G1 X68.187 Y67.801 E0.01504
G1 X67.775 Y68.068 E0.01540
G1 X67.323 Y68.230 E0.01504
G1 X66.989 Y68.282 E0.01062
G1 X66.650 Y68.282 E0.01062
G1 X66.190 Y68.192 E0.01468
G1 X65.865 Y68.061 E0.01098
G1 X65.472 Y67.807 E0.01468
G1 X65.220 Y67.564 E0.01098
G1 X64.950 Y67.181 E0.01468
G1 X64.807 Y66.862 E0.01098
G1 X64.698 Y66.394 E0.01504
G1 X64.698 Y65.903 E0.01540
G1 X64.807 Y65.436 E0.01504
G1 X64.950 Y65.117 E0.01098
G1 X65.226 Y64.724 E0.01504
G1 X65.585 Y64.405 E0.01504
G1 X65.876 Y64.232 E0.01062
G1 X66.190 Y64.105 E0.01062
G1 X66.661 Y64.014 E0.01504
G1 X67.140 Y64.032 E0.01504
G1 X67.481 Y64.112 E0.01098
G1 X67.909 Y64.304 E0.01468
G1 X68.186 Y64.499 E0.01062
G1 X68.430 Y64.734 E0.01062
G1 X68.706 Y65.126 E0.01504
G1 X68.885 Y65.571 E0.01504
G1 X68.952 Y65.915 E0.01098
G1 X68.952 Y66.323 E0.01280
M204 S1250
G1 X68.575 Y66.323 F9000.000
M204 S800
;TYPE:External perimeter
G1 F1200.000
G1 X68.522 Y66.619 E0.00944
G1 X68.374 Y66.987 E0.01241
G1 X68.223 Y67.220 E0.00871
G1 X67.946 Y67.508 E0.01254
