; generated by PrusaSlicer 2.3.0+win64 on 2022-05-27 at 09:28:57 UTC


;
;

;
;
; 

; external perimeters extrusion width = 0.45mm
; perimeters extrusion width = 0.45mm
; infill extrusion width = 0.45mm
; solid infill extrusion width = 0.45mm
; top infill extrusion width = 0.40mm
; first layer extrusion width = 0.42mm

M73 P0 R77
M201 X1250 Y1250 Z400 E5000 ; sets maximum accelerations, mm/sec^2
M203 X180 Y180 Z12 E80 ; sets maximum feedrates, mm/sec
M204 P1250 R1250 T1250 ; sets acceleration (P, T) and retract acceleration (R), mm/sec^2
M205 X8.00 Y8.00 Z2.00 E10.00 ; sets the jerk limits, mm/sec
M205 S0 T0 ; sets the minimum extruding and travel feed rate, mm/sec
M107
;TYPE:Custom
G90 ; use absolute coordinates
M83 ; extruder relative mode
M104 S170 ; set extruder temp for bed leveling
M140 S85 ; set bed temp
M109 R170 ; wait for bed leveling temp
M190 S85 ; wait for bed temp
G28 ; home all without mesh bed level
G29 ; mesh bed leveling 
M104 S240 ; set extruder temp
G92 E0.0
G1 Y-2.0 X179 F2400
G1 Z3 F720
M109 S240 ; wait for extruder temp

; intro line
G1 X170 F1000
M73 P0 R76
G1 Z0.2 F720
G1 X110.0 E8.0 F900
G1 X40.0 E10.0 F700
G92 E0.0

M221 S95 ; set flow
G21 ; set units to millimeters
G90 ; use absolute coordinates
M83 ; use relative distances for extrusion
M900 K0.2 ; Filament gcode
;LAYER_CHANGE
;Z:0.2
;HEIGHT:0.2
;BEFORE_LAYER_CHANGE
G92 E0.0
;0.2


G1 E-3.20000 F2400.000
G1 Z0.200 F9000.000
;AFTER_LAYER_CHANGE
;0.2
G1 Z0.400
G1 X157.814 Y36.290
G1 Z0.200
G1 E3.20000 F1500.000
M204 S800
;TYPE:Skirt
;WIDTH:0.42
G1 F1200.000
G1 X157.204 Y36.948 E0.02813
G1 X104.750 Y74.596 E2.02443
G1 X40.792 Y118.513 E2.43260
G1 X40.203 Y118.796 E0.02048
G1 X39.560 Y118.908 E0.02048
G1 X33.448 Y118.909 E0.19165
G1 X32.362 Y118.811 E0.03419
G1 X31.315 Y118.531 E0.03398
G1 X30.329 Y118.077 E0.03400
G1 X29.422 Y117.452 E0.03456
G1 X28.745 Y116.805 E0.02936
G1 X28.101 Y115.960 E0.03333
G1 X27.585 Y114.969 E0.03500
G1 X27.253 Y113.917 E0.03461
G1 X27.108 Y112.835 E0.03421
G1 X27.122 Y20.020 E2.91014
G1 X27.247 Y19.176 E0.02678
G1 X27.478 Y18.372 E0.02621
G1 X27.816 Y17.598 E0.02649
G1 X28.246 Y16.886 E0.02610
G1 X28.773 Y16.227 E0.02644
G1 X29.371 Y15.653 E0.02599
G1 X30.039 Y15.162 E0.02598
G1 X30.767 Y14.760 E0.02609
G1 X31.823 Y14.374 E0.03523
G1 X32.960 Y14.176 E0.03619
G1 X39.482 Y14.155 E0.20449
G1 X156.216 Y19.692 E3.66422
G1 X156.925 Y19.940 E0.02355
G1 X157.524 Y20.399 E0.02367
G1 X157.949 Y21.022 E0.02367
G1 X158.156 Y21.744 E0.02355
G1 X158.136 Y35.453 E0.42982
G1 X157.835 Y36.234 E0.02625
M204 S1250
; printing object SideMountCombinedPlate01 id:0 copy 0
G1 E-2.24000 F2400.000
;WIPE_START
G1 F7200.000
G1 X157.204 Y36.948 E-0.30188
G1 X155.639 Y38.072 E-0.61012
;WIPE_END
G1 E-0.04800 F2400.000
G1 Z0.400 F9000.000
G1 X97.896 Y65.473
G1 Z0.200
G1 E3.20000 F1500.000
M204 S800
;TYPE:Perimeter
G1 F1200.000
G1 X98.038 Y65.994 E0.01695
G1 X98.086 Y66.532 E0.01692
G1 X98.038 Y67.070 E0.01692
G1 X97.896 Y67.590 E0.01692
G1 X97.668 Y68.070 E0.01665
G1 X97.462 Y68.376 E0.01156
G1 X97.221 Y68.655 E0.01156
G1 X96.819 Y69.002 E0.01665
G1 X96.362 Y69.272 E0.01665
G1 X96.020 Y69.410 E0.01156
G1 X95.664 Y69.507 E0.01156
G1 X95.137 Y69.570 E0.01665
G1 X94.607 Y69.539 E0.01665
G1 X94.246 Y69.463 E0.01156
G1 X93.897 Y69.345 E0.01156
G1 X93.432 Y69.106 E0.01638
G1 X93.133 Y68.891 E0.01156
G1 X92.867 Y68.648 E0.01129
G1 X92.632 Y68.376 E0.01129
G1 X92.426 Y68.070 E0.01156
G1 X92.198 Y67.590 E0.01665
G1 X92.055 Y67.070 E0.01692
G1 X92.007 Y66.532 E0.01692
G1 X92.055 Y65.994 E0.01692
G1 X92.198 Y65.474 E0.01692
G1 X92.426 Y64.994 E0.01665
G1 X92.632 Y64.689 E0.01156
G1 X92.873 Y64.409 E0.01156
G1 X93.275 Y64.063 E0.01665
G1 X93.732 Y63.793 E0.01665
G1 X94.074 Y63.654 E0.01156
G1 X94.430 Y63.557 E0.01156
G1 X94.957 Y63.494 E0.01665
G1 X95.487 Y63.525 E0.01665
G1 X95.848 Y63.601 E0.01156
G1 X96.197 Y63.719 E0.01156
G1 X96.662 Y63.958 E0.01638
G1 X96.961 Y64.173 E0.01156
G1 X97.227 Y64.416 E0.01129
G1 X97.462 Y64.688 E0.01128
G1 X97.661 Y64.984 E0.01118
G1 X97.870 Y65.419 E0.01513
M204 S1250
G1 X97.530 Y65.582 F9000.000
M204 S800
;TYPE:External perimeter
G1 F1200.000
G1 X97.666 Y66.061 E0.01562
G1 X97.708 Y66.532 E0.01482
G1 X97.666 Y67.003 E0.01482
G1 X97.541 Y67.459 E0.01482
G1 X97.339 Y67.882 E0.01472
G1 X97.162 Y68.146 E0.00998
G1 X96.954 Y68.388 E0.00998
G1 X96.598 Y68.694 E0.01472
G1 X96.194 Y68.933 E0.01472
G1 X95.899 Y69.052 E0.00998
G1 X95.592 Y69.136 E0.00998
G1 X95.126 Y69.192 E0.01472
G1 X94.657 Y69.164 E0.01472
G1 X94.346 Y69.098 E0.00998
G1 X94.044 Y68.997 E0.00998
G1 X93.629 Y68.784 E0.01462
G1 X93.371 Y68.598 E0.00998
G1 X93.138 Y68.385 E0.00988
G1 X92.932 Y68.146 E0.00988
G1 X92.754 Y67.882 E0.00998
G1 X92.552 Y67.459 E0.01472
G1 X92.428 Y67.003 E0.01482
G1 X92.386 Y66.532 E0.01482
G1 X92.428 Y66.061 E0.01482
G1 X92.552 Y65.606 E0.01482
G1 X92.754 Y65.182 E0.01472
G1 X92.932 Y64.918 E0.00998
G1 X93.140 Y64.677 E0.00998
G1 X93.496 Y64.370 E0.01472
G1 X93.900 Y64.131 E0.01472
G1 X94.195 Y64.012 E0.00998
G1 X94.502 Y63.928 E0.00998
G1 X94.968 Y63.872 E0.01472
G1 X95.437 Y63.900 E0.01472
G1 X95.748 Y63.966 E0.00998
G1 X96.050 Y64.068 E0.00998
G1 X96.465 Y64.281 E0.01462
G1 X96.723 Y64.466 E0.00998
G1 X96.956 Y64.679 E0.00988
G1 X97.161 Y64.918 E0.00988
G1 X97.333 Y65.172 E0.00962
G1 X97.504 Y65.528 E0.01238
M204 S1250
G1 X97.924 Y65.650 F9000.000
G1 E-2.24000 F2400.000
;WIPE_START
G1 F7200.000
G1 X97.666 Y66.061 E-0.17654
G1 X97.708 Y66.532 E-0.14964
G1 X97.666 Y67.003 E-0.14964
G1 X97.541 Y67.459 E-0.14964
G1 X97.339 Y67.882 E-0.14865
G1 X97.162 Y68.146 E-0.10081
G1 X97.085 Y68.235 E-0.03707
;WIPE_END
G1 E-0.04800 F2400.000
G1 Z0.400 F9000.000
G1 X76.086 Y66.532
G1 Z0.200
G1 E3.20000 F1500.000
M204 S800
;TYPE:Perimeter
G1 F1200.000
G1 X76.038 Y67.070 E0.01692
G1 X75.898 Y67.582 E0.01665
G1 X75.750 Y67.919 E0.01156
G1 X75.562 Y68.237 E0.01156
G1 X75.233 Y68.642 E0.01638
G1 X74.961 Y68.891 E0.01156
G1 X74.662 Y69.106 E0.01156
G1 X74.189 Y69.349 E0.01665
G1 X73.673 Y69.506 E0.01692
G1 X73.137 Y69.570 E0.01692
G1 X72.607 Y69.539 E0.01665
G1 X72.246 Y69.463 E0.01156
G1 X71.905 Y69.348 E0.01129
G1 X71.580 Y69.193 E0.01129
G1 X71.268 Y68.996 E0.01156
G1 X70.873 Y68.655 E0.01638
G1 X70.632 Y68.376 E0.01156
G1 X70.426 Y68.070 E0.01156
G1 X70.198 Y67.590 E0.01665
G1 X70.055 Y67.070 E0.01692
G1 X70.007 Y66.532 E0.01692
G1 X70.055 Y65.994 E0.01692
G1 X70.195 Y65.482 E0.01665
G1 X70.344 Y65.145 E0.01156
G1 X70.531 Y64.827 E0.01156
G1 X70.866 Y64.415 E0.01665
G1 X71.268 Y64.068 E0.01665
G1 X71.580 Y63.872 E0.01155
G1 X71.901 Y63.718 E0.01118
G1 X72.420 Y63.558 E0.01701
G1 X72.957 Y63.494 E0.01695
G1 X73.487 Y63.525 E0.01665
G1 X73.848 Y63.601 E0.01156
G1 X74.197 Y63.719 E0.01156
G1 X74.662 Y63.958 E0.01638
G1 X74.961 Y64.173 E0.01156
G1 X75.233 Y64.422 E0.01156
G1 X75.562 Y64.827 E0.01638
G1 X75.750 Y65.145 E0.01156
G1 X75.898 Y65.482 E0.01156
G1 X76.038 Y65.994 E0.01665
G1 X76.081 Y66.472 E0.01504
M204 S1250
G1 X75.705 Y66.506 F9000.000
M204 S800
;TYPE:External perimeter
G1 F1200.000
G1 X75.666 Y67.003 E0.01563
G1 X75.542 Y67.456 E0.01472
G1 X75.414 Y67.747 E0.00998
G1 X75.252 Y68.021 E0.00998
G1 X74.958 Y68.383 E0.01462
G1 X74.723 Y68.598 E0.00998
G1 X74.465 Y68.784 E0.00998
G1 X74.047 Y68.998 E0.01472
G1 X73.595 Y69.136 E0.01482
G1 X73.126 Y69.192 E0.01482
G1 X72.657 Y69.164 E0.01472
G1 X72.346 Y69.098 E0.00998
G1 X72.047 Y68.998 E0.00988
G1 X71.762 Y68.862 E0.00988
G1 X71.493 Y68.692 E0.00998
G1 X71.140 Y68.388 E0.01462
G1 X70.932 Y68.146 E0.00998
G1 X70.754 Y67.882 E0.00998
G1 X70.552 Y67.459 E0.01472
G1 X70.428 Y67.003 E0.01482
G1 X70.386 Y66.532 E0.01482
G1 X70.428 Y66.061 E0.01482
G1 X70.552 Y65.609 E0.01472
G1 X70.680 Y65.317 E0.00998
G1 X70.842 Y65.043 E0.00998
G1 X71.138 Y64.679 E0.01472
G1 X71.493 Y64.372 E0.01472
G1 X71.762 Y64.202 E0.00998
G1 X72.039 Y64.070 E0.00962
G1 X72.498 Y63.928 E0.01507
G1 X72.968 Y63.872 E0.01483
G1 X73.437 Y63.900 E0.01472
G1 X73.748 Y63.966 E0.00998
G1 X74.050 Y64.068 E0.00998
G1 X74.465 Y64.281 E0.01462
G1 X74.723 Y64.466 E0.00998
G1 X74.958 Y64.681 E0.00998
G1 X75.252 Y65.043 E0.01462
G1 X75.414 Y65.317 E0.00998
G1 X75.542 Y65.609 E0.00998
G1 X75.666 Y66.061 E0.01472
G1 X75.700 Y66.446 E0.01211
M204 S1250
G1 X76.053 Y66.703 F9000.000
G1 E-2.24000 F2400.000
;WIPE_START
G1 F7200.000
G1 X75.666 Y67.003 E-0.17663
G1 X75.542 Y67.456 E-0.14865
G1 X75.414 Y67.747 E-0.10081
G1 X75.252 Y68.021 E-0.10081
G1 X74.958 Y68.383 E-0.14766
G1 X74.723 Y68.598 E-0.10081
G1 X74.465 Y68.784 E-0.10081
G1 X74.364 Y68.835 E-0.03583
;WIPE_END
G1 E-0.04800 F2400.000
G1 Z0.400 F9000.000
G1 X105.137 Y31.209
G1 Z0.200
G1 E3.20000 F1500.000
M204 S800
;TYPE:Perimeter
G1 F1200.000
G1 X104.721 Y30.858 E0.01708
G1 X104.370 Y30.442 E0.01708
G1 X104.169 Y30.123 E0.01182
G1 X104.006 Y29.783 E0.01182
G1 X103.843 Y29.272 E0.01682
G1 X103.779 Y28.900 E0.01182
G1 X103.759 Y28.532 E0.01156
G1 X103.779 Y28.164 E0.01156
G1 X103.843 Y27.792 E0.01182
G1 X104.006 Y27.281 E0.01682
G1 X104.169 Y26.942 E0.01182
G1 X104.370 Y26.622 E0.01182
G1 X104.721 Y26.206 E0.01708
G1 X105.137 Y25.855 E0.01708
G1 X105.456 Y25.654 E0.01182
G1 X105.796 Y25.491 E0.01182
G1 X106.307 Y25.328 E0.01682
G1 X106.679 Y25.265 E0.01181
G1 X107.046 Y25.244 E0.01154
G1 X107.589 Y25.289 E0.01709
G1 X107.957 Y25.373 E0.01184
G1 X108.305 Y25.494 E0.01156
G1 X108.637 Y25.654 E0.01156
G1 X108.957 Y25.855 E0.01182
G1 X109.373 Y26.206 E0.01708
G1 X109.724 Y26.622 E0.01708
G1 X109.925 Y26.942 E0.01182
G1 X110.088 Y27.281 E0.01182
G1 X110.251 Y27.792 E0.01682
G1 X110.314 Y28.164 E0.01182
G1 X110.335 Y28.532 E0.01156
G1 X110.314 Y28.900 E0.01156
G1 X110.251 Y29.272 E0.01182
G1 X110.088 Y29.783 E0.01682
G1 X109.925 Y30.123 E0.01182
G1 X109.724 Y30.442 E0.01182
G1 X109.373 Y30.858 E0.01708
G1 X108.957 Y31.209 E0.01708
G1 X108.637 Y31.410 E0.01182
G1 X108.298 Y31.574 E0.01182
G1 X107.787 Y31.736 E0.01682
G1 X107.415 Y31.800 E0.01182
G1 X107.047 Y31.820 E0.01156
G1 X106.679 Y31.800 E0.01156
G1 X106.307 Y31.736 E0.01182
G1 X105.796 Y31.574 E0.01682
G1 X105.456 Y31.410 E0.01182
G1 X105.188 Y31.241 E0.00994
M204 S1250
G1 X105.389 Y30.922 F9000.000
M204 S800
;TYPE:External perimeter
G1 F1200.000
G1 X104.989 Y30.590 E0.01629
G1 X104.675 Y30.219 E0.01525
G1 X104.500 Y29.940 E0.01033
G1 X104.357 Y29.643 E0.01033
G1 X104.210 Y29.183 E0.01516
G1 X104.155 Y28.858 E0.01033
G1 X104.136 Y28.532 E0.01023
G1 X104.155 Y28.206 E0.01023
G1 X104.210 Y27.882 E0.01033
G1 X104.357 Y27.421 E0.01516
G1 X104.500 Y27.124 E0.01033
G1 X104.675 Y26.845 E0.01033
G1 X104.989 Y26.474 E0.01525
G1 X105.360 Y26.160 E0.01525
G1 X105.639 Y25.985 E0.01033
G1 X105.936 Y25.842 E0.01033
G1 X106.396 Y25.695 E0.01516
G1 X106.721 Y25.640 E0.01032
G1 X107.041 Y25.622 E0.01006
G1 X107.531 Y25.662 E0.01542
G1 X107.853 Y25.735 E0.01033
G1 X108.161 Y25.843 E0.01023
G1 X108.455 Y25.985 E0.01023
G1 X108.734 Y26.160 E0.01033
G1 X109.105 Y26.474 E0.01525
G1 X109.419 Y26.845 E0.01525
G1 X109.594 Y27.124 E0.01033
G1 X109.737 Y27.421 E0.01033
G1 X109.884 Y27.882 E0.01516
G1 X109.939 Y28.206 E0.01033
G1 X109.957 Y28.532 E0.01023
G1 X109.939 Y28.858 E0.01023
G1 X109.884 Y29.183 E0.01033
G1 X109.737 Y29.643 E0.01516
G1 X109.594 Y29.940 E0.01033
G1 X109.419 Y30.219 E0.01033
G1 X109.105 Y30.590 E0.01525
G1 X108.734 Y30.904 E0.01525
G1 X108.455 Y31.079 E0.01033
G1 X108.158 Y31.222 E0.01033
G1 X107.697 Y31.369 E0.01516
G1 X107.373 Y31.424 E0.01033
G1 X107.047 Y31.443 E0.01023
G1 X106.721 Y31.424 E0.01023
G1 X106.396 Y31.369 E0.01033
G1 X105.936 Y31.222 E0.01516
G1 X105.639 Y31.079 E0.01033
G1 X105.439 Y30.954 E0.00739
M204 S1250
G1 X105.023 Y31.085 F9000.000
G1 E-2.24000 F2400.000
;WIPE_START
G1 F7200.000
G1 X104.989 Y30.590 E-0.18338
G1 X104.675 Y30.219 E-0.15401
G1 X104.500 Y29.940 E-0.10429
G1 X104.357 Y29.643 E-0.10429
G1 X104.210 Y29.183 E-0.15307
G1 X104.155 Y28.858 E-0.10429
G1 X104.136 Y28.532 E-0.10335
G1 X104.137 Y28.515 E-0.00532
;WIPE_END
G1 E-0.04800 F2400.000
G1 Z0.400 F9000.000
G1 X146.093 Y29.272
G1 Z0.200
G1 E3.20000 F1500.000
M204 S800
;TYPE:Perimeter
G1 F1200.000
G1 X146.029 Y28.900 E0.01182
G1 X146.009 Y28.532 E0.01156
G1 X146.029 Y28.164 E0.01156
G1 X146.093 Y27.792 E0.01182
G1 X146.256 Y27.281 E0.01682
G1 X146.419 Y26.942 E0.01182
G1 X146.620 Y26.622 E0.01182
G1 X146.971 Y26.206 E0.01708
G1 X147.387 Y25.855 E0.01708
G1 X147.706 Y25.654 E0.01182
G1 X148.046 Y25.491 E0.01182
G1 X148.557 Y25.328 E0.01682
M73 P1 R76
G1 X148.929 Y25.265 E0.01181
G1 X149.296 Y25.244 E0.01154
G1 X149.839 Y25.289 E0.01709
G1 X150.207 Y25.373 E0.01184
G1 X150.555 Y25.494 E0.01156
G1 X150.887 Y25.654 E0.01156
G1 X151.207 Y25.855 E0.01182
G1 X151.623 Y26.206 E0.01708
G1 X151.974 Y26.622 E0.01708
G1 X152.175 Y26.942 E0.01182
G1 X152.338 Y27.281 E0.01182
G1 X152.501 Y27.792 E0.01682
G1 X152.564 Y28.164 E0.01182
G1 X152.585 Y28.532 E0.01156
G1 X152.564 Y28.900 E0.01156
G1 X152.501 Y29.272 E0.01182
G1 X152.338 Y29.783 E0.01682
G1 X152.175 Y30.123 E0.01182
G1 X151.974 Y30.442 E0.01182
G1 X151.623 Y30.858 E0.01708
G1 X151.207 Y31.209 E0.01708
G1 X150.887 Y31.410 E0.01182
G1 X150.548 Y31.574 E0.01182
G1 X150.037 Y31.736 E0.01682
G1 X149.665 Y31.800 E0.01182
G1 X149.297 Y31.820 E0.01156
G1 X148.929 Y31.800 E0.01156
G1 X148.557 Y31.736 E0.01182
G1 X148.046 Y31.574 E0.01682
G1 X147.706 Y31.410 E0.01182
G1 X147.387 Y31.209 E0.01182
G1 X146.971 Y30.858 E0.01708
G1 X146.620 Y30.442 E0.01708
G1 X146.419 Y30.123 E0.01182
G1 X146.256 Y29.783 E0.01182
G1 X146.111 Y29.329 E0.01494
M204 S1250
G1 X146.470 Y29.215 F9000.000
M204 S800
;TYPE:External perimeter
G1 F1200.000
G1 X146.405 Y28.858 E0.01137
G1 X146.386 Y28.532 E0.01023
G1 X146.405 Y28.206 E0.01023
G1 X146.460 Y27.882 E0.01033
G1 X146.607 Y27.421 E0.01516
G1 X146.750 Y27.124 E0.01033
G1 X146.925 Y26.845 E0.01033
G1 X147.239 Y26.474 E0.01525
G1 X147.610 Y26.160 E0.01525
G1 X147.889 Y25.985 E0.01033
G1 X148.186 Y25.842 E0.01033
G1 X148.646 Y25.695 E0.01516
G1 X148.971 Y25.640 E0.01032
G1 X149.291 Y25.622 E0.01006
G1 X149.781 Y25.662 E0.01542
G1 X150.103 Y25.735 E0.01033
G1 X150.411 Y25.843 E0.01023
G1 X150.705 Y25.985 E0.01023
G1 X150.984 Y26.160 E0.01033
G1 X151.355 Y26.474 E0.01525
G1 X151.669 Y26.845 E0.01525
G1 X151.844 Y27.124 E0.01033
G1 X151.987 Y27.421 E0.01033
G1 X152.134 Y27.882 E0.01516
G1 X152.189 Y28.206 E0.01033
G1 X152.207 Y28.532 E0.01023
G1 X152.189 Y28.858 E0.01023
G1 X152.134 Y29.183 E0.01033
G1 X151.987 Y29.643 E0.01516
G1 X151.844 Y29.940 E0.01033
G1 X151.669 Y30.219 E0.01033
G1 X151.355 Y30.590 E0.01525
G1 X150.984 Y30.904 E0.01525
G1 X150.705 Y31.079 E0.01033
G1 X150.408 Y31.222 E0.01033
G1 X149.947 Y31.369 E0.01516
G1 X149.623 Y31.424 E0.01033
G1 X149.297 Y31.443 E0.01023
G1 X148.971 Y31.424 E0.01023
G1 X148.646 Y31.369 E0.01033
G1 X148.186 Y31.222 E0.01516
G1 X147.889 Y31.079 E0.01033
G1 X147.610 Y30.904 E0.01033
G1 X147.239 Y30.590 E0.01525
G1 X146.925 Y30.219 E0.01525
G1 X146.750 Y29.940 E0.01033
G1 X146.607 Y29.643 E0.01033
G1 X146.488 Y29.272 E0.01222
M204 S1250
G1 X146.122 Y29.114 F9000.000
G1 E-2.24000 F2400.000
;WIPE_START
G1 F7200.000
G1 X146.405 Y28.858 E-0.13367
G1 X146.386 Y28.532 E-0.10335
G1 X146.405 Y28.206 E-0.10335
G1 X146.460 Y27.882 E-0.10429
G1 X146.607 Y27.421 E-0.15307
G1 X146.750 Y27.124 E-0.10429
G1 X146.925 Y26.845 E-0.10429
G1 X147.140 Y26.590 E-0.10568
;WIPE_END
G1 E-0.04800 F2400.000
G1 Z0.400 F9000.000
G1 X36.594 Y29.359
G1 Z0.200
G1 E3.20000 F1500.000
M204 S800
;TYPE:Perimeter
G1 F1200.000
G1 X36.464 Y29.833 E0.01540
G1 X36.235 Y30.254 E0.01504
G1 X36.019 Y30.515 E0.01062
G1 X35.766 Y30.741 E0.01062
G1 X35.364 Y30.980 E0.01468
G1 X35.034 Y31.098 E0.01098
G1 X34.571 Y31.170 E0.01468
G1 X34.221 Y31.157 E0.01098
G1 X33.754 Y31.047 E0.01504
G1 X33.324 Y30.834 E0.01504
G1 X33.046 Y30.622 E0.01098
G1 X32.734 Y30.272 E0.01469
G1 X32.561 Y29.981 E0.01062
G1 X32.434 Y29.667 E0.01062
G1 X32.343 Y29.196 E0.01504
G1 X32.362 Y28.717 E0.01504
G1 X32.441 Y28.376 E0.01098
G1 X32.633 Y27.948 E0.01469
G1 X32.828 Y27.671 E0.01062
G1 X33.063 Y27.427 E0.01062
G1 X33.455 Y27.151 E0.01504
G1 X33.910 Y26.968 E0.01539
G1 X34.382 Y26.894 E0.01497
