; generated by PrusaSlicer 2.3.0+win64 on 2022-05-24 at 19:02:32 UTC


;
;

;
;
; 

; external perimeters extrusion width = 0.45mm
; perimeters extrusion width = 0.45mm
; infill extrusion width = 0.45mm
; solid infill extrusion width = 0.45mm
; top infill extrusion width = 0.40mm
; first layer extrusion width = 0.42mm

M73 P0 R11
M201 X1250 Y1250 Z400 E5000 ; sets maximum accelerations, mm/sec^2
M203 X180 Y180 Z12 E80 ; sets maximum feedrates, mm/sec
M204 P1250 R1250 T1250 ; sets acceleration (P, T) and retract acceleration (R), mm/sec^2
M205 X8.00 Y8.00 Z2.00 E10.00 ; sets the jerk limits, mm/sec
M205 S0 T0 ; sets the minimum extruding and travel feed rate, mm/sec
M107
;TYPE:Custom
G90 ; use absolute coordinates
M83 ; extruder relative mode
M104 S170 ; set extruder temp for bed leveling
M140 S85 ; set bed temp
M109 R170 ; wait for bed leveling temp
M190 S85 ; wait for bed temp
G28 ; home all without mesh bed level
G29 ; mesh bed leveling 
M104 S240 ; set extruder temp
G92 E0.0
G1 Y-2.0 X179 F2400
G1 Z3 F720
M109 S240 ; wait for extruder temp

; intro line
G1 X170 F1000
G1 Z0.2 F720
G1 X110.0 E8.0 F900
M73 P1 R11
G1 X40.0 E10.0 F700
G92 E0.0

M221 S95 ; set flow
G21 ; set units to millimeters
G90 ; use absolute coordinates
M83 ; use relative distances for extrusion
M900 K0.2 ; Filament gcode
;LAYER_CHANGE
;Z:0.2
;HEIGHT:0.2
;BEFORE_LAYER_CHANGE
G92 E0.0
;0.2


M73 P2 R11
G1 E-3.20000 F2400.000
G1 Z0.200 F9000.000
;AFTER_LAYER_CHANGE
;0.2
G1 Z0.400
G1 X109.416 Y70.494
G1 Z0.200
G1 E3.20000 F1500.000
M204 S800
;TYPE:Skirt
;WIDTH:0.42
G1 F1200.000
G1 X109.873 Y69.932 E0.02272
G1 X110.479 Y69.534 E0.02272
G1 X111.180 Y69.337 E0.02284
G1 X124.470 Y69.320 E0.41669
G1 X125.358 Y69.493 E0.02837
G1 X126.114 Y69.983 E0.02825
G1 X126.633 Y70.720 E0.02825
G1 X126.841 Y71.600 E0.02837
G1 X126.843 Y126.701 E1.72762
G1 X126.784 Y127.222 E0.01645
G1 X126.515 Y127.902 E0.02296
G1 X126.050 Y128.469 E0.02296
G1 X125.439 Y128.865 E0.02284
G1 X124.733 Y129.059 E0.02296
G1 X111.458 Y129.074 E0.41622
M73 P3 R11
G1 X110.941 Y129.015 E0.01633
G1 X110.218 Y128.720 E0.02449
G1 X109.632 Y128.209 E0.02437
G1 X109.241 Y127.533 E0.02449
G1 X109.090 Y126.770 E0.02437
G1 X109.089 Y71.693 E1.72691
G1 X109.148 Y71.172 E0.01645
G1 X109.393 Y70.550 E0.02096
M204 S1250
; printing object SideMount01 id:0 copy 0
G1 E-2.24000 F2400.000
;WIPE_START
G1 F7200.000
G1 X109.873 Y69.932 E-0.24766
G1 X110.479 Y69.534 E-0.22948
G1 X111.180 Y69.337 E-0.23068
G1 X111.825 Y69.336 E-0.20418
;WIPE_END
G1 E-0.04800 F2400.000
G1 Z0.400 F9000.000
G1 X117.283 Y116.983
G1 Z0.200
G1 E3.20000 F1500.000
M204 S800
;TYPE:Perimeter
G1 F1200.000
G1 X117.598 Y116.929 E0.01002
G1 X117.964 Y116.908 E0.01151
G1 X118.508 Y116.953 E0.01711
G1 X118.876 Y117.037 E0.01184
G1 X119.224 Y117.159 E0.01156
G1 X119.556 Y117.319 E0.01155
G1 X119.867 Y117.514 E0.01151
G1 X120.291 Y117.870 E0.01737
G1 X120.643 Y118.287 E0.01710
G1 X120.844 Y118.606 E0.01182
G1 X121.004 Y118.938 E0.01156
G1 X121.126 Y119.286 E0.01156
G1 X121.209 Y119.654 E0.01182
G1 X121.255 Y120.197 E0.01708
G1 X121.209 Y120.739 E0.01708
G1 X121.126 Y121.107 E0.01182
G1 X121.004 Y121.455 E0.01156
G1 X120.844 Y121.787 E0.01155
G1 X120.649 Y122.098 E0.01151
G1 X120.298 Y122.516 E0.01711
G1 X120.016 Y122.767 E0.01184
G1 X119.709 Y122.986 E0.01182
G1 X119.225 Y123.236 E0.01708
G1 X118.706 Y123.401 E0.01708
G1 X118.334 Y123.464 E0.01182
G1 X117.966 Y123.485 E0.01156
G1 X117.598 Y123.464 E0.01155
G1 X117.236 Y123.403 E0.01151
G1 X116.716 Y123.238 E0.01711
G1 X116.376 Y123.075 E0.01183
G1 X116.065 Y122.880 E0.01151
G1 X115.641 Y122.523 E0.01737
G1 X115.289 Y122.106 E0.01710
G1 X115.088 Y121.787 E0.01182
G1 X114.928 Y121.455 E0.01156
G1 X114.806 Y121.107 E0.01156
G1 X114.723 Y120.739 E0.01182
G1 X114.677 Y120.197 E0.01708
G1 X114.723 Y119.654 E0.01708
G1 X114.806 Y119.286 E0.01182
G1 X114.928 Y118.938 E0.01156
G1 X115.088 Y118.606 E0.01155
G1 X115.283 Y118.295 E0.01151
G1 X115.640 Y117.871 E0.01737
G1 X116.056 Y117.519 E0.01710
G1 X116.376 Y117.319 E0.01182
G1 X116.715 Y117.155 E0.01182
G1 X117.223 Y116.993 E0.01673
M204 S1250
G1 X117.315 Y117.360 F9000.000
M204 S800
;TYPE:External perimeter
G1 F1200.000
G1 X117.640 Y117.305 E0.01032
G1 X117.960 Y117.286 E0.01003
G1 X118.450 Y117.327 E0.01544
G1 X118.772 Y117.400 E0.01033
G1 X119.080 Y117.508 E0.01023
G1 X119.374 Y117.649 E0.01023
G1 X119.645 Y117.819 E0.01003
G1 X120.024 Y118.138 E0.01554
G1 X120.338 Y118.510 E0.01526
G1 X120.513 Y118.789 E0.01033
G1 X120.655 Y119.083 E0.01023
G1 X120.763 Y119.391 E0.01023
G1 X120.836 Y119.712 E0.01033
G1 X120.877 Y120.197 E0.01525
G1 X120.836 Y120.681 E0.01525
G1 X120.763 Y121.002 E0.01033
G1 X120.655 Y121.310 E0.01023
G1 X120.513 Y121.604 E0.01023
G1 X120.343 Y121.876 E0.01003
G1 X120.026 Y122.253 E0.01544
G1 X119.781 Y122.472 E0.01033
G1 X119.512 Y122.663 E0.01033
G1 X119.080 Y122.886 E0.01525
G1 X118.617 Y123.034 E0.01525
G1 X118.292 Y123.089 E0.01033
G1 X117.966 Y123.107 E0.01023
G1 X117.640 Y123.089 E0.01023
G1 X117.325 Y123.036 E0.01003
G1 X116.855 Y122.887 E0.01544
G1 X116.558 Y122.744 E0.01033
G1 X116.287 Y122.574 E0.01003
G1 X115.908 Y122.255 E0.01554
G1 X115.594 Y121.883 E0.01526
G1 X115.419 Y121.605 E0.01033
G1 X115.277 Y121.310 E0.01023
G1 X115.169 Y121.002 E0.01023
G1 X115.096 Y120.681 E0.01033
G1 X115.055 Y120.197 E0.01525
G1 X115.096 Y119.712 E0.01525
G1 X115.169 Y119.391 E0.01033
G1 X115.277 Y119.083 E0.01023
G1 X115.419 Y118.789 E0.01023
G1 X115.589 Y118.518 E0.01003
G1 X115.908 Y118.139 E0.01554
G1 X116.279 Y117.825 E0.01526
G1 X116.558 Y117.649 E0.01033
G1 X116.855 Y117.507 E0.01033
G1 X117.258 Y117.378 E0.01328
M204 S1250
G1 X117.410 Y117.044 F9000.000
G1 E-2.24000 F2400.000
;WIPE_START
G1 F7200.000
G1 X117.640 Y117.305 E-0.12310
G1 X117.960 Y117.286 E-0.10133
G1 X118.450 Y117.327 E-0.15597
G1 X118.772 Y117.400 E-0.10436
G1 X119.080 Y117.508 E-0.10335
G1 X119.374 Y117.649 E-0.10332
G1 X119.645 Y117.819 E-0.10133
G1 X119.933 Y118.062 E-0.11923
;WIPE_END
G1 E-0.04800 F2400.000
G1 Z0.400 F9000.000
G1 X117.966 Y81.486
M73 P4 R11
G1 Z0.200
G1 E3.20000 F1500.000
M204 S800
;TYPE:Perimeter
G1 F1200.000
G1 X117.423 Y81.440 E0.01708
G1 X117.056 Y81.356 E0.01182
G1 X116.708 Y81.235 E0.01156
G1 X116.376 Y81.075 E0.01155
G1 X116.065 Y80.880 E0.01151
G1 X115.641 Y80.523 E0.01737
G1 X115.289 Y80.106 E0.01710
G1 X115.088 Y79.787 E0.01182
G1 X114.928 Y79.455 E0.01156
G1 X114.806 Y79.107 E0.01156
G1 X114.723 Y78.739 E0.01182
G1 X114.677 Y78.197 E0.01708
G1 X114.723 Y77.654 E0.01708
G1 X114.806 Y77.286 E0.01182
G1 X114.928 Y76.938 E0.01156
G1 X115.088 Y76.606 E0.01155
G1 X115.283 Y76.295 E0.01151
G1 X115.634 Y75.878 E0.01711
G1 X115.916 Y75.626 E0.01184
G1 X116.223 Y75.408 E0.01182
G1 X116.707 Y75.158 E0.01708
G1 X117.226 Y74.992 E0.01708
G1 X117.598 Y74.929 E0.01181
G1 X117.964 Y74.908 E0.01151
G1 X118.508 Y74.953 E0.01711
G1 X118.876 Y75.037 E0.01184
G1 X119.224 Y75.159 E0.01156
G1 X119.556 Y75.319 E0.01155
G1 X119.867 Y75.514 E0.01151
G1 X120.291 Y75.870 E0.01737
G1 X120.643 Y76.287 E0.01710
G1 X120.844 Y76.606 E0.01182
G1 X121.004 Y76.938 E0.01156
G1 X121.126 Y77.286 E0.01156
G1 X121.209 Y77.654 E0.01182
G1 X121.255 Y78.197 E0.01708
G1 X121.209 Y78.739 E0.01708
G1 X121.126 Y79.107 E0.01182
G1 X121.004 Y79.455 E0.01156
G1 X120.844 Y79.787 E0.01155
G1 X120.649 Y80.098 E0.01151
G1 X120.292 Y80.522 E0.01737
G1 X119.876 Y80.874 E0.01710
G1 X119.557 Y81.075 E0.01182
G1 X119.224 Y81.235 E0.01156
G1 X118.876 Y81.356 E0.01156
G1 X118.509 Y81.440 E0.01182
G1 X118.026 Y81.481 E0.01520
M204 S1250
G1 X117.994 Y81.105 F9000.000
M204 S800
;TYPE:External perimeter
G1 F1200.000
G1 X117.481 Y81.067 E0.01612
G1 X117.160 Y80.993 E0.01033
G1 X116.852 Y80.886 E0.01023
G1 X116.558 Y80.744 E0.01023
G1 X116.287 Y80.574 E0.01003
G1 X115.908 Y80.255 E0.01554
G1 X115.594 Y79.883 E0.01526
G1 X115.419 Y79.605 E0.01033
G1 X115.277 Y79.310 E0.01023
G1 X115.169 Y79.002 E0.01023
G1 X115.096 Y78.681 E0.01033
G1 X115.055 Y78.197 E0.01525
G1 X115.096 Y77.712 E0.01525
G1 X115.169 Y77.391 E0.01033
G1 X115.277 Y77.083 E0.01023
G1 X115.419 Y76.789 E0.01023
G1 X115.589 Y76.518 E0.01003
G1 X115.906 Y76.141 E0.01544
G1 X116.151 Y75.921 E0.01033
G1 X116.420 Y75.731 E0.01033
G1 X116.852 Y75.507 E0.01525
G1 X117.315 Y75.360 E0.01525
G1 X117.640 Y75.305 E0.01032
G1 X117.960 Y75.286 E0.01003
G1 X118.450 Y75.327 E0.01544
G1 X118.772 Y75.400 E0.01033
G1 X119.080 Y75.508 E0.01023
G1 X119.374 Y75.649 E0.01023
G1 X119.645 Y75.819 E0.01003
G1 X120.024 Y76.138 E0.01554
G1 X120.338 Y76.510 E0.01526
G1 X120.513 Y76.789 E0.01033
G1 X120.655 Y77.083 E0.01023
G1 X120.763 Y77.391 E0.01023
G1 X120.836 Y77.712 E0.01033
G1 X120.877 Y78.197 E0.01525
G1 X120.836 Y78.681 E0.01525
G1 X120.763 Y79.002 E0.01033
G1 X120.655 Y79.310 E0.01023
G1 X120.513 Y79.604 E0.01023
G1 X120.343 Y79.876 E0.01003
G1 X120.024 Y80.255 E0.01554
G1 X119.653 Y80.569 E0.01526
G1 X119.374 Y80.744 E0.01033
G1 X119.080 Y80.886 E0.01023
G1 X118.772 Y80.993 E0.01023
G1 X118.451 Y81.067 E0.01033
G1 X118.054 Y81.100 E0.01248
M204 S1250
G1 X117.793 Y81.451 F9000.000
G1 E-2.24000 F2400.000
;WIPE_START
G1 F7200.000
G1 X117.481 Y81.067 E-0.18160
G1 X117.160 Y80.993 E-0.10429
G1 X116.852 Y80.886 E-0.10335
G1 X116.558 Y80.744 E-0.10332
G1 X116.287 Y80.574 E-0.10133
G1 X115.908 Y80.255 E-0.15691
G1 X115.594 Y79.883 E-0.15408
G1 X115.582 Y79.864 E-0.00711
;WIPE_END
G1 E-0.04800 F2400.000
G1 Z0.400 F9000.000
G1 X123.679 Y72.484
G1 Z0.200
G1 E3.20000 F1500.000
M204 S800
;TYPE:Perimeter
G1 F1200.000
G1 X123.679 Y125.910 E1.67513
G1 X112.253 Y125.910 E0.35825
G1 X112.253 Y72.484 E1.67513
M73 P5 R11
G1 X123.619 Y72.484 E0.35637
M204 S1250
G1 X124.056 Y72.107 F9000.000
M204 S800
;TYPE:External perimeter
G1 F1200.000
G1 X124.056 Y126.287 E1.69878
G1 X111.876 Y126.287 E0.38190
G1 X111.876 Y72.107 E1.69878
M73 P6 R11
G1 X123.996 Y72.107 E0.38001
M204 S1250
G1 X124.027 Y72.506 F9000.000
G1 E-2.24000 F2400.000
;WIPE_START
G1 F7200.000
G1 X123.999 Y74.987 E-0.91200
;WIPE_END
G1 E-0.04800 F2400.000
G1 Z0.400 F9000.000
G1 X122.798 Y72.597
G1 Z0.200
G1 E3.20000 F1500.000
M204 S800
;TYPE:Solid infill
;WIDTH:0.42284
G1 F1200.000
G1 X123.396 Y73.196 E0.02674
G1 X123.396 Y73.733 E0.01697
G1 X122.430 Y72.767 E0.04317
G1 X121.893 Y72.767 E0.01697
G1 X123.396 Y74.270 E0.06717
G1 X123.396 Y74.807 E0.01697
G1 X121.355 Y72.767 E0.09117
G1 X120.818 Y72.767 E0.01697
G1 X123.396 Y75.345 E0.11518
G1 X123.396 Y75.882 E0.01697
G1 X120.281 Y72.767 E0.13918
G1 X119.743 Y72.767 E0.01697
G1 X123.396 Y76.419 E0.16318
G1 X123.396 Y76.957 E0.01697
G1 X119.206 Y72.767 E0.18719
G1 X118.669 Y72.767 E0.01697
G1 X123.396 Y77.494 E0.21119
G1 X123.396 Y78.031 E0.01697
G1 X118.132 Y72.767 E0.23520
G1 X117.594 Y72.767 E0.01697
G1 X123.396 Y78.568 E0.25920
G1 X123.396 Y79.106 E0.01697
G1 X121.344 Y77.053 E0.09170
G1 X121.265 Y76.830 E0.00747
G1 X121.092 Y76.469 E0.01265
G1 X120.872 Y76.120 E0.01304
G1 X120.492 Y75.669 E0.01862
G1 X120.034 Y75.285 E0.01888
G1 X119.693 Y75.071 E0.01272
G1 X119.333 Y74.897 E0.01264
G1 X119.110 Y74.819 E0.00747
G1 X117.057 Y72.767 E0.09170
G1 X116.520 Y72.767 E0.01697
G1 X118.415 Y74.662 E0.08467
G1 X117.968 Y74.625 E0.01417
G1 X117.848 Y74.632 E0.00380
G1 X115.982 Y72.767 E0.08333
G1 X115.445 Y72.767 E0.01697
G1 X117.361 Y74.683 E0.08560
G1 X117.159 Y74.717 E0.00647
G1 X116.931 Y74.790 E0.00757
G1 X114.908 Y72.767 E0.09038
G1 X114.371 Y72.767 E0.01697
G1 X116.533 Y74.929 E0.09662
M73 P7 R11
G1 X116.179 Y75.112 E0.01260
G1 X113.833 Y72.767 E0.10480
G1 X113.296 Y72.767 E0.01697
G1 X115.853 Y75.324 E0.11424
G1 X115.558 Y75.566 E0.01206
G1 X112.759 Y72.767 E0.12508
G1 X112.536 Y72.767 E0.00704
G1 X112.536 Y73.081 E0.00993
G1 X115.296 Y75.841 E0.12330
G1 X115.051 Y76.133 E0.01205
G1 X112.536 Y73.618 E0.11236
G1 X112.536 Y74.156 E0.01697
G1 X114.844 Y76.464 E0.10311
G1 X114.669 Y76.826 E0.01271
G1 X112.536 Y74.693 E0.09528
G1 X112.536 Y75.230 E0.01697
G1 X114.530 Y77.225 E0.08911
G1 X114.437 Y77.669 E0.01434
G1 X112.536 Y75.767 E0.08495
G1 X112.536 Y76.305 E0.01697
G1 X114.396 Y78.165 E0.08309
G1 X114.439 Y78.745 E0.01840
G1 X112.366 Y76.672 E0.09261
M204 S1250
G1 E-2.24000 F2400.000
;WIPE_START
G1 F7200.000
G1 X114.403 Y78.709 E-0.91200
;WIPE_END
G1 E-0.04800 F2400.000
G1 Z0.400 F9000.000
G1 X121.301 Y77.548
G1 Z0.200
G1 E3.20000 F1500.000
M204 S800
G1 F1200.000
G1 X123.396 Y79.643 E0.09359
G1 X123.396 Y80.180 E0.01697
G1 X121.529 Y78.313 E0.08341
G1 X121.484 Y78.806 E0.01562
G1 X123.396 Y80.718 E0.08541
G1 X123.396 Y81.255 E0.01697
G1 X121.379 Y79.238 E0.09010
G1 X121.234 Y79.630 E0.01320
G1 X123.396 Y81.792 E0.09661
G1 X123.396 Y82.329 E0.01697
G1 X121.053 Y79.986 E0.10469
G1 X120.840 Y80.310 E0.01226
G1 X123.396 Y82.867 E0.11421
G1 X123.396 Y83.404 E0.01697
G1 X120.594 Y80.602 E0.12517
G1 X120.493 Y80.723 E0.00497
G1 X120.322 Y80.867 E0.00708
G1 X123.396 Y83.941 E0.13734
G1 X123.396 Y84.479 E0.01697
G1 X120.029 Y81.112 E0.15042
G1 X119.699 Y81.319 E0.01231
G1 X123.396 Y85.016 E0.16516
G1 X123.396 Y85.553 E0.01697
G1 X119.337 Y81.494 E0.18134
G1 X118.938 Y81.632 E0.01334
G1 X123.396 Y86.090 E0.19917
G1 X123.396 Y86.628 E0.01697
G1 X118.494 Y81.725 E0.21902
G1 X117.998 Y81.767 E0.01571
G1 X123.396 Y87.165 E0.24116
G1 X123.396 Y87.702 E0.01697
G1 X117.199 Y81.505 E0.27687
M204 S1250
M73 P8 R11
G1 E-2.24000 F2400.000
;WIPE_START
G1 F7200.000
G1 X119.235 Y83.541 E-0.91200
;WIPE_END
G1 E-0.04800 F2400.000
G1 Z0.400 F9000.000
G1 X112.366 Y77.210
G1 Z0.200
G1 E3.20000 F1500.000
M204 S800
G1 F1200.000
G1 X114.638 Y79.481 E0.10148
G1 X114.840 Y79.924 E0.01539
G1 X115.060 Y80.274 E0.01304
G1 X115.440 Y80.724 E0.01862
G1 X115.898 Y81.109 E0.01888
G1 X116.239 Y81.323 E0.01272
G1 X116.682 Y81.525 E0.01538
G1 X123.396 Y88.240 E0.29998
G1 X123.396 Y88.777 E0.01697
G1 X112.536 Y77.917 E0.48519
M73 P8 R10
G1 X112.536 Y78.454 E0.01697
G1 X123.396 Y89.314 E0.48519
G1 X123.396 Y89.851 E0.01697
G1 X112.536 Y78.991 E0.48519
G1 X112.536 Y79.528 E0.01697
G1 X123.396 Y90.389 E0.48519
G1 X123.396 Y90.926 E0.01697
G1 X112.536 Y80.066 E0.48519
G1 X112.536 Y80.603 E0.01697
G1 X123.396 Y91.463 E0.48519
G1 X123.396 Y92.001 E0.01697
G1 X112.536 Y81.140 E0.48519
M73 P9 R10
G1 X112.536 Y81.678 E0.01697
G1 X123.396 Y92.538 E0.48519
G1 X123.396 Y93.075 E0.01697
G1 X112.536 Y82.215 E0.48519
G1 X112.536 Y82.752 E0.01697
G1 X123.396 Y93.612 E0.48519
G1 X123.396 Y94.150 E0.01697
G1 X112.536 Y83.290 E0.48519
G1 X112.536 Y83.827 E0.01697
G1 X123.396 Y94.687 E0.48519
G1 X123.396 Y95.224 E0.01697
G1 X112.536 Y84.364 E0.48519
G1 X112.536 Y84.901 E0.01697
G1 X123.396 Y95.762 E0.48519
G1 X123.396 Y96.299 E0.01697
G1 X112.536 Y85.439 E0.48519
G1 X112.536 Y85.976 E0.01697
G1 X123.396 Y96.836 E0.48519
M73 P10 R10
G1 X123.396 Y97.373 E0.01697
G1 X112.536 Y86.513 E0.48519
G1 X112.536 Y87.051 E0.01697
G1 X123.396 Y97.911 E0.48519
G1 X123.396 Y98.448 E0.01697
G1 X112.536 Y87.588 E0.48519
G1 X112.536 Y88.125 E0.01697
G1 X123.396 Y98.985 E0.48519
G1 X123.396 Y99.523 E0.01697
G1 X112.536 Y88.662 E0.48519
G1 X112.536 Y89.200 E0.01697
G1 X123.396 Y100.060 E0.48519
G1 X123.396 Y100.597 E0.01697
G1 X112.536 Y89.737 E0.48519
G1 X112.536 Y90.274 E0.01697
G1 X123.396 Y101.134 E0.48519
M73 P11 R10
G1 X123.396 Y101.672 E0.01697
G1 X112.536 Y90.812 E0.48519
G1 X112.536 Y91.349 E0.01697
G1 X123.396 Y102.209 E0.48519
G1 X123.396 Y102.746 E0.01697
G1 X112.536 Y91.886 E0.48519
G1 X112.536 Y92.423 E0.01697
G1 X123.396 Y103.284 E0.48519
G1 X123.396 Y103.821 E0.01697
G1 X112.536 Y92.961 E0.48519
G1 X112.536 Y93.498 E0.01697
G1 X123.396 Y104.358 E0.48519
G1 X123.396 Y104.896 E0.01697
G1 X112.536 Y94.035 E0.48519
G1 X112.536 Y94.573 E0.01697
G1 X123.396 Y105.433 E0.48519
G1 X123.396 Y105.970 E0.01697
G1 X112.536 Y95.110 E0.48519
M73 P12 R10
G1 X112.536 Y95.647 E0.01697
G1 X123.396 Y106.507 E0.48519
G1 X123.396 Y107.045 E0.01697
G1 X112.536 Y96.184 E0.48519
G1 X112.536 Y96.722 E0.01697
G1 X123.396 Y107.582 E0.48519
G1 X123.396 Y108.119 E0.01697
G1 X112.536 Y97.259 E0.48519
G1 X112.536 Y97.796 E0.01697
G1 X123.396 Y108.657 E0.48519
G1 X123.396 Y109.194 E0.01697
G1 X112.536 Y98.334 E0.48519
G1 X112.536 Y98.871 E0.01697
