; generated by PrusaSlicer 2.3.0+win64 on 2021-03-07 at 20:22:38 UTC


;
;

;
;
; 

; external perimeters extrusion width = 0.45mm
; perimeters extrusion width = 0.45mm
; infill extrusion width = 0.45mm
; solid infill extrusion width = 0.45mm
; top infill extrusion width = 0.40mm
; first layer extrusion width = 0.42mm

M73 P0 R17
M201 X1250 Y1250 Z400 E5000 ; sets maximum accelerations, mm/sec^2
M203 X180 Y180 Z12 E80 ; sets maximum feedrates, mm/sec
M204 P1250 R1250 T1250 ; sets acceleration (P, T) and retract acceleration (R), mm/sec^2
M205 X8.00 Y8.00 Z2.00 E10.00 ; sets the jerk limits, mm/sec
M205 S0 T0 ; sets the minimum extruding and travel feed rate, mm/sec
M107
;TYPE:Custom
G90 ; use absolute coordinates
M83 ; extruder relative mode
M104 S170 ; set extruder temp for bed leveling
M140 S60 ; set bed temp
M109 R170 ; wait for bed leveling temp
M190 S60 ; wait for bed temp
G28 ; home all without mesh bed level
G29 ; mesh bed leveling 
M104 S215 ; set extruder temp
G92 E0.0
G1 Y-2.0 X179 F2400
G1 Z3 F720
M109 S215 ; wait for extruder temp

; intro line
G1 X170 F1000
G1 Z0.2 F720
G1 X110.0 E8.0 F900
G1 X40.0 E10.0 F700
G92 E0.0

M221 S95 ; set flow
G21 ; set units to millimeters
G90 ; use absolute coordinates
M83 ; use relative distances for extrusion
M900 K0.2 ; Filament gcode LA 1.5
; ; Filament gcode LA 1.0
;LAYER_CHANGE
;Z:0.2
;HEIGHT:0.2
;BEFORE_LAYER_CHANGE
G92 E0.0
;0.2


M73 P1 R17
G1 E-3.20000 F4200.000
G1 Z0.200 F9000.000
;AFTER_LAYER_CHANGE
;0.2
G1 Z0.400
G1 X80.177 Y80.199
G1 Z0.200
G1 E3.20000 F2400.000
M204 S800
;TYPE:Skirt
;WIDTH:0.42
G1 F1200.000
G1 X81.255 Y79.226 E0.04554
G1 X82.426 Y78.373 E0.04542
G1 X83.440 Y77.772 E0.03696
G1 X84.754 Y77.154 E0.04552
G1 X86.124 Y76.676 E0.04548
G1 X87.267 Y76.396 E0.03690
G1 X88.703 Y76.185 E0.04554
G1 X90.152 Y76.125 E0.04547
G1 X91.327 Y76.188 E0.03688
G1 X92.764 Y76.402 E0.04555
G1 X94.168 Y76.765 E0.04548
G1 X95.276 Y77.166 E0.03693
G1 X96.585 Y77.786 E0.04542
G1 X97.826 Y78.541 E0.04555
G1 X98.770 Y79.247 E0.03694
G1 X99.843 Y80.219 E0.04541
G1 X100.811 Y81.302 E0.04554
G1 X101.509 Y82.249 E0.03688
G1 X102.255 Y83.493 E0.04549
G1 X102.868 Y84.809 E0.04552
G1 X103.262 Y85.920 E0.03696
G1 X103.615 Y87.325 E0.04542
G1 X103.820 Y88.760 E0.04546
G1 X103.875 Y89.940 E0.03702
G1 X103.806 Y91.386 E0.04541
G1 X103.586 Y92.820 E0.04549
G1 X103.297 Y93.963 E0.03694
G1 X102.811 Y95.329 E0.04547
G1 X102.184 Y96.639 E0.04554
G1 X101.578 Y97.647 E0.03688
G1 X100.716 Y98.814 E0.04549
G1 X99.736 Y99.886 E0.04552
G1 X98.864 Y100.675 E0.03688
G1 X97.699 Y101.543 E0.04555
G1 X96.452 Y102.283 E0.04546
G1 X95.385 Y102.787 E0.03701
G1 X94.022 Y103.279 E0.04543
G1 X92.616 Y103.626 E0.04542
G1 X91.445 Y103.800 E0.03712
G1 X89.985 Y103.875 E0.04581
G1 X88.523 Y103.796 E0.04592
G1 X87.091 Y103.567 E0.04546
G1 X85.947 Y103.270 E0.03707
G1 X84.587 Y102.776 E0.04537
G1 X83.281 Y102.140 E0.04553
G1 X82.274 Y101.525 E0.03700
G1 X81.114 Y100.657 E0.04542
G1 X80.053 Y99.673 E0.04537
G1 X79.265 Y98.790 E0.03712
G1 X78.405 Y97.622 E0.04548
G1 X77.673 Y96.369 E0.04549
G1 X77.178 Y95.303 E0.03687
G1 X76.694 Y93.933 E0.04555
G1 X76.356 Y92.522 E0.04548
G1 X76.191 Y91.358 E0.03687
M73 P2 R17
G1 X76.125 Y89.907 E0.04555
G1 X76.210 Y88.461 E0.04540
G1 X76.391 Y87.294 E0.03702
G1 X76.747 Y85.888 E0.04548
G1 X77.249 Y84.527 E0.04548
G1 X77.758 Y83.467 E0.03688
G1 X78.507 Y82.225 E0.04548
G1 X79.382 Y81.068 E0.04548
G1 X80.137 Y80.244 E0.03505
M204 S1250
G1 X80.414 Y80.498 F9000.000
M204 S800
G1 F1200.000
G1 X81.492 Y79.520 E0.04563
G1 X82.635 Y78.687 E0.04435
G1 X83.616 Y78.106 E0.03574
G1 X84.895 Y77.503 E0.04434
G1 X86.233 Y77.037 E0.04441
G1 X87.338 Y76.766 E0.03568
G1 X88.737 Y76.560 E0.04435
G1 X90.152 Y76.502 E0.04440
G1 X91.288 Y76.563 E0.03567
G1 X92.687 Y76.771 E0.04436
G1 X94.059 Y77.126 E0.04441
G1 X95.130 Y77.514 E0.03572
G1 X96.408 Y78.119 E0.04435
G1 X97.616 Y78.855 E0.04436
G1 X98.529 Y79.537 E0.03573
G1 X99.577 Y80.487 E0.04434
G1 X100.520 Y81.541 E0.04435
G1 X101.195 Y82.457 E0.03567
G1 X101.922 Y83.668 E0.04430
G1 X102.520 Y84.954 E0.04445
G1 X102.901 Y86.028 E0.03574
M73 P2 R16
G1 X103.245 Y87.396 E0.04423
G1 X103.445 Y88.798 E0.04439
G1 X103.498 Y89.938 E0.03580
G1 X103.431 Y91.347 E0.04422
G1 X103.216 Y92.747 E0.04442
G1 X102.937 Y93.852 E0.03573
G1 X102.462 Y95.186 E0.04440
G1 X101.851 Y96.462 E0.04435
G1 X101.265 Y97.437 E0.03567
G1 X100.426 Y98.574 E0.04430
G1 X99.469 Y99.620 E0.04445
G1 X98.625 Y100.383 E0.03567
G1 X97.491 Y101.229 E0.04436
G1 X96.274 Y101.952 E0.04440
G1 X95.242 Y102.438 E0.03575
G1 X93.914 Y102.918 E0.04428
G1 X92.541 Y103.257 E0.04435
G1 X91.412 Y103.424 E0.03579
G1 X89.988 Y103.498 E0.04471
G1 X88.560 Y103.421 E0.04483
G1 X87.166 Y103.197 E0.04428
G1 X86.059 Y102.910 E0.03585
G1 X84.732 Y102.427 E0.04430
G1 X83.460 Y101.808 E0.04434
G1 X82.486 Y101.213 E0.03579
G1 X81.357 Y100.368 E0.04423
G1 X80.320 Y99.408 E0.04430
G1 X79.558 Y98.554 E0.03589
G1 X78.721 Y97.416 E0.04429
G1 X78.006 Y96.193 E0.04442
G1 X77.527 Y95.161 E0.03566
G1 X77.056 Y93.827 E0.04436
G1 X76.726 Y92.450 E0.04441
G1 X76.567 Y91.324 E0.03566
G1 X76.502 Y89.911 E0.04436
G1 X76.585 Y88.499 E0.04434
G1 X76.760 Y87.371 E0.03580
G1 X77.107 Y86.001 E0.04429
G1 X77.597 Y84.673 E0.04441
G1 X78.090 Y83.647 E0.03567
G1 X78.819 Y82.437 E0.04429
G1 X79.673 Y81.307 E0.04441
G1 X80.374 Y80.542 E0.03254
M204 S1250
; printing object slide_filler_01.stl id:0 copy 0
G1 E-2.24000 F4200.000
;WIPE_START
G1 F7200.000
G1 X81.492 Y79.520 E-0.83966
G1 X81.598 Y79.443 E-0.07234
;WIPE_END
G1 E-0.04800 F4200.000
G1 Z0.400 F9000.000
G1 X83.770 Y84.576
G1 Z0.200
G1 E3.20000 F2400.000
M204 S800
;TYPE:Perimeter
G1 F1200.000
G1 X84.421 Y84.061 E0.02602
G1 X85.127 Y83.604 E0.02637
G1 X85.853 Y83.225 E0.02568
G1 X86.590 Y82.918 E0.02503
G1 X87.361 Y82.672 E0.02537
G1 X88.192 Y82.482 E0.02673
G1 X89.020 Y82.366 E0.02623
G1 X89.942 Y82.318 E0.02895
G1 X90.813 Y82.351 E0.02732
G1 X91.682 Y82.460 E0.02746
G1 X92.581 Y82.656 E0.02885
G1 X93.335 Y82.891 E0.02477
G1 X94.132 Y83.218 E0.02699
G1 X94.833 Y83.581 E0.02476
G1 X95.489 Y83.996 E0.02433
G1 X96.135 Y84.494 E0.02556
G1 X96.722 Y85.045 E0.02526
G1 X97.249 Y85.648 E0.02511
G1 X97.683 Y86.260 E0.02351
G1 X98.073 Y86.951 E0.02489
G1 X98.386 Y87.686 E0.02503
G1 X98.612 Y88.446 E0.02487
G1 X98.741 Y89.160 E0.02275
G1 X98.793 Y89.933 E0.02429
G1 X98.755 Y90.712 E0.02447
G1 X98.633 Y91.463 E0.02384
G1 X98.436 Y92.168 E0.02294
G1 X98.174 Y92.834 E0.02244
G1 X97.810 Y93.532 E0.02468
G1 X97.367 Y94.196 E0.02501
G1 X96.885 Y94.781 E0.02379
G1 X96.305 Y95.356 E0.02560
G1 X95.693 Y95.856 E0.02478
G1 X95.017 Y96.310 E0.02554
G1 X94.336 Y96.683 E0.02435
G1 X93.541 Y97.032 E0.02722
G1 X92.736 Y97.300 E0.02660
G1 X91.854 Y97.508 E0.02841
G1 X91.027 Y97.628 E0.02623
G1 X90.158 Y97.680 E0.02727
G1 X89.351 Y97.660 E0.02534
G1 X88.433 Y97.558 E0.02895
G1 X87.569 Y97.382 E0.02765
G1 X86.793 Y97.153 E0.02536
G1 X86.030 Y96.854 E0.02569
G1 X85.229 Y96.453 E0.02807
G1 X84.513 Y96.004 E0.02651
G1 X83.897 Y95.532 E0.02435
G1 X83.275 Y94.951 E0.02666
G1 X82.751 Y94.350 E0.02500
G1 X82.321 Y93.744 E0.02331
G1 X81.923 Y93.039 E0.02539
G1 X81.607 Y92.292 E0.02543
G1 X81.389 Y91.557 E0.02404
G1 X81.261 Y90.849 E0.02256
G1 X81.208 Y90.110 E0.02322
G1 X81.244 Y89.292 E0.02568
G1 X81.370 Y88.526 E0.02433
G1 X81.568 Y87.820 E0.02299
G1 X81.858 Y87.096 E0.02446
G1 X82.228 Y86.403 E0.02462
G1 X82.676 Y85.745 E0.02495
G1 X83.179 Y85.149 E0.02448
G1 X83.727 Y84.618 E0.02391
M204 S1250
G1 X83.989 Y84.888 F9000.000
M204 S800
;TYPE:External perimeter
G1 F1200.000
G1 X84.640 Y84.367 E0.02614
G1 X85.317 Y83.930 E0.02526
G1 X86.013 Y83.567 E0.02462
G1 X86.720 Y83.273 E0.02402
G1 X87.460 Y83.036 E0.02436
G1 X88.260 Y82.854 E0.02573
G1 X89.056 Y82.742 E0.02521
G1 X89.945 Y82.696 E0.02790
G1 X90.782 Y82.727 E0.02628
G1 X91.618 Y82.832 E0.02642
G1 X92.485 Y83.021 E0.02780
G1 X93.208 Y83.246 E0.02374
G1 X93.973 Y83.560 E0.02595
G1 X94.645 Y83.909 E0.02372
G1 X95.272 Y84.306 E0.02328
G1 X95.890 Y84.781 E0.02444
G1 X96.450 Y85.307 E0.02409
G1 X96.952 Y85.882 E0.02393
G1 X97.364 Y86.462 E0.02231
G1 X97.734 Y87.119 E0.02363
G1 X98.030 Y87.814 E0.02370
G1 X98.245 Y88.534 E0.02354
G1 X98.366 Y89.206 E0.02143
G1 X98.415 Y89.936 E0.02295
G1 X98.380 Y90.673 E0.02311
G1 X98.264 Y91.381 E0.02252
G1 X98.078 Y92.048 E0.02168
G1 X97.830 Y92.677 E0.02121
G1 X97.485 Y93.339 E0.02342
G1 X97.064 Y93.970 E0.02378
G1 X96.606 Y94.526 E0.02260
G1 X96.053 Y95.076 E0.02444
G1 X95.468 Y95.552 E0.02365
G1 X94.820 Y95.987 E0.02446
G1 X94.169 Y96.345 E0.02330
G1 X93.405 Y96.679 E0.02615
G1 X92.633 Y96.937 E0.02552
G1 X91.784 Y97.137 E0.02735
G1 X90.988 Y97.253 E0.02521
G1 X90.152 Y97.302 E0.02627
G1 X89.376 Y97.283 E0.02433
G1 X88.491 Y97.185 E0.02791
G1 X87.660 Y97.015 E0.02661
G1 X86.915 Y96.796 E0.02434
G1 X86.183 Y96.510 E0.02464
G1 X85.415 Y96.124 E0.02696
G1 X84.729 Y95.694 E0.02539
G1 X84.141 Y95.244 E0.02322
G1 X83.547 Y94.689 E0.02547
G1 X83.048 Y94.117 E0.02381
G1 X82.639 Y93.542 E0.02211
G1 X82.262 Y92.872 E0.02411
G1 X81.962 Y92.164 E0.02409
G1 X81.756 Y91.469 E0.02273
G1 X81.635 Y90.801 E0.02128
G1 X81.585 Y90.105 E0.02190
G1 X81.620 Y89.331 E0.02430
M73 P3 R16
G1 X81.738 Y88.608 E0.02297
G1 X81.925 Y87.941 E0.02170
G1 X82.200 Y87.255 E0.02317
G1 X82.551 Y86.599 E0.02334
G1 X82.977 Y85.974 E0.02371
G1 X83.456 Y85.406 E0.02328
G1 X83.946 Y84.930 E0.02144
M204 S1250
G1 X83.910 Y84.496 F9000.000
G1 E-2.24000 F4200.000
;WIPE_START
G1 F7200.000
G1 X84.640 Y84.367 E-0.49518
G1 X85.272 Y83.959 E-0.41682
;WIPE_END
G1 E-0.04800 F4200.000
G1 Z0.400 F9000.000
G1 X82.087 Y83.358
G1 Z0.200
G1 E3.20000 F2400.000
M204 S800
;TYPE:Perimeter
G1 F1200.000
G1 X82.286 Y83.123 E0.00965
G1 X82.868 Y82.521 E0.02629
G1 X83.275 Y82.153 E0.01720
G1 X83.701 Y81.807 E0.01720
G1 X84.385 Y81.324 E0.02623
G1 X84.853 Y81.038 E0.01720
G1 X85.339 Y80.776 E0.01732
G1 X85.839 Y80.540 E0.01732
G1 X86.347 Y80.333 E0.01720
G1 X87.141 Y80.069 E0.02623
G1 X87.672 Y79.931 E0.01720
G1 X88.213 Y79.821 E0.01732
G1 X88.760 Y79.740 E0.01732
G1 X89.310 Y79.688 E0.01732
G1 X89.862 Y79.666 E0.01733
G1 X90.409 Y79.674 E0.01714
G1 X91.244 Y79.741 E0.02629
G1 X91.787 Y79.821 E0.01720
G1 X92.325 Y79.930 E0.01720
G1 X93.131 Y80.151 E0.02623
G1 X93.650 Y80.331 E0.01720
G1 X94.158 Y80.539 E0.01720
G1 X94.909 Y80.906 E0.02623
G1 X95.385 Y81.179 E0.01720
G1 X95.849 Y81.480 E0.01732
G1 X96.296 Y81.804 E0.01733
G1 X96.725 Y82.153 E0.01732
G1 X97.134 Y82.523 E0.01732
G1 X97.524 Y82.915 E0.01732
G1 X97.892 Y83.327 E0.01732
G1 X98.235 Y83.756 E0.01720
G1 X98.713 Y84.442 E0.02623
G1 X98.995 Y84.912 E0.01720
G1 X99.254 Y85.400 E0.01732
G1 X99.487 Y85.902 E0.01733
G1 X99.690 Y86.409 E0.01714
G1 X99.950 Y87.207 E0.02629
G1 X100.084 Y87.738 E0.01720
G1 X100.190 Y88.281 E0.01732
G1 X100.268 Y88.828 E0.01732
G1 X100.315 Y89.374 E0.01720
G1 X100.332 Y90.211 E0.02623
G1 X100.306 Y90.759 E0.01720
G1 X100.251 Y91.305 E0.01720
G1 X100.112 Y92.129 E0.02623
G1 X99.985 Y92.663 E0.01720
G1 X99.830 Y93.189 E0.01720
G1 X99.539 Y93.974 E0.02623
G1 X99.315 Y94.474 E0.01720
G1 X99.063 Y94.966 E0.01732
G1 X98.784 Y95.443 E0.01732
G1 X98.481 Y95.905 E0.01733
G1 X98.153 Y96.350 E0.01732
G1 X97.806 Y96.772 E0.01714
G1 X97.231 Y97.382 E0.02629
G1 X96.829 Y97.756 E0.01720
G1 X96.406 Y98.109 E0.01727
G1 X95.962 Y98.441 E0.01738
G1 X95.506 Y98.745 E0.01720
G1 X94.780 Y99.162 E0.02623
G1 X94.287 Y99.402 E0.01720
G1 X93.782 Y99.617 E0.01720
G1 X92.992 Y99.891 E0.02623
G1 X92.463 Y100.036 E0.01720
G1 X91.923 Y100.153 E0.01732
G1 X91.377 Y100.241 E0.01732
G1 X90.828 Y100.300 E0.01732
G1 X90.276 Y100.330 E0.01732
G1 X89.728 Y100.330 E0.01720
G1 X88.893 Y100.274 E0.02623
G1 X88.349 Y100.201 E0.01720
G1 X87.806 Y100.098 E0.01732
G1 X87.270 Y99.967 E0.01732
G1 X86.741 Y99.806 E0.01732
G1 X86.221 Y99.618 E0.01732
G1 X85.716 Y99.404 E0.01720
G1 X84.970 Y99.027 E0.02623
G1 X84.498 Y98.747 E0.01720
G1 X84.038 Y98.441 E0.01732
G1 X83.595 Y98.110 E0.01732
G1 X83.171 Y97.756 E0.01732
G1 X82.766 Y97.380 E0.01733
G1 X82.386 Y96.987 E0.01714
G1 X81.845 Y96.347 E0.02629
G1 X81.519 Y95.905 E0.01720
G1 X81.218 Y95.446 E0.01720
G1 X80.806 Y94.718 E0.02623
G1 X80.569 Y94.224 E0.01720
G1 X80.356 Y93.714 E0.01732
G1 X80.172 Y93.193 E0.01733
G1 X80.017 Y92.669 E0.01714
G1 X79.833 Y91.851 E0.02629
G1 X79.749 Y91.308 E0.01720
G1 X79.694 Y90.759 E0.01732
G1 X79.668 Y90.207 E0.01732
G1 X79.672 Y89.654 E0.01732
G1 X79.705 Y89.103 E0.01733
G1 X79.767 Y88.559 E0.01714
G1 X79.917 Y87.735 E0.02629
G1 X80.051 Y87.203 E0.01720
G1 X80.215 Y86.675 E0.01732
G1 X80.407 Y86.157 E0.01733
G1 X80.624 Y85.655 E0.01714
G1 X81.007 Y84.909 E0.02629
G1 X81.289 Y84.439 E0.01720
G1 X81.599 Y83.981 E0.01732
G1 X82.048 Y83.404 E0.02293
M204 S1250
G1 X81.760 Y83.161 F9000.000
M204 S800
;TYPE:External perimeter
G1 F1200.000
G1 X82.006 Y82.870 E0.01193
G1 X82.606 Y82.249 E0.02708
G1 X83.030 Y81.866 E0.01791
G1 X83.473 Y81.506 E0.01791
G1 X84.177 Y81.009 E0.02702
G1 X84.665 Y80.711 E0.01791
G1 X85.169 Y80.439 E0.01796
G1 X85.687 Y80.195 E0.01796
G1 X86.216 Y79.979 E0.01791
G1 X87.034 Y79.707 E0.02702
G1 X87.587 Y79.564 E0.01791
G1 X88.148 Y79.449 E0.01796
G1 X88.714 Y79.366 E0.01796
G1 X89.285 Y79.312 E0.01796
G1 X89.857 Y79.289 E0.01796
G1 X90.426 Y79.297 E0.01785
G1 X91.287 Y79.366 E0.02708
G1 X91.852 Y79.449 E0.01791
G1 X92.412 Y79.563 E0.01791
G1 X93.243 Y79.791 E0.02702
G1 X93.783 Y79.978 E0.01791
G1 X94.312 Y80.194 E0.01791
G1 X95.086 Y80.573 E0.02702
G1 X95.581 Y80.857 E0.01791
G1 X96.062 Y81.169 E0.01796
G1 X96.525 Y81.505 E0.01796
G1 X96.970 Y81.866 E0.01796
G1 X97.395 Y82.250 E0.01796
G1 X97.798 Y82.657 E0.01796
G1 X98.180 Y83.084 E0.01796
G1 X98.537 Y83.530 E0.01791
G1 X99.029 Y84.237 E0.02702
G1 X99.324 Y84.727 E0.01791
G1 X99.592 Y85.233 E0.01796
G1 X99.833 Y85.752 E0.01796
G1 X100.045 Y86.281 E0.01785
G1 X100.312 Y87.102 E0.02708
G1 X100.452 Y87.656 E0.01791
G1 X100.562 Y88.218 E0.01796
G1 X100.642 Y88.785 E0.01796
G1 X100.692 Y89.354 E0.01791
G1 X100.709 Y90.216 E0.02702
G1 X100.682 Y90.786 E0.01791
G1 X100.625 Y91.355 E0.01791
G1 X100.482 Y92.205 E0.02702
G1 X100.350 Y92.760 E0.01791
G1 X100.188 Y93.308 E0.01791
G1 X99.889 Y94.116 E0.02702
G1 X99.655 Y94.638 E0.01791
G1 X99.393 Y95.147 E0.01796
G1 X99.105 Y95.642 E0.01796
G1 X98.790 Y96.121 E0.01796
G1 X98.450 Y96.582 E0.01796
G1 X98.089 Y97.021 E0.01785
G1 X97.497 Y97.650 E0.02708
G1 X97.078 Y98.039 E0.01791
G1 X96.640 Y98.405 E0.01790
G1 X96.180 Y98.749 E0.01802
G1 X95.704 Y99.066 E0.01791
G1 X94.957 Y99.495 E0.02702
G1 X94.444 Y99.746 E0.01791
G1 X93.918 Y99.969 E0.01791
G1 X93.104 Y100.251 E0.02702
G1 X92.553 Y100.402 E0.01791
G1 X91.993 Y100.524 E0.01796
G1 X91.428 Y100.615 E0.01796
G1 X90.858 Y100.676 E0.01796
G1 X90.286 Y100.707 E0.01796
G1 X89.715 Y100.707 E0.01791
G1 X88.855 Y100.650 E0.02702
G1 X88.289 Y100.573 E0.01791
G1 X87.726 Y100.467 E0.01796
G1 X87.170 Y100.330 E0.01796
G1 X86.622 Y100.164 E0.01796
G1 X86.084 Y99.969 E0.01796
G1 X85.558 Y99.746 E0.01791
G1 X84.788 Y99.358 E0.02702
G1 X84.297 Y99.066 E0.01791
G1 X83.820 Y98.749 E0.01796
G1 X83.362 Y98.406 E0.01796
G1 X82.922 Y98.039 E0.01796
G1 X82.502 Y97.649 E0.01796
G1 X82.106 Y97.240 E0.01785
G1 X81.549 Y96.580 E0.02708
G1 X81.210 Y96.120 E0.01791
G1 X80.896 Y95.643 E0.01791
G1 X80.472 Y94.893 E0.02702
G1 X80.224 Y94.378 E0.01791
G1 X80.004 Y93.849 E0.01796
G1 X79.813 Y93.310 E0.01796
G1 X79.651 Y92.763 E0.01785
G1 X79.462 Y91.921 E0.02708
G1 X79.375 Y91.356 E0.01791
G1 X79.318 Y90.786 E0.01796
G1 X79.291 Y90.214 E0.01796
G1 X79.295 Y89.642 E0.01796
G1 X79.329 Y89.070 E0.01796
G1 X79.394 Y88.504 E0.01785
G1 X79.548 Y87.655 E0.02708
G1 X79.688 Y87.101 E0.01791
G1 X79.858 Y86.554 E0.01796
G1 X80.057 Y86.016 E0.01796
G1 X80.282 Y85.494 E0.01785
G1 X80.677 Y84.725 E0.02708
G1 X80.971 Y84.236 E0.01791
G1 X81.292 Y83.762 E0.01796
G1 X81.722 Y83.207 E0.02200
M204 S1250
G1 X82.136 Y83.220 F9000.000
G1 E-2.24000 F4200.000
;WIPE_START
G1 F7200.000
G1 X82.006 Y82.870 E-0.24406
G1 X82.606 Y82.249 E-0.47858
G1 X82.860 Y82.020 E-0.18935
;WIPE_END
G1 E-0.04800 F4200.000
G1 Z0.400 F9000.000
G1 X95.779 Y81.569
G1 Z0.200
