; generated by PrusaSlicer 2.3.0+win64 on 2021-03-08 at 08:20:49 UTC


;
;

;
;
; 

; external perimeters extrusion width = 0.45mm
; perimeters extrusion width = 0.45mm
; infill extrusion width = 0.45mm
; solid infill extrusion width = 0.45mm
; top infill extrusion width = 0.40mm
; first layer extrusion width = 0.42mm

M73 P0 R23
M201 X1250 Y1250 Z400 E5000 ; sets maximum accelerations, mm/sec^2
M203 X180 Y180 Z12 E80 ; sets maximum feedrates, mm/sec
M204 P1250 R1250 T1250 ; sets acceleration (P, T) and retract acceleration (R), mm/sec^2
M205 X8.00 Y8.00 Z2.00 E10.00 ; sets the jerk limits, mm/sec
M205 S0 T0 ; sets the minimum extruding and travel feed rate, mm/sec
M107
;TYPE:Custom
G90 ; use absolute coordinates
M83 ; extruder relative mode
M104 S170 ; set extruder temp for bed leveling
M140 S60 ; set bed temp
M109 R170 ; wait for bed leveling temp
M190 S60 ; wait for bed temp
G28 ; home all without mesh bed level
G29 ; mesh bed leveling 
M104 S215 ; set extruder temp
G92 E0.0
G1 Y-2.0 X179 F2400
G1 Z3 F720
M109 S215 ; wait for extruder temp

; intro line
G1 X170 F1000
G1 Z0.2 F720
G1 X110.0 E8.0 F900
G1 X40.0 E10.0 F700
G92 E0.0

M221 S95 ; set flow
G21 ; set units to millimeters
G90 ; use absolute coordinates
M83 ; use relative distances for extrusion
M900 K0.2 ; Filament gcode LA 1.5
; ; Filament gcode LA 1.0
;LAYER_CHANGE
;Z:0.2
;HEIGHT:0.2
;BEFORE_LAYER_CHANGE
G92 E0.0
;0.2


M73 P1 R23
G1 E-3.20000 F4200.000
G1 Z0.200 F9000.000
;AFTER_LAYER_CHANGE
;0.2
G1 Z0.400
G1 X80.312 Y80.258
G1 Z0.200
G1 E3.20000 F2400.000
M204 S800
;TYPE:Skirt
;WIDTH:0.42
G1 F1200.000
G1 X81.391 Y79.292 E0.04541
G1 X82.353 Y78.585 E0.03744
G1 X83.582 Y77.852 E0.04488
G1 X84.893 Y77.245 E0.04528
G1 X86.024 Y76.849 E0.03757
G1 X87.409 Y76.507 E0.04475
G1 X88.566 Y76.336 E0.03667
G1 X90.013 Y76.261 E0.04541
G1 X91.438 Y76.336 E0.04475
G1 X92.619 Y76.513 E0.03744
G1 X94.024 Y76.863 E0.04541
G1 X95.369 Y77.353 E0.04488
G1 X96.447 Y77.867 E0.03744
G1 X97.671 Y78.601 E0.04475
G1 X98.612 Y79.295 E0.03667
G1 X99.691 Y80.261 E0.04541
G1 X100.649 Y81.319 E0.04475
G1 X101.363 Y82.276 E0.03744
G1 X102.113 Y83.515 E0.04541
G1 X102.722 Y84.811 E0.04488
G1 X103.124 Y85.935 E0.03744
G1 X103.476 Y87.323 E0.04488
G1 X103.683 Y88.756 E0.04541
G1 X103.739 Y89.936 E0.03705
G1 X103.673 Y91.350 E0.04436
G1 X103.504 Y92.532 E0.03744
G1 X103.164 Y93.935 E0.04528
G1 X102.683 Y95.284 E0.04488
G1 X102.176 Y96.365 E0.03744
G1 X101.448 Y97.597 E0.04488
G1 X100.584 Y98.760 E0.04541
G1 X99.793 Y99.637 E0.03705
G1 X98.727 Y100.612 E0.04527
G1 X97.565 Y101.469 E0.04528
G1 X96.541 Y102.083 E0.03744
G1 X95.260 Y102.693 E0.04449
G1 X94.149 Y103.098 E0.03706
G1 X92.735 Y103.464 E0.04580
G1 X91.320 Y103.676 E0.04487
G1 X90.000 Y103.739 E0.04143
G1 X88.680 Y103.676 E0.04143
G1 X87.265 Y103.464 E0.04488
G1 X86.118 Y103.179 E0.03706
G1 X84.740 Y102.693 E0.04580
G1 X83.459 Y102.083 E0.04449
G1 X82.435 Y101.469 E0.03744
G1 X81.273 Y100.612 E0.04528
G1 X80.208 Y99.637 E0.04526
G1 X79.413 Y98.757 E0.03719
G1 X78.552 Y97.597 E0.04528
G1 X77.824 Y96.365 E0.04488
G1 X77.317 Y95.284 E0.03743
G1 X76.836 Y93.935 E0.04489
G1 X76.495 Y92.528 E0.04541
G1 X76.327 Y91.346 E0.03743
G1 X76.261 Y89.923 E0.04465
G1 X76.318 Y88.752 E0.03677
G1 X76.525 Y87.319 E0.04541
G1 X76.876 Y85.935 E0.04475
G1 X77.278 Y84.811 E0.03743
G1 X77.887 Y83.515 E0.04489
G1 X78.637 Y82.277 E0.04541
G1 X79.351 Y81.319 E0.03744
G1 X80.271 Y80.303 E0.04300
M204 S1250
G1 X80.550 Y80.555 F9000.000
M204 S800
G1 F1200.000
G1 X81.630 Y79.584 E0.04553
G1 X82.559 Y78.901 E0.03614
G1 X83.758 Y78.185 E0.04380
G1 X85.036 Y77.594 E0.04416
G1 X86.124 Y77.212 E0.03613
G1 X87.479 Y76.878 E0.04376
G1 X88.602 Y76.711 E0.03560
G1 X90.008 Y76.638 E0.04415
G1 X91.402 Y76.712 E0.04376
G1 X92.542 Y76.882 E0.03614
G1 X93.898 Y77.219 E0.04380
G1 X95.221 Y77.700 E0.04417
G1 X96.265 Y78.198 E0.03626
G1 X97.459 Y78.913 E0.04363
G1 X98.370 Y79.584 E0.03547
G1 X99.422 Y80.525 E0.04427
G1 X100.359 Y81.560 E0.04376
G1 X101.051 Y82.489 E0.03631
G1 X101.781 Y83.694 E0.04416
G1 X102.374 Y84.957 E0.04375
G1 X102.761 Y86.038 E0.03600
G1 X103.106 Y87.396 E0.04394
G1 X103.307 Y88.790 E0.04417
G1 X103.362 Y89.934 E0.03590
G1 X103.297 Y91.316 E0.04340
G1 X103.135 Y92.455 E0.03607
G1 X102.802 Y93.828 E0.04429
G1 X102.333 Y95.142 E0.04375
G1 X101.846 Y96.182 E0.03601
G1 X101.134 Y97.389 E0.04394
G1 X100.294 Y98.519 E0.04416
G1 X99.527 Y99.369 E0.03589
G1 X98.488 Y100.320 E0.04418
G1 X97.354 Y101.156 E0.04417
G1 X96.366 Y101.748 E0.03612
G1 X95.113 Y102.346 E0.04353
G1 X93.772 Y102.819 E0.04457
G1 X92.665 Y103.094 E0.03577
G1 X91.281 Y103.301 E0.04388
G1 X89.999 Y103.362 E0.04025
G1 X88.721 Y103.301 E0.04009
G1 X87.337 Y103.094 E0.04389
G1 X85.961 Y102.737 E0.04458
G1 X84.885 Y102.345 E0.03590
G1 X83.614 Y101.738 E0.04416
G1 X82.414 Y101.000 E0.04416
G1 X81.495 Y100.306 E0.03612
G1 X80.474 Y99.371 E0.04341
G1 X79.706 Y98.519 E0.03596
G1 X78.866 Y97.389 E0.04417
G1 X78.156 Y96.187 E0.04375
G1 X77.668 Y95.144 E0.03612
G1 X77.194 Y93.816 E0.04422
G1 X76.866 Y92.459 E0.04377
G1 X76.703 Y91.314 E0.03626
G1 X76.638 Y89.926 E0.04355
G1 X76.693 Y88.790 E0.03567
G1 X76.895 Y87.392 E0.04429
G1 X77.237 Y86.043 E0.04363
G1 X77.628 Y84.953 E0.03631
G1 X78.225 Y83.682 E0.04403
G1 X78.951 Y82.486 E0.04388
G1 X79.639 Y81.562 E0.03613
G1 X80.510 Y80.600 E0.04069
M204 S1250
; printing object slide_filler_02.stl id:0 copy 0
G1 E-2.24000 F4200.000
;WIPE_START
G1 F7200.000
G1 X81.630 Y79.584 E-0.83787
G1 X81.738 Y79.505 E-0.07413
;WIPE_END
G1 E-0.04800 F4200.000
G1 Z0.400 F9000.000
G1 X83.649 Y84.421
G1 Z0.200
G1 E3.20000 F2400.000
M204 S800
;TYPE:Perimeter
G1 F1200.000
G1 X84.200 Y83.968 E0.02238
G1 X84.815 Y83.554 E0.02324
G1 X85.634 Y83.103 E0.02930
G1 X86.508 Y82.731 E0.02978
G1 X87.424 Y82.444 E0.03011
G1 X88.142 Y82.284 E0.02307
G1 X88.872 Y82.177 E0.02313
G1 X89.842 Y82.116 E0.03047
G1 X90.584 Y82.131 E0.02327
G1 X91.553 Y82.233 E0.03054
G1 X92.278 Y82.371 E0.02317
G1 X93.199 Y82.629 E0.02998
G1 X93.874 Y82.881 E0.02261
G1 X94.725 Y83.287 E0.02956
G1 X95.519 Y83.770 E0.02913
G1 X96.244 Y84.318 E0.02849
G1 X96.896 Y84.931 E0.02804
G1 X97.450 Y85.574 E0.02662
G1 X97.829 Y86.110 E0.02059
G1 X98.246 Y86.843 E0.02644
G1 X98.506 Y87.428 E0.02007
G1 X98.765 Y88.216 E0.02601
G1 X98.929 Y89.026 E0.02591
G1 X98.996 Y89.846 E0.02581
G1 X98.965 Y90.668 E0.02577
G1 X98.847 Y91.437 E0.02441
G1 X98.629 Y92.235 E0.02594
G1 X98.399 Y92.830 E0.02000
G1 X98.017 Y93.584 E0.02651
G1 X97.542 Y94.305 E0.02707
G1 X96.982 Y94.977 E0.02743
G1 X96.501 Y95.455 E0.02126
G1 X95.804 Y96.028 E0.02829
G1 X95.031 Y96.540 E0.02905
G1 X94.200 Y96.975 E0.02943
G1 X93.536 Y97.252 E0.02256
G1 X92.625 Y97.543 E0.02997
G1 X91.908 Y97.706 E0.02308
G1 X91.179 Y97.818 E0.02311
G1 X90.209 Y97.884 E0.03047
G1 X89.468 Y97.872 E0.02325
G1 X88.516 Y97.777 E0.03000
G1 X87.789 Y97.644 E0.02316
G1 X86.865 Y97.392 E0.03003
G1 X86.186 Y97.144 E0.02266
G1 X85.333 Y96.744 E0.02954
G1 X84.535 Y96.267 E0.02917
G1 X83.809 Y95.725 E0.02841
G1 X83.302 Y95.269 E0.02136
G1 X82.712 Y94.628 E0.02734
G1 X82.197 Y93.930 E0.02719
G1 X81.773 Y93.195 E0.02660
G1 X81.509 Y92.611 E0.02011
G1 X81.246 Y91.825 E0.02598
M73 P2 R23
G1 X81.077 Y91.015 E0.02593
G1 X81.005 Y90.195 E0.02580
G1 X81.031 Y89.373 E0.02581
G1 X81.154 Y88.556 E0.02589
G1 X81.373 Y87.758 E0.02597
G1 X81.604 Y87.163 E0.02001
G1 X81.987 Y86.409 E0.02651
G1 X82.464 Y85.688 E0.02709
G1 X83.024 Y85.017 E0.02742
G1 X83.602 Y84.459 E0.02519
M204 S1250
G1 X83.842 Y84.751 F9000.000
M204 S800
;TYPE:External perimeter
G1 F1200.000
G1 X84.426 Y84.271 E0.02371
G1 X85.011 Y83.876 E0.02215
G1 X85.799 Y83.443 E0.02817
G1 X86.638 Y83.085 E0.02860
G1 X87.521 Y82.809 E0.02902
G1 X88.210 Y82.656 E0.02214
G1 X88.911 Y82.552 E0.02221
G1 X89.850 Y82.493 E0.02948
G1 X90.560 Y82.508 E0.02228
G1 X91.497 Y82.606 E0.02955
G1 X92.192 Y82.739 E0.02217
G1 X93.082 Y82.987 E0.02897
G1 X93.727 Y83.229 E0.02159
G1 X94.546 Y83.620 E0.02845
G1 X95.307 Y84.082 E0.02792
G1 X96.000 Y84.607 E0.02726
G1 X96.623 Y85.192 E0.02679
G1 X97.152 Y85.807 E0.02544
G1 X97.510 Y86.313 E0.01945
G1 X97.910 Y87.013 E0.02527
G1 X98.154 Y87.564 E0.01888
G1 X98.400 Y88.312 E0.02471
G1 X98.555 Y89.079 E0.02451
G1 X98.618 Y89.855 E0.02441
G1 X98.589 Y90.632 E0.02438
G1 X98.478 Y91.358 E0.02305
G1 X98.271 Y92.117 E0.02466
G1 X98.055 Y92.676 E0.01880
G1 X97.690 Y93.394 E0.02524
G1 X97.238 Y94.080 E0.02574
G1 X96.704 Y94.722 E0.02621
G1 X96.248 Y95.175 E0.02015
G1 X95.580 Y95.725 E0.02712
G1 X94.839 Y96.214 E0.02784
G1 X94.039 Y96.634 E0.02831
G1 X93.406 Y96.898 E0.02153
G1 X92.526 Y97.179 E0.02896
G1 X91.837 Y97.336 E0.02214
G1 X91.137 Y97.442 E0.02219
G1 X90.199 Y97.506 E0.02948
G1 X89.489 Y97.495 E0.02227
G1 X88.568 Y97.404 E0.02902
G1 X87.873 Y97.276 E0.02217
G1 X86.980 Y97.033 E0.02903
G1 X86.332 Y96.795 E0.02164
G1 X85.511 Y96.410 E0.02843
G1 X84.745 Y95.953 E0.02797
G1 X84.048 Y95.433 E0.02726
G1 X83.568 Y95.001 E0.02026
G1 X83.003 Y94.387 E0.02614
G1 X82.513 Y93.723 E0.02588
G1 X82.109 Y93.023 E0.02535
G1 X81.860 Y92.473 E0.01893
G1 X81.610 Y91.726 E0.02469
G1 X81.451 Y90.960 E0.02453
G1 X81.383 Y90.185 E0.02440
G1 X81.407 Y89.407 E0.02440
G1 X81.523 Y88.635 E0.02449
G1 X81.732 Y87.876 E0.02467
G1 X81.949 Y87.317 E0.01881
G1 X82.314 Y86.599 E0.02525
G1 X82.767 Y85.914 E0.02576
G1 X83.302 Y85.272 E0.02620
G1 X83.795 Y84.789 E0.02165
M204 S1250
G1 X83.759 Y84.360 F9000.000
G1 E-2.24000 F4200.000
;WIPE_START
G1 F7200.000
G1 X84.426 Y84.271 E-0.45224
G1 X85.011 Y83.876 E-0.39145
G1 X85.119 Y83.816 E-0.06831
;WIPE_END
G1 E-0.04800 F4200.000
G1 Z0.400 F9000.000
G1 X82.206 Y83.429
G1 Z0.200
G1 E3.20000 F2400.000
M204 S800
;TYPE:Perimeter
G1 F1200.000
G1 X82.813 Y82.765 E0.02821
G1 X83.214 Y82.388 E0.01724
G1 X83.630 Y82.036 E0.01707
G1 X84.303 Y81.542 E0.02620
G1 X84.763 Y81.250 E0.01707
G1 X85.242 Y80.980 E0.01724
G1 X85.735 Y80.737 E0.01724
G1 X86.236 Y80.522 E0.01707
G1 X87.024 Y80.246 E0.02620
G1 X87.549 Y80.101 E0.01707
G1 X88.086 Y79.983 E0.01724
G1 X88.629 Y79.895 E0.01724
G1 X89.174 Y79.835 E0.01720
G1 X89.725 Y79.806 E0.01729
G1 X90.275 Y79.806 E0.01724
G1 X90.824 Y79.835 E0.01724
G1 X91.371 Y79.895 E0.01724
G1 X91.914 Y79.983 E0.01724
G1 X92.451 Y80.101 E0.01724
G1 X92.982 Y80.248 E0.01729
G1 X93.499 Y80.421 E0.01707
G1 X94.268 Y80.738 E0.02611
G1 X94.759 Y80.981 E0.01716
G1 X95.234 Y81.248 E0.01707
G1 X95.927 Y81.702 E0.02598
G1 X96.581 Y82.210 E0.02598
G1 X96.989 Y82.574 E0.01712
G1 X97.379 Y82.961 E0.01724
G1 X97.748 Y83.369 E0.01724
G1 X98.094 Y83.796 E0.01724
G1 X98.418 Y84.243 E0.01729
G1 X98.715 Y84.704 E0.01720
G1 X98.988 Y85.181 E0.01724
G1 X99.233 Y85.669 E0.01712
G1 X99.556 Y86.438 E0.02615
G1 X99.733 Y86.955 E0.01712
G1 X99.881 Y87.479 E0.01707
G1 X100.054 Y88.293 E0.02611
G1 X100.131 Y88.834 E0.01712
G1 X100.179 Y89.379 E0.01716
G1 X100.196 Y90.210 E0.02606
G1 X100.170 Y90.756 E0.01712
G1 X100.114 Y91.303 E0.01724
G1 X100.029 Y91.847 E0.01729
G1 X99.916 Y92.380 E0.01707
G1 X99.689 Y93.181 E0.02611
G1 X99.505 Y93.695 E0.01712
G1 X99.292 Y94.202 E0.01724
G1 X99.051 Y94.698 E0.01729
G1 X98.787 Y95.175 E0.01707
G1 X98.336 Y95.874 E0.02611
G1 X98.010 Y96.312 E0.01712
G1 X97.660 Y96.732 E0.01712
G1 X97.088 Y97.331 E0.02598
G1 X96.470 Y97.883 E0.02598
G1 X96.039 Y98.218 E0.01712
G1 X95.591 Y98.528 E0.01707
G1 X94.874 Y98.958 E0.02620
G1 X94.389 Y99.205 E0.01707
G1 X93.887 Y99.428 E0.01724
G1 X93.373 Y99.624 E0.01724
G1 X92.854 Y99.790 E0.01707
G1 X92.043 Y99.991 E0.02620
G1 X91.507 Y100.086 E0.01707
G1 X90.961 Y100.153 E0.01724
G1 X90.412 Y100.190 E0.01724
G1 X89.867 Y100.197 E0.01710
G1 X89.035 Y100.152 E0.02613
G1 X88.493 Y100.086 E0.01712
G1 X87.957 Y99.991 E0.01707
G1 X87.146 Y99.790 E0.02620
G1 X86.627 Y99.624 E0.01707
G1 X86.113 Y99.428 E0.01724
G1 X85.611 Y99.205 E0.01724
G1 X85.121 Y98.955 E0.01724
G1 X84.645 Y98.679 E0.01724
G1 X84.190 Y98.381 E0.01707
G1 X83.523 Y97.877 E0.02620
G1 X83.112 Y97.520 E0.01707
G1 X82.719 Y97.141 E0.01712
G1 X82.160 Y96.522 E0.02615
G1 X81.823 Y96.094 E0.01707
G1 X81.506 Y95.644 E0.01724
G1 X81.214 Y95.178 E0.01724
G1 X80.951 Y94.702 E0.01707
G1 X80.596 Y93.945 E0.02620
G1 X80.399 Y93.438 E0.01707
G1 X80.228 Y92.915 E0.01724
G1 X80.085 Y92.384 E0.01724
G1 X79.972 Y91.851 E0.01707
G1 X79.854 Y91.024 E0.02620
G1 X79.813 Y90.481 E0.01707
G1 X79.802 Y89.931 E0.01724
G1 X79.821 Y89.382 E0.01724
G1 X79.868 Y88.839 E0.01707
G1 X79.997 Y88.014 E0.02620
G1 X80.118 Y87.483 E0.01707
G1 X80.268 Y86.953 E0.01724
G1 X80.446 Y86.433 E0.01724
G1 X80.650 Y85.928 E0.01707
G1 X81.015 Y85.177 E0.02620
G1 X81.285 Y84.704 E0.01707
G1 X81.581 Y84.245 E0.01712
G1 X82.167 Y83.474 E0.03036
M204 S1250
G1 X81.881 Y83.229 F9000.000
M204 S800
;TYPE:External perimeter
G1 F1200.000
G1 X82.154 Y82.910 E0.01318
G1 X82.547 Y82.497 E0.01788
G1 X82.963 Y82.106 E0.01788
G1 X83.396 Y81.740 E0.01779
G1 X84.090 Y81.230 E0.02700
G1 X84.569 Y80.926 E0.01779
G1 X85.066 Y80.646 E0.01788
G1 X85.577 Y80.394 E0.01788
G1 X86.099 Y80.171 E0.01779
G1 X86.912 Y79.886 E0.02700
G1 X87.459 Y79.735 E0.01779
G1 X88.016 Y79.613 E0.01788
G1 X88.578 Y79.521 E0.01788
G1 X89.144 Y79.459 E0.01783
G1 X89.715 Y79.429 E0.01793
G1 X90.285 Y79.429 E0.01788
G1 X90.855 Y79.459 E0.01788
G1 X91.422 Y79.521 E0.01788
G1 X91.984 Y79.613 E0.01788
G1 X92.541 Y79.735 E0.01788
G1 X93.093 Y79.887 E0.01793
G1 X93.630 Y80.068 E0.01779
G1 X94.424 Y80.395 E0.02691
G1 X94.935 Y80.647 E0.01788
G1 X95.430 Y80.925 E0.01779
G1 X96.146 Y81.395 E0.02686
G1 X96.823 Y81.920 E0.02686
G1 X97.248 Y82.299 E0.01784
G1 X97.652 Y82.701 E0.01788
G1 X98.035 Y83.124 E0.01788
G1 X98.394 Y83.567 E0.01788
G1 X98.729 Y84.030 E0.01793
G1 X99.037 Y84.508 E0.01783
G1 X99.320 Y85.003 E0.01788
G1 X99.575 Y85.512 E0.01784
G1 X99.908 Y86.304 E0.02695
G1 X100.093 Y86.842 E0.01784
G1 X100.248 Y87.388 E0.01779
M73 P2 R22
G1 X100.426 Y88.227 E0.02691
G1 X100.506 Y88.791 E0.01784
G1 X100.556 Y89.359 E0.01788
G1 X100.573 Y90.215 E0.02686
G1 X100.546 Y90.784 E0.01784
G1 X100.489 Y91.351 E0.01788
G1 X100.400 Y91.916 E0.01793
G1 X100.282 Y92.471 E0.01779
G1 X100.048 Y93.296 E0.02691
G1 X99.857 Y93.832 E0.01784
G1 X99.636 Y94.358 E0.01788
G1 X99.386 Y94.872 E0.01793
G1 X99.111 Y95.368 E0.01779
G1 X98.646 Y96.090 E0.02691
G1 X98.306 Y96.546 E0.01784
G1 X97.942 Y96.983 E0.01784
G1 X97.351 Y97.603 E0.02686
G1 X96.711 Y98.173 E0.02686
G1 X96.262 Y98.522 E0.01784
G1 X95.796 Y98.845 E0.01779
G1 X95.057 Y99.288 E0.02700
G1 X94.552 Y99.546 E0.01779
G1 X94.030 Y99.777 E0.01788
G1 X93.498 Y99.980 E0.01788
G1 X92.957 Y100.153 E0.01779
G1 X92.121 Y100.360 E0.02700
G1 X91.563 Y100.459 E0.01779
G1 X90.997 Y100.528 E0.01788
G1 X90.428 Y100.567 E0.01788
G1 X89.859 Y100.574 E0.01782
G1 X89.002 Y100.528 E0.02693
G1 X88.437 Y100.459 E0.01784
G1 X87.879 Y100.360 E0.01779
G1 X87.043 Y100.153 E0.02700
G1 X86.502 Y99.980 E0.01779
G1 X85.970 Y99.777 E0.01788
G1 X85.448 Y99.546 E0.01788
G1 X84.940 Y99.286 E0.01788
G1 X84.447 Y99.000 E0.01788
G1 X83.972 Y98.689 E0.01779
G1 X83.286 Y98.170 E0.02700
G1 X82.857 Y97.798 E0.01779
G1 X82.448 Y97.403 E0.01784
G1 X81.872 Y96.765 E0.02695
G1 X81.521 Y96.319 E0.01779
G1 X81.192 Y95.853 E0.01788
G1 X80.889 Y95.370 E0.01788
G1 X80.615 Y94.873 E0.01779
G1 X80.249 Y94.094 E0.02700
G1 X80.044 Y93.565 E0.01779
G1 X79.866 Y93.023 E0.01788
G1 X79.718 Y92.472 E0.01788
G1 X79.600 Y91.917 E0.01779
G1 X79.479 Y91.065 E0.02700
G1 X79.437 Y90.499 E0.01779
G1 X79.425 Y89.929 E0.01788
G1 X79.444 Y89.359 E0.01788
G1 X79.494 Y88.794 E0.01779
G1 X79.627 Y87.943 E0.02700
G1 X79.752 Y87.389 E0.01779
G1 X79.908 Y86.841 E0.01788
G1 X80.093 Y86.301 E0.01788
G1 X80.305 Y85.775 E0.01779
G1 X80.681 Y85.001 E0.02700
G1 X80.963 Y84.508 E0.01779
G1 X81.271 Y84.030 E0.01784
G1 X81.842 Y83.275 E0.02968
M204 S1250
G1 X82.276 Y83.291 F9000.000
G1 E-2.24000 F4200.000
;WIPE_START
G1 F7200.000
G1 X82.154 Y82.910 E-0.26613
G1 X82.547 Y82.497 E-0.31603
G1 X82.963 Y82.106 E-0.31604
G1 X82.982 Y82.090 E-0.01380
;WIPE_END
G1 E-0.04800 F4200.000
G1 Z0.400 F9000.000
G1 X95.710 Y81.694
G1 Z0.200
G1 E3.20000 F2400.000
M204 S800
;TYPE:Solid infill
;WIDTH:0.424127
G1 F1200.000
G1 X97.202 Y83.187 E0.06692
