; generated by PrusaSlicer 2.3.0+win64 on 2021-03-08 at 16:09:38 UTC


;
;

;
;
; 

; external perimeters extrusion width = 0.45mm
; perimeters extrusion width = 0.45mm
; infill extrusion width = 0.45mm
; solid infill extrusion width = 0.45mm
; top infill extrusion width = 0.40mm
; first layer extrusion width = 0.42mm

M73 P0 R38
M201 X1250 Y1250 Z400 E5000 ; sets maximum accelerations, mm/sec^2
M203 X180 Y180 Z12 E80 ; sets maximum feedrates, mm/sec
M204 P1250 R1250 T1250 ; sets acceleration (P, T) and retract acceleration (R), mm/sec^2
M205 X8.00 Y8.00 Z2.00 E10.00 ; sets the jerk limits, mm/sec
M205 S0 T0 ; sets the minimum extruding and travel feed rate, mm/sec
M107
;TYPE:Custom
G90 ; use absolute coordinates
M83 ; extruder relative mode
M104 S170 ; set extruder temp for bed leveling
M140 S60 ; set bed temp
M109 R170 ; wait for bed leveling temp
M190 S60 ; wait for bed temp
G28 ; home all without mesh bed level
G29 ; mesh bed leveling 
M104 S215 ; set extruder temp
G92 E0.0
G1 Y-2.0 X179 F2400
G1 Z3 F720
M109 S215 ; wait for extruder temp

; intro line
G1 X170 F1000
G1 Z0.2 F720
G1 X110.0 E8.0 F900
G1 X40.0 E10.0 F700
G92 E0.0

M221 S95 ; set flow
G21 ; set units to millimeters
G90 ; use absolute coordinates
M83 ; use relative distances for extrusion
M900 K0.2 ; Filament gcode LA 1.5
; ; Filament gcode LA 1.0
;LAYER_CHANGE
;Z:0.2
;HEIGHT:0.2
;BEFORE_LAYER_CHANGE
G92 E0.0
;0.2


G1 E-3.20000 F4200.000
G1 Z0.200 F9000.000
;AFTER_LAYER_CHANGE
;0.2
G1 Z0.400
G1 X80.570 Y80.518
G1 Z0.200
G1 E3.20000 F2400.000
M204 S800
;TYPE:Skirt
;WIDTH:0.42
G1 F1200.000
G1 X81.620 Y79.579 E0.04418
G1 X82.544 Y78.899 E0.03597
G1 X83.753 Y78.176 E0.04418
G1 X85.028 Y77.586 E0.04405
G1 X86.114 Y77.204 E0.03609
G1 X87.478 Y76.867 E0.04405
G1 X88.589 Y76.702 E0.03521
G1 X89.995 Y76.627 E0.04416
G1 X91.398 Y76.701 E0.04405
G1 X92.533 Y76.869 E0.03597
G1 X93.901 Y77.209 E0.04418
G1 X95.221 Y77.689 E0.04405
G1 X96.260 Y78.183 E0.03609
G1 X97.466 Y78.905 E0.04405
G1 X98.370 Y79.571 E0.03521
G1 X99.421 Y80.509 E0.04416
G1 X100.364 Y81.550 E0.04405
G1 X101.050 Y82.469 E0.03597
G1 X101.782 Y83.674 E0.04418
G1 X102.382 Y84.948 E0.04418
G1 X102.769 Y86.028 E0.03597
G1 X103.116 Y87.394 E0.04418
G1 X103.318 Y88.788 E0.04418
G1 X103.372 Y89.938 E0.03611
G1 X103.305 Y91.341 E0.04404
G1 X103.090 Y92.734 E0.04418
G1 X102.808 Y93.846 E0.03597
G1 X102.332 Y95.172 E0.04418
G1 X101.719 Y96.441 E0.04418
G1 X101.124 Y97.421 E0.03597
G1 X100.282 Y98.551 E0.04418
G1 X99.328 Y99.582 E0.04405
G1 X98.469 Y100.349 E0.03609
G1 X97.333 Y101.183 E0.04418
G1 X96.116 Y101.892 E0.04418
G1 X95.074 Y102.372 E0.03597
G1 X93.744 Y102.838 E0.04418
G1 X92.377 Y103.160 E0.04405
G1 X91.236 Y103.315 E0.03609
G1 X89.849 Y103.372 E0.04354
G1 X88.711 Y103.310 E0.03572
G1 X87.322 Y103.102 E0.04403
G1 X85.959 Y102.747 E0.04418
G1 X84.881 Y102.354 E0.03597
G1 X83.610 Y101.747 E0.04418
G1 X82.409 Y101.009 E0.04418
G1 X81.494 Y100.318 E0.03597
G1 X80.455 Y99.366 E0.04418
G1 X79.523 Y98.310 E0.04418
G1 X78.849 Y97.381 E0.03597
G1 X78.134 Y96.167 E0.04418
G1 X77.553 Y94.888 E0.04405
G1 X77.178 Y93.799 E0.03609
G1 X76.850 Y92.433 E0.04405
G1 X76.668 Y91.036 E0.04418
G1 X76.627 Y89.911 E0.03529
G1 X76.710 Y88.512 E0.04395
G1 X76.887 Y87.379 E0.03597
G1 X77.235 Y86.013 E0.04418
G1 X77.724 Y84.696 E0.04405
G1 X78.226 Y83.660 E0.03609
G1 X78.956 Y82.460 E0.04405
G1 X79.628 Y81.560 E0.03521
G1 X80.530 Y80.563 E0.04215
M204 S1250
G1 X80.809 Y80.816 F9000.000
M204 S800
G1 F1200.000
G1 X81.860 Y79.869 E0.04436
G1 X82.762 Y79.206 E0.03510
G1 X83.931 Y78.509 E0.04268
G1 X85.173 Y77.934 E0.04293
G1 X86.233 Y77.562 E0.03522
G1 X87.550 Y77.237 E0.04250
G1 X88.640 Y77.076 E0.03455
G1 X90.011 Y77.004 E0.04305
G1 X91.364 Y77.076 E0.04251
G1 X92.477 Y77.243 E0.03527
G1 X93.805 Y77.574 E0.04292
G1 X95.079 Y78.038 E0.04251
G1 X96.093 Y78.521 E0.03521
G1 X97.260 Y79.221 E0.04268
G1 X98.353 Y80.045 E0.04293
G1 X99.166 Y80.787 E0.03450
G1 X100.076 Y81.792 E0.04250
G1 X100.747 Y82.694 E0.03527
G1 X101.457 Y83.865 E0.04293
G1 X102.035 Y85.096 E0.04262
G1 X102.414 Y86.155 E0.03527
G1 X102.749 Y87.482 E0.04293
G1 X102.943 Y88.828 E0.04263
G1 X102.995 Y89.951 E0.03527
G1 X102.929 Y91.319 E0.04293
G1 X102.720 Y92.662 E0.04262
G1 X102.442 Y93.752 E0.03527
G1 X101.979 Y95.040 E0.04292
G1 X101.386 Y96.264 E0.04263
G1 X100.805 Y97.221 E0.03510
G1 X99.991 Y98.311 E0.04267
G1 X99.061 Y99.316 E0.04292
G1 X98.223 Y100.063 E0.03522
G1 X97.125 Y100.868 E0.04267
G1 X95.939 Y101.559 E0.04305
M73 P1 R38
G1 X94.922 Y102.027 E0.03510
G1 X93.637 Y102.476 E0.04268
G1 X92.304 Y102.790 E0.04292
G1 X91.191 Y102.941 E0.03522
G1 X89.848 Y102.995 E0.04215
G1 X88.737 Y102.934 E0.03491
G1 X87.383 Y102.729 E0.04292
G1 X86.067 Y102.386 E0.04263
G1 X85.016 Y102.002 E0.03510
G1 X83.788 Y101.415 E0.04268
G1 X82.619 Y100.696 E0.04304
G1 X81.726 Y100.021 E0.03509
G1 X80.723 Y99.101 E0.04267
G1 X79.817 Y98.074 E0.04293
G1 X79.171 Y97.184 E0.03450
G1 X78.481 Y96.017 E0.04251
G1 X78.004 Y94.998 E0.03527
G1 X77.545 Y93.708 E0.04293
G1 X77.226 Y92.387 E0.04263
G1 X77.067 Y91.279 E0.03509
G1 X77.005 Y89.914 E0.04285
G1 X77.086 Y88.549 E0.04287
G1 X77.259 Y87.443 E0.03510
G1 X77.596 Y86.124 E0.04268
G1 X78.073 Y84.841 E0.04292
G1 X78.562 Y83.830 E0.03521
G1 X79.267 Y82.672 E0.04251
G1 X79.927 Y81.789 E0.03455
G1 X80.769 Y80.861 E0.03930
M204 S1250
; printing object slide_filler_03.stl id:0 copy 0
G1 E-2.24000 F4200.000
;WIPE_START
G1 F7200.000
G1 X81.860 Y79.869 E-0.81717
G1 X81.998 Y79.768 E-0.09483
;WIPE_END
G1 E-0.04800 F4200.000
G1 Z0.400 F9000.000
G1 X83.149 Y84.091
G1 Z0.200
G1 E3.20000 F2400.000
M204 S800
;TYPE:Perimeter
G1 F1200.000
G1 X83.853 Y83.515 E0.02852
G1 X84.656 Y82.982 E0.03023
G1 X85.474 Y82.547 E0.02904
G1 X86.267 Y82.212 E0.02698
G1 X87.113 Y81.936 E0.02792
G1 X88.045 Y81.721 E0.02997
G1 X88.994 Y81.590 E0.03005
G1 X89.919 Y81.543 E0.02902
G1 X90.794 Y81.572 E0.02745
G1 X91.689 Y81.676 E0.02825
G1 X92.618 Y81.865 E0.02975
G1 X93.506 Y82.130 E0.02904
G1 X94.355 Y82.468 E0.02866
G1 X95.164 Y82.878 E0.02845
G1 X95.931 Y83.360 E0.02838
G1 X96.631 Y83.898 E0.02771
G1 X97.256 Y84.481 E0.02678
G1 X97.818 Y85.118 E0.02665
G1 X98.334 Y85.839 E0.02779
G1 X98.768 Y86.609 E0.02773
G1 X99.112 Y87.415 E0.02748
G1 X99.357 Y88.229 E0.02663
G1 X99.514 Y89.092 E0.02752
G1 X99.568 Y89.906 E0.02556
G1 X99.535 Y90.707 E0.02513
G1 X99.414 Y91.516 E0.02567
G1 X99.205 Y92.312 E0.02580
G1 X98.892 Y93.129 E0.02744
G1 X98.515 Y93.864 E0.02591
G1 X98.007 Y94.636 E0.02898
G1 X97.484 Y95.275 E0.02589
G1 X96.859 Y95.902 E0.02775
G1 X96.170 Y96.468 E0.02794
G1 X95.458 Y96.949 E0.02694
G1 X94.685 Y97.377 E0.02772
G1 X93.831 Y97.751 E0.02922
G1 X92.918 Y98.055 E0.03020
G1 X92.064 Y98.258 E0.02751
G1 X91.136 Y98.397 E0.02942
G1 X90.180 Y98.455 E0.03003
G1 X89.212 Y98.428 E0.03037
G1 X88.332 Y98.327 E0.02776
G1 X87.453 Y98.152 E0.02811
G1 X86.553 Y97.891 E0.02939
G1 X85.729 Y97.570 E0.02771
G1 X84.867 Y97.140 E0.03020
G1 X84.065 Y96.638 E0.02968
G1 X83.363 Y96.097 E0.02780
G1 X82.703 Y95.476 E0.02838
G1 X82.141 Y94.829 E0.02689
G1 X81.656 Y94.145 E0.02627
G1 X81.228 Y93.383 E0.02744
G1 X80.883 Y92.571 E0.02765
G1 X80.647 Y91.789 E0.02559
G1 X80.497 Y90.990 E0.02550
G1 X80.433 Y90.172 E0.02573
G1 X80.459 Y89.356 E0.02560
G1 X80.573 Y88.548 E0.02560
G1 X80.786 Y87.713 E0.02700
G1 X81.083 Y86.928 E0.02632
G1 X81.462 Y86.177 E0.02637
G1 X81.946 Y85.429 E0.02794
G1 X82.475 Y84.771 E0.02648
G1 X83.107 Y84.134 E0.02813
M204 S1250
G1 X83.374 Y84.399 F9000.000
M204 S800
;TYPE:External perimeter
G1 F1200.000
G1 X84.077 Y83.819 E0.02858
G1 X84.849 Y83.306 E0.02906
G1 X85.636 Y82.887 E0.02794
G1 X86.399 Y82.565 E0.02595
G1 X87.214 Y82.300 E0.02690
G1 X88.113 Y82.093 E0.02892
G1 X89.029 Y81.966 E0.02900
G1 X89.922 Y81.921 E0.02802
G1 X90.766 Y81.949 E0.02647
G1 X91.629 Y82.048 E0.02726
G1 X92.527 Y82.231 E0.02872
G1 X93.382 Y82.486 E0.02799
G1 X94.200 Y82.812 E0.02759
G1 X94.978 Y83.206 E0.02737
G1 X95.715 Y83.669 E0.02728
G1 X96.387 Y84.186 E0.02658
G1 X96.985 Y84.744 E0.02565
G1 X97.523 Y85.353 E0.02547
G1 X98.015 Y86.042 E0.02655
G1 X98.430 Y86.776 E0.02644
G1 X98.757 Y87.544 E0.02617
G1 X98.990 Y88.317 E0.02530
G1 X99.139 Y89.139 E0.02619
G1 X99.191 Y89.911 E0.02426
G1 X99.159 Y90.671 E0.02386
G1 X99.044 Y91.440 E0.02439
G1 X98.846 Y92.196 E0.02451
G1 X98.547 Y92.975 E0.02615
G1 X98.188 Y93.674 E0.02463
G1 X97.702 Y94.413 E0.02773
G1 X97.204 Y95.022 E0.02469
G1 X96.605 Y95.623 E0.02659
G1 X95.944 Y96.166 E0.02680
G1 X95.261 Y96.627 E0.02585
G1 X94.517 Y97.038 E0.02665
G1 X93.696 Y97.399 E0.02813
G1 X92.814 Y97.692 E0.02913
G1 X91.992 Y97.888 E0.02649
G1 X91.096 Y98.022 E0.02840
G1 X90.174 Y98.078 E0.02898
G1 X89.239 Y98.052 E0.02933
G1 X88.390 Y97.955 E0.02677
G1 X87.542 Y97.786 E0.02711
G1 X86.674 Y97.533 E0.02836
G1 X85.882 Y97.225 E0.02664
G1 X85.052 Y96.811 E0.02908
G1 X84.281 Y96.328 E0.02853
G1 X83.608 Y95.809 E0.02665
G1 X82.976 Y95.215 E0.02721
G1 X82.437 Y94.596 E0.02571
G1 X81.975 Y93.943 E0.02507
G1 X81.566 Y93.216 E0.02617
G1 X81.238 Y92.442 E0.02635
G1 X81.014 Y91.700 E0.02431
G1 X80.871 Y90.941 E0.02423
G1 X80.811 Y90.163 E0.02444
G1 X80.835 Y89.388 E0.02431
G1 X80.943 Y88.621 E0.02430
G1 X81.147 Y87.827 E0.02570
G1 X81.429 Y87.080 E0.02504
G1 X81.789 Y86.365 E0.02511
G1 X82.252 Y85.650 E0.02669
G1 X82.757 Y85.022 E0.02526
G1 X83.332 Y84.442 E0.02564
M204 S1250
G1 X83.288 Y84.008 F9000.000
G1 X82.451 Y83.728
M204 S800
;TYPE:Perimeter
G1 F1200.000
G1 X82.896 Y83.224 E0.02109
G1 X83.272 Y82.851 E0.01660
G1 X83.667 Y82.498 E0.01660
G1 X84.079 Y82.170 E0.01652
G1 X84.736 Y81.713 E0.02510
G1 X85.187 Y81.443 E0.01648
G1 X85.655 Y81.196 E0.01660
G1 X86.136 Y80.975 E0.01660
G1 X86.628 Y80.780 E0.01660
G1 X87.132 Y80.611 E0.01664
G1 X87.637 Y80.471 E0.01643
G1 X88.419 Y80.311 E0.02502
G1 X89.209 Y80.215 E0.02498
G1 X89.735 Y80.186 E0.01652
G1 X90.261 Y80.186 E0.01647
G1 X91.061 Y80.240 E0.02514
G1 X91.582 Y80.311 E0.01648
G1 X92.096 Y80.409 E0.01643
G1 X92.875 Y80.613 E0.02523
G1 X93.372 Y80.780 E0.01643
G1 X93.864 Y80.975 E0.01660
G1 X94.345 Y81.196 E0.01660
G1 X94.808 Y81.441 E0.01643
G1 X95.493 Y81.863 E0.02523
G1 X95.919 Y82.168 E0.01643
G1 X96.333 Y82.498 E0.01660
G1 X96.728 Y82.851 E0.01660
G1 X97.100 Y83.220 E0.01643
G1 X97.631 Y83.824 E0.02523
G1 X97.950 Y84.240 E0.01643
G1 X98.249 Y84.677 E0.01660
G1 X98.524 Y85.130 E0.01660
G1 X98.772 Y85.591 E0.01643
G1 X99.103 Y86.325 E0.02523
G1 X99.287 Y86.816 E0.01643
G1 X99.443 Y87.316 E0.01643
G1 X99.631 Y88.098 E0.02523
G1 X99.719 Y88.615 E0.01643
G1 X99.780 Y89.141 E0.01660
G1 X99.812 Y89.669 E0.01660
G1 X99.815 Y90.193 E0.01643
G1 X99.767 Y90.996 E0.02523
G1 X99.700 Y91.516 E0.01643
G1 X99.604 Y92.037 E0.01660
G1 X99.480 Y92.552 E0.01660
G1 X99.330 Y93.054 E0.01643
G1 X99.049 Y93.808 E0.02523
G1 X98.833 Y94.285 E0.01643
G1 X98.589 Y94.755 E0.01660
G1 X98.320 Y95.211 E0.01660
G1 X98.030 Y95.648 E0.01643
G1 X97.541 Y96.286 E0.02523
G1 X97.195 Y96.680 E0.01643
G1 X96.824 Y97.058 E0.01660
G1 X96.434 Y97.416 E0.01660
G1 X96.029 Y97.748 E0.01643
G1 X95.374 Y98.216 E0.02523
G1 X94.928 Y98.491 E0.01643
G1 X94.463 Y98.744 E0.01660
G1 X93.985 Y98.972 E0.01660
G1 X93.500 Y99.172 E0.01643
G1 X92.738 Y99.428 E0.02523
G1 X92.231 Y99.561 E0.01643
G1 X91.716 Y99.666 E0.01647
G1 X90.920 Y99.774 E0.02518
G1 X90.397 Y99.809 E0.01643
G1 X89.868 Y99.816 E0.01660
G1 X89.339 Y99.795 E0.01660
G1 X88.817 Y99.746 E0.01643
G1 X88.023 Y99.616 E0.02523
G1 X87.512 Y99.497 E0.01643
G1 X87.004 Y99.349 E0.01660
G1 X86.504 Y99.174 E0.01660
G1 X86.020 Y98.974 E0.01643
G1 X85.298 Y98.618 E0.02523
G1 X84.845 Y98.355 E0.01643
G1 X84.402 Y98.065 E0.01660
G1 X83.976 Y97.752 E0.01660
G1 X83.570 Y97.419 E0.01643
G1 X82.986 Y96.868 E0.02518
G1 X82.628 Y96.483 E0.01647
G1 X82.293 Y96.081 E0.01643
G1 X81.821 Y95.429 E0.02523
G1 X81.542 Y94.985 E0.01643
G1 X81.286 Y94.522 E0.01660
G1 X81.055 Y94.045 E0.01660
G1 X80.852 Y93.562 E0.01643
G1 X80.591 Y92.801 E0.02523
G1 X80.455 Y92.295 E0.01643
G1 X80.345 Y91.777 E0.01660
G1 X80.263 Y91.254 E0.01660
G1 X80.210 Y90.729 E0.01656
G1 X80.185 Y90.199 E0.01664
G1 X80.188 Y89.673 E0.01648
G1 X80.247 Y88.875 E0.02510
G1 X80.322 Y88.353 E0.01652
G1 X80.424 Y87.838 E0.01647
G1 X80.632 Y87.063 E0.02514
G1 X80.803 Y86.566 E0.01648
G1 X80.999 Y86.080 E0.01643
G1 X81.350 Y85.357 E0.02523
G1 X81.610 Y84.902 E0.01643
G1 X81.897 Y84.457 E0.01660
G1 X82.413 Y83.775 E0.02681
M204 S1250
G1 X82.120 Y83.537 F9000.000
M204 S800
;TYPE:External perimeter
G1 F1200.000
G1 X82.623 Y82.963 E0.02393
G1 X83.013 Y82.576 E0.01724
G1 X83.424 Y82.210 E0.01724
G1 X83.853 Y81.867 E0.01723
G1 X84.532 Y81.396 E0.02590
G1 X85.002 Y81.115 E0.01719
G1 X85.488 Y80.858 E0.01724
G1 X85.988 Y80.628 E0.01724
G1 X86.499 Y80.425 E0.01724
G1 X87.021 Y80.250 E0.01728
G1 X87.549 Y80.105 E0.01715
G1 X88.358 Y79.939 E0.02590
G1 X89.176 Y79.839 E0.02585
G1 X89.725 Y79.809 E0.01723
G1 X90.273 Y79.809 E0.01719
G1 X91.099 Y79.865 E0.02594
G1 X91.642 Y79.939 E0.01719
G1 X92.180 Y80.041 E0.01715
G1 X92.982 Y80.251 E0.02602
G1 X93.501 Y80.425 E0.01715
G1 X94.012 Y80.628 E0.01724
G1 X94.512 Y80.858 E0.01724
G1 X94.995 Y81.113 E0.01715
G1 X95.702 Y81.549 E0.02602
G1 X96.147 Y81.867 E0.01715
G1 X96.576 Y82.210 E0.01724
G1 X96.987 Y82.576 E0.01724
G1 X97.375 Y82.961 E0.01715
G1 X97.923 Y83.585 E0.02602
G1 X98.256 Y84.019 E0.01715
G1 X98.566 Y84.473 E0.01724
G1 X98.852 Y84.942 E0.01724
G1 X99.110 Y85.425 E0.01715
G1 X99.452 Y86.181 E0.02602
G1 X99.643 Y86.693 E0.01715
G1 X99.807 Y87.215 E0.01715
G1 X100.001 Y88.022 E0.02602
G1 X100.093 Y88.562 E0.01715
G1 X100.155 Y89.108 E0.01724
G1 X100.189 Y89.656 E0.01724
G1 X100.193 Y90.203 E0.01715
G1 X100.142 Y91.032 E0.02602
G1 X100.072 Y91.574 E0.01715
G1 X99.973 Y92.115 E0.01724
G1 X99.844 Y92.650 E0.01724
G1 X99.688 Y93.174 E0.01715
G1 X99.398 Y93.951 E0.02602
G1 X99.172 Y94.450 E0.01715
G1 X98.919 Y94.938 E0.01724
G1 X98.640 Y95.411 E0.01724
G1 X98.337 Y95.867 E0.01715
G1 X97.832 Y96.526 E0.02602
G1 X97.471 Y96.936 E0.01715
G1 X97.086 Y97.329 E0.01724
G1 X96.681 Y97.700 E0.01724
G1 X96.258 Y98.048 E0.01715
G1 X95.583 Y98.530 E0.02602
G1 X95.117 Y98.817 E0.01715
G1 X94.634 Y99.080 E0.01724
G1 X94.138 Y99.317 E0.01724
G1 X93.632 Y99.525 E0.01715
G1 X92.846 Y99.789 E0.02602
G1 X92.316 Y99.928 E0.01715
G1 X91.779 Y100.038 E0.01719
G1 X90.958 Y100.149 E0.02598
G1 X90.412 Y100.186 E0.01715
G1 X89.863 Y100.194 E0.01724
G1 X89.313 Y100.171 E0.01724
G1 X88.769 Y100.120 E0.01715
G1 X87.950 Y99.986 E0.02602
G1 X87.417 Y99.862 E0.01715
G1 X86.889 Y99.708 E0.01724
G1 X86.370 Y99.526 E0.01724
G1 X85.864 Y99.318 E0.01715
G1 X85.120 Y98.951 E0.02602
G1 X84.647 Y98.676 E0.01715
G1 X84.187 Y98.375 E0.01724
G1 X83.744 Y98.049 E0.01724
G1 X83.321 Y97.702 E0.01715
G1 X82.718 Y97.134 E0.02598
G1 X82.345 Y96.733 E0.01719
G1 X81.995 Y96.312 E0.01715
G1 X81.508 Y95.640 E0.02602
G1 X81.217 Y95.176 E0.01715
G1 X80.951 Y94.695 E0.01724
G1 X80.711 Y94.201 E0.01724
G1 X80.499 Y93.697 E0.01715
G1 X80.230 Y92.911 E0.02602
G1 X80.088 Y92.383 E0.01715
G1 X79.974 Y91.845 E0.01724
G1 X79.889 Y91.302 E0.01724
G1 X79.834 Y90.757 E0.01720
G1 X79.807 Y90.206 E0.01728
G1 X79.811 Y89.658 E0.01719
G1 X79.872 Y88.834 E0.02590
G1 X79.950 Y88.290 E0.01723
G1 X80.056 Y87.752 E0.01719
G1 X80.271 Y86.953 E0.02594
G1 X80.449 Y86.434 E0.01719
G1 X80.654 Y85.927 E0.01715
G1 X81.017 Y85.181 E0.02602
G1 X81.288 Y84.706 E0.01715
G1 X81.586 Y84.244 E0.01724
G1 X82.082 Y83.584 E0.02589
M204 S1250
G1 X82.515 Y83.602 F9000.000
G1 X82.625 Y84.098
M204 S800
;TYPE:Gap fill
;WIDTH:0.384008
G1 F1200.000
G1 X82.363 Y84.397 E0.01127
M204 S1250
M204 S800
;WIDTH:0.350649
G1 X82.236 Y84.547 E0.00505
M204 S1250
M204 S800
;WIDTH:0.320264
G1 X82.015 Y84.848 E0.00860
M204 S1250
M204 S800
;WIDTH:0.286838
G1 X81.864 Y85.056 E0.00521
M204 S1250
M204 S800
;WIDTH:0.260037
G1 X81.723 Y85.263 E0.00452
M204 S1250
M204 S800
;WIDTH:0.220458
G1 X81.589 Y85.483 E0.00380
M204 S1250
M204 S800
;WIDTH:0.205853
G1 X81.426 Y85.772 E0.00450
M204 S1250
M204 S800
;WIDTH:0.165292
G1 X81.264 Y86.061 E0.00338
M204 S1250
M204 S800
;WIDTH:0.124731
G1 X81.052 Y86.516 E0.00342
M204 S1250
G1 E-2.24000 F4200.000
