; generated by PrusaSlicer 2.3.0+win64 on 2022-05-25 at 11:29:42 UTC


;
;

;
;
; 

; external perimeters extrusion width = 0.45mm
; perimeters extrusion width = 0.45mm
; infill extrusion width = 0.45mm
; solid infill extrusion width = 0.45mm
; top infill extrusion width = 0.40mm
; first layer extrusion width = 0.42mm

M73 P0 R94
M201 X1250 Y1250 Z400 E5000 ; sets maximum accelerations, mm/sec^2
M203 X180 Y180 Z12 E80 ; sets maximum feedrates, mm/sec
M204 P1250 R1250 T1250 ; sets acceleration (P, T) and retract acceleration (R), mm/sec^2
M205 X8.00 Y8.00 Z2.00 E10.00 ; sets the jerk limits, mm/sec
M205 S0 T0 ; sets the minimum extruding and travel feed rate, mm/sec
M107
;TYPE:Custom
G90 ; use absolute coordinates
M83 ; extruder relative mode
M104 S170 ; set extruder temp for bed leveling
M140 S85 ; set bed temp
M109 R170 ; wait for bed leveling temp
M190 S85 ; wait for bed temp
G28 ; home all without mesh bed level
G29 ; mesh bed leveling 
M104 S240 ; set extruder temp
G92 E0.0
G1 Y-2.0 X179 F2400
G1 Z3 F720
M109 S240 ; wait for extruder temp

; intro line
G1 X170 F1000
G1 Z0.2 F720
G1 X110.0 E8.0 F900
G1 X40.0 E10.0 F700
G92 E0.0

M221 S95 ; set flow
G21 ; set units to millimeters
G90 ; use absolute coordinates
M83 ; use relative distances for extrusion
M900 K0.2 ; Filament gcode
;LAYER_CHANGE
;Z:0.2
;HEIGHT:0.2
;BEFORE_LAYER_CHANGE
G92 E0.0
;0.2


M73 P0 R93
G1 E-3.20000 F2400.000
G1 Z0.200 F9000.000
;AFTER_LAYER_CHANGE
;0.2
G1 Z0.400
G1 X49.490 Y45.037
G1 Z0.200
G1 E3.20000 F1500.000
M204 S800
;TYPE:Skirt
;WIDTH:0.42
G1 F1200.000
G1 X51.004 Y44.410 E0.05139
G1 X52.474 Y44.142 E0.04683
G1 X84.559 Y44.118 E1.00603
G1 X85.949 Y44.251 E0.04377
G1 X87.113 Y44.576 E0.03790
G1 X88.373 Y45.183 E0.04386
G1 X89.375 Y45.910 E0.03879
G1 X90.340 Y46.917 E0.04373
G1 X91.107 Y48.105 E0.04435
G1 X91.582 Y49.250 E0.03886
G1 X91.878 Y50.601 E0.04336
G1 X91.933 Y51.487 E0.02783
G1 X91.927 Y84.784 E1.04401
G1 X91.791 Y85.934 E0.03630
G1 X91.479 Y87.042 E0.03611
G1 X90.994 Y88.096 E0.03636
G1 X90.357 Y89.053 E0.03606
G1 X89.170 Y90.251 E0.05288
G1 X87.902 Y91.070 E0.04731
G1 X86.323 Y91.657 E0.05282
G1 X84.827 Y91.867 E0.04736
G1 X52.756 Y91.866 E1.00559
G1 X51.614 Y91.730 E0.03606
G1 X50.505 Y91.417 E0.03612
G1 X49.452 Y90.932 E0.03635
G1 X48.498 Y90.296 E0.03594
G1 X47.305 Y89.116 E0.05263
G1 X46.481 Y87.842 E0.04756
G1 X45.894 Y86.263 E0.05283
G1 X45.684 Y84.763 E0.04748
G1 X45.684 Y51.199 E1.05238
G1 X45.820 Y50.057 E0.03606
G1 X46.132 Y48.948 E0.03612
G1 X46.612 Y47.904 E0.03604
G1 X47.255 Y46.938 E0.03637
G1 X48.261 Y45.889 E0.04557
G1 X49.441 Y45.072 E0.04502
M204 S1250
; printing object SliderFrontPart04 id:0 copy 0
G1 E-2.24000 F2400.000
;WIPE_START
G1 F7200.000
G1 X51.004 Y44.410 E-0.53765
G1 X52.167 Y44.197 E-0.37435
;WIPE_END
G1 E-0.04800 F2400.000
G1 Z0.400 F9000.000
G1 X79.624 Y79.449
G1 Z0.200
G1 E3.20000 F1500.000
M204 S800
;TYPE:Perimeter
G1 F1200.000
G1 X79.931 Y79.230 E0.01182
G1 X80.261 Y79.048 E0.01182
G1 X80.764 Y78.856 E0.01686
G1 X81.130 Y78.773 E0.01178
G1 X81.496 Y78.732 E0.01155
G1 X81.865 Y78.732 E0.01156
G1 X82.240 Y78.774 E0.01182
G1 X82.760 Y78.908 E0.01684
G1 X83.107 Y79.052 E0.01181
G1 X83.437 Y79.234 E0.01181
G1 X83.872 Y79.562 E0.01708
G1 X84.247 Y79.958 E0.01708
G1 X84.465 Y80.265 E0.01183
G1 X84.647 Y80.595 E0.01182
G1 X84.838 Y81.096 E0.01681
G1 X84.922 Y81.464 E0.01182
G1 X84.964 Y81.838 E0.01182
G1 X84.949 Y82.375 E0.01683
G1 X84.886 Y82.746 E0.01181
G1 X84.784 Y83.100 E0.01156
G1 X84.643 Y83.441 E0.01156
G1 X84.461 Y83.771 E0.01182
G1 X84.138 Y84.200 E0.01683
G1 X83.872 Y84.466 E0.01181
G1 X83.577 Y84.701 E0.01182
G1 X83.115 Y84.974 E0.01682
G1 X82.767 Y85.118 E0.01182
G1 X82.404 Y85.223 E0.01184
G1 X81.865 Y85.299 E0.01707
G1 X81.321 Y85.283 E0.01707
G1 X80.949 Y85.220 E0.01182
G1 X80.588 Y85.116 E0.01177
G1 X80.097 Y84.897 E0.01687
G1 X79.778 Y84.696 E0.01182
G1 X79.490 Y84.466 E0.01156
G1 X79.229 Y84.206 E0.01156
G1 X78.994 Y83.911 E0.01183
G1 X78.721 Y83.449 E0.01681
G1 X78.577 Y83.101 E0.01181
G1 X78.473 Y82.738 E0.01182
G1 X78.398 Y82.207 E0.01681
G1 X78.398 Y81.830 E0.01184
G1 X78.440 Y81.455 E0.01181
G1 X78.576 Y80.928 E0.01707
G1 X78.798 Y80.431 E0.01708
G1 X78.999 Y80.112 E0.01182
G1 X79.234 Y79.817 E0.01183
G1 X79.580 Y79.490 E0.01493
M204 S1250
G1 X79.839 Y79.764 F9000.000
M204 S800
;TYPE:External perimeter
G1 F1200.000
G1 X80.132 Y79.550 E0.01137
G1 X80.420 Y79.391 E0.01033
G1 X80.873 Y79.218 E0.01520
G1 X81.193 Y79.145 E0.01029
G1 X81.517 Y79.109 E0.01022
G1 X81.844 Y79.109 E0.01023
G1 X82.171 Y79.146 E0.01033
G1 X82.640 Y79.267 E0.01518
G1 X82.944 Y79.392 E0.01032
G1 X83.232 Y79.552 E0.01032
G1 X83.620 Y79.844 E0.01525
G1 X83.954 Y80.197 E0.01525
G1 X84.145 Y80.466 E0.01034
G1 X84.304 Y80.755 E0.01032
G1 X84.477 Y81.206 E0.01515
G1 X84.550 Y81.527 E0.01033
G1 X84.587 Y81.854 E0.01032
G1 X84.573 Y82.338 E0.01517
G1 X84.518 Y82.662 E0.01032
G1 X84.428 Y82.976 E0.01023
G1 X84.303 Y83.277 E0.01024
G1 X84.144 Y83.566 E0.01032
G1 X83.853 Y83.952 E0.01517
G1 X83.620 Y84.185 E0.01032
G1 X83.363 Y84.390 E0.01032
G1 X82.946 Y84.636 E0.01516
G1 X82.642 Y84.762 E0.01032
G1 X82.325 Y84.853 E0.01034
G1 X81.844 Y84.921 E0.01524
G1 X81.358 Y84.907 E0.01525
G1 X81.033 Y84.852 E0.01032
G1 X80.718 Y84.761 E0.01028
G1 X80.275 Y84.563 E0.01520
G1 X79.997 Y84.388 E0.01032
G1 X79.741 Y84.185 E0.01024
G1 X79.511 Y83.954 E0.01023
G1 X79.305 Y83.696 E0.01034
G1 X79.059 Y83.280 E0.01515
G1 X78.934 Y82.976 E0.01032
G1 X78.842 Y82.659 E0.01033
G1 X78.775 Y82.181 E0.01515
G1 X78.775 Y81.851 E0.01035
G1 X78.812 Y81.524 E0.01031
G1 X78.933 Y81.053 E0.01525
G1 X79.132 Y80.609 E0.01525
G1 X79.307 Y80.330 E0.01032
G1 X79.512 Y80.073 E0.01033
G1 X79.796 Y79.805 E0.01222
M204 S1250
G1 X79.778 Y79.406 F9000.000
G1 E-2.24000 F2400.000
;WIPE_START
G1 F7200.000
G1 X80.132 Y79.550 E-0.13368
G1 X80.420 Y79.391 E-0.10429
G1 X80.873 Y79.218 E-0.15348
G1 X81.193 Y79.145 E-0.10395
G1 X81.517 Y79.109 E-0.10326
G1 X81.844 Y79.109 E-0.10335
G1 X82.171 Y79.146 E-0.10430
G1 X82.494 Y79.229 E-0.10569
;WIPE_END
G1 E-0.04800 F2400.000
G1 Z0.400 F9000.000
G1 X59.214 Y81.838
G1 Z0.200
G1 E3.20000 F1500.000
M204 S800
;TYPE:Perimeter
G1 F1200.000
G1 X59.199 Y82.375 E0.01683
G1 X59.136 Y82.746 E0.01181
G1 X59.034 Y83.100 E0.01156
G1 X58.893 Y83.441 E0.01156
G1 X58.711 Y83.771 E0.01182
G1 X58.388 Y84.200 E0.01683
G1 X58.122 Y84.466 E0.01181
G1 X57.827 Y84.701 E0.01182
G1 X57.365 Y84.974 E0.01682
G1 X57.017 Y85.118 E0.01182
G1 X56.654 Y85.223 E0.01184
G1 X56.115 Y85.299 E0.01707
G1 X55.571 Y85.283 E0.01707
G1 X55.199 Y85.220 E0.01182
G1 X54.838 Y85.116 E0.01177
G1 X54.347 Y84.897 E0.01687
G1 X54.028 Y84.696 E0.01182
G1 X53.740 Y84.466 E0.01156
G1 X53.479 Y84.206 E0.01156
G1 X53.244 Y83.911 E0.01183
G1 X52.971 Y83.449 E0.01681
G1 X52.827 Y83.101 E0.01181
G1 X52.723 Y82.738 E0.01182
G1 X52.648 Y82.207 E0.01681
G1 X52.648 Y81.830 E0.01184
G1 X52.690 Y81.455 E0.01181
G1 X52.826 Y80.928 E0.01707
G1 X53.048 Y80.431 E0.01708
G1 X53.249 Y80.112 E0.01182
G1 X53.484 Y79.817 E0.01183
G1 X53.874 Y79.449 E0.01681
G1 X54.181 Y79.230 E0.01182
G1 X54.511 Y79.048 E0.01182
G1 X55.014 Y78.856 E0.01686
G1 X55.380 Y78.773 E0.01178
G1 X55.746 Y78.732 E0.01155
G1 X56.115 Y78.732 E0.01156
G1 X56.490 Y78.774 E0.01182
G1 X57.010 Y78.908 E0.01684
G1 X57.357 Y79.052 E0.01181
G1 X57.687 Y79.234 E0.01181
G1 X58.122 Y79.562 E0.01708
G1 X58.497 Y79.958 E0.01708
G1 X58.715 Y80.265 E0.01183
G1 X58.897 Y80.595 E0.01182
G1 X59.088 Y81.096 E0.01681
G1 X59.172 Y81.464 E0.01182
G1 X59.208 Y81.779 E0.00994
M204 S1250
G1 X58.833 Y81.821 F9000.000
M204 S800
;TYPE:External perimeter
G1 F1200.000
G1 X58.823 Y82.338 E0.01621
G1 X58.768 Y82.662 E0.01032
G1 X58.678 Y82.976 E0.01023
G1 X58.553 Y83.277 E0.01024
G1 X58.394 Y83.566 E0.01032
G1 X58.103 Y83.952 E0.01517
G1 X57.870 Y84.185 E0.01032
G1 X57.613 Y84.390 E0.01032
G1 X57.196 Y84.636 E0.01516
G1 X56.892 Y84.762 E0.01032
G1 X56.575 Y84.853 E0.01034
G1 X56.094 Y84.921 E0.01524
G1 X55.608 Y84.907 E0.01525
G1 X55.283 Y84.852 E0.01032
G1 X54.968 Y84.761 E0.01028
G1 X54.525 Y84.563 E0.01520
G1 X54.247 Y84.388 E0.01032
G1 X53.991 Y84.185 E0.01024
G1 X53.761 Y83.954 E0.01023
G1 X53.555 Y83.696 E0.01034
G1 X53.309 Y83.280 E0.01515
G1 X53.184 Y82.976 E0.01032
G1 X53.092 Y82.659 E0.01033
G1 X53.025 Y82.181 E0.01515
G1 X53.025 Y81.851 E0.01035
G1 X53.062 Y81.524 E0.01032
G1 X53.183 Y81.053 E0.01525
G1 X53.382 Y80.609 E0.01525
G1 X53.557 Y80.330 E0.01032
G1 X53.762 Y80.073 E0.01033
G1 X54.114 Y79.741 E0.01515
G1 X54.382 Y79.550 E0.01033
G1 X54.670 Y79.391 E0.01033
G1 X55.123 Y79.218 E0.01520
G1 X55.443 Y79.145 E0.01029
G1 X55.767 Y79.109 E0.01022
G1 X56.094 Y79.109 E0.01023
G1 X56.421 Y79.146 E0.01033
G1 X56.890 Y79.267 E0.01518
G1 X57.194 Y79.392 E0.01032
G1 X57.482 Y79.552 E0.01032
G1 X57.870 Y79.844 E0.01525
G1 X58.204 Y80.197 E0.01525
G1 X58.395 Y80.466 E0.01034
G1 X58.554 Y80.755 E0.01032
G1 X58.727 Y81.206 E0.01515
G1 X58.800 Y81.527 E0.01033
G1 X58.826 Y81.761 E0.00739
M204 S1250
G1 X59.188 Y82.005 F9000.000
G1 E-2.24000 F2400.000
;WIPE_START
G1 F7200.000
G1 X58.823 Y82.338 E-0.18255
G1 X58.768 Y82.662 E-0.10420
G1 X58.678 Y82.976 E-0.10332
G1 X58.553 Y83.277 E-0.10339
G1 X58.394 Y83.566 E-0.10427
G1 X58.103 Y83.952 E-0.15320
G1 X57.870 Y84.185 E-0.10418
G1 X57.730 Y84.297 E-0.05689
;WIPE_END
G1 E-0.04800 F2400.000
G1 Z0.400 F9000.000
G1 X56.115 Y57.049
G1 Z0.200
G1 E3.20000 F1500.000
M204 S800
;TYPE:Perimeter
G1 F1200.000
G1 X55.571 Y57.033 E0.01707
G1 X55.199 Y56.970 E0.01182
G1 X54.838 Y56.866 E0.01177
G1 X54.347 Y56.647 E0.01687
G1 X54.028 Y56.446 E0.01182
G1 X53.740 Y56.216 E0.01156
G1 X53.479 Y55.956 E0.01156
G1 X53.244 Y55.661 E0.01183
G1 X52.971 Y55.199 E0.01681
G1 X52.827 Y54.851 E0.01181
G1 X52.723 Y54.488 E0.01182
G1 X52.648 Y53.957 E0.01681
G1 X52.648 Y53.580 E0.01184
G1 X52.690 Y53.205 E0.01181
G1 X52.826 Y52.678 E0.01707
G1 X53.048 Y52.181 E0.01707
G1 X53.249 Y51.862 E0.01182
G1 X53.483 Y51.568 E0.01177
G1 X53.874 Y51.199 E0.01687
G1 X54.181 Y50.980 E0.01182
G1 X54.511 Y50.798 E0.01182
G1 X55.014 Y50.606 E0.01686
G1 X55.380 Y50.523 E0.01179
G1 X55.746 Y50.482 E0.01155
G1 X56.115 Y50.482 E0.01156
G1 X56.490 Y50.524 E0.01182
G1 X57.010 Y50.658 E0.01684
G1 X57.357 Y50.802 E0.01181
G1 X57.687 Y50.984 E0.01181
G1 X58.122 Y51.312 E0.01708
G1 X58.497 Y51.708 E0.01708
G1 X58.715 Y52.015 E0.01183
G1 X58.897 Y52.345 E0.01182
G1 X59.088 Y52.846 E0.01681
G1 X59.172 Y53.214 E0.01182
G1 X59.214 Y53.588 E0.01182
G1 X59.199 Y54.125 E0.01683
G1 X59.136 Y54.496 E0.01181
G1 X59.034 Y54.850 E0.01156
G1 X58.893 Y55.191 E0.01156
G1 X58.711 Y55.521 E0.01182
G1 X58.388 Y55.950 E0.01683
G1 X58.122 Y56.216 E0.01181
G1 X57.827 Y56.451 E0.01182
G1 X57.365 Y56.724 E0.01682
G1 X57.017 Y56.868 E0.01182
G1 X56.654 Y56.973 E0.01184
G1 X56.174 Y57.040 E0.01519
M204 S1250
G1 X56.122 Y56.667 F9000.000
M204 S800
;TYPE:External perimeter
G1 F1200.000
G1 X55.608 Y56.657 E0.01612
G1 X55.283 Y56.602 E0.01032
G1 X54.968 Y56.511 E0.01028
G1 X54.525 Y56.313 E0.01520
G1 X54.247 Y56.138 E0.01032
G1 X53.991 Y55.935 E0.01024
G1 X53.761 Y55.704 E0.01023
G1 X53.555 Y55.446 E0.01034
G1 X53.309 Y55.030 E0.01515
G1 X53.184 Y54.726 E0.01032
G1 X53.092 Y54.409 E0.01033
G1 X53.025 Y53.931 E0.01515
G1 X53.025 Y53.601 E0.01035
G1 X53.062 Y53.274 E0.01032
G1 X53.183 Y52.803 E0.01525
G1 X53.382 Y52.359 E0.01525
G1 X53.557 Y52.080 E0.01032
G1 X53.761 Y51.824 E0.01028
G1 X54.114 Y51.491 E0.01520
G1 X54.382 Y51.300 E0.01033
G1 X54.670 Y51.141 E0.01033
G1 X55.123 Y50.968 E0.01520
G1 X55.443 Y50.895 E0.01029
G1 X55.767 Y50.859 E0.01022
G1 X56.094 Y50.859 E0.01023
G1 X56.421 Y50.896 E0.01033
G1 X56.890 Y51.017 E0.01518
G1 X57.194 Y51.142 E0.01032
G1 X57.482 Y51.302 E0.01032
G1 X57.870 Y51.594 E0.01525
G1 X58.204 Y51.947 E0.01525
G1 X58.395 Y52.216 E0.01033
G1 X58.554 Y52.505 E0.01032
G1 X58.727 Y52.956 E0.01515
G1 X58.800 Y53.277 E0.01033
G1 X58.837 Y53.604 E0.01032
G1 X58.823 Y54.088 E0.01517
G1 X58.768 Y54.412 E0.01032
G1 X58.678 Y54.726 E0.01023
G1 X58.553 Y55.027 E0.01024
G1 X58.394 Y55.316 E0.01032
G1 X58.103 Y55.702 E0.01517
G1 X57.870 Y55.935 E0.01032
G1 X57.613 Y56.140 E0.01032
G1 X57.196 Y56.386 E0.01516
G1 X56.892 Y56.512 E0.01032
G1 X56.575 Y56.603 E0.01034
G1 X56.181 Y56.658 E0.01248
M204 S1250
G1 X55.941 Y57.024 F9000.000
G1 E-2.24000 F2400.000
;WIPE_START
G1 F7200.000
G1 X55.608 Y56.657 E-0.18157
G1 X55.283 Y56.602 E-0.10428
G1 X54.968 Y56.511 E-0.10384
G1 X54.525 Y56.313 E-0.15355
G1 X54.247 Y56.138 E-0.10425
G1 X53.991 Y55.935 E-0.10338
G1 X53.761 Y55.704 E-0.10334
G1 X53.647 Y55.561 E-0.05779
;WIPE_END
G1 E-0.04800 F2400.000
G1 Z0.400 F9000.000
G1 X78.398 Y53.957
G1 Z0.200
G1 E3.20000 F1500.000
M204 S800
;TYPE:Perimeter
G1 F1200.000
G1 X78.398 Y53.580 E0.01184
G1 X78.440 Y53.205 E0.01181
G1 X78.576 Y52.678 E0.01707
G1 X78.798 Y52.181 E0.01707
G1 X78.999 Y51.862 E0.01182
G1 X79.233 Y51.568 E0.01177
G1 X79.624 Y51.199 E0.01687
G1 X79.931 Y50.980 E0.01182
G1 X80.261 Y50.798 E0.01182
G1 X80.764 Y50.606 E0.01686
G1 X81.130 Y50.523 E0.01179
G1 X81.496 Y50.482 E0.01155
G1 X81.865 Y50.482 E0.01156
G1 X82.240 Y50.524 E0.01182
G1 X82.760 Y50.658 E0.01684
G1 X83.107 Y50.802 E0.01181
G1 X83.437 Y50.984 E0.01181
G1 X83.872 Y51.312 E0.01708
G1 X84.247 Y51.708 E0.01708
G1 X84.465 Y52.015 E0.01183
G1 X84.647 Y52.345 E0.01182
G1 X84.838 Y52.846 E0.01681
G1 X84.922 Y53.214 E0.01182
G1 X84.964 Y53.588 E0.01182
G1 X84.949 Y54.125 E0.01683
G1 X84.886 Y54.496 E0.01181
G1 X84.784 Y54.850 E0.01156
G1 X84.643 Y55.191 E0.01156
G1 X84.461 Y55.521 E0.01182
G1 X84.138 Y55.950 E0.01683
G1 X83.872 Y56.216 E0.01181
G1 X83.577 Y56.451 E0.01182
G1 X83.115 Y56.724 E0.01682
G1 X82.767 Y56.868 E0.01182
G1 X82.404 Y56.973 E0.01184
G1 X81.865 Y57.049 E0.01707
G1 X81.321 Y57.033 E0.01707
G1 X80.949 Y56.970 E0.01182
G1 X80.588 Y56.866 E0.01177
G1 X80.097 Y56.647 E0.01687
G1 X79.778 Y56.446 E0.01182
G1 X79.490 Y56.216 E0.01156
G1 X79.229 Y55.956 E0.01156
G1 X78.994 Y55.661 E0.01183
G1 X78.721 Y55.199 E0.01681
G1 X78.577 Y54.851 E0.01181
G1 X78.473 Y54.488 E0.01182
G1 X78.406 Y54.017 E0.01493
M204 S1250
G1 X78.779 Y53.964 F9000.000
M204 S800
;TYPE:External perimeter
G1 F1200.000
G1 X78.775 Y53.601 E0.01139
G1 X78.812 Y53.274 E0.01031
G1 X78.933 Y52.803 E0.01525
G1 X79.132 Y52.359 E0.01525
G1 X79.307 Y52.080 E0.01032
G1 X79.511 Y51.824 E0.01028
G1 X79.864 Y51.491 E0.01520
G1 X80.132 Y51.300 E0.01033
G1 X80.420 Y51.141 E0.01033
G1 X80.873 Y50.968 E0.01520
G1 X81.193 Y50.895 E0.01029
G1 X81.517 Y50.859 E0.01022
G1 X81.844 Y50.859 E0.01023
G1 X82.171 Y50.896 E0.01033
G1 X82.640 Y51.017 E0.01518
G1 X82.944 Y51.142 E0.01032
G1 X83.232 Y51.302 E0.01032
G1 X83.620 Y51.594 E0.01525
G1 X83.954 Y51.947 E0.01525
G1 X84.145 Y52.216 E0.01033
G1 X84.304 Y52.505 E0.01032
G1 X84.477 Y52.956 E0.01515
G1 X84.550 Y53.277 E0.01033
G1 X84.587 Y53.604 E0.01032
G1 X84.573 Y54.088 E0.01517
G1 X84.518 Y54.412 E0.01032
G1 X84.428 Y54.726 E0.01023
G1 X84.303 Y55.027 E0.01024
G1 X84.144 Y55.316 E0.01032
G1 X83.853 Y55.702 E0.01517
G1 X83.620 Y55.935 E0.01032
G1 X83.363 Y56.140 E0.01032
G1 X82.946 Y56.386 E0.01516
G1 X82.642 Y56.512 E0.01032
G1 X82.325 Y56.603 E0.01034
G1 X81.844 Y56.671 E0.01524
G1 X81.358 Y56.657 E0.01525
G1 X81.033 Y56.602 E0.01032
G1 X80.718 Y56.511 E0.01028
G1 X80.275 Y56.313 E0.01520
G1 X79.997 Y56.138 E0.01032
G1 X79.741 Y55.935 E0.01024
G1 X79.511 Y55.704 E0.01023
G1 X79.305 Y55.446 E0.01034
G1 X79.060 Y55.030 E0.01515
G1 X78.934 Y54.726 E0.01032
G1 X78.842 Y54.409 E0.01033
G1 X78.788 Y54.024 E0.01222
M204 S1250
G1 X78.452 Y53.807 F9000.000
G1 E-2.24000 F2400.000
;WIPE_START
G1 F7200.000
G1 X78.775 Y53.601 E-0.13388
G1 X78.812 Y53.274 E-0.10417
G1 X78.933 Y52.803 E-0.15399
G1 X79.132 Y52.359 E-0.15399
G1 X79.307 Y52.080 E-0.10427
G1 X79.511 Y51.824 E-0.10381
G1 X79.864 Y51.491 E-0.15356
G1 X79.875 Y51.483 E-0.00431
;WIPE_END
G1 E-0.04800 F2400.000
G1 Z0.400 F9000.000
G1 X78.788 Y47.286
G1 Z0.200
G1 E3.20000 F1500.000
M204 S800
;TYPE:Perimeter
G1 F1200.000
G1 X84.721 Y47.286 E0.18603
G1 X85.045 Y47.312 E0.01019
G1 X85.545 Y47.401 E0.01591
G1 X85.857 Y47.489 E0.01019
G1 X86.162 Y47.602 E0.01019
