; generated by PrusaSlicer 2.3.0+win64 on 2022-05-23 at 08:00:28 UTC


;
;

;
;
; 

; external perimeters extrusion width = 0.45mm
; perimeters extrusion width = 0.45mm
; infill extrusion width = 0.45mm
; solid infill extrusion width = 0.45mm
; top infill extrusion width = 0.40mm
; first layer extrusion width = 0.42mm

M73 P0 R30
M201 X1250 Y1250 Z400 E5000 ; sets maximum accelerations, mm/sec^2
M203 X180 Y180 Z12 E80 ; sets maximum feedrates, mm/sec
M204 P1250 R1250 T1250 ; sets acceleration (P, T) and retract acceleration (R), mm/sec^2
M205 X8.00 Y8.00 Z2.00 E10.00 ; sets the jerk limits, mm/sec
M205 S0 T0 ; sets the minimum extruding and travel feed rate, mm/sec
M107
;TYPE:Custom
G90 ; use absolute coordinates
M83 ; extruder relative mode
M104 S170 ; set extruder temp for bed leveling
M140 S85 ; set bed temp
M109 R170 ; wait for bed leveling temp
M190 S85 ; wait for bed temp
G28 ; home all without mesh bed level
G29 ; mesh bed leveling 
M104 S240 ; set extruder temp
G92 E0.0
G1 Y-2.0 X179 F2400
G1 Z3 F720
M109 S240 ; wait for extruder temp

; intro line
G1 X170 F1000
G1 Z0.2 F720
G1 X110.0 E8.0 F900
G1 X40.0 E10.0 F700
G92 E0.0

M221 S95 ; set flow
G21 ; set units to millimeters
G90 ; use absolute coordinates
M83 ; use relative distances for extrusion
M900 K0.2 ; Filament gcode
;LAYER_CHANGE
;Z:0.2
;HEIGHT:0.2
;BEFORE_LAYER_CHANGE
G92 E0.0
;0.2


M73 P0 R29
G1 E-3.20000 F2400.000
G1 Z0.200 F9000.000
;AFTER_LAYER_CHANGE
;0.2
G1 Z0.400
G1 X44.028 Y45.298
G1 Z0.200
G1 E3.20000 F1500.000
M204 S800
;TYPE:Skirt
;WIDTH:0.42
G1 F1200.000
G1 X44.945 Y45.097 E0.02942
G1 X84.992 Y45.096 E1.25564
M73 P1 R29
G1 X85.880 Y45.270 E0.02837
G1 X86.636 Y45.760 E0.02825
G1 X87.156 Y46.500 E0.02837
G1 X87.363 Y47.381 E0.02837
G1 X87.365 Y87.511 E1.25827
G1 X87.190 Y88.369 E0.02743
G1 X86.717 Y89.105 E0.02743
G1 X85.933 Y89.654 E0.03001
G1 X84.993 Y89.850 E0.03013
G1 X44.950 Y89.850 E1.25552
G1 X44.092 Y89.675 E0.02743
G1 X43.357 Y89.202 E0.02743
G1 X42.807 Y88.419 E0.03001
G1 X42.611 Y87.478 E0.03013
G1 X42.611 Y47.435 E1.25552
G1 X42.786 Y46.578 E0.02743
G1 X43.259 Y45.842 E0.02743
G1 X43.979 Y45.333 E0.02766
M204 S1250
; printing object SliderFrontPart02 id:0 copy 0
G1 E-2.24000 F2400.000
;WIPE_START
G1 F7200.000
G1 X44.945 Y45.097 E-0.31477
G1 X46.831 Y45.097 E-0.59723
;WIPE_END
G1 E-0.04800 F2400.000
G1 Z0.400 F9000.000
G1 X56.824 Y58.982
G1 Z0.200
G1 E3.20000 F1500.000
M204 S800
;TYPE:Perimeter
G1 F1200.000
G1 X57.260 Y58.572 E0.01876
G1 X57.754 Y58.166 E0.02005
G1 X58.267 Y57.790 E0.01993
G1 X58.798 Y57.441 E0.01993
G1 X59.348 Y57.122 E0.01993
G1 X59.914 Y56.833 E0.01993
G1 X60.495 Y56.575 E0.01993
G1 X61.089 Y56.349 E0.01993
G1 X61.698 Y56.154 E0.02006
G1 X62.616 Y55.927 E0.02964
G1 X63.246 Y55.815 E0.02005
G1 X63.881 Y55.738 E0.02005
G1 X64.825 Y55.687 E0.02964
G1 X65.465 Y55.695 E0.02007
G1 X66.103 Y55.738 E0.02004
G1 X67.039 Y55.865 E0.02964
G1 X67.666 Y55.994 E0.02006
G1 X68.281 Y56.155 E0.01993
G1 X68.886 Y56.349 E0.01993
G1 X69.476 Y56.573 E0.01978
G1 X70.343 Y56.972 E0.02992
G1 X70.905 Y57.278 E0.02006
G1 X71.446 Y57.612 E0.01993
G1 X71.968 Y57.974 E0.01993
G1 X72.473 Y58.367 E0.02006
G1 X73.178 Y58.996 E0.02964
G1 X73.626 Y59.453 E0.02005
G1 X74.043 Y59.926 E0.01978
G1 X74.624 Y60.683 E0.02992
G1 X74.978 Y61.216 E0.02006
G1 X75.298 Y61.760 E0.01978
G1 X75.728 Y62.616 E0.03004
G1 X76.084 Y63.496 E0.02977
G1 X76.284 Y64.104 E0.02005
G1 X76.449 Y64.718 E0.01993
G1 X76.581 Y65.339 E0.01993
G1 X76.679 Y65.968 E0.01993
G1 X76.743 Y66.600 E0.01993
G1 X76.773 Y67.235 E0.01993
G1 X76.769 Y67.870 E0.01993
G1 X76.731 Y68.500 E0.01978
G1 X76.609 Y69.447 E0.02992
G1 X76.485 Y70.074 E0.02006
G1 X76.329 Y70.685 E0.01978
G1 X76.031 Y71.596 E0.03004
G1 X75.663 Y72.471 E0.02977
G1 X75.377 Y73.043 E0.02005
G1 X75.061 Y73.595 E0.01993
G1 X74.717 Y74.129 E0.01993
G1 X74.344 Y74.644 E0.01993
G1 X73.943 Y75.138 E0.01993
G1 X73.517 Y75.609 E0.01993
G1 X73.066 Y76.057 E0.01993
G1 X72.592 Y76.480 E0.01993
G1 X72.095 Y76.877 E0.01993
G1 X71.578 Y77.247 E0.01993
G1 X71.041 Y77.588 E0.01993
G1 X70.484 Y77.901 E0.02006
G1 X69.631 Y78.308 E0.02964
G1 X69.036 Y78.544 E0.02005
G1 X68.438 Y78.745 E0.01978
G1 X67.515 Y78.987 E0.02992
G1 X66.887 Y79.107 E0.02006
G1 X66.252 Y79.193 E0.02008
G1 X65.260 Y79.258 E0.03118
G1 X64.669 Y79.257 E0.01852
G1 X64.035 Y79.222 E0.01991
G1 X63.403 Y79.154 E0.01993
G1 X62.776 Y79.051 E0.01993
G1 X62.155 Y78.915 E0.01993
G1 X61.538 Y78.745 E0.02006
G1 X60.642 Y78.431 E0.02977
G1 X59.775 Y78.046 E0.02977
G1 X59.209 Y77.747 E0.02006
G1 X58.664 Y77.421 E0.01993
G1 X58.137 Y77.065 E0.01993
G1 X57.629 Y76.682 E0.01993
G1 X57.144 Y76.272 E0.01993
G1 X56.681 Y75.836 E0.01993
G1 X56.242 Y75.376 E0.01993
G1 X55.832 Y74.897 E0.01978
G1 X55.259 Y74.129 E0.03004
G1 X54.755 Y73.325 E0.02977
G1 X54.453 Y72.761 E0.02006
G1 X54.183 Y72.185 E0.01993
G1 X53.945 Y71.596 E0.01993
G1 X53.737 Y70.991 E0.02005
G1 X53.491 Y70.078 E0.02964
G1 X53.367 Y69.451 E0.02005
G1 X53.277 Y68.821 E0.01993
G1 X53.222 Y68.188 E0.01993
G1 X53.200 Y67.550 E0.02002
G1 X53.232 Y66.604 E0.02968
G1 X53.297 Y65.968 E0.02006
G1 X53.395 Y65.339 E0.01993
G1 X53.527 Y64.718 E0.01993
G1 X53.693 Y64.100 E0.02006
G1 X54.001 Y63.202 E0.02977
G1 X54.381 Y62.332 E0.02977
G1 X54.675 Y61.764 E0.02005
G1 X54.998 Y61.216 E0.01993
G1 X55.350 Y60.687 E0.01993
G1 X55.730 Y60.177 E0.01993
G1 X56.136 Y59.689 E0.01993
G1 X56.572 Y59.220 E0.02005
G1 X56.781 Y59.023 E0.00900
M204 S1250
G1 X57.039 Y59.298 F9000.000
M204 S800
;TYPE:External perimeter
G1 F1200.000
G1 X57.509 Y58.855 E0.02024
G1 X57.986 Y58.464 E0.01934
G1 X58.482 Y58.100 E0.01929
G1 X58.996 Y57.762 E0.01929
G1 X59.529 Y57.454 E0.01929
G1 X60.077 Y57.174 E0.01929
G1 X60.639 Y56.924 E0.01929
G1 X61.214 Y56.705 E0.01929
G1 X61.801 Y56.517 E0.01934
G1 X62.694 Y56.296 E0.02885
G1 X63.302 Y56.188 E0.01934
G1 X63.914 Y56.113 E0.01934
G1 X64.833 Y56.064 E0.02885
G1 X65.450 Y56.072 E0.01935
G1 X66.065 Y56.114 E0.01932
G1 X66.976 Y56.237 E0.02885
G1 X67.580 Y56.361 E0.01934
G1 X68.176 Y56.517 E0.01929
G1 X68.762 Y56.705 E0.01929
G1 X69.330 Y56.921 E0.01907
G1 X70.174 Y57.309 E0.02912
G1 X70.715 Y57.604 E0.01934
G1 X71.239 Y57.928 E0.01929
G1 X71.744 Y58.278 E0.01929
G1 X72.231 Y58.657 E0.01934
G1 X72.918 Y59.269 E0.02885
G1 X73.350 Y59.710 E0.01934
G1 X73.751 Y60.166 E0.01907
G1 X74.317 Y60.903 E0.02912
G1 X74.658 Y61.417 E0.01934
G1 X74.967 Y61.940 E0.01907
G1 X75.384 Y62.771 E0.02916
G1 X75.730 Y63.626 E0.02889
G1 X75.922 Y64.212 E0.01934
G1 X76.082 Y64.806 E0.01929
G1 X76.210 Y65.408 E0.01929
G1 X76.305 Y66.016 E0.01929
G1 X76.367 Y66.628 E0.01929
G1 X76.396 Y67.243 E0.01929
G1 X76.392 Y67.858 E0.01929
G1 X76.355 Y68.465 E0.01907
G1 X76.237 Y69.386 E0.02912
G1 X76.117 Y69.991 E0.01934
G1 X75.967 Y70.580 E0.01907
G1 X75.678 Y71.464 E0.02916
G1 X75.321 Y72.314 E0.02889
G1 X75.044 Y72.865 E0.01934
G1 X74.739 Y73.399 E0.01929
G1 X74.405 Y73.916 E0.01929
G1 X74.044 Y74.414 E0.01929
G1 X73.657 Y74.892 E0.01929
G1 X73.244 Y75.349 E0.01929
G1 X72.808 Y75.783 E0.01929
G1 X72.348 Y76.192 E0.01929
G1 X71.868 Y76.576 E0.01929
G1 X71.367 Y76.934 E0.01929
G1 X70.848 Y77.264 E0.01929
G1 X70.310 Y77.566 E0.01934
G1 X69.480 Y77.962 E0.02885
G1 X68.906 Y78.190 E0.01934
G1 X68.330 Y78.383 E0.01907
G1 X67.432 Y78.619 E0.02912
G1 X66.826 Y78.735 E0.01934
G1 X66.215 Y78.818 E0.01934
G1 X65.248 Y78.881 E0.03037
G1 X64.680 Y78.880 E0.01781
G1 X64.066 Y78.846 E0.01929
G1 X63.454 Y78.780 E0.01929
G1 X62.847 Y78.681 E0.01929
G1 X62.246 Y78.549 E0.01929
G1 X61.651 Y78.385 E0.01934
G1 X60.782 Y78.080 E0.02889
G1 X59.939 Y77.706 E0.02889
G1 X59.394 Y77.418 E0.01934
G1 X58.866 Y77.102 E0.01929
G1 X58.356 Y76.758 E0.01929
G1 X57.865 Y76.387 E0.01929
G1 X57.395 Y75.990 E0.01929
G1 X56.947 Y75.569 E0.01929
G1 X56.522 Y75.124 E0.01929
G1 X56.126 Y74.662 E0.01907
G1 X55.570 Y73.916 E0.02916
G1 X55.081 Y73.135 E0.02889
G1 X54.790 Y72.592 E0.01934
G1 X54.529 Y72.035 E0.01929
G1 X54.298 Y71.464 E0.01929
G1 X54.098 Y70.881 E0.01934
G1 X53.859 Y69.992 E0.02885
G1 X53.739 Y69.387 E0.01934
G1 X53.652 Y68.778 E0.01929
G1 X53.598 Y68.165 E0.01929
G1 X53.578 Y67.550 E0.01931
G1 X53.609 Y66.629 E0.02888
G1 X53.671 Y66.016 E0.01934
G1 X53.766 Y65.408 E0.01929
G1 X53.894 Y64.806 E0.01929
G1 X54.054 Y64.210 E0.01934
G1 X54.353 Y63.339 E0.02889
G1 X54.721 Y62.494 E0.02889
G1 X55.005 Y61.947 E0.01934
G1 X55.318 Y61.417 E0.01929
G1 X55.658 Y60.904 E0.01929
G1 X56.026 Y60.411 E0.01929
G1 X56.420 Y59.938 E0.01929
G1 X56.995 Y59.339 E0.02605
M204 S1250
G1 X56.937 Y58.911 F9000.000
G1 E-2.24000 F2400.000
;WIPE_START
G1 F7200.000
G1 X57.509 Y58.855 E-0.22342
G1 X57.986 Y58.464 E-0.19530
G1 X58.482 Y58.100 E-0.19485
G1 X58.996 Y57.762 E-0.19485
G1 X59.279 Y57.598 E-0.10357
;WIPE_END
G1 E-0.04800 F2400.000
G1 Z0.400 F9000.000
G1 X54.273 Y55.920
G1 Z0.200
G1 E3.20000 F1500.000
M204 S800
;TYPE:Perimeter
G1 F1200.000
G1 X53.953 Y56.120 E0.01182
G1 X53.621 Y56.280 E0.01156
G1 X53.273 Y56.402 E0.01155
G1 X52.915 Y56.484 E0.01154
G1 X52.363 Y56.532 E0.01735
G1 X51.820 Y56.486 E0.01710
G1 X51.453 Y56.402 E0.01182
G1 X51.104 Y56.280 E0.01156
G1 X50.772 Y56.120 E0.01156
G1 X50.453 Y55.920 E0.01182
G1 X50.043 Y55.574 E0.01682
G1 X49.792 Y55.293 E0.01181
G1 X49.579 Y54.993 E0.01154
G1 X49.324 Y54.502 E0.01735
G1 X49.159 Y53.982 E0.01710
G1 X49.095 Y53.611 E0.01182
G1 X49.075 Y53.242 E0.01156
G1 X49.095 Y52.874 E0.01156
G1 X49.159 Y52.503 E0.01182
G1 X49.321 Y51.992 E0.01682
G1 X49.485 Y51.652 E0.01182
G1 X49.686 Y51.333 E0.01182
G1 X50.037 Y50.917 E0.01708
G1 X50.453 Y50.565 E0.01708
G1 X50.772 Y50.365 E0.01182
G1 X51.112 Y50.201 E0.01182
G1 X51.623 Y50.038 E0.01682
G1 X51.994 Y49.975 E0.01181
G1 X52.362 Y49.954 E0.01154
G1 X52.905 Y49.999 E0.01709
G1 X53.273 Y50.083 E0.01184
G1 X53.621 Y50.205 E0.01156
G1 X53.953 Y50.365 E0.01156
G1 X54.273 Y50.565 E0.01182
G1 X54.689 Y50.917 E0.01708
G1 X55.040 Y51.333 E0.01708
G1 X55.241 Y51.652 E0.01182
G1 X55.404 Y51.992 E0.01182
G1 X55.567 Y52.503 E0.01682
G1 X55.630 Y52.874 E0.01182
G1 X55.651 Y53.242 E0.01156
G1 X55.630 Y53.611 E0.01156
G1 X55.567 Y53.982 E0.01182
G1 X55.404 Y54.493 E0.01682
G1 X55.241 Y54.833 E0.01182
G1 X55.040 Y55.152 E0.01182
G1 X54.689 Y55.568 E0.01708
G1 X54.318 Y55.881 E0.01520
M204 S1250
G1 X54.421 Y55.301 F9000.000
M204 S800
;TYPE:External perimeter
G1 F1200.000
G1 X54.049 Y55.614 E0.01525
G1 X53.771 Y55.790 E0.01033
G1 X53.477 Y55.931 E0.01023
G1 X53.169 Y56.039 E0.01023
G1 X52.856 Y56.111 E0.01006
G1 X52.363 Y56.153 E0.01551
G1 X51.878 Y56.112 E0.01526
G1 X51.557 Y56.039 E0.01033
G1 X51.249 Y55.931 E0.01023
G1 X50.955 Y55.790 E0.01023
G1 X50.676 Y55.614 E0.01033
G1 X50.307 Y55.303 E0.01516
G1 X50.087 Y55.057 E0.01032
G1 X49.902 Y54.796 E0.01006
G1 X49.674 Y54.357 E0.01551
G1 X49.526 Y53.893 E0.01526
G1 X49.471 Y53.568 E0.01033
G1 X49.452 Y53.242 E0.01023
G1 X49.471 Y52.917 E0.01023
G1 X49.526 Y52.592 E0.01033
G1 X49.673 Y52.131 E0.01516
G1 X49.816 Y51.835 E0.01033
G1 X49.991 Y51.556 E0.01033
G1 X50.305 Y51.184 E0.01525
G1 X50.676 Y50.870 E0.01525
G1 X50.955 Y50.695 E0.01033
G1 X51.252 Y50.552 E0.01033
G1 X51.712 Y50.405 E0.01516
G1 X52.037 Y50.350 E0.01032
G1 X52.357 Y50.332 E0.01006
G1 X52.847 Y50.372 E0.01542
G1 X53.168 Y50.446 E0.01033
G1 X53.477 Y50.554 E0.01023
G1 X53.771 Y50.695 E0.01023
G1 X54.049 Y50.870 E0.01033
G1 X54.421 Y51.184 E0.01525
G1 X54.735 Y51.556 E0.01525
G1 X54.910 Y51.835 E0.01033
G1 X55.053 Y52.131 E0.01033
G1 X55.200 Y52.592 E0.01516
G1 X55.255 Y52.917 E0.01033
G1 X55.273 Y53.242 E0.01023
G1 X55.255 Y53.568 E0.01023
G1 X55.200 Y53.893 E0.01033
G1 X55.053 Y54.354 E0.01516
G1 X54.910 Y54.650 E0.01033
G1 X54.735 Y54.929 E0.01033
G1 X54.460 Y55.255 E0.01337
M204 S1250
G1 X54.521 Y55.688 F9000.000
G1 E-2.24000 F2400.000
;WIPE_START
G1 F7200.000
G1 X54.049 Y55.614 E-0.17277
G1 X53.771 Y55.790 E-0.10429
G1 X53.477 Y55.931 E-0.10335
G1 X53.169 Y56.039 E-0.10333
G1 X52.856 Y56.111 E-0.10156
G1 X52.363 Y56.153 E-0.15668
G1 X51.878 Y56.112 E-0.15408
G1 X51.829 Y56.101 E-0.01594
;WIPE_END
G1 E-0.04800 F2400.000
G1 Z0.400 F9000.000
M73 P2 R29
G1 X75.074 Y54.502
G1 Z0.200
G1 E3.20000 F1500.000
M204 S800
;TYPE:Perimeter
G1 F1200.000
G1 X74.909 Y53.982 E0.01710
G1 X74.845 Y53.611 E0.01182
G1 X74.824 Y53.234 E0.01182
G1 X74.869 Y52.700 E0.01682
G1 X74.953 Y52.332 E0.01182
G1 X75.075 Y51.984 E0.01156
G1 X75.235 Y51.652 E0.01156
G1 X75.436 Y51.333 E0.01182
G1 X75.787 Y50.917 E0.01708
G1 X76.203 Y50.565 E0.01708
G1 X76.522 Y50.365 E0.01182
G1 X76.862 Y50.201 E0.01182
G1 X77.373 Y50.038 E0.01682
G1 X77.744 Y49.975 E0.01181
G1 X78.112 Y49.954 E0.01154
G1 X78.655 Y49.999 E0.01709
G1 X79.023 Y50.083 E0.01184
G1 X79.371 Y50.205 E0.01156
G1 X79.703 Y50.365 E0.01156
G1 X80.023 Y50.565 E0.01182
G1 X80.439 Y50.917 E0.01708
G1 X80.790 Y51.333 E0.01708
G1 X80.991 Y51.652 E0.01182
G1 X81.151 Y51.984 E0.01156
G1 X81.272 Y52.332 E0.01155
G1 X81.354 Y52.691 E0.01154
G1 X81.402 Y53.242 E0.01735
G1 X81.356 Y53.785 E0.01710
G1 X81.272 Y54.153 E0.01182
G1 X81.148 Y54.509 E0.01182
G1 X80.902 Y54.985 E0.01682
G1 X80.684 Y55.293 E0.01182
G1 X80.432 Y55.574 E0.01182
G1 X80.023 Y55.920 E0.01682
G1 X79.703 Y56.120 E0.01182
G1 X79.371 Y56.280 E0.01156
G1 X79.023 Y56.402 E0.01155
G1 X78.665 Y56.484 E0.01154
G1 X78.113 Y56.532 E0.01735
G1 X77.570 Y56.486 E0.01710
G1 X77.203 Y56.402 E0.01182
G1 X76.854 Y56.280 E0.01156
G1 X76.522 Y56.120 E0.01156
G1 X76.203 Y55.920 E0.01182
G1 X75.793 Y55.574 E0.01682
G1 X75.542 Y55.293 E0.01181
G1 X75.329 Y54.993 E0.01154
G1 X75.102 Y54.555 E0.01547
M204 S1250
G1 X75.436 Y54.381 F9000.000
M204 S800
;TYPE:External perimeter
G1 F1200.000
G1 X75.276 Y53.893 E0.01612
G1 X75.221 Y53.568 E0.01033
G1 X75.202 Y53.239 E0.01033
G1 X75.243 Y52.758 E0.01516
G1 X75.316 Y52.437 E0.01033
G1 X75.424 Y52.129 E0.01023
G1 X75.566 Y51.835 E0.01023
G1 X75.741 Y51.556 E0.01033
G1 X76.055 Y51.184 E0.01525
G1 X76.426 Y50.870 E0.01525
G1 X76.705 Y50.695 E0.01033
G1 X77.002 Y50.552 E0.01033
G1 X77.462 Y50.405 E0.01516
G1 X77.787 Y50.350 E0.01032
G1 X78.107 Y50.332 E0.01006
G1 X78.597 Y50.372 E0.01542
G1 X78.918 Y50.446 E0.01033
G1 X79.227 Y50.554 E0.01023
G1 X79.521 Y50.695 E0.01023
G1 X79.799 Y50.870 E0.01033
G1 X80.171 Y51.184 E0.01525
G1 X80.485 Y51.556 E0.01525
G1 X80.660 Y51.835 E0.01033
G1 X80.802 Y52.129 E0.01023
G1 X80.909 Y52.437 E0.01023
G1 X80.981 Y52.749 E0.01006
G1 X81.024 Y53.242 E0.01551
G1 X80.983 Y53.727 E0.01526
G1 X80.909 Y54.048 E0.01033
G1 X80.801 Y54.359 E0.01033
G1 X80.579 Y54.788 E0.01516
G1 X80.388 Y55.057 E0.01033
G1 X80.169 Y55.303 E0.01033
G1 X79.799 Y55.614 E0.01516
G1 X79.521 Y55.790 E0.01033
G1 X79.227 Y55.931 E0.01023
G1 X78.919 Y56.039 E0.01023
G1 X78.606 Y56.111 E0.01006
G1 X78.113 Y56.153 E0.01551
G1 X77.628 Y56.112 E0.01526
G1 X77.307 Y56.039 E0.01033
G1 X76.999 Y55.931 E0.01023
G1 X76.705 Y55.790 E0.01023
G1 X76.426 Y55.614 E0.01033
G1 X76.057 Y55.303 E0.01516
G1 X75.837 Y55.057 E0.01032
G1 X75.652 Y54.796 E0.01006
G1 X75.464 Y54.435 E0.01276
M204 S1250
G1 X75.040 Y54.328 F9000.000
G1 E-2.24000 F2400.000
;WIPE_START
G1 F7200.000
G1 X75.276 Y53.893 E-0.18154
G1 X75.221 Y53.568 E-0.10429
G1 X75.202 Y53.239 E-0.10429
G1 X75.243 Y52.758 E-0.15307
G1 X75.316 Y52.437 E-0.10429
G1 X75.424 Y52.129 E-0.10335
G1 X75.566 Y51.835 E-0.10335
G1 X75.663 Y51.680 E-0.05781
;WIPE_END
G1 E-0.04800 F2400.000
G1 Z0.400 F9000.000
G1 X77.744 Y78.225
G1 Z0.200
G1 E3.20000 F1500.000
M204 S800
;TYPE:Perimeter
G1 F1200.000
G1 X78.112 Y78.204 E0.01154
G1 X78.655 Y78.249 E0.01709
G1 X79.023 Y78.333 E0.01184
G1 X79.379 Y78.457 E0.01182
G1 X79.855 Y78.704 E0.01682
G1 X80.163 Y78.922 E0.01182
G1 X80.438 Y79.167 E0.01156
G1 X80.683 Y79.442 E0.01155
G1 X80.897 Y79.742 E0.01154
G1 X81.148 Y80.226 E0.01709
G1 X81.272 Y80.582 E0.01183
G1 X81.354 Y80.941 E0.01154
G1 X81.402 Y81.492 E0.01735
G1 X81.356 Y82.035 E0.01710
G1 X81.272 Y82.403 E0.01182
G1 X81.148 Y82.759 E0.01182
G1 X80.902 Y83.235 E0.01682
G1 X80.684 Y83.543 E0.01182
G1 X80.438 Y83.817 E0.01156
G1 X80.163 Y84.063 E0.01155
G1 X79.863 Y84.276 E0.01154
G1 X79.379 Y84.527 E0.01709
G1 X79.023 Y84.652 E0.01183
G1 X78.665 Y84.734 E0.01154
G1 X78.113 Y84.782 E0.01735
