; generated by PrusaSlicer 2.2.0+win64 on 2020-12-02 at 13:57:17 UTC


;
;

;
;
; 

; external perimeters extrusion width = 0.45mm
; perimeters extrusion width = 0.45mm
; infill extrusion width = 0.45mm
; solid infill extrusion width = 0.45mm
; top infill extrusion width = 0.40mm
; first layer extrusion width = 0.42mm

M73 P0 R4
M201 X1250 Y1250 Z400 E5000 ; sets maximum accelerations, mm/sec^2
M203 X180 Y180 Z12 E80 ; sets maximum feedrates, mm/sec
M204 P1250 R1250 T1250 ; sets acceleration (P, T) and retract acceleration (R), mm/sec^2
M205 X8.00 Y8.00 Z2.00 E10.00 ; sets the jerk limits, mm/sec
M205 S0 T0 ; sets the minimum extruding and travel feed rate, mm/sec
M107
G90 ; use absolute coordinates
M83 ; extruder relative mode
M104 S170 ; set extruder temp for bed leveling
M140 S60 ; set bed temp
M109 R170 ; wait for bed leveling temp
M190 S60 ; wait for bed temp
G28 ; home all without mesh bed level
G29 ; mesh bed leveling 
M104 S215 ; set extruder temp
G92 E0.0
G1 Y-2.0 X179 F2400
G1 Z3 F720
M109 S215 ; wait for extruder temp

; intro line
G1 X170 F1000
G1 Z0.2 F720
G1 X110.0 E8.0 F900
M73 P3 R4
G1 X40.0 E10.0 F700
G92 E0.0

M221 S95 ; set flow
G21 ; set units to millimeters
G90 ; use absolute coordinates
M83 ; use relative distances for extrusion
M900 K0.2 ; Filament gcode LA 1.5
; ; Filament gcode LA 1.0
;BEFORE_LAYER_CHANGE
G92 E0.0
;0.2


G1 Z0.200 F9000.000
;AFTER_LAYER_CHANGE
;0.2
G1 E-3.20000 F4200.00000
G1 Z0.400 F9000.000
G1 X85.160 Y82.459
G1 Z0.200
G1 E3.20000 F2400.00000
M204 S800
G1 F900
G1 X86.182 Y81.626 E0.04136
G1 X87.447 Y80.961 E0.04480
G1 X88.724 Y80.588 E0.04173
G1 X89.996 Y80.469 E0.04005
G1 X91.260 Y80.586 E0.03981
G1 X92.530 Y80.952 E0.04144
G1 X93.808 Y81.619 E0.04521
G1 X94.827 Y82.446 E0.04114
G1 X95.673 Y83.456 E0.04130
G1 X96.363 Y84.730 E0.04545
G1 X96.744 Y85.981 E0.04100
G1 X96.881 Y87.271 E0.04067
G1 X96.832 Y88.173 E0.02831
G1 X96.053 Y94.375 E0.19600
G1 X95.766 Y95.485 E0.03595
G1 X95.352 Y96.392 E0.03125
G1 X94.963 Y97.000 E0.02262
G1 X94.399 Y97.672 E0.02750
G1 X93.867 Y98.158 E0.02259
G1 X93.158 Y98.656 E0.02719
G1 X92.382 Y99.050 E0.02729
G1 X91.700 Y99.292 E0.02268
G1 X90.846 Y99.473 E0.02737
G1 X90.094 Y99.531 E0.02364
G1 X89.255 Y99.486 E0.02635
G1 X88.516 Y99.349 E0.02356
G1 X87.686 Y99.079 E0.02737
G1 X86.904 Y98.692 E0.02737
G1 X86.279 Y98.273 E0.02358
G1 X85.625 Y97.696 E0.02737
G1 X85.148 Y97.149 E0.02274
G1 X84.672 Y96.435 E0.02690
G1 X84.242 Y95.507 E0.03209
G1 X83.950 Y94.391 E0.03615
G1 X83.168 Y88.176 E0.19642
G1 X83.119 Y87.312 E0.02713
G1 X83.251 Y86.007 E0.04114
G1 X83.633 Y84.741 E0.04143
G1 X84.323 Y83.462 E0.04559
G1 X85.121 Y82.505 E0.03906
M204 S1250
G1 X85.409 Y82.746 F9000.000
M204 S800
G1 F900
G1 X86.391 Y81.940 E0.03983
G1 X87.590 Y81.310 E0.04248
G1 X88.798 Y80.958 E0.03945
G1 X89.996 Y80.846 E0.03771
G1 X91.191 Y80.956 E0.03764
G1 X92.384 Y81.299 E0.03893
G1 X93.603 Y81.936 E0.04311
G1 X94.562 Y82.715 E0.03873
G1 X95.359 Y83.665 E0.03891
G1 X96.016 Y84.878 E0.04324
G1 X96.374 Y86.056 E0.03860
G1 X96.503 Y87.275 E0.03843
G1 X96.457 Y88.128 E0.02678
G1 X95.682 Y94.308 E0.19528
G1 X95.464 Y95.202 E0.02886
G1 X95.036 Y96.183 E0.03357
G1 X94.133 Y97.404 E0.04759
G1 X92.970 Y98.329 E0.04659
G1 X91.599 Y98.928 E0.04694
G1 X90.793 Y99.100 E0.02581
G1 X90.092 Y99.154 E0.02205
G1 X89.263 Y99.107 E0.02603
G1 X88.465 Y98.946 E0.02554
G1 X87.083 Y98.360 E0.04706
G1 X85.884 Y97.422 E0.04772
G1 X84.984 Y96.220 E0.04710
G1 X84.550 Y95.244 E0.03348
G1 X84.320 Y94.318 E0.02993
G1 X83.496 Y87.309 E0.22125
G1 X83.621 Y86.081 E0.03873
G1 X83.980 Y84.889 E0.03903
G1 X84.637 Y83.671 E0.04337
G1 X85.371 Y82.792 E0.03591
M204 S1250
G1 X85.659 Y83.033 F9000.000
M204 S800
G1 F900
G1 X86.597 Y82.256 E0.03819
G1 X87.734 Y81.658 E0.04028
G1 X88.869 Y81.329 E0.03704
G1 X89.995 Y81.223 E0.03548
G1 X91.144 Y81.331 E0.03619
G1 X92.376 Y81.703 E0.04034
G1 X93.420 Y82.267 E0.03721
G1 X94.297 Y82.983 E0.03551
G1 X95.048 Y83.879 E0.03664
G1 X95.667 Y85.023 E0.04078
G1 X96.004 Y86.131 E0.03633
G1 X96.126 Y87.275 E0.03607
G1 X96.083 Y88.083 E0.02538
G1 X95.313 Y94.226 E0.19412
G1 X95.122 Y95.036 E0.02608
G1 X94.789 Y95.845 E0.02742
G1 X94.388 Y96.508 E0.02430
G1 X93.893 Y97.109 E0.02442
G1 X92.808 Y97.986 E0.04375
G1 X91.504 Y98.563 E0.04470
G1 X90.089 Y98.777 E0.04486
G1 X89.314 Y98.734 E0.02434
G1 X88.561 Y98.581 E0.02409
G1 X87.267 Y98.031 E0.04411
G1 X86.148 Y97.152 E0.04460
G1 X85.301 Y96.015 E0.04446
G1 X84.895 Y95.089 E0.03168
G1 X84.690 Y94.249 E0.02712
G1 X83.873 Y87.307 E0.21917
G1 X83.991 Y86.154 E0.03633
G1 X84.329 Y85.032 E0.03676
G1 X84.950 Y83.880 E0.04102
G1 X85.621 Y83.079 E0.03275
M204 S1250
G1 E-2.24000 F4200.00000
G1 F7200.000
G1 X86.597 Y82.256 E-0.70775
G1 X86.923 Y82.084 E-0.20425
G1 E-0.04800 F4200.00000
G1 Z0.400 F9000.000
G1 X88.400 Y90.963
G1 Z0.200
G1 E3.20000 F2400.00000
M204 S800
G1 F900
G1 X88.666 Y91.122 E0.00972
G1 X89.074 Y91.272 E0.01361
G1 X89.303 Y91.323 E0.00735
G1 X89.697 Y91.377 E0.01249
G1 X90.101 Y91.387 E0.01265
G1 X90.504 Y91.355 E0.01270
G1 X90.906 Y91.277 E0.01281
G1 X91.135 Y91.204 E0.00756
G1 X91.533 Y91.021 E0.01374
G1 X91.599 Y90.972 E0.00257
G1 X91.568 Y91.234 E0.00828
G1 X91.645 Y91.729 E0.01571
G1 X91.775 Y92.045 E0.01071
G1 X91.976 Y92.406 E0.01297
G1 X92.066 Y92.610 E0.00699
G1 X92.166 Y92.953 E0.01120
G1 X92.199 Y93.163 E0.00667
G1 X92.208 Y93.520 E0.01118
G1 X92.187 Y93.731 E0.00667
G1 X92.105 Y94.079 E0.01118
G1 X92.030 Y94.278 E0.00667
G1 X91.866 Y94.586 E0.01095
G1 X91.658 Y94.865 E0.01092
G1 X91.509 Y95.018 E0.00670
G1 X91.235 Y95.235 E0.01094
G1 X90.938 Y95.403 E0.01071
G1 X90.618 Y95.524 E0.01071
G1 X90.284 Y95.593 E0.01071
G1 X89.943 Y95.611 E0.01071
G1 X89.603 Y95.576 E0.01071
G1 X89.273 Y95.489 E0.01071
G1 X88.953 Y95.349 E0.01095
G1 X88.764 Y95.235 E0.00691
G1 X88.588 Y95.103 E0.00691
G1 X88.338 Y94.859 E0.01095
G1 X88.133 Y94.586 E0.01071
G1 X87.970 Y94.278 E0.01095
G1 X87.895 Y94.079 E0.00667
G1 X87.815 Y93.739 E0.01095
G1 X87.788 Y93.392 E0.01092
G1 X87.800 Y93.171 E0.00694
G1 X87.834 Y92.953 E0.00691
G1 X87.934 Y92.610 E0.01120
G1 X88.024 Y92.406 E0.00699
G1 X88.225 Y92.045 E0.01297
G1 X88.355 Y91.729 E0.01071
G1 X88.432 Y91.234 E0.01571
G1 X88.407 Y91.023 E0.00666
M204 S1250
G1 X88.502 Y90.585 F9000.000
M204 S800
G1 F900
G1 X88.245 Y90.345 E0.01102
G1 X87.727 Y89.960 E0.02024
G1 X87.479 Y89.720 E0.01082
G1 X87.257 Y89.460 E0.01073
G1 X87.062 Y89.178 E0.01073
G1 X86.896 Y88.879 E0.01073
G1 X86.760 Y88.565 E0.01073
G1 X86.656 Y88.239 E0.01073
G1 X86.584 Y87.902 E0.01081
G1 X86.540 Y87.396 E0.01593
G1 X86.553 Y87.051 E0.01081
G1 X86.599 Y86.712 E0.01073
G1 X86.679 Y86.379 E0.01073
G1 X86.791 Y86.056 E0.01073
G1 X86.935 Y85.745 E0.01073
G1 X87.108 Y85.450 E0.01073
G1 X87.310 Y85.174 E0.01073
G1 X87.538 Y84.919 E0.01073
G1 X87.790 Y84.687 E0.01073
G1 X88.064 Y84.482 E0.01073
G1 X88.357 Y84.305 E0.01073
G1 X88.666 Y84.158 E0.01073
G1 X88.988 Y84.041 E0.01073
G1 X89.320 Y83.958 E0.01073
G1 X89.658 Y83.907 E0.01073
G1 X89.993 Y83.890 E0.01052
G1 X90.342 Y83.907 E0.01093
G1 X90.680 Y83.958 E0.01074
G1 X91.012 Y84.041 E0.01073
G1 X91.334 Y84.158 E0.01073
G1 X91.643 Y84.305 E0.01073
G1 X91.936 Y84.482 E0.01073
G1 X92.210 Y84.687 E0.01073
G1 X92.462 Y84.919 E0.01073
G1 X92.690 Y85.174 E0.01073
G1 X92.892 Y85.450 E0.01073
G1 X93.065 Y85.745 E0.01073
G1 X93.209 Y86.056 E0.01073
G1 X93.321 Y86.379 E0.01073
G1 X93.401 Y86.712 E0.01073
G1 X93.447 Y87.050 E0.01071
G1 X93.460 Y87.354 E0.00953
G1 X93.416 Y87.901 E0.01720
G1 X93.344 Y88.239 E0.01083
G1 X93.240 Y88.565 E0.01073
G1 X93.104 Y88.879 E0.01073
G1 X92.938 Y89.178 E0.01073
G1 X92.743 Y89.460 E0.01073
G1 X92.520 Y89.722 E0.01081
G1 X92.146 Y90.065 E0.01591
G1 X91.760 Y90.342 E0.01489
G1 X91.644 Y90.466 E0.00532
G1 X91.339 Y90.695 E0.01195
G1 X90.998 Y90.852 E0.01176
G1 X90.812 Y90.911 E0.00613
G1 X90.454 Y90.981 E0.01145
G1 X90.091 Y91.009 E0.01141
G1 X89.727 Y91.000 E0.01140
G1 X89.181 Y90.910 E0.01738
G1 X88.830 Y90.781 E0.01172
G1 X88.554 Y90.616 E0.01008
M204 S1250
G1 X88.178 Y90.721 F9000.000
G1 X87.987 Y90.808
M204 S800
G1 F900
G1 X87.876 Y90.594 E0.00758
G1 X87.774 Y90.295 E0.00990
G1 X87.662 Y90.081 E0.00756
G1 X87.525 Y89.890 E0.00737
G1 X87.229 Y89.553 E0.01406
G1 X87.040 Y89.291 E0.01015
G1 X86.875 Y89.012 E0.01016
G1 X86.736 Y88.720 E0.01016
G1 X86.625 Y88.418 E0.01008
G1 X86.511 Y87.948 E0.01517
G1 X86.471 Y87.622 E0.01029
G1 X86.461 Y87.298 E0.01015
G1 X86.480 Y86.975 E0.01016
G1 X86.529 Y86.655 E0.01016
G1 X86.607 Y86.343 E0.01008
G1 X86.776 Y85.890 E0.01517
G1 X86.925 Y85.597 E0.01029
G1 X87.098 Y85.323 E0.01015
G1 X87.295 Y85.067 E0.01016
G1 X87.515 Y84.829 E0.01016
G1 X87.755 Y84.614 E0.01008
G1 X88.149 Y84.334 E0.01517
G1 X88.436 Y84.175 E0.01029
G1 X88.733 Y84.045 E0.01015
G1 X89.040 Y83.943 E0.01016
G1 X89.356 Y83.870 E0.01016
G1 X89.674 Y83.826 E0.01008
G1 X90.158 Y83.814 E0.01517
G1 X90.485 Y83.844 E0.01029
G1 X90.803 Y83.903 E0.01015
G1 X91.115 Y83.991 E0.01016
G1 X91.417 Y84.107 E0.01016
G1 X91.706 Y84.249 E0.01008
G1 X92.112 Y84.510 E0.01517
G1 X92.367 Y84.718 E0.01029
G1 X92.597 Y84.945 E0.01015
G1 X92.806 Y85.193 E0.01016
G1 X92.992 Y85.458 E0.01016
G1 X93.151 Y85.738 E0.01008
G1 X93.341 Y86.182 E0.01517
G1 X93.435 Y86.497 E0.01029
G1 X93.499 Y86.814 E0.01015
G1 X93.533 Y87.136 E0.01016
G1 X93.538 Y87.460 E0.01016
G1 X93.513 Y87.783 E0.01016
G1 X93.459 Y88.102 E0.01016
G1 X93.376 Y88.416 E0.01016
G1 X93.264 Y88.720 E0.01016
G1 X93.125 Y89.012 E0.01016
G1 X92.960 Y89.291 E0.01016
G1 X92.771 Y89.553 E0.01015
G1 X92.475 Y89.890 E0.01406
G1 X92.338 Y90.081 E0.00737
G1 X92.226 Y90.295 E0.00756
G1 X92.124 Y90.594 E0.00990
G1 X92.013 Y90.808 E0.00758
G1 X91.980 Y90.957 E0.00477
G1 X91.949 Y91.227 E0.00851
G1 X92.011 Y91.627 E0.01270
G1 X92.115 Y91.881 E0.00860
G1 X92.314 Y92.238 E0.01284
G1 X92.421 Y92.481 E0.00832
G1 X92.535 Y92.870 E0.01272
G1 X92.575 Y93.129 E0.00820
G1 X92.586 Y93.534 E0.01271
G1 X92.559 Y93.794 E0.00820
G1 X92.467 Y94.189 E0.01271
G1 X92.375 Y94.433 E0.00820
G1 X92.186 Y94.789 E0.01263
G1 X91.945 Y95.110 E0.01259
G1 X91.762 Y95.298 E0.00823
G1 X91.446 Y95.548 E0.01262
G1 X91.098 Y95.745 E0.01254
G1 X90.724 Y95.887 E0.01254
G1 X90.333 Y95.969 E0.01254
G1 X89.933 Y95.989 E0.01254
G1 X89.535 Y95.948 E0.01254
G1 X89.149 Y95.846 E0.01254
G1 X88.780 Y95.685 E0.01263
G1 X88.553 Y95.549 E0.00828
G1 X88.342 Y95.390 E0.00828
G1 X88.054 Y95.109 E0.01263
G1 X87.814 Y94.789 E0.01254
G1 X87.625 Y94.433 E0.01262
G1 X87.533 Y94.189 E0.00820
G1 X87.441 Y93.797 E0.01263
G1 X87.411 Y93.396 E0.01259
G1 X87.424 Y93.131 E0.00831
G1 X87.465 Y92.870 E0.00828
G1 X87.579 Y92.481 E0.01272
G1 X87.686 Y92.238 E0.00832
G1 X87.885 Y91.881 E0.01284
G1 X87.989 Y91.627 E0.00860
G1 X88.051 Y91.227 E0.01270
G1 X88.000 Y90.867 E0.01139
M204 S1250
G1 X88.148 Y90.628 F9000.000
G1 E-2.24000 F4200.00000
G1 F7200.000
G1 X87.876 Y90.594 E-0.16636
G1 X87.774 Y90.295 E-0.17497
G1 X87.662 Y90.081 E-0.13367
G1 X87.525 Y89.890 E-0.13021
G1 X87.229 Y89.553 E-0.24855
G1 X87.168 Y89.468 E-0.05824
G1 E-0.04800 F4200.00000
G1 Z0.400 F9000.000
G1 X88.043 Y94.152
G1 Z0.200
G1 E3.20000 F2400.00000
M204 S800
G1 F900
G1 X88.799 Y94.907 E0.03502
G1 X88.923 Y95.001 E0.00508
G1 X89.083 Y95.097 E0.00615
G1 X89.366 Y95.221 E0.01013
G1 X89.756 Y95.307 E0.01309
G1 X88.091 Y93.642 E0.07719
G1 X88.072 Y93.388 E0.00836
G1 X88.098 Y93.092 E0.00974
G1 X90.306 Y95.300 E0.10235
G1 X90.539 Y95.251 E0.00780
G1 X90.739 Y95.176 E0.00702
G1 X88.222 Y92.658 E0.11671
G1 X88.412 Y92.291 E0.01357
G1 X91.101 Y94.980 E0.12468
G1 X91.401 Y94.723 E0.01296
G1 X88.587 Y91.908 E0.13048
G1 X88.629 Y91.805 E0.00365
G1 X88.685 Y91.448 E0.01185
G1 X91.642 Y94.406 E0.13711
G1 X91.822 Y94.028 E0.01371
G1 X89.418 Y91.624 E0.11144
G1 X89.675 Y91.659 E0.00849
G1 X90.019 Y91.668 E0.01129
G1 X91.919 Y93.568 E0.08809
G1 X91.917 Y93.189 E0.01242
G1 X91.875 Y92.966 E0.00744
G1 X90.545 Y91.636 E0.06168
G1 X91.008 Y91.542 E0.01551
G1 X91.814 Y92.347 E0.03735
M204 S1250
G1 E-2.24000 F4200.00000
G1 F7200.000
G1 X91.008 Y91.542 E-0.63143
G1 X90.545 Y91.636 E-0.26212
G1 X90.568 Y91.659 E-0.01845
G1 E-0.04800 F4200.00000
G1 Z0.400 F9000.000
G1 X91.843 Y90.681
G1 Z0.200
G1 E3.20000 F2400.00000
M204 S800
G1 F900
G1 X91.882 Y90.553 E0.00080
G1 X91.953 Y90.457 E0.00071
M204 S1250
M106 S255
;BEFORE_LAYER_CHANGE
G92 E0.0
;0.35


G1 Z0.350 F9000.000
;AFTER_LAYER_CHANGE
;0.35
G1 E-3.20000 F4200.00000
G1 Z0.550 F9000.000
G1 X96.474 Y91.025
G1 Z0.350
G1 E3.20000 F2400.00000
G1 F900
G1 X96.053 Y94.375 E0.08167
G1 X95.766 Y95.485 E0.02773
G1 X95.352 Y96.392 E0.02411
G1 X94.963 Y97.000 E0.01745
G1 X94.399 Y97.672 E0.02122
G1 X93.867 Y98.158 E0.01742
G1 X93.158 Y98.656 E0.02097
G1 X92.382 Y99.050 E0.02105
G1 X91.700 Y99.292 E0.01749
G1 X90.846 Y99.473 E0.02111
G1 X90.094 Y99.531 E0.01823
G1 X89.255 Y99.486 E0.02033
G1 X88.516 Y99.349 E0.01817
G1 X87.686 Y99.079 E0.02111
G1 X86.904 Y98.692 E0.02111
G1 X86.279 Y98.273 E0.01819
G1 X85.625 Y97.696 E0.02111
G1 X85.148 Y97.149 E0.01754
G1 X84.672 Y96.435 E0.02075
G1 X84.242 Y95.507 E0.02475
G1 X83.950 Y94.391 E0.02788
G1 X83.168 Y88.176 E0.15151
G1 X83.119 Y87.312 E0.02092
G1 X83.251 Y86.007 E0.03173
G1 X83.633 Y84.741 E0.03196
G1 X84.323 Y83.462 E0.03516
G1 X85.160 Y82.459 E0.03158
G1 X86.182 Y81.626 E0.03190
G1 X87.447 Y80.961 E0.03456
G1 X88.724 Y80.588 E0.03218
G1 X89.996 Y80.469 E0.03089
G1 X91.260 Y80.586 E0.03071
G1 X92.530 Y80.952 E0.03197
G1 X93.808 Y81.619 E0.03487
G1 X94.827 Y82.446 E0.03173
G1 X95.673 Y83.456 E0.03185
G1 X96.363 Y84.730 E0.03505
G1 X96.744 Y85.981 E0.03163
G1 X96.881 Y87.271 E0.03137
G1 X96.832 Y88.173 E0.02184
G1 X96.481 Y90.965 E0.06806
G1 E-2.24000 F4200.00000
G1 F7200.000
G1 X96.276 Y92.598 E-0.91200
G1 E-0.04800 F4200.00000
G1 Z0.550 F9000.000
G1 X94.133 Y97.404
G1 Z0.350
G1 E3.20000 F2400.00000
G1 F900
G1 X92.970 Y98.329 E0.03594
G1 X91.599 Y98.928 E0.03621
G1 X90.793 Y99.100 E0.01991
G1 X90.092 Y99.154 E0.01701
G1 X89.263 Y99.107 E0.02008
G1 X88.465 Y98.946 E0.01970
G1 X87.083 Y98.360 E0.03630
G1 X85.884 Y97.422 E0.03681
G1 X84.984 Y96.220 E0.03633
G1 X84.550 Y95.244 E0.02582
G1 X84.320 Y94.318 E0.02309
G1 X83.496 Y87.309 E0.17066
G1 X83.621 Y86.081 E0.02987
G1 X83.980 Y84.889 E0.03011
G1 X84.637 Y83.671 E0.03345
G1 X85.425 Y82.727 E0.02974
G1 X86.391 Y81.940 E0.03014
G1 X87.590 Y81.310 E0.03277
G1 X88.798 Y80.958 E0.03043
G1 X89.996 Y80.846 E0.02908
G1 X91.191 Y80.956 E0.02903
G1 X92.384 Y81.299 E0.03003
G1 X93.603 Y81.936 E0.03325
G1 X94.562 Y82.715 E0.02987
G1 X95.359 Y83.665 E0.03001
G1 X96.016 Y84.878 E0.03335
G1 X96.374 Y86.056 E0.02977
G1 X96.503 Y87.275 E0.02964
G1 X96.457 Y88.128 E0.02066
G1 X95.682 Y94.308 E0.15063
G1 X95.464 Y95.202 E0.02226
G1 X95.036 Y96.183 E0.02589
G1 X94.169 Y97.355 E0.03526
G1 E-2.24000 F4200.00000
G1 F7200.000
G1 X92.970 Y98.329 E-0.85569
G1 X92.877 Y98.369 E-0.05631
G1 E-0.04800 F4200.00000
G1 Z0.550 F9000.000
G1 X92.808 Y97.986
G1 Z0.350
G1 E3.20000 F2400.00000
G1 F900
G1 X91.504 Y98.563 E0.03448
G1 X90.089 Y98.777 E0.03460
G1 X89.314 Y98.734 E0.01878
G1 X88.561 Y98.581 E0.01858
G1 X87.267 Y98.031 E0.03402
G1 X86.148 Y97.152 E0.03440
G1 X85.301 Y96.015 E0.03430
G1 X84.895 Y95.089 E0.02443
G1 X84.690 Y94.249 E0.02092
G1 X83.873 Y87.307 E0.16905
G1 X83.991 Y86.154 E0.02802
G1 X84.329 Y85.032 E0.02836
G1 X84.950 Y83.880 E0.03164
G1 X85.693 Y82.992 E0.02800
G1 X86.597 Y82.256 E0.02819
G1 X87.734 Y81.658 E0.03107
G1 X88.869 Y81.329 E0.02857
G1 X89.995 Y81.223 E0.02737
G1 X91.144 Y81.331 E0.02791
G1 X92.376 Y81.703 E0.03111
G1 X93.420 Y82.267 E0.02870
G1 X94.297 Y82.983 E0.02739
G1 X95.048 Y83.879 E0.02826
G1 X95.667 Y85.023 E0.03145
G1 X96.004 Y86.131 E0.02802
G1 X96.126 Y87.275 E0.02782
G1 X96.083 Y88.083 E0.01958
G1 X95.313 Y94.226 E0.14973
G1 X95.122 Y95.036 E0.02012
G1 X94.789 Y95.845 E0.02115
G1 X94.388 Y96.508 E0.01874
G1 X93.893 Y97.109 E0.01883
G1 X92.854 Y97.948 E0.03230
G1 E-2.24000 F4200.00000
G1 F7200.000
G1 X91.504 Y98.563 E-0.82221
G1 X91.344 Y98.587 E-0.08980
G1 E-0.04800 F4200.00000
G1 Z0.550 F9000.000
G1 X91.590 Y90.905
G1 Z0.350
G1 E3.20000 F2400.00000
M204 S800
G1 F900
G1 X91.661 Y90.868 E0.00209
