; generated by PrusaSlicer 2.2.0+win64 on 2020-10-18 at 18:41:06 UTC


;
;

;
;
; 

; external perimeters extrusion width = 0.45mm
; perimeters extrusion width = 0.45mm
; infill extrusion width = 0.45mm
; solid infill extrusion width = 0.45mm
; top infill extrusion width = 0.40mm
; first layer extrusion width = 0.42mm

M73 P0 R110
M201 X1250 Y1250 Z400 E5000 ; sets maximum accelerations, mm/sec^2
M203 X180 Y180 Z12 E80 ; sets maximum feedrates, mm/sec
M204 P1250 R1250 T1250 ; sets acceleration (P, T) and retract acceleration (R), mm/sec^2
M205 X8.00 Y8.00 Z2.00 E10.00 ; sets the jerk limits, mm/sec
M205 S0 T0 ; sets the minimum extruding and travel feed rate, mm/sec
M107
G90 ; use absolute coordinates
M83 ; extruder relative mode
M104 S170 ; set extruder temp for bed leveling
M140 S60 ; set bed temp
M109 R170 ; wait for bed leveling temp
M190 S60 ; wait for bed temp
G28 ; home all without mesh bed level
G29 ; mesh bed leveling 
M104 S215 ; set extruder temp
G92 E0.0
G1 Y-2.0 X179 F2400
G1 Z3 F720
M109 S215 ; wait for extruder temp

; intro line
G1 X170 F1000
G1 Z0.2 F720
G1 X110.0 E8.0 F900
M73 P0 R110
G1 X40.0 E10.0 F700
G92 E0.0

M221 S95 ; set flow
G21 ; set units to millimeters
G90 ; use absolute coordinates
M83 ; use relative distances for extrusion
M900 K0.2 ; Filament gcode LA 1.5
; ; Filament gcode LA 1.0
;BEFORE_LAYER_CHANGE
G92 E0.0
;0.2


G1 Z0.200 F9000.000
;AFTER_LAYER_CHANGE
;0.2
G1 E-3.20000 F4200.00000
G1 Z0.400 F9000.000
G1 X55.274 Y23.014
G1 Z0.200
G1 E3.20000 F2400.00000
M204 S800
G1 F1200.000
G1 X55.641 Y22.501 E0.01977
G1 X56.129 Y22.103 E0.01977
G1 X56.705 Y21.847 E0.01977
G1 X57.329 Y21.752 E0.01977
G1 X122.630 Y21.752 E2.04748
G1 X123.469 Y21.906 E0.02673
G1 X124.199 Y22.346 E0.02673
G1 X124.726 Y23.015 E0.02673
G1 X124.985 Y23.831 E0.02684
G1 X132.367 Y98.550 E2.35417
G1 X132.377 Y152.898 E1.70404
G1 X132.206 Y154.216 E0.04168
G1 X131.722 Y155.443 E0.04134
G1 X130.903 Y156.570 E0.04368
G1 X129.808 Y157.457 E0.04420
G1 X128.563 Y158.016 E0.04279
G1 X127.814 Y158.186 E0.02409
G1 X127.071 Y158.248 E0.02336
G1 X52.981 Y158.248 E2.32305
G1 X51.654 Y158.077 E0.04194
G1 X50.429 Y157.594 E0.04132
G1 X49.311 Y156.784 E0.04327
G1 X48.443 Y155.725 E0.04294
G1 X47.872 Y154.490 E0.04266
G1 X47.630 Y153.143 E0.04290
G1 X47.628 Y98.633 E1.70914
G1 X55.008 Y23.891 E2.35487
G1 X55.256 Y23.072 E0.02684
M204 S1250
G1 E-2.24000 F4200.00000
G1 F7200.000
G1 X55.641 Y22.501 E-0.38100
G1 X56.129 Y22.103 E-0.34937
G1 X56.429 Y21.970 E-0.18163
G1 E-0.04800 F4200.00000
G1 Z0.400 F9000.000
G1 X57.163 Y96.658
G1 Z0.200
G1 E3.20000 F2400.00000
M204 S800
G1 F1200.000
G1 X57.163 Y155.084 E1.83190
G1 X53.022 Y155.084 E0.12982
G1 X52.665 Y155.057 E0.01123
G1 X52.337 Y154.981 E0.01056
G1 X52.026 Y154.857 E0.01050
G1 X51.737 Y154.686 E0.01053
G1 X51.477 Y154.474 E0.01053
G1 X51.251 Y154.225 E0.01054
G1 X51.063 Y153.938 E0.01075
G1 X50.970 Y153.750 E0.00659
G1 X50.859 Y153.426 E0.01073
G1 X50.799 Y153.088 E0.01076
G1 X50.787 Y152.854 E0.00734
G1 X50.791 Y98.767 E1.69587
G1 X50.835 Y98.418 E0.01102
G1 X50.889 Y98.209 E0.00677
G1 X50.967 Y97.999 E0.00703
G1 X51.180 Y97.614 E0.01378
G1 X51.397 Y97.348 E0.01078
G1 X51.653 Y97.117 E0.01082
G1 X52.026 Y96.885 E0.01375
G1 X52.232 Y96.797 E0.00703
G1 X52.437 Y96.733 E0.00673
G1 X52.784 Y96.670 E0.01106
G1 X53.017 Y96.658 E0.00733
G1 X57.103 Y96.658 E0.12810
M204 S1250
G1 X57.540 Y96.281 F9000.000
M204 S800
G1 F1200.000
G1 X57.540 Y155.461 E1.85555
G1 X53.008 Y155.461 E0.14209
G1 X52.608 Y155.431 E0.01259
G1 X52.224 Y155.342 E0.01236
G1 X51.860 Y155.196 E0.01230
G1 X51.521 Y154.997 E0.01233
G1 X51.216 Y154.748 E0.01233
G1 X50.952 Y154.456 E0.01234
G1 X50.735 Y154.126 E0.01241
G1 X50.621 Y153.894 E0.00809
G1 X50.493 Y153.520 E0.01238
G1 X50.423 Y153.131 E0.01241
G1 X50.410 Y152.864 E0.00839
G1 X50.414 Y98.743 E1.69691
G1 X50.464 Y98.347 E0.01252
G1 X50.529 Y98.096 E0.00812
G1 X50.620 Y97.850 E0.00823
G1 X50.736 Y97.615 E0.00823
G1 X50.873 Y97.395 E0.00812
G1 X51.123 Y97.087 E0.01243
G1 X51.419 Y96.821 E0.01247
G1 X51.630 Y96.674 E0.00808
G1 X51.860 Y96.546 E0.00823
G1 X52.101 Y96.443 E0.00823
G1 X52.346 Y96.366 E0.00808
G1 X52.741 Y96.295 E0.01256
G1 X53.008 Y96.281 E0.00839
G1 X57.480 Y96.281 E0.14022
M204 S1250
G1 X57.340 Y96.628 F9000.000
G1 E-2.24000 F4200.00000
G1 F7200.000
G1 X57.482 Y97.927 E-0.91200
G1 E-0.04800 F4200.00000
G1 Z0.400 F9000.000
G1 X51.056 Y153.653
G1 Z0.200
G1 E3.20000 F2400.00000
M204 S800
G1 F1200.000
G1 X51.674 Y154.270 E0.02751
G1 X51.899 Y154.453 E0.00912
G1 X52.151 Y154.602 E0.00922
G1 X52.422 Y154.710 E0.00919
G1 X52.717 Y154.777 E0.00951
G1 X51.099 Y153.160 E0.07202
G1 X51.082 Y153.063 E0.00310
G1 X51.082 Y152.607 E0.01435
G1 X53.276 Y154.802 E0.09771
G1 X53.812 Y154.802 E0.01686
G1 X51.082 Y152.071 E0.12155
G1 X51.081 Y151.536 E0.01686
G1 X54.347 Y154.802 E0.14539
G1 X54.883 Y154.802 E0.01686
G1 X51.081 Y151.000 E0.16923
G1 X51.081 Y150.465 E0.01686
G1 X55.418 Y154.802 E0.19307
G1 X55.953 Y154.802 E0.01686
G1 X51.081 Y149.929 E0.21691
G1 X51.081 Y149.394 E0.01686
G1 X56.489 Y154.802 E0.24075
G1 X56.880 Y154.802 E0.01232
G1 X56.880 Y154.657 E0.00454
G1 X51.081 Y148.858 E0.25818
G1 X51.081 Y148.323 E0.01686
G1 X56.880 Y154.122 E0.25818
G1 X56.880 Y153.587 E0.01686
G1 X51.081 Y147.787 E0.25818
G1 X51.081 Y147.252 E0.01686
G1 X56.880 Y153.051 E0.25819
G1 X56.880 Y152.516 E0.01686
G1 X51.081 Y146.716 E0.25819
G1 X51.081 Y146.181 E0.01686
G1 X56.880 Y151.980 E0.25819
G1 X56.880 Y151.445 E0.01686
G1 X51.081 Y145.645 E0.25820
G1 X51.080 Y145.110 E0.01686
G1 X56.880 Y150.910 E0.25820
G1 X56.880 Y150.374 E0.01686
G1 X51.080 Y144.574 E0.25821
G1 X51.080 Y144.039 E0.01686
G1 X56.880 Y149.839 E0.25821
G1 X56.880 Y149.303 E0.01686
G1 X51.080 Y143.503 E0.25821
G1 X51.080 Y142.968 E0.01686
G1 X56.880 Y148.768 E0.25822
G1 X56.880 Y148.232 E0.01686
G1 X51.080 Y142.432 E0.25822
G1 X51.080 Y141.897 E0.01686
G1 X56.880 Y147.697 E0.25822
G1 X56.880 Y147.162 E0.01686
G1 X51.080 Y141.361 E0.25823
G1 X51.080 Y140.826 E0.01686
G1 X56.880 Y146.626 E0.25823
G1 X56.880 Y146.091 E0.01686
G1 X51.080 Y140.290 E0.25823
G1 X51.080 Y139.755 E0.01686
G1 X56.880 Y145.555 E0.25824
G1 X56.880 Y145.020 E0.01686
G1 X51.080 Y139.219 E0.25824
G1 X51.080 Y138.684 E0.01686
G1 X56.880 Y144.484 E0.25825
G1 X56.880 Y143.949 E0.01686
G1 X51.079 Y138.148 E0.25825
G1 X51.079 Y137.613 E0.01686
G1 X56.880 Y143.414 E0.25825
G1 X56.880 Y142.878 E0.01686
G1 X51.079 Y137.077 E0.25826
G1 X51.079 Y136.542 E0.01686
G1 X56.880 Y142.343 E0.25826
G1 X56.880 Y141.807 E0.01686
G1 X51.079 Y136.006 E0.25826
G1 X51.079 Y135.471 E0.01686
G1 X56.880 Y141.272 E0.25827
G1 X56.880 Y140.737 E0.01686
G1 X51.079 Y134.935 E0.25827
G1 X51.079 Y134.400 E0.01686
G1 X56.880 Y140.201 E0.25827
G1 X56.880 Y139.666 E0.01686
G1 X51.079 Y133.864 E0.25828
G1 X51.079 Y133.329 E0.01686
G1 X56.880 Y139.130 E0.25828
G1 X56.880 Y138.595 E0.01686
G1 X51.079 Y132.793 E0.25828
G1 X51.079 Y132.258 E0.01686
G1 X56.880 Y138.059 E0.25829
G1 X56.880 Y137.524 E0.01686
G1 X51.078 Y131.722 E0.25829
G1 X51.078 Y131.187 E0.01686
G1 X56.880 Y136.989 E0.25830
M73 P1 R109
G1 X56.880 Y136.453 E0.01686
G1 X51.078 Y130.651 E0.25830
G1 X51.078 Y130.116 E0.01686
G1 X56.880 Y135.918 E0.25830
G1 X56.880 Y135.382 E0.01686
G1 X51.078 Y129.580 E0.25831
G1 X51.078 Y129.045 E0.01686
G1 X56.880 Y134.847 E0.25831
G1 X56.880 Y134.312 E0.01686
G1 X51.078 Y128.509 E0.25831
G1 X51.078 Y127.974 E0.01686
G1 X56.880 Y133.776 E0.25832
G1 X56.880 Y133.241 E0.01686
G1 X51.078 Y127.438 E0.25832
G1 X51.078 Y126.903 E0.01686
G1 X56.880 Y132.705 E0.25832
G1 X56.880 Y132.170 E0.01686
G1 X51.078 Y126.367 E0.25833
G1 X51.078 Y125.832 E0.01686
G1 X56.880 Y131.634 E0.25833
G1 X56.880 Y131.099 E0.01686
G1 X51.077 Y125.296 E0.25833
G1 X51.077 Y124.761 E0.01686
G1 X56.880 Y130.564 E0.25834
G1 X56.880 Y130.028 E0.01686
G1 X51.077 Y124.225 E0.25834
G1 X51.077 Y123.690 E0.01686
G1 X56.880 Y129.493 E0.25835
G1 X56.880 Y128.957 E0.01686
G1 X51.077 Y123.154 E0.25835
G1 X51.077 Y122.619 E0.01686
G1 X56.880 Y128.422 E0.25835
G1 X56.880 Y127.887 E0.01686
G1 X51.077 Y122.083 E0.25836
G1 X51.077 Y121.548 E0.01686
G1 X56.880 Y127.351 E0.25836
G1 X56.880 Y126.816 E0.01686
G1 X51.077 Y121.012 E0.25836
G1 X51.077 Y120.477 E0.01686
G1 X56.880 Y126.280 E0.25837
G1 X56.880 Y125.745 E0.01686
G1 X51.077 Y119.941 E0.25837
G1 X51.077 Y119.406 E0.01686
G1 X56.880 Y125.209 E0.25837
G1 X56.880 Y124.674 E0.01686
G1 X51.077 Y118.870 E0.25838
G1 X51.076 Y118.335 E0.01686
G1 X56.880 Y124.139 E0.25838
G1 X56.880 Y123.603 E0.01686
G1 X51.076 Y117.799 E0.25838
G1 X51.076 Y117.264 E0.01686
G1 X56.880 Y123.068 E0.25839
G1 X56.880 Y122.532 E0.01686
G1 X51.076 Y116.728 E0.25839
G1 X51.076 Y116.193 E0.01686
G1 X56.880 Y121.997 E0.25840
G1 X56.880 Y121.461 E0.01686
G1 X51.076 Y115.657 E0.25840
G1 X51.076 Y115.122 E0.01686
G1 X56.880 Y120.926 E0.25840
G1 X56.880 Y120.391 E0.01686
G1 X51.076 Y114.586 E0.25841
G1 X51.076 Y114.051 E0.01686
G1 X56.880 Y119.855 E0.25841
G1 X56.880 Y119.320 E0.01686
G1 X51.076 Y113.515 E0.25841
G1 X51.076 Y112.980 E0.01686
G1 X56.880 Y118.784 E0.25842
G1 X56.880 Y118.249 E0.01686
G1 X51.076 Y112.444 E0.25842
G1 X51.075 Y111.909 E0.01686
G1 X56.880 Y117.714 E0.25842
G1 X56.880 Y117.178 E0.01686
G1 X51.075 Y111.373 E0.25843
G1 X51.075 Y110.838 E0.01686
G1 X56.880 Y116.643 E0.25843
G1 X56.880 Y116.107 E0.01686
G1 X51.075 Y110.302 E0.25843
G1 X51.075 Y109.767 E0.01686
G1 X56.880 Y115.572 E0.25844
G1 X56.880 Y115.036 E0.01686
G1 X51.075 Y109.231 E0.25844
G1 X51.075 Y108.696 E0.01686
G1 X56.880 Y114.501 E0.25845
G1 X56.880 Y113.966 E0.01686
G1 X51.075 Y108.160 E0.25845
G1 X51.075 Y107.625 E0.01686
G1 X56.880 Y113.430 E0.25845
G1 X56.880 Y112.895 E0.01686
G1 X51.075 Y107.089 E0.25846
G1 X51.075 Y106.554 E0.01686
G1 X56.880 Y112.359 E0.25846
G1 X56.880 Y111.824 E0.01686
G1 X51.075 Y106.018 E0.25846
G1 X51.075 Y105.483 E0.01686
G1 X56.880 Y111.289 E0.25847
G1 X56.880 Y110.753 E0.01686
G1 X51.074 Y104.947 E0.25847
G1 X51.074 Y104.412 E0.01686
G1 X56.880 Y110.218 E0.25847
G1 X56.880 Y109.682 E0.01686
G1 X51.074 Y103.876 E0.25848
G1 X51.074 Y103.341 E0.01686
G1 X56.880 Y109.147 E0.25848
G1 X56.880 Y108.611 E0.01686
G1 X51.074 Y102.805 E0.25848
G1 X51.074 Y102.270 E0.01686
G1 X56.880 Y108.076 E0.25849
G1 X56.880 Y107.541 E0.01686
G1 X51.074 Y101.734 E0.25849
G1 X51.074 Y101.199 E0.01686
G1 X56.880 Y107.005 E0.25850
G1 X56.880 Y106.470 E0.01686
G1 X51.074 Y100.663 E0.25850
G1 X51.074 Y100.128 E0.01686
G1 X56.880 Y105.934 E0.25850
G1 X56.880 Y105.399 E0.01686
G1 X51.074 Y99.592 E0.25851
G1 X51.074 Y99.057 E0.01686
G1 X56.880 Y104.864 E0.25851
G1 X56.880 Y104.328 E0.01686
G1 X51.103 Y98.551 E0.25719
G1 X51.221 Y98.134 E0.01366
G1 X56.880 Y103.793 E0.25194
G1 X56.880 Y103.257 E0.01686
G1 X51.409 Y97.786 E0.24360
G1 X51.655 Y97.497 E0.01196
G1 X56.880 Y102.722 E0.23263
G1 X56.880 Y102.186 E0.01686
G1 X51.956 Y97.262 E0.21924
G1 X52.151 Y97.141 E0.00724
G1 X52.310 Y97.081 E0.00535
G1 X56.880 Y101.651 E0.20345
G1 X56.880 Y101.116 E0.01686
G1 X52.732 Y96.967 E0.18470
G1 X53.252 Y96.952 E0.01638
G1 X56.880 Y100.580 E0.16153
G1 X56.880 Y100.045 E0.01686
G1 X53.786 Y96.950 E0.13776
G1 X54.320 Y96.949 E0.01681
G1 X56.880 Y99.509 E0.11399
G1 X56.880 Y98.974 E0.01686
G1 X54.854 Y96.948 E0.09022
G1 X55.388 Y96.946 E0.01681
G1 X56.880 Y98.438 E0.06644
G1 X56.880 Y97.903 E0.01686
G1 X55.922 Y96.945 E0.04267
G1 X56.456 Y96.943 E0.01681
G1 X57.050 Y97.537 E0.02645
M204 S1250
G1 E-2.24000 F4200.00000
G1 F7200.000
G1 X56.456 Y96.943 E-0.46564
G1 X55.922 Y96.945 E-0.29591
G1 X56.114 Y97.137 E-0.15044
G1 E-0.04800 F4200.00000
G1 Z0.400 F9000.000
G1 X84.995 Y114.365
G1 Z0.200
G1 E3.20000 F2400.00000
M204 S800
G1 F1200.000
G1 X85.318 Y113.936 E0.01685
G1 X85.584 Y113.671 E0.01178
G1 X85.872 Y113.441 E0.01155
G1 X86.340 Y113.163 E0.01707
G1 X86.688 Y113.019 E0.01183
G1 X87.038 Y112.917 E0.01142
G1 X87.590 Y112.838 E0.01748
G1 X88.144 Y112.855 E0.01737
G1 X88.508 Y112.917 E0.01158
G1 X88.868 Y113.021 E0.01177
G1 X89.362 Y113.242 E0.01695
G1 X89.677 Y113.440 E0.01168
G1 X89.973 Y113.676 E0.01186
G1 X90.348 Y114.075 E0.01716
G1 X90.559 Y114.373 E0.01147
G1 X90.737 Y114.696 E0.01155
G1 X90.878 Y115.036 E0.01154
G1 X90.980 Y115.387 E0.01145
G1 X91.058 Y115.929 E0.01718
G1 X91.057 Y116.307 E0.01185
G1 X91.016 Y116.677 E0.01166
G1 X90.881 Y117.201 E0.01697
G1 X90.737 Y117.549 E0.01181
G1 X90.555 Y117.879 E0.01182
G1 X90.232 Y118.307 E0.01682
G1 X89.966 Y118.574 E0.01181
G1 X89.671 Y118.809 E0.01181
G1 X89.202 Y119.086 E0.01708
G1 X88.693 Y119.280 E0.01709
G1 X88.323 Y119.364 E0.01189
G1 X87.951 Y119.406 E0.01175
G1 X87.414 Y119.391 E0.01684
G1 X87.039 Y119.327 E0.01193
G1 X86.681 Y119.223 E0.01168
G1 X86.191 Y119.004 E0.01682
G1 X85.871 Y118.803 E0.01187
G1 X85.584 Y118.574 E0.01151
G1 X85.323 Y118.313 E0.01156
G1 X85.088 Y118.018 E0.01183
G1 X84.811 Y117.549 E0.01707
G1 X84.617 Y117.040 E0.01709
G1 X84.533 Y116.671 E0.01187
G1 X84.492 Y116.306 E0.01151
G1 X84.492 Y115.939 E0.01153
G1 X84.533 Y115.572 E0.01158
G1 X84.668 Y115.044 E0.01706
G1 X84.812 Y114.696 E0.01184
G1 X84.966 Y114.418 E0.00994
M204 S1250
G1 X85.296 Y114.600 F9000.000
M204 S800
G1 F1200.000
G1 X85.603 Y114.184 E0.01623
G1 X85.835 Y113.952 E0.01029
G1 X86.086 Y113.752 E0.01007
G1 X86.509 Y113.501 E0.01540
G1 X86.813 Y113.375 E0.01033
G1 X87.118 Y113.287 E0.00994
G1 X87.612 Y113.216 E0.01564
G1 X88.106 Y113.231 E0.01552
G1 X88.424 Y113.285 E0.01009
G1 X88.739 Y113.376 E0.01027
G1 X89.183 Y113.575 E0.01529
G1 X89.458 Y113.748 E0.01019
G1 X89.717 Y113.954 E0.01035
G1 X90.055 Y114.314 E0.01549
G1 X90.239 Y114.574 E0.00999
G1 X90.397 Y114.860 E0.01023
G1 X90.522 Y115.161 E0.01022
G1 X90.610 Y115.466 E0.00997
G1 X90.680 Y115.956 E0.01551
G1 X90.680 Y116.286 E0.01035
G1 X90.644 Y116.608 E0.01017
G1 X90.523 Y117.081 E0.01531
G1 X90.397 Y117.385 E0.01031
G1 X90.238 Y117.673 E0.01033
G1 X89.947 Y118.059 E0.01516
G1 X89.714 Y118.292 E0.01032
G1 X89.457 Y118.497 E0.01032
G1 X89.038 Y118.745 E0.01525
G1 X88.583 Y118.918 E0.01525
G1 X88.260 Y118.992 E0.01039
G1 X87.935 Y119.028 E0.01026
G1 X87.451 Y119.014 E0.01518
G1 X87.123 Y118.958 E0.01043
G1 X86.811 Y118.868 E0.01019
G1 X86.369 Y118.671 E0.01516
G1 X86.089 Y118.495 E0.01037
G1 X85.835 Y118.292 E0.01019
G1 X85.605 Y118.061 E0.01023
G1 X85.399 Y117.804 E0.01033
G1 X85.152 Y117.385 E0.01524
G1 X84.979 Y116.931 E0.01525
G1 X84.905 Y116.608 E0.01038
G1 X84.869 Y116.285 E0.01018
G1 X84.869 Y115.960 E0.01021
G1 X84.905 Y115.640 E0.01009
G1 X85.027 Y115.164 E0.01540
G1 X85.153 Y114.859 E0.01033
G1 X85.267 Y114.653 E0.00740
M204 S1250
G1 X85.113 Y114.245 F9000.000
G1 E-2.24000 F4200.00000
G1 F7200.000
G1 X85.603 Y114.184 E-0.31979
G1 X85.835 Y113.952 E-0.18186
G1 X86.086 Y113.752 E-0.17800
G1 X86.447 Y113.538 E-0.23235
G1 E-0.04800 F4200.00000
G1 Z0.400 F9000.000
G1 X88.020 Y121.512
G1 Z0.200
G1 E3.20000 F2400.00000
M204 S800
G1 F1200.000
G1 X88.429 Y121.349 E0.01383
G1 X88.838 Y121.227 E0.01338
G1 X89.262 Y121.141 E0.01357
G1 X89.875 Y121.085 E0.01927
G1 X90.311 Y121.094 E0.01370
G1 X90.743 Y121.142 E0.01363
G1 X91.162 Y121.227 E0.01339
G1 X91.570 Y121.349 E0.01337
G1 X91.973 Y121.509 E0.01357
G1 X92.519 Y121.800 E0.01942
G1 X92.883 Y122.049 E0.01381
G1 X93.212 Y122.321 E0.01338
G1 X93.519 Y122.625 E0.01358
G1 X93.912 Y123.111 E0.01960
G1 X94.143 Y123.471 E0.01340
G1 X94.343 Y123.856 E0.01359
G1 X94.508 Y124.257 E0.01359
G1 X94.679 Y124.854 E0.01947
G1 X94.752 Y125.286 E0.01374
G1 X94.785 Y125.711 E0.01338
G1 X94.780 Y126.144 E0.01357
G1 X94.705 Y126.759 E0.01940
G1 X94.605 Y127.183 E0.01366
G1 X94.468 Y127.592 E0.01353
G1 X94.297 Y127.983 E0.01338
G1 X94.092 Y128.357 E0.01337
G1 X93.851 Y128.717 E0.01358
G1 X93.449 Y129.192 E0.01950
G1 X93.132 Y129.493 E0.01372
G1 X92.797 Y129.757 E0.01338
G1 X92.440 Y129.991 E0.01338
G1 X92.064 Y130.192 E0.01337
G1 X91.670 Y130.358 E0.01339
G1 X91.248 Y130.494 E0.01392
G1 X90.644 Y130.616 E0.01930
G1 X90.213 Y130.654 E0.01357
G1 X89.780 Y130.654 E0.01358
G1 X89.161 Y130.585 E0.01952
G1 X88.734 Y130.489 E0.01375
G1 X88.329 Y130.358 E0.01333
G1 X87.936 Y130.192 E0.01337
