; generated by PrusaSlicer 2.3.0+win64 on 2021-07-30 at 09:33:23 UTC


;
;

;
;
; 

; external perimeters extrusion width = 0.45mm
; perimeters extrusion width = 0.45mm
; infill extrusion width = 0.45mm
; solid infill extrusion width = 0.45mm
; top infill extrusion width = 0.40mm
; first layer extrusion width = 0.42mm

M73 P0 R40
M201 X1250 Y1250 Z400 E5000 ; sets maximum accelerations, mm/sec^2
M203 X180 Y180 Z12 E80 ; sets maximum feedrates, mm/sec
M204 P1250 R1250 T1250 ; sets acceleration (P, T) and retract acceleration (R), mm/sec^2
M205 X8.00 Y8.00 Z2.00 E10.00 ; sets the jerk limits, mm/sec
M205 S0 T0 ; sets the minimum extruding and travel feed rate, mm/sec
M107
;TYPE:Custom
G90 ; use absolute coordinates
M83 ; extruder relative mode
M104 S170 ; set extruder temp for bed leveling
M140 S60 ; set bed temp
M109 R170 ; wait for bed leveling temp
M190 S60 ; wait for bed temp
G28 ; home all without mesh bed level
G29 ; mesh bed leveling 
M104 S215 ; set extruder temp
G92 E0.0
G1 Y-2.0 X179 F2400
G1 Z3 F720
M109 S215 ; wait for extruder temp

; intro line
G1 X170 F1000
G1 Z0.2 F720
G1 X110.0 E8.0 F900
G1 X40.0 E10.0 F700
G92 E0.0

M221 S95 ; set flow
G21 ; set units to millimeters
G90 ; use absolute coordinates
M83 ; use relative distances for extrusion
M900 K0.2 ; Filament gcode LA 1.5
; ; Filament gcode LA 1.0
;LAYER_CHANGE
;Z:0.2
;HEIGHT:0.2
;BEFORE_LAYER_CHANGE
G92 E0.0
;0.2


G1 E-3.20000 F4200.000
G1 Z0.200 F9000.000
;AFTER_LAYER_CHANGE
;0.2
G1 Z0.400
G1 X62.908 Y68.042
M73 P0 R39
G1 Z0.200
G1 E3.20000 F2400.000
M204 S800
;TYPE:Skirt
;WIDTH:0.42
G1 F1200.000
G1 X63.461 Y67.359 E0.02755
G1 X64.167 Y66.945 E0.02567
G1 X64.976 Y66.794 E0.02579
G1 X115.004 Y66.794 E1.56859
G1 X115.810 Y66.936 E0.02567
G1 X116.520 Y67.344 E0.02567
G1 X117.050 Y67.968 E0.02567
G1 X117.337 Y68.735 E0.02567
G1 X119.311 Y89.835 E0.66447
G1 X119.316 Y110.916 E0.66100
G1 X119.247 Y111.406 E0.01550
G1 X119.079 Y111.867 E0.01538
G1 X118.818 Y112.287 E0.01550
G1 X118.476 Y112.643 E0.01550
G1 X117.770 Y113.057 E0.02567
G1 X116.965 Y113.206 E0.02567
G1 X63.048 Y113.206 E1.69052
M73 P1 R39
G1 X62.538 Y113.148 E0.01609
G1 X62.052 Y112.982 E0.01609
G1 X61.614 Y112.716 E0.01609
G1 X61.245 Y112.364 E0.01597
G1 X60.837 Y111.672 E0.02520
G1 X60.683 Y110.887 E0.02508
G1 X60.685 Y89.895 E0.65818
G1 X62.640 Y68.883 E0.66169
G1 X62.890 Y68.099 E0.02578
M204 S1250
; printing object SolderHelper.stl id:0 copy 0
G1 E-2.24000 F4200.000
;WIPE_START
G1 F7200.000
G1 X63.461 Y67.359 E-0.51801
G1 X64.074 Y66.999 E-0.39399
;WIPE_END
G1 E-0.04800 F4200.000
G1 Z0.400 F9000.000
G1 X71.912 Y93.628
G1 Z0.200
G1 E3.20000 F2400.000
M204 S800
;TYPE:Perimeter
G1 F1200.000
G1 X72.367 Y93.548 E0.01450
G1 X72.714 Y93.555 E0.01087
G1 X73.166 Y93.653 E0.01450
G1 X73.484 Y93.790 E0.01087
G1 X73.866 Y94.052 E0.01450
G1 X74.108 Y94.299 E0.01087
G1 X74.362 Y94.685 E0.01450
G1 X74.494 Y95.006 E0.01087
G1 X74.585 Y95.472 E0.01486
G1 X74.567 Y95.945 E0.01486
G1 X74.487 Y96.283 E0.01087
G1 X74.290 Y96.714 E0.01486
G1 X74.000 Y97.089 E0.01486
G1 X73.739 Y97.317 E0.01087
G1 X73.328 Y97.554 E0.01486
G1 X72.874 Y97.690 E0.01486
G1 X72.541 Y97.722 E0.01051
G1 X72.206 Y97.703 E0.01051
G1 X71.758 Y97.587 E0.01450
G1 X71.445 Y97.438 E0.01087
G1 X71.065 Y97.155 E0.01486
G1 X70.760 Y96.792 E0.01486
G1 X70.598 Y96.498 E0.01051
G1 X70.484 Y96.183 E0.01051
G1 X70.412 Y95.728 E0.01443
G1 X70.426 Y95.380 E0.01093
G1 X70.532 Y94.930 E0.01451
G1 X70.676 Y94.614 E0.01087
G1 X70.945 Y94.238 E0.01450
G1 X71.197 Y94.000 E0.01087
G1 X71.588 Y93.753 E0.01450
G1 X71.856 Y93.650 E0.00899
M204 S1250
G1 X71.991 Y94.002 F9000.000
M204 S800
;TYPE:External perimeter
G1 F1200.000
G1 X72.396 Y93.926 E0.01292
G1 X72.670 Y93.931 E0.00857
G1 X73.050 Y94.013 E0.01220
G1 X73.301 Y94.122 E0.00857
G1 X73.622 Y94.342 E0.01220
G1 X73.813 Y94.537 E0.00857
G1 X74.027 Y94.862 E0.01220
G1 X74.131 Y95.115 E0.00857
G1 X74.206 Y95.501 E0.01233
G1 X74.191 Y95.894 E0.01233
G1 X74.128 Y96.160 E0.00857
G1 X73.965 Y96.518 E0.01233
G1 X73.724 Y96.829 E0.01233
G1 X73.519 Y97.009 E0.00857
G1 X73.178 Y97.205 E0.01233
G1 X72.801 Y97.318 E0.01233
G1 X72.533 Y97.344 E0.00844
G1 X72.264 Y97.328 E0.00844
G1 X71.888 Y97.231 E0.01220
G1 X71.641 Y97.113 E0.00857
G1 X71.325 Y96.879 E0.01233
G1 X71.073 Y96.577 E0.01233
G1 X70.943 Y96.342 E0.00844
G1 X70.850 Y96.089 E0.00844
G1 X70.791 Y95.706 E0.01214
G1 X70.801 Y95.431 E0.00863
G1 X70.891 Y95.052 E0.01220
G1 X71.004 Y94.803 E0.00857
G1 X71.230 Y94.487 E0.01220
G1 X71.429 Y94.299 E0.00857
G1 X71.758 Y94.092 E0.01220
G1 X71.935 Y94.023 E0.00596
M204 S1250
G1 X72.086 Y93.613 F9000.000
G1 E-2.24000 F4200.000
;WIPE_START
G1 F7200.000
G1 X72.396 Y93.926 E-0.26113
G1 X72.670 Y93.931 E-0.15147
G1 X73.050 Y94.013 E-0.21567
G1 X73.301 Y94.122 E-0.15149
G1 X73.498 Y94.257 E-0.13224
;WIPE_END
G1 E-0.04800 F4200.000
G1 Z0.400 F9000.000
G1 X72.390 Y103.122
G1 Z0.200
G1 E3.20000 F2400.000
M204 S800
;TYPE:Perimeter
G1 F1200.000
G1 X72.852 Y103.149 E0.01450
G1 X73.187 Y103.235 E0.01087
G1 X73.605 Y103.435 E0.01450
G1 X73.883 Y103.642 E0.01087
G1 X74.194 Y103.984 E0.01450
G1 X74.367 Y104.271 E0.01051
G1 X74.494 Y104.581 E0.01051
G1 X74.585 Y105.047 E0.01486
G1 X74.567 Y105.520 E0.01486
G1 X74.487 Y105.858 E0.01087
G1 X74.295 Y106.279 E0.01450
G1 X74.100 Y106.551 E0.01051
G1 X73.866 Y106.791 E0.01051
G1 X73.475 Y107.059 E0.01486
G1 X73.032 Y107.230 E0.01486
G1 X72.702 Y107.288 E0.01051
G1 X72.367 Y107.294 E0.01051
G1 X71.900 Y107.212 E0.01486
G1 X71.465 Y107.024 E0.01486
G1 X71.179 Y106.828 E0.01087
G1 X70.855 Y106.498 E0.01450
G1 X70.665 Y106.208 E0.01087
G1 X70.490 Y105.780 E0.01450
G1 X70.423 Y105.440 E0.01087
G1 X70.423 Y104.966 E0.01486
G1 X70.532 Y104.505 E0.01486
G1 X70.676 Y104.189 E0.01087
G1 X70.945 Y103.813 E0.01450
G1 X71.197 Y103.575 E0.01087
G1 X71.598 Y103.322 E0.01486
G1 X72.046 Y103.169 E0.01486
G1 X72.330 Y103.130 E0.00899
M204 S1250
G1 X72.381 Y103.503 F9000.000
M204 S800
;TYPE:External perimeter
G1 F1200.000
G1 X72.793 Y103.523 E0.01292
G1 X73.058 Y103.591 E0.00857
G1 X73.409 Y103.759 E0.01220
G1 X73.628 Y103.922 E0.00857
G1 X73.890 Y104.210 E0.01220
G1 X74.029 Y104.441 E0.00844
G1 X74.131 Y104.690 E0.00844
G1 X74.206 Y105.076 E0.01233
G1 X74.191 Y105.469 E0.01233
G1 X74.128 Y105.735 E0.00857
G1 X73.967 Y106.089 E0.01220
G1 X73.811 Y106.308 E0.00844
G1 X73.622 Y106.501 E0.00844
G1 X73.298 Y106.723 E0.01233
G1 X72.931 Y106.865 E0.01233
G1 X72.666 Y106.911 E0.00844
G1 X72.396 Y106.917 E0.00844
G1 X72.009 Y106.848 E0.01233
G1 X71.648 Y106.693 E0.01233
G1 X71.423 Y106.538 E0.00857
G1 X71.150 Y106.260 E0.01220
G1 X71.000 Y106.032 E0.00857
G1 X70.853 Y105.671 E0.01220
G1 X70.800 Y105.403 E0.00857
G1 X70.800 Y105.010 E0.01233
G1 X70.891 Y104.627 E0.01233
G1 X71.004 Y104.378 E0.00857
G1 X71.230 Y104.062 E0.01220
G1 X71.429 Y103.874 E0.00857
G1 X71.762 Y103.664 E0.01233
G1 X72.134 Y103.537 E0.01233
G1 X72.322 Y103.511 E0.00596
M204 S1250
G1 X72.563 Y103.147 F9000.000
G1 E-2.24000 F4200.000
;WIPE_START
G1 F7200.000
G1 X72.793 Y103.523 E-0.26112
G1 X73.058 Y103.591 E-0.15149
G1 X73.409 Y103.759 E-0.21566
G1 X73.628 Y103.922 E-0.15148
G1 X73.789 Y104.099 E-0.13225
;WIPE_END
G1 E-0.04800 F4200.000
G1 Z0.400 F9000.000
G1 X79.213 Y110.042
G1 Z0.200
G1 E3.20000 F2400.000
M204 S800
;TYPE:Perimeter
G1 F1200.000
G1 X63.846 Y110.042 E0.48181
G1 X63.846 Y90.800 E0.60330
G1 X79.213 Y90.800 E0.48181
G1 X79.213 Y109.982 E0.60142
M204 S1250
G1 X79.590 Y110.419 F9000.000
M204 S800
;TYPE:External perimeter
G1 F1200.000
G1 X63.469 Y110.419 E0.50545
G1 X63.469 Y90.423 E0.62694
G1 X79.590 Y90.423 E0.50545
G1 X79.590 Y110.359 E0.62506
M204 S1250
G1 X79.208 Y110.302 F9000.000
G1 E-2.24000 F4200.000
;WIPE_START
G1 F7200.000
G1 X77.944 Y110.365 E-0.91200
;WIPE_END
G1 E-0.04800 F4200.000
G1 Z0.400 F9000.000
G1 X78.335 Y90.914
G1 Z0.200
G1 E3.20000 F2400.000
M204 S800
;TYPE:Solid infill
;WIDTH:0.421121
G1 F1200.000
G1 X78.930 Y91.509 E0.02646
G1 X78.930 Y92.043 E0.01682
G1 X77.970 Y91.083 E0.04270
G1 X77.435 Y91.083 E0.01682
G1 X78.930 Y92.578 E0.06649
G1 X78.930 Y93.113 E0.01682
G1 X76.900 Y91.083 E0.09027
G1 X76.365 Y91.083 E0.01682
G1 X78.930 Y93.648 E0.11406
G1 X78.930 Y94.183 E0.01682
G1 X75.831 Y91.083 E0.13785
G1 X75.296 Y91.083 E0.01682
G1 X78.930 Y94.718 E0.16164
G1 X78.930 Y95.253 E0.01682
G1 X74.761 Y91.083 E0.18542
G1 X74.226 Y91.083 E0.01682
G1 X78.930 Y95.787 E0.20921
G1 X78.930 Y96.322 E0.01682
G1 X73.691 Y91.083 E0.23300
G1 X73.156 Y91.083 E0.01682
G1 X78.930 Y96.857 E0.25678
G1 X78.930 Y97.392 E0.01682
G1 X72.621 Y91.083 E0.28057
G1 X72.087 Y91.083 E0.01682
G1 X78.930 Y97.927 E0.30436
G1 X78.930 Y98.462 E0.01682
G1 X71.552 Y91.083 E0.32814
G1 X71.017 Y91.083 E0.01682
G1 X73.364 Y93.430 E0.10436
G1 X73.621 Y93.541 E0.00883
G1 X74.048 Y93.834 E0.01628
G1 X74.329 Y94.121 E0.01263
G1 X74.614 Y94.553 E0.01627
G1 X74.702 Y94.768 E0.00731
G1 X78.930 Y98.997 E0.18805
G1 X78.930 Y99.531 E0.01682
G1 X74.868 Y95.469 E0.18066
G1 X74.848 Y95.984 E0.01620
G1 X78.930 Y100.066 E0.18155
G1 X78.930 Y100.601 E0.01682
G1 X74.739 Y96.410 E0.18638
G1 X74.572 Y96.778 E0.01270
G1 X78.930 Y101.136 E0.19382
G1 X78.930 Y101.671 E0.01682
G1 X74.354 Y97.094 E0.20353
G1 X74.207 Y97.284 E0.00754
G1 X74.101 Y97.376 E0.00442
G1 X78.930 Y102.206 E0.21478
G1 X78.930 Y102.741 E0.01682
G1 X73.798 Y97.609 E0.22822
G1 X73.459 Y97.805 E0.01231
G1 X78.930 Y103.275 E0.24330
G1 X78.930 Y103.810 E0.01682
G1 X73.052 Y97.932 E0.26143
G1 X72.929 Y97.969 E0.00403
G1 X72.587 Y98.002 E0.01081
G1 X78.930 Y104.345 E0.28211
G1 X78.930 Y104.880 E0.01682
G1 X71.753 Y97.703 E0.31919
M204 S1250
G1 E-2.24000 F4200.000
;WIPE_START
M73 P2 R39
G1 F7200.000
G1 X72.917 Y98.867 E-0.91200
;WIPE_END
G1 E-0.04800 F4200.000
G1 Z0.400 F9000.000
G1 X72.872 Y93.473
G1 Z0.200
G1 E3.20000 F2400.000
M204 S800
G1 F1200.000
G1 X70.482 Y91.083 E0.10629
G1 X69.947 Y91.083 E0.01682
G1 X72.161 Y93.297 E0.09846
G1 X71.835 Y93.355 E0.01040
G1 X71.726 Y93.397 E0.00369
G1 X69.412 Y91.083 E0.10289
G1 X68.877 Y91.083 E0.01682
G1 X71.358 Y93.564 E0.11032
G1 X71.030 Y93.771 E0.01220
G1 X68.343 Y91.083 E0.11952
G1 X67.808 Y91.083 E0.01682
G1 X70.754 Y94.029 E0.13101
G1 X70.526 Y94.337 E0.01203
G1 X67.273 Y91.083 E0.14469
G1 X66.738 Y91.083 E0.01682
G1 X70.335 Y94.680 E0.15997
G1 X70.263 Y94.838 E0.00544
G1 X70.205 Y95.085 E0.00799
G1 X66.203 Y91.083 E0.17797
G1 X65.668 Y91.083 E0.01682
G1 X70.136 Y95.551 E0.19870
G1 X70.129 Y95.745 E0.00611
G1 X70.191 Y96.141 E0.01259
G1 X65.133 Y91.083 E0.22491
G1 X64.599 Y91.083 E0.01682
G1 X78.930 Y105.415 E0.63738
G1 X78.930 Y105.950 E0.01682
G1 X64.129 Y91.149 E0.65825
G1 X64.129 Y91.684 E0.01682
G1 X78.930 Y106.485 E0.65825
G1 X78.930 Y107.019 E0.01682
G1 X64.129 Y92.218 E0.65825
G1 X64.129 Y92.753 E0.01682
G1 X78.930 Y107.554 E0.65825
G1 X78.930 Y108.089 E0.01682
G1 X64.129 Y93.288 E0.65825
G1 X64.129 Y93.823 E0.01682
G1 X73.271 Y102.964 E0.40655
G1 X73.751 Y103.191 E0.01672
G1 X74.074 Y103.431 E0.01263
G1 X74.421 Y103.814 E0.01628
G1 X74.620 Y104.144 E0.01210
G1 X74.738 Y104.432 E0.00978
G1 X78.930 Y108.624 E0.18644
G1 X78.930 Y109.159 E0.01682
G1 X74.866 Y105.095 E0.18074
G1 X74.838 Y105.601 E0.01596
G1 X78.930 Y109.694 E0.18199
G1 X78.930 Y109.759 E0.00205
G1 X78.461 Y109.759 E0.01477
G1 X74.723 Y106.021 E0.16623
G1 X74.556 Y106.389 E0.01270
G1 X77.926 Y109.759 E0.14988
G1 X77.391 Y109.759 E0.01682
G1 X74.338 Y106.706 E0.13579
G1 X74.077 Y106.979 E0.01190
G1 X76.856 Y109.759 E0.12361
G1 X76.321 Y109.759 E0.01682
G1 X73.765 Y107.203 E0.11369
G1 X73.607 Y107.311 E0.00601
G1 X73.413 Y107.386 E0.00655
G1 X75.786 Y109.759 E0.10555
G1 X75.251 Y109.759 E0.01682
G1 X73.013 Y107.520 E0.09957
G1 X72.730 Y107.570 E0.00904
G1 X72.532 Y107.574 E0.00623
G1 X74.886 Y109.929 E0.10472
M204 S1250
G1 E-2.24000 F4200.000
;WIPE_START
G1 F7200.000
G1 X73.723 Y108.765 E-0.91200
;WIPE_END
G1 E-0.04800 F4200.000
G1 Z0.400 F9000.000
G1 X72.804 Y103.032
G1 Z0.200
G1 E3.20000 F2400.000
M204 S800
G1 F1200.000
G1 X64.129 Y94.358 E0.38579
G1 X64.129 Y94.893 E0.01682
G1 X72.111 Y102.874 E0.35497
G1 X71.981 Y102.892 E0.00412
G1 X71.692 Y102.991 E0.00959
G1 X64.129 Y95.428 E0.33636
G1 X64.129 Y95.962 E0.01682
G1 X71.326 Y103.159 E0.32006
G1 X71.002 Y103.370 E0.01216
G1 X64.129 Y96.497 E0.30565
G1 X64.129 Y97.032 E0.01682
G1 X70.727 Y103.630 E0.29345
G1 X70.504 Y103.942 E0.01206
G1 X64.129 Y97.567 E0.28353
G1 X64.129 Y98.102 E0.01682
G1 X70.319 Y104.291 E0.27527
G1 X70.263 Y104.413 E0.00419
G1 X70.195 Y104.702 E0.00936
G1 X64.129 Y98.637 E0.26976
G1 X64.129 Y99.172 E0.01682
G1 X70.310 Y105.352 E0.27488
M204 S1250
G1 E-2.24000 F4200.000
;WIPE_START
G1 F7200.000
G1 X69.146 Y104.189 E-0.91200
;WIPE_END
G1 E-0.04800 F4200.000
G1 Z0.400 F9000.000
G1 X74.351 Y109.929
G1 Z0.200
G1 E3.20000 F2400.000
M204 S800
G1 F1200.000
G1 X71.927 Y107.504 E0.10784
G1 X71.819 Y107.485 E0.00345
G1 X71.328 Y107.273 E0.01681
G1 X70.996 Y107.046 E0.01263
G1 X70.634 Y106.676 E0.01628
G1 X70.413 Y106.341 E0.01263
G1 X70.218 Y105.862 E0.01628
G1 X70.201 Y105.778 E0.00266
G1 X64.129 Y99.706 E0.27005
G1 X64.129 Y100.241 E0.01682
G1 X73.647 Y109.759 E0.42329
G1 X73.112 Y109.759 E0.01682
G1 X64.129 Y100.776 E0.39950
G1 X64.129 Y101.311 E0.01682
G1 X72.577 Y109.759 E0.37571
G1 X72.042 Y109.759 E0.01682
G1 X64.129 Y101.846 E0.35193
G1 X64.129 Y102.381 E0.01682
G1 X71.507 Y109.759 E0.32814
G1 X70.973 Y109.759 E0.01682
G1 X64.129 Y102.916 E0.30435
M73 P3 R39
G1 X64.129 Y103.450 E0.01682
G1 X70.438 Y109.759 E0.28057
G1 X69.903 Y109.759 E0.01682
G1 X64.129 Y103.985 E0.25678
G1 X64.129 Y104.520 E0.01682
G1 X69.368 Y109.759 E0.23299
G1 X68.833 Y109.759 E0.01682
G1 X64.129 Y105.055 E0.20920
G1 X64.129 Y105.590 E0.01682
G1 X68.298 Y109.759 E0.18542
G1 X67.763 Y109.759 E0.01682
G1 X64.129 Y106.125 E0.16163
G1 X64.129 Y106.660 E0.01682
G1 X67.229 Y109.759 E0.13784
G1 X66.694 Y109.759 E0.01682
G1 X64.129 Y107.194 E0.11406
G1 X64.129 Y107.729 E0.01682
G1 X66.159 Y109.759 E0.09027
G1 X65.624 Y109.759 E0.01682
G1 X64.129 Y108.264 E0.06648
G1 X64.129 Y108.799 E0.01682
G1 X65.089 Y109.759 E0.04270
G1 X64.554 Y109.759 E0.01682
G1 X63.959 Y109.164 E0.02646
M204 S1250
G1 E-2.24000 F4200.000
;WIPE_START
G1 F7200.000
G1 X64.554 Y109.759 E-0.46620
G1 X65.089 Y109.759 E-0.29640
G1 X64.899 Y109.568 E-0.14940
;WIPE_END
G1 E-0.04800 F4200.000
G1 Z0.400 F9000.000
G1 X105.484 Y96.183
G1 Z0.200
G1 E3.20000 F2400.000
M204 S800
;TYPE:Perimeter
;WIDTH:0.42
G1 F1200.000
G1 X105.412 Y95.728 E0.01444
G1 X105.426 Y95.380 E0.01093
G1 X105.532 Y94.930 E0.01451
G1 X105.676 Y94.614 E0.01087
G1 X105.945 Y94.238 E0.01450
G1 X106.197 Y94.000 E0.01087
G1 X106.588 Y93.753 E0.01450
G1 X106.912 Y93.628 E0.01087
G1 X107.367 Y93.548 E0.01450
G1 X107.714 Y93.555 E0.01087
G1 X108.166 Y93.653 E0.01450
G1 X108.484 Y93.790 E0.01087
G1 X108.875 Y94.058 E0.01486
G1 X109.194 Y94.409 E0.01486
G1 X109.367 Y94.696 E0.01051
G1 X109.494 Y95.006 E0.01051
M73 P3 R38
G1 X109.585 Y95.472 E0.01486
G1 X109.566 Y95.957 E0.01522
G1 X109.436 Y96.425 E0.01522
G1 X109.207 Y96.840 E0.01486
G1 X108.984 Y97.105 E0.01087
G1 X108.624 Y97.396 E0.01450
G1 X108.317 Y97.557 E0.01087
G1 X107.874 Y97.690 E0.01450
G1 X107.541 Y97.722 E0.01051
G1 X107.206 Y97.703 E0.01051
G1 X106.758 Y97.587 E0.01450
G1 X106.445 Y97.438 E0.01087
G1 X106.065 Y97.155 E0.01486
G1 X105.760 Y96.792 E0.01486
G1 X105.598 Y96.498 E0.01051
G1 X105.504 Y96.240 E0.00863
M204 S1250
G1 X105.858 Y96.111 F9000.000
M204 S800
;TYPE:External perimeter
G1 F1200.000
G1 X105.791 Y95.706 E0.01286
G1 X105.801 Y95.431 E0.00863
G1 X105.891 Y95.052 E0.01220
G1 X106.004 Y94.803 E0.00857
G1 X106.230 Y94.487 E0.01220
G1 X106.429 Y94.299 E0.00857
G1 X106.758 Y94.092 E0.01220
G1 X107.013 Y93.993 E0.00857
G1 X107.396 Y93.926 E0.01220
G1 X107.670 Y93.931 E0.00857
G1 X108.050 Y94.013 E0.01220
G1 X108.301 Y94.122 E0.00857
G1 X108.625 Y94.344 E0.01233
G1 X108.890 Y94.635 E0.01233
G1 X109.029 Y94.866 E0.00844
G1 X109.131 Y95.115 E0.00844
G1 X109.206 Y95.501 E0.01233
G1 X109.191 Y95.898 E0.01246
G1 X109.084 Y96.281 E0.01246
G1 X108.894 Y96.625 E0.01233
G1 X108.719 Y96.835 E0.00857
G1 X108.416 Y97.079 E0.01220
G1 X108.174 Y97.206 E0.00857
