; generated by PrusaSlicer 2.3.0+win64 on 2021-02-28 at 11:05:29 UTC


;
;

;
;
; 

; external perimeters extrusion width = 0.45mm
; perimeters extrusion width = 0.45mm
; infill extrusion width = 0.45mm
; solid infill extrusion width = 0.45mm
; top infill extrusion width = 0.40mm
; first layer extrusion width = 0.42mm

M73 P0 R31
M201 X1250 Y1250 Z400 E5000 ; sets maximum accelerations, mm/sec^2
M203 X180 Y180 Z12 E80 ; sets maximum feedrates, mm/sec
M204 P1250 R1250 T1250 ; sets acceleration (P, T) and retract acceleration (R), mm/sec^2
M205 X8.00 Y8.00 Z2.00 E10.00 ; sets the jerk limits, mm/sec
M205 S0 T0 ; sets the minimum extruding and travel feed rate, mm/sec
M107
;TYPE:Custom
G90 ; use absolute coordinates
M83 ; extruder relative mode
M104 S170 ; set extruder temp for bed leveling
M140 S60 ; set bed temp
M109 R170 ; wait for bed leveling temp
M190 S60 ; wait for bed temp
G28 ; home all without mesh bed level
G29 ; mesh bed leveling 
M104 S215 ; set extruder temp
G92 E0.0
G1 Y-2.0 X179 F2400
M73 P0 R30
G1 Z3 F720
M109 S215 ; wait for extruder temp

; intro line
G1 X170 F1000
G1 Z0.2 F720
G1 X110.0 E8.0 F900
G1 X40.0 E10.0 F700
G92 E0.0

M221 S95 ; set flow
G21 ; set units to millimeters
G90 ; use absolute coordinates
M83 ; use relative distances for extrusion
M900 K0.2 ; Filament gcode LA 1.5
; ; Filament gcode LA 1.0
;LAYER_CHANGE
;Z:0.2
;HEIGHT:0.2
;BEFORE_LAYER_CHANGE
G92 E0.0
;0.2


G1 E-3.20000 F4200.000
G1 Z0.200 F9000.000
;AFTER_LAYER_CHANGE
;0.2
G1 Z0.400
G1 X63.230 Y11.795
G1 Z0.200
G1 E3.20000 F2400.000
M204 S800
;TYPE:Skirt
;WIDTH:0.42
G1 F1200.000
G1 X63.552 Y11.137 E0.02296
G1 X64.059 Y10.609 E0.02296
G1 X64.703 Y10.260 E0.02296
G1 X65.423 Y10.124 E0.02296
G1 X114.504 Y10.123 E1.53890
M73 P1 R30
G1 X115.406 Y10.302 E0.02884
G1 X116.170 Y10.808 E0.02872
G1 X116.685 Y11.565 E0.02872
G1 X116.877 Y12.465 E0.02884
G1 X116.877 Y167.500 E4.86102
G1 X116.770 Y168.205 E0.02237
G1 X116.448 Y168.863 E0.02296
G1 X115.941 Y169.391 E0.02296
G1 X115.293 Y169.741 E0.02308
G1 X114.573 Y169.876 E0.02296
G1 X65.496 Y169.877 E1.53878
G1 X64.795 Y169.770 E0.02225
G1 X64.125 Y169.439 E0.02343
G1 X63.593 Y168.919 E0.02331
G1 X63.248 Y168.261 E0.02331
G1 X63.123 Y167.524 E0.02343
G1 X63.123 Y12.500 E4.86067
M73 P2 R30
G1 X63.221 Y11.854 E0.02049
M204 S1250
; printing object sound_hole_template_2.stl id:0 copy 0
G1 E-2.24000 F4200.000
;WIPE_START
G1 F7200.000
G1 X63.552 Y11.137 E-0.43759
G1 X64.059 Y10.609 E-0.40577
G1 X64.168 Y10.550 E-0.06864
;WIPE_END
G1 E-0.04800 F4200.000
G1 Z0.400 F9000.000
G1 X104.149 Y104.373
G1 Z0.200
G1 E3.20000 F2400.000
M204 S800
;TYPE:Perimeter
G1 F1200.000
G1 X103.053 Y105.921 E0.05945
G1 X102.606 Y106.621 E0.02605
G1 X102.097 Y107.540 E0.03294
G1 X101.696 Y108.418 E0.03025
G1 X101.395 Y109.256 E0.02793
G1 X101.159 Y110.166 E0.02948
G1 X100.981 Y111.212 E0.03326
G1 X100.889 Y112.125 E0.02876
G1 X100.838 Y113.134 E0.03169
G1 X100.831 Y114.262 E0.03538
G1 X100.876 Y115.502 E0.03888
G1 X100.981 Y116.907 E0.04419
G1 X101.211 Y118.956 E0.06464
G1 X101.924 Y123.967 E0.15872
G1 X102.148 Y125.749 E0.05630
G1 X102.343 Y127.834 E0.06567
G1 X102.441 Y129.711 E0.05891
G1 X102.455 Y131.028 E0.04131
G1 X102.438 Y131.909 E0.02763
G1 X102.369 Y133.237 E0.04169
G1 X102.294 Y134.137 E0.02833
G1 X102.148 Y135.420 E0.04048
G1 X101.946 Y136.776 E0.04297
G1 X101.784 Y137.673 E0.02859
G1 X101.504 Y138.996 E0.04241
G1 X101.061 Y140.719 E0.05577
G1 X100.808 Y141.571 E0.02788
G1 X100.395 Y142.816 E0.04112
G1 X100.101 Y143.619 E0.02682
G1 X99.650 Y144.740 E0.03787
G1 X99.336 Y145.448 E0.02430
G1 X98.853 Y146.443 E0.03465
G1 X98.516 Y147.076 E0.02248
G1 X97.995 Y147.969 E0.03244
G1 X97.443 Y148.819 E0.03176
G1 X96.643 Y149.905 E0.04232
G1 X96.020 Y150.653 E0.03050
G1 X95.582 Y151.134 E0.02039
G1 X94.912 Y151.809 E0.02984
G1 X94.220 Y152.436 E0.02927
G1 X93.718 Y152.851 E0.02041
G1 X92.944 Y153.437 E0.03044
G1 X92.323 Y153.874 E0.02380
G1 X88.936 Y156.103 E0.12715
G1 X88.194 Y156.548 E0.02711
G1 X87.347 Y156.981 E0.02984
G1 X86.532 Y157.298 E0.02741
G1 X85.845 Y157.493 E0.02238
G1 X85.084 Y157.655 E0.02442
G1 X83.920 Y157.851 E0.03698
G1 X83.436 Y157.895 E0.01526
G1 X82.725 Y157.894 E0.02228
G1 X82.240 Y157.848 E0.01526
G1 X81.766 Y157.767 E0.01509
G1 X81.299 Y157.651 E0.01509
G1 X80.837 Y157.499 E0.01526
G1 X80.186 Y157.215 E0.02228
G1 X79.760 Y156.979 E0.01526
G1 X79.352 Y156.713 E0.01526
G1 X78.796 Y156.270 E0.02228
G1 X78.446 Y155.933 E0.01525
G1 X78.135 Y155.587 E0.01459
G1 X77.698 Y155.000 E0.02293
G1 X77.446 Y154.583 E0.01528
G1 X77.226 Y154.149 E0.01526
G1 X76.964 Y153.488 E0.02228
G1 X76.828 Y153.021 E0.01526
G1 X76.728 Y152.545 E0.01526
G1 X76.646 Y151.839 E0.02228
G1 X76.635 Y151.353 E0.01525
G1 X76.658 Y150.888 E0.01459
G1 X76.763 Y150.164 E0.02293
G1 X76.878 Y149.691 E0.01527
G1 X77.021 Y149.248 E0.01459
G1 X77.311 Y148.570 E0.02311
G1 X77.666 Y147.948 E0.02247
G1 X77.945 Y147.549 E0.01526
G1 X78.250 Y147.177 E0.01509
G1 X78.585 Y146.824 E0.01526
G1 X79.125 Y146.354 E0.02245
G1 X79.718 Y145.943 E0.02263
G1 X80.354 Y145.601 E0.02263
G1 X81.023 Y145.332 E0.02263
G1 X81.719 Y145.140 E0.02263
G1 X82.431 Y145.026 E0.02263
G1 X83.147 Y144.993 E0.02245
G1 X83.633 Y145.016 E0.01526
G1 X84.110 Y145.074 E0.01509
G1 X84.582 Y145.168 E0.01509
G1 X85.051 Y145.298 E0.01526
G1 X85.715 Y145.551 E0.02228
G1 X86.152 Y145.766 E0.01526
G1 X86.567 Y146.010 E0.01509
G1 X86.962 Y146.284 E0.01509
G1 X87.336 Y146.587 E0.01509
G1 X87.687 Y146.916 E0.01509
G1 X88.011 Y147.271 E0.01509
G1 X88.309 Y147.650 E0.01509
G1 X88.581 Y148.055 E0.01531
G1 X88.721 Y148.316 E0.00928
G1 X90.338 Y147.920 E0.05219
G1 X91.598 Y147.562 E0.04106
G1 X92.390 Y147.290 E0.02626
G1 X92.682 Y147.166 E0.00993
G1 X93.063 Y146.972 E0.01341
G1 X93.370 Y146.776 E0.01144
G1 X93.639 Y146.560 E0.01080
G1 X93.905 Y146.291 E0.01187
G1 X94.170 Y145.962 E0.01325
G1 X94.431 Y145.562 E0.01498
G1 X94.593 Y145.269 E0.01049
G1 X94.825 Y144.767 E0.01734
G1 X94.962 Y144.411 E0.01195
G1 X95.154 Y143.798 E0.02016
G1 X95.265 Y143.347 E0.01455
G1 X95.415 Y142.563 E0.02505
G1 X95.493 Y142.011 E0.01746
G1 X95.596 Y140.827 E0.03726
G1 X95.625 Y139.786 E0.03266
G1 X95.619 Y139.051 E0.02306
G1 X95.539 Y137.387 E0.05221
G1 X95.423 Y136.104 E0.04041
G1 X95.317 Y135.241 E0.02724
G1 X95.018 Y133.359 E0.05975
G1 X94.694 Y131.681 E0.05359
G1 X93.744 Y127.170 E0.14455
G1 X92.804 Y122.344 E0.15415
G1 X92.212 Y119.502 E0.09103
G1 X91.945 Y118.349 E0.03710
G1 X91.599 Y116.980 E0.04427
G1 X91.283 Y115.887 E0.03569
G1 X90.966 Y114.932 E0.03155
G1 X90.753 Y114.364 E0.01901
G1 X90.448 Y113.640 E0.02463
G1 X90.254 Y113.236 E0.01405
G1 X89.959 Y112.695 E0.01932
G1 X89.767 Y112.389 E0.01134
G1 X89.464 Y111.967 E0.01628
G1 X89.105 Y111.549 E0.01727
G1 X88.824 Y111.263 E0.01258
G1 X88.333 Y110.819 E0.02077
G1 X87.716 Y110.323 E0.02481
G1 X86.910 Y109.728 E0.03143
G1 X86.333 Y109.343 E0.02174
G1 X85.859 Y109.067 E0.01720
G1 X85.449 Y108.871 E0.01425
G1 X83.719 Y108.246 E0.05768
G1 X85.640 Y104.956 E0.11944
G1 X86.018 Y104.185 E0.02695
G1 X86.221 Y103.665 E0.01748
G1 X86.458 Y102.844 E0.02679
G1 X86.599 Y102.155 E0.02205
G1 X86.765 Y100.963 E0.03775
G1 X86.882 Y99.655 E0.04117
G1 X86.909 Y98.821 E0.02618
G1 X86.892 Y97.984 E0.02623
G1 X86.824 Y96.940 E0.03280
G1 X86.655 Y95.177 E0.05555
G1 X86.273 Y91.971 E0.10123
G1 X85.384 Y85.815 E0.19502
G1 X85.228 Y84.411 E0.04429
G1 X85.116 Y82.835 E0.04954
G1 X85.096 Y82.181 E0.02052
G1 X85.104 Y81.310 E0.02730
G1 X85.194 Y80.187 E0.03534
G1 X85.385 Y78.965 E0.03877
G1 X85.761 Y77.170 E0.05750
G1 X86.126 Y75.727 E0.04667
G1 X86.406 Y74.821 E0.02974
G1 X86.614 Y74.238 E0.01941
G1 X87.140 Y72.991 E0.04243
G1 X87.804 Y71.656 E0.04675
G1 X89.203 Y69.138 E0.09033
G1 X89.663 Y68.356 E0.02842
G1 X90.287 Y67.361 E0.03682
G1 X90.676 Y66.786 E0.02177
G1 X91.242 Y66.016 E0.02998
G1 X91.809 Y65.323 E0.02808
G1 X92.424 Y64.654 E0.02849
G1 X93.112 Y63.985 E0.03009
G1 X93.622 Y63.532 E0.02137
G1 X94.736 Y62.638 E0.04478
G1 X95.681 Y61.961 E0.03646
G1 X96.367 Y61.508 E0.02577
G1 X97.860 Y60.607 E0.05467
G1 X99.109 Y59.925 E0.04463
G1 X100.213 Y59.353 E0.03897
G1 X100.546 Y59.117 E0.01280
G1 X100.970 Y58.861 E0.01555
G1 X101.628 Y58.541 E0.02291
G1 X102.316 Y58.297 E0.02291
G1 X102.802 Y58.173 E0.01573
G1 X103.523 Y58.058 E0.02290
G1 X104.237 Y58.023 E0.02240
G1 X104.987 Y58.068 E0.02358
G1 X105.478 Y58.145 E0.01558
G1 X105.956 Y58.256 E0.01539
G1 X106.425 Y58.401 E0.01539
G1 X106.882 Y58.581 E0.01539
G1 X107.324 Y58.794 E0.01539
G1 X107.749 Y59.039 E0.01539
G1 X108.156 Y59.314 E0.01539
G1 X108.541 Y59.618 E0.01539
G1 X108.902 Y59.950 E0.01538
G1 X109.227 Y60.295 E0.01488
G1 X109.688 Y60.883 E0.02340
G1 X109.957 Y61.301 E0.01558
G1 X110.193 Y61.737 E0.01556
G1 X110.480 Y62.403 E0.02274
G1 X110.633 Y62.875 E0.01556
G1 X110.749 Y63.352 E0.01539
G1 X110.831 Y63.836 E0.01539
G1 X110.877 Y64.325 E0.01539
G1 X110.886 Y64.815 E0.01539
G1 X110.860 Y65.305 E0.01539
G1 X110.798 Y65.792 E0.01538
G1 X110.703 Y66.257 E0.01488
G1 X110.490 Y66.972 E0.02340
G1 X110.303 Y67.433 E0.01558
G1 X110.086 Y67.873 E0.01539
G1 X109.837 Y68.296 E0.01539
G1 X109.558 Y68.700 E0.01539
G1 X109.250 Y69.081 E0.01538
G1 X108.926 Y69.428 E0.01488
G1 X108.366 Y69.929 E0.02357
G1 X107.765 Y70.355 E0.02310
G1 X107.121 Y70.712 E0.02308
G1 X106.447 Y70.994 E0.02291
G1 X105.974 Y71.142 E0.01555
G1 X105.512 Y71.251 E0.01488
G1 X104.767 Y71.357 E0.02357
G1 X104.036 Y71.378 E0.02293
G1 X103.541 Y71.346 E0.01556
G1 X103.055 Y71.279 E0.01539
G1 X102.575 Y71.177 E0.01539
G1 X102.104 Y71.040 E0.01539
G1 X101.644 Y70.868 E0.01539
G1 X101.193 Y70.661 E0.01556
G1 X100.565 Y70.298 E0.02274
G1 X100.160 Y70.012 E0.01556
G1 X99.781 Y69.701 E0.01539
G1 X99.425 Y69.362 E0.01539
G1 X99.096 Y68.998 E0.01539
G1 X98.794 Y68.611 E0.01539
G1 X98.518 Y68.197 E0.01562
G1 X98.355 Y67.891 E0.01087
G1 X97.907 Y67.965 E0.01423
G1 X97.206 Y68.119 E0.02250
G1 X96.582 Y68.297 E0.02035
G1 X96.012 Y68.502 E0.01898
G1 X95.674 Y68.647 E0.01153
G1 X95.202 Y68.885 E0.01656
G1 X94.791 Y69.137 E0.01514
G1 X94.420 Y69.412 E0.01446
G1 X94.157 Y69.643 E0.01097
G1 X93.858 Y69.953 E0.01351
G1 X93.605 Y70.274 E0.01282
G1 X93.376 Y70.631 E0.01330
G1 X93.156 Y71.064 E0.01522
G1 X92.948 Y71.578 E0.01739
G1 X92.749 Y72.202 E0.02052
G1 X92.636 Y72.641 E0.01423
G1 X92.489 Y73.376 E0.02348
G1 X92.351 Y74.481 E0.03493
G1 X92.291 Y75.419 E0.02946
G1 X92.269 Y76.533 E0.03495
G1 X92.279 Y77.312 E0.02444
G1 X92.336 Y78.507 E0.03749
G1 X92.400 Y79.307 E0.02518
G1 X92.540 Y80.533 E0.03869
G1 X92.660 Y81.354 E0.02603
G1 X92.887 Y82.619 E0.04028
G1 X93.078 Y83.519 E0.02886
G1 X93.421 Y84.934 E0.04565
G1 X93.863 Y86.562 E0.05290
G1 X95.732 Y92.902 E0.20723
G1 X96.356 Y94.884 E0.06515
G1 X96.624 Y95.656 E0.02564
G1 X96.997 Y96.635 E0.03284
G1 X97.482 Y97.733 E0.03764
G1 X97.721 Y98.207 E0.01664
G1 X98.093 Y98.867 E0.02376
G1 X98.479 Y99.464 E0.02230
G1 X98.752 Y99.841 E0.01459
G1 X99.403 Y100.628 E0.03203
G1 X99.965 Y101.218 E0.02555
G1 X100.370 Y101.605 E0.01755
G1 X101.275 Y102.378 E0.03734
G1 X102.317 Y103.150 E0.04066
G1 X104.099 Y104.340 E0.06718
M204 S1250
G1 X103.617 Y104.472 F9000.000
M204 S800
;TYPE:External perimeter
G1 F1200.000
G1 X102.740 Y105.710 E0.04758
G1 X102.282 Y106.428 E0.02671
G1 X101.760 Y107.370 E0.03376
G1 X101.346 Y108.275 E0.03120
G1 X101.034 Y109.145 E0.02896
G1 X100.790 Y110.087 E0.03053
G1 X100.608 Y111.162 E0.03417
G1 X100.513 Y112.096 E0.02945
G1 X100.461 Y113.123 E0.03225
G1 X100.454 Y114.268 E0.03589
G1 X100.499 Y115.522 E0.03936
G1 X100.605 Y116.942 E0.04464
G1 X100.837 Y119.003 E0.06503
G1 X101.550 Y124.017 E0.15880
G1 X101.773 Y125.790 E0.05602
G1 X101.967 Y127.862 E0.06524
G1 X102.064 Y129.723 E0.05842
G1 X102.078 Y131.026 E0.04088
G1 X102.061 Y131.896 E0.02726
G1 X101.992 Y133.212 E0.04132
G1 X101.918 Y134.101 E0.02797
G1 X101.774 Y135.371 E0.04009
G1 X101.574 Y136.714 E0.04258
G1 X101.414 Y137.600 E0.02824
G1 X101.136 Y138.910 E0.04198
G1 X100.697 Y140.618 E0.05529
G1 X100.448 Y141.458 E0.02748
G1 X100.039 Y142.692 E0.04075
G1 X99.749 Y143.484 E0.02645
G1 X99.302 Y144.593 E0.03748
G1 X98.994 Y145.290 E0.02389
G1 X98.517 Y146.272 E0.03422
G1 X98.187 Y146.892 E0.02204
G1 X97.674 Y147.772 E0.03193
G1 X97.131 Y148.606 E0.03122
G1 X96.348 Y149.670 E0.04142
G1 X95.735 Y150.405 E0.03000
G1 X95.309 Y150.874 E0.01988
G1 X94.651 Y151.537 E0.02927
G1 X93.973 Y152.151 E0.02869
G1 X93.484 Y152.555 E0.01989
G1 X92.722 Y153.132 E0.02999
G1 X92.111 Y153.562 E0.02342
G1 X88.735 Y155.784 E0.12672
G1 X88.011 Y156.218 E0.02646
G1 X87.192 Y156.636 E0.02884
G1 X86.412 Y156.940 E0.02625
G1 X85.755 Y157.127 E0.02142
G1 X85.013 Y157.284 E0.02377
M73 P3 R30
G1 X83.872 Y157.476 E0.03629
G1 X83.419 Y157.518 E0.01427
G1 X82.743 Y157.517 E0.02118
G1 X82.290 Y157.474 E0.01427
G1 X81.844 Y157.398 E0.01420
G1 X81.404 Y157.289 E0.01420
G1 X80.972 Y157.146 E0.01427
G1 X80.353 Y156.876 E0.02118
G1 X79.954 Y156.656 E0.01427
G1 X79.574 Y156.407 E0.01427
G1 X79.045 Y155.986 E0.02118
G1 X78.717 Y155.671 E0.01426
G1 X78.427 Y155.348 E0.01361
G1 X78.012 Y154.789 E0.02183
G1 X77.776 Y154.400 E0.01427
G1 X77.570 Y153.994 E0.01427
G1 X77.322 Y153.366 E0.02118
G1 X77.194 Y152.929 E0.01427
G1 X77.100 Y152.484 E0.01427
G1 X77.022 Y151.813 E0.02118
G1 X77.012 Y151.358 E0.01426
G1 X77.034 Y150.925 E0.01361
G1 X77.133 Y150.236 E0.02183
G1 X77.241 Y149.793 E0.01427
G1 X77.374 Y149.380 E0.01361
G1 X77.649 Y148.738 E0.02189
G1 X77.984 Y148.150 E0.02125
G1 X78.246 Y147.777 E0.01427
G1 X78.532 Y147.427 E0.01421
G1 X78.846 Y147.097 E0.01427
G1 X79.357 Y146.652 E0.02124
G1 X79.915 Y146.265 E0.02130
G1 X80.514 Y145.943 E0.02130
G1 X81.144 Y145.690 E0.02130
G1 X81.799 Y145.509 E0.02130
G1 X82.470 Y145.402 E0.02130
G1 X83.147 Y145.371 E0.02124
G1 X83.601 Y145.392 E0.01427
G1 X84.051 Y145.447 E0.01420
G1 X84.495 Y145.535 E0.01420
G1 X84.934 Y145.657 E0.01427
G1 X85.565 Y145.897 E0.02118
G1 X85.973 Y146.098 E0.01427
G1 X86.364 Y146.328 E0.01420
G1 X86.736 Y146.586 E0.01420
G1 X87.088 Y146.871 E0.01420
G1 X87.418 Y147.181 E0.01420
G1 X87.724 Y147.516 E0.01420
G1 X88.004 Y147.872 E0.01420
G1 X88.258 Y148.250 E0.01429
G1 X88.524 Y148.745 E0.01764
G1 X89.230 Y148.590 E0.02267
G1 X90.436 Y148.284 E0.03900
G1 X91.711 Y147.922 E0.04155
G1 X92.525 Y147.642 E0.02700
G1 X92.841 Y147.508 E0.01076
G1 X93.250 Y147.300 E0.01440
G1 X93.591 Y147.083 E0.01266
G1 X93.892 Y146.841 E0.01211
G1 X94.187 Y146.543 E0.01315
G1 X94.475 Y146.183 E0.01445
G1 X94.755 Y145.756 E0.01600
G1 X94.930 Y145.439 E0.01135
G1 X95.173 Y144.914 E0.01815
G1 X95.318 Y144.535 E0.01273
G1 X95.517 Y143.899 E0.02089
G1 X95.634 Y143.428 E0.01522
G1 X95.787 Y142.624 E0.02566
G1 X95.868 Y142.054 E0.01807
G1 X95.972 Y140.849 E0.03792
G1 X96.002 Y139.790 E0.03323
G1 X95.996 Y139.040 E0.02351
G1 X95.915 Y137.361 E0.05269
G1 X95.798 Y136.064 E0.04085
G1 X95.691 Y135.189 E0.02764
G1 X95.390 Y133.294 E0.06016
G1 X95.064 Y131.606 E0.05388
G1 X94.113 Y127.095 E0.14455
G1 X93.174 Y122.270 E0.15414
G1 X92.580 Y119.421 E0.09124
G1 X92.312 Y118.260 E0.03735
G1 X91.963 Y116.882 E0.04459
G1 X91.644 Y115.775 E0.03612
G1 X91.321 Y114.806 E0.03201
G1 X91.103 Y114.225 E0.01947
G1 X90.792 Y113.486 E0.02515
G1 X90.590 Y113.064 E0.01465
G1 X90.285 Y112.505 E0.01999
G1 X90.081 Y112.178 E0.01207
G1 X89.761 Y111.734 E0.01717
G1 X89.383 Y111.294 E0.01817
G1 X89.086 Y110.991 E0.01332
G1 X88.578 Y110.532 E0.02146
G1 X87.947 Y110.024 E0.02540
G1 X87.126 Y109.420 E0.03194
G1 X86.533 Y109.023 E0.02239
G1 X86.035 Y108.734 E0.01804
G1 X85.595 Y108.523 E0.01531
G1 X84.273 Y108.045 E0.04408
G1 X85.972 Y105.135 E0.10567
G1 X86.364 Y104.336 E0.02787
G1 X86.579 Y103.786 E0.01852
G1 X86.825 Y102.935 E0.02780
G1 X86.971 Y102.219 E0.02289
G1 X87.140 Y101.006 E0.03841
G1 X87.258 Y99.678 E0.04179
G1 X87.286 Y98.823 E0.02682
G1 X87.268 Y97.968 E0.02681
G1 X87.200 Y96.910 E0.03325
G1 X87.030 Y95.136 E0.05587
G1 X86.647 Y91.922 E0.10151
G1 X85.758 Y85.767 E0.19497
G1 X85.604 Y84.377 E0.04386
G1 X85.493 Y82.815 E0.04907
G1 X85.473 Y82.177 E0.02004
G1 X85.481 Y81.327 E0.02664
G1 X85.568 Y80.231 E0.03448
G1 X85.756 Y79.033 E0.03802
G1 X86.129 Y77.255 E0.05695
