; generated by PrusaSlicer 2.3.0+win64 on 2021-08-10 at 11:07:43 UTC


;
;

;
;
; 

; external perimeters extrusion width = 0.45mm
; perimeters extrusion width = 0.45mm
; infill extrusion width = 0.45mm
; solid infill extrusion width = 0.45mm
; top infill extrusion width = 0.40mm
; first layer extrusion width = 0.42mm

M73 P0 R13
M201 X1250 Y1250 Z400 E5000 ; sets maximum accelerations, mm/sec^2
M203 X180 Y180 Z12 E80 ; sets maximum feedrates, mm/sec
M204 P1250 R1250 T1250 ; sets acceleration (P, T) and retract acceleration (R), mm/sec^2
M205 X8.00 Y8.00 Z2.00 E10.00 ; sets the jerk limits, mm/sec
M205 S0 T0 ; sets the minimum extruding and travel feed rate, mm/sec
M107
;TYPE:Custom
G90 ; use absolute coordinates
M83 ; extruder relative mode
M104 S170 ; set extruder temp for bed leveling
M140 S60 ; set bed temp
M109 R170 ; wait for bed leveling temp
M190 S60 ; wait for bed temp
G28 ; home all without mesh bed level
G29 ; mesh bed leveling 
M104 S215 ; set extruder temp
G92 E0.0
G1 Y-2.0 X179 F2400
G1 Z3 F720
M109 S215 ; wait for extruder temp

; intro line
G1 X170 F1000
G1 Z0.2 F720
G1 X110.0 E8.0 F900
M73 P1 R13
G1 X40.0 E10.0 F700
G92 E0.0

M221 S95 ; set flow
G21 ; set units to millimeters
G90 ; use absolute coordinates
M83 ; use relative distances for extrusion
M900 K0.2 ; Filament gcode LA 1.5
; ; Filament gcode LA 1.0
;LAYER_CHANGE
;Z:0.2
;HEIGHT:0.2
;BEFORE_LAYER_CHANGE
G92 E0.0
;0.2


M73 P2 R13
G1 E-3.20000 F4200.000
G1 Z0.200 F9000.000
;AFTER_LAYER_CHANGE
;0.2
G1 Z0.400
G1 X83.672 Y83.807
G1 Z0.200
G1 E3.20000 F2400.000
M204 S800
;TYPE:Skirt
;WIDTH:0.42
G1 F1200.000
G1 X87.663 Y81.479 E0.14488
G1 X88.601 Y81.230 E0.03043
G1 X89.948 Y81.119 E0.04237
G1 X91.504 Y81.247 E0.04895
G1 X92.439 Y81.525 E0.03058
G1 X96.032 Y83.591 E0.12995
G1 X96.476 Y83.938 E0.01766
G1 X96.886 Y84.391 E0.01917
G1 X97.812 Y85.776 E0.05224
G1 X98.215 Y86.626 E0.02948
G1 X98.493 Y87.445 E0.02712
G1 X98.569 Y88.082 E0.02011
G1 X98.570 Y91.866 E0.11866
G1 X98.436 Y92.771 E0.02868
G1 X97.917 Y94.023 E0.04250
G1 X97.102 Y95.332 E0.04836
G1 X96.311 Y96.207 E0.03697
G1 X92.316 Y98.530 E0.14488
G1 X91.258 Y98.792 E0.03420
G1 X89.945 Y98.881 E0.04125
G1 X88.557 Y98.763 E0.04367
G1 X87.526 Y98.458 E0.03374
G1 X83.946 Y96.395 E0.12954
G1 X83.486 Y96.026 E0.01848
G1 X83.041 Y95.518 E0.02119
G1 X82.129 Y94.114 E0.05248
G1 X81.502 Y92.535 E0.05325
G1 X81.430 Y91.916 E0.01957
G1 X81.430 Y88.134 E0.11858
G1 X81.570 Y87.208 E0.02936
G1 X82.125 Y85.894 E0.04470
G1 X82.841 Y84.744 E0.04248
G1 X83.633 Y83.852 E0.03739
M204 S1250
G1 X83.913 Y84.101 F9000.000
M204 S800
G1 F1200.000
G1 X87.809 Y81.827 E0.14145
G1 X88.668 Y81.601 E0.02782
G1 X89.949 Y81.496 E0.04032
G1 X91.432 Y81.618 E0.04666
G1 X92.280 Y81.867 E0.02770
G1 X95.821 Y83.904 E0.12810
G1 X96.600 Y84.637 E0.03353
G1 X97.477 Y85.949 E0.04946
G1 X98.128 Y87.541 E0.05395
G1 X98.193 Y88.094 E0.01745
G1 X98.193 Y91.866 E0.11828
G1 X98.057 Y92.721 E0.02714
G1 X97.484 Y94.038 E0.04504
G1 X96.778 Y95.136 E0.04090
G1 X96.062 Y95.923 E0.03336
G1 X92.176 Y98.180 E0.14092
G1 X91.196 Y98.420 E0.03161
G1 X89.948 Y98.504 E0.03924
G1 X88.632 Y98.393 E0.04138
G1 X87.689 Y98.118 E0.03080
G1 X84.161 Y96.085 E0.12768
G1 X83.743 Y95.750 E0.01681
G1 X83.330 Y95.275 E0.01974
G1 X82.466 Y93.944 E0.04973
G1 X81.868 Y92.442 E0.05071
G1 X81.807 Y91.905 E0.01694
G1 X81.807 Y88.134 E0.11824
G1 X81.936 Y87.302 E0.02638
G1 X82.465 Y86.058 E0.04238
G1 X83.142 Y84.972 E0.04015
G1 X83.873 Y84.146 E0.03460
M204 S1250
G1 X84.154 Y84.393 F9000.000
M204 S800
G1 F1200.000
G1 X87.953 Y82.175 E0.13794
G1 X88.733 Y81.973 E0.02525
G1 X89.950 Y81.873 E0.03829
G1 X91.373 Y81.990 E0.04477
G1 X92.147 Y82.221 E0.02534
G1 X95.641 Y84.236 E0.12645
G1 X96.024 Y84.549 E0.01550
G1 X96.442 Y85.046 E0.02035
G1 X97.260 Y86.348 E0.04823
G1 X97.769 Y87.663 E0.04420
G1 X97.816 Y91.866 E0.13180
M73 P2 R12
G1 X97.692 Y92.622 E0.02402
G1 X97.144 Y93.873 E0.04282
G1 X96.480 Y94.904 E0.03845
M73 P3 R12
G1 X95.816 Y95.636 E0.03098
G1 X92.033 Y97.831 E0.13715
G1 X91.132 Y98.048 E0.02905
G1 X89.946 Y98.127 E0.03728
G1 X88.705 Y98.023 E0.03903
G1 X87.854 Y97.779 E0.02778
G1 X84.372 Y95.772 E0.12602
G1 X83.619 Y95.033 E0.03308
G1 X82.801 Y93.770 E0.04716
G1 X82.234 Y92.352 E0.04788
G1 X82.184 Y88.134 E0.13228
G1 X82.301 Y87.399 E0.02331
G1 X82.804 Y86.224 E0.04009
G1 X83.443 Y85.198 E0.03789
G1 X84.114 Y84.438 E0.03179
M204 S1250
; printing object spanner01.stl id:0 copy 0
G1 E-2.24000 F4200.000
;WIPE_START
G1 F7200.000
G1 X85.532 Y83.603 E-0.91200
;WIPE_END
G1 E-0.04800 F4200.000
G1 Z0.400 F9000.000
G1 X87.302 Y87.526
G1 Z0.200
G1 E3.20000 F2400.000
M204 S800
;TYPE:External perimeter
G1 F1200.000
G1 X87.560 Y87.272 E0.01135
G1 X87.841 Y87.044 E0.01135
G1 X88.144 Y86.845 E0.01135
G1 X88.464 Y86.677 E0.01135
G1 X88.800 Y86.542 E0.01135
G1 X89.148 Y86.440 E0.01135
G1 X89.504 Y86.374 E0.01135
G1 X89.864 Y86.342 E0.01135
G1 X90.226 Y86.347 E0.01135
G1 X90.586 Y86.387 E0.01135
G1 X90.940 Y86.462 E0.01135
G1 X91.285 Y86.573 E0.01135
G1 X91.617 Y86.716 E0.01135
G1 X91.934 Y86.892 E0.01135
G1 X92.231 Y87.098 E0.01135
G1 X92.507 Y87.333 E0.01135
G1 X92.758 Y87.594 E0.01135
G1 X92.982 Y87.878 E0.01135
G1 X93.177 Y88.183 E0.01135
G1 X93.341 Y88.506 E0.01135
G1 X93.473 Y88.843 E0.01135
G1 X93.571 Y89.194 E0.01143
G1 X93.650 Y89.726 E0.01686
G1 X93.659 Y90.092 E0.01147
G1 X93.632 Y90.452 E0.01131
G1 X93.570 Y90.808 E0.01135
G1 X93.473 Y91.157 E0.01135
G1 X93.341 Y91.494 E0.01135
G1 X93.177 Y91.817 E0.01135
G1 X92.982 Y92.122 E0.01135
G1 X92.758 Y92.406 E0.01135
G1 X92.507 Y92.667 E0.01135
G1 X92.231 Y92.902 E0.01135
G1 X91.934 Y93.108 E0.01135
G1 X91.617 Y93.284 E0.01135
G1 X91.285 Y93.427 E0.01135
G1 X90.940 Y93.538 E0.01135
G1 X90.586 Y93.613 E0.01135
G1 X90.226 Y93.653 E0.01135
G1 X89.864 Y93.658 E0.01135
G1 X89.504 Y93.626 E0.01135
G1 X89.148 Y93.560 E0.01135
G1 X88.800 Y93.458 E0.01135
G1 X88.464 Y93.323 E0.01135
G1 X88.144 Y93.155 E0.01135
G1 X87.841 Y92.956 E0.01135
G1 X87.560 Y92.728 E0.01135
G1 X87.302 Y92.474 E0.01135
G1 X87.071 Y92.195 E0.01135
G1 X86.868 Y91.895 E0.01135
G1 X86.697 Y91.576 E0.01135
G1 X86.557 Y91.242 E0.01135
G1 X86.451 Y90.896 E0.01135
G1 X86.380 Y90.541 E0.01135
G1 X86.344 Y90.181 E0.01135
G1 X86.344 Y89.819 E0.01135
G1 X86.380 Y89.459 E0.01135
G1 X86.451 Y89.104 E0.01135
G1 X86.557 Y88.758 E0.01135
G1 X86.697 Y88.424 E0.01135
G1 X86.868 Y88.105 E0.01135
G1 X87.071 Y87.805 E0.01135
G1 X87.264 Y87.572 E0.00947
M204 S1250
G1 X87.193 Y87.181 F9000.000
G1 E-2.24000 F4200.000
;WIPE_START
G1 F7200.000
G1 X87.560 Y87.272 E-0.23374
G1 X87.841 Y87.044 E-0.20063
G1 X88.144 Y86.845 E-0.20063
G1 X88.464 Y86.677 E-0.20063
G1 X88.592 Y86.626 E-0.07638
;WIPE_END
G1 E-0.04800 F4200.000
G1 Z0.400 F9000.000
G1 X88.931 Y86.097
G1 Z0.200
G1 E3.20000 F2400.000
M204 S800
;TYPE:Perimeter
G1 F1200.000
G1 X89.165 Y85.791 E0.01208
G1 X89.348 Y85.485 E0.01120
G1 X89.527 Y85.057 E0.01454
G1 X90.142 Y85.040 E0.01930
G1 X90.472 Y85.061 E0.01035
G1 X90.574 Y85.324 E0.00885
G1 X90.739 Y85.640 E0.01120
G1 X91.051 Y86.101 E0.01743
G1 X90.646 Y86.014 E0.01298
G1 X90.249 Y85.970 E0.01252
G1 X89.850 Y85.965 E0.01252
G1 X89.452 Y85.999 E0.01252
G1 X88.990 Y86.086 E0.01475
M204 S1250
G1 E-2.24000 F4200.000
;WIPE_START
G1 F7200.000
G1 X89.165 Y85.791 E-0.19010
G1 X89.348 Y85.485 E-0.19788
G1 X89.527 Y85.057 E-0.25692
G1 X90.009 Y85.044 E-0.26710
;WIPE_END
G1 E-0.04800 F4200.000
G1 Z0.400 F9000.000
G1 X92.882 Y87.142
G1 Z0.200
G1 E3.20000 F2400.000
M204 S800
G1 F1200.000
G1 X93.406 Y87.180 E0.01646
G1 X93.763 Y87.165 E0.01120
G1 X94.033 Y87.123 E0.00859
G1 X94.161 Y87.297 E0.00675
G1 X94.436 Y87.776 E0.01733
G1 X94.509 Y87.944 E0.00574
G1 X94.336 Y88.159 E0.00864
G1 X94.145 Y88.461 E0.01120
G1 X93.914 Y88.938 E0.01661
G1 X93.686 Y88.352 E0.01971
G1 X93.505 Y87.996 E0.01252
G1 X93.290 Y87.659 E0.01252
G1 X92.919 Y87.189 E0.01876
M204 S1250
G1 E-2.24000 F4200.000
;WIPE_START
G1 F7200.000
G1 X93.406 Y87.180 E-0.26955
G1 X93.763 Y87.165 E-0.19788
G1 X94.033 Y87.123 E-0.15184
G1 X94.161 Y87.297 E-0.11934
G1 X94.317 Y87.568 E-0.17339
;WIPE_END
G1 E-0.04800 F4200.000
G1 Z0.400 F9000.000
G1 X93.914 Y91.063
G1 Z0.200
G1 E3.20000 F2400.000
M204 S800
G1 F1200.000
G1 X94.149 Y91.547 E0.01687
G1 X94.443 Y91.984 E0.01653
G1 X94.510 Y92.054 E0.00302
G1 X94.259 Y92.548 E0.01736
G1 X94.042 Y92.881 E0.01246
G1 X93.940 Y92.856 E0.00330
G1 X93.406 Y92.819 E0.01679
G1 X92.828 Y92.877 E0.01820
G1 X93.043 Y92.655 E0.00968
G1 X93.290 Y92.341 E0.01252
G1 X93.505 Y92.004 E0.01252
G1 X93.686 Y91.648 E0.01252
G1 X93.892 Y91.119 E0.01782
M204 S1250
G1 E-2.24000 F4200.000
;WIPE_START
G1 F7200.000
G1 X94.149 Y91.547 E-0.27667
G1 X94.443 Y91.984 E-0.29213
G1 X94.510 Y92.054 E-0.05331
G1 X94.273 Y92.520 E-0.28990
;WIPE_END
G1 E-0.04800 F4200.000
G1 Z0.400 F9000.000
G1 X91.076 Y93.894
G1 Z0.200
G1 E3.20000 F2400.000
M204 S800
G1 F1200.000
G1 X90.835 Y94.209 E0.01242
G1 X90.647 Y94.524 E0.01151
G1 X90.475 Y94.934 E0.01392
G1 X89.954 Y94.962 E0.01636
G1 X89.530 Y94.943 E0.01331
G1 X89.426 Y94.676 E0.00897
G1 X89.261 Y94.359 E0.01120
G1 X88.954 Y93.907 E0.01714
G1 X89.452 Y94.001 E0.01590
G1 X89.850 Y94.035 E0.01252
G1 X90.250 Y94.030 E0.01252
G1 X90.646 Y93.986 E0.01252
G1 X91.017 Y93.907 E0.01188
M204 S1250
G1 E-2.24000 F4200.000
;WIPE_START
G1 F7200.000
G1 X90.835 Y94.209 E-0.19545
G1 X90.647 Y94.524 E-0.20350
G1 X90.475 Y94.934 E-0.24606
G1 X89.994 Y94.960 E-0.26699
;WIPE_END
G1 E-0.04800 F4200.000
G1 Z0.400 F9000.000
G1 X87.155 Y92.887
G1 Z0.200
G1 E3.20000 F2400.000
M204 S800
G1 F1200.000
G1 X86.779 Y92.828 E0.01194
G1 X86.416 Y92.822 E0.01140
G1 X85.964 Y92.879 E0.01426
G1 X85.608 Y92.308 E0.02110
G1 X85.494 Y92.051 E0.00883
G1 X85.760 Y91.700 E0.01380
G1 X85.937 Y91.381 E0.01146
G1 X86.092 Y91.011 E0.01258
G1 X86.202 Y91.371 E0.01180
G1 X86.356 Y91.739 E0.01252
G1 X86.545 Y92.091 E0.01252
G1 X86.769 Y92.422 E0.01252
G1 X87.117 Y92.841 E0.01709
M204 S1250
G1 E-2.24000 F4200.000
;WIPE_START
G1 F7200.000
G1 X86.779 Y92.828 E-0.18735
G1 X86.416 Y92.822 E-0.20145
G1 X85.964 Y92.879 E-0.25210
G1 X85.705 Y92.464 E-0.27110
;WIPE_END
G1 E-0.04800 F4200.000
G1 Z0.400 F9000.000
G1 X86.159 Y88.768
G1 Z0.200
G1 E3.20000 F2400.000
M204 S800
G1 F1200.000
G1 X85.998 Y88.774 E0.00506
G1 X85.938 Y88.618 E0.00522
G1 X85.669 Y88.165 E0.01653
G1 X85.489 Y87.941 E0.00902
G1 X85.695 Y87.532 E0.01436
G1 X85.963 Y87.123 E0.01534
G1 X86.246 Y87.167 E0.00898
G1 X86.773 Y87.173 E0.01653
G1 X87.155 Y87.113 E0.01214
G1 X86.769 Y87.578 E0.01897
G1 X86.545 Y87.909 E0.01252
G1 X86.356 Y88.261 E0.01252
G1 X86.177 Y88.711 E0.01518
M204 S1250
G1 X85.046 Y88.021 F9000.000
M204 S800
;TYPE:External perimeter
G1 F1200.000
G1 X85.183 Y87.695 E0.01109
G1 X85.367 Y87.344 E0.01241
G1 X85.577 Y87.009 E0.01240
G1 X85.810 Y86.699 E0.01214
G1 X86.277 Y86.790 E0.01493
G1 X86.746 Y86.796 E0.01469
G1 X87.211 Y86.722 E0.01478
G1 X87.655 Y86.572 E0.01469
G1 X87.938 Y86.429 E0.00995
G1 X88.203 Y86.256 E0.00992
G1 X88.443 Y86.056 E0.00980
G1 X88.661 Y85.829 E0.00986
G1 X88.852 Y85.579 E0.00986
G1 X89.013 Y85.309 E0.00986
G1 X89.145 Y85.020 E0.00995
G1 X89.233 Y84.720 E0.00981
G1 X89.553 Y84.679 E0.01011
G1 X90.149 Y84.662 E0.01871
G1 X90.763 Y84.718 E0.01931
G1 X90.917 Y85.168 E0.01492
G1 X91.063 Y85.447 E0.00986
G1 X91.242 Y85.709 E0.00995
G1 X91.554 Y86.054 E0.01460
G1 X91.799 Y86.257 E0.00995
G1 X92.062 Y86.429 E0.00986
G1 X92.342 Y86.571 E0.00986
G1 X92.640 Y86.681 E0.00995
G1 X93.095 Y86.779 E0.01460
G1 X93.412 Y86.802 E0.00995
G1 X93.726 Y86.789 E0.00986
M73 P4 R12
G1 X94.190 Y86.700 E0.01481
G1 X94.477 Y87.091 E0.01523
G1 X94.773 Y87.607 E0.01866
G1 X94.953 Y88.022 E0.01417
G1 X94.643 Y88.379 E0.01483
G1 X94.475 Y88.644 E0.00986
G1 X94.336 Y88.932 E0.01001
G1 X94.194 Y89.373 E0.01454
G1 X94.141 Y89.686 E0.00995
G1 X94.123 Y90.002 E0.00992
G1 X94.141 Y90.317 E0.00990
G1 X94.232 Y90.773 E0.01460
G1 X94.338 Y91.073 E0.00995
G1 X94.476 Y91.358 E0.00995
G1 X94.738 Y91.747 E0.01469
G1 X94.955 Y91.974 E0.00986
G1 X94.773 Y92.395 E0.01437
G1 X94.583 Y92.741 E0.01239
G1 X94.366 Y93.074 E0.01244
G1 X94.190 Y93.305 E0.00911
G1 X93.882 Y93.230 E0.00993
G1 X93.412 Y93.197 E0.01478
G1 X92.946 Y93.244 E0.01469
G1 X92.637 Y93.320 E0.00995
G1 X92.342 Y93.429 E0.00986
G1 X92.062 Y93.571 E0.00986
G1 X91.797 Y93.744 E0.00992
G1 X91.557 Y93.944 E0.00980
G1 X91.339 Y94.171 E0.00986
G1 X91.148 Y94.421 E0.00986
G1 X90.984 Y94.695 E0.01001
G1 X90.805 Y95.122 E0.01454
G1 X90.763 Y95.279 E0.00508
G1 X90.346 Y95.329 E0.01319
G1 X89.950 Y95.340 E0.01239
G1 X89.555 Y95.321 E0.01242
G1 X89.237 Y95.280 E0.01004
G1 X89.083 Y94.832 E0.01487
G1 X88.937 Y94.553 E0.00986
G1 X88.760 Y94.293 E0.00986
G1 X88.556 Y94.054 E0.00986
G1 X88.325 Y93.840 E0.00986
G1 X88.072 Y93.653 E0.00986
G1 X87.800 Y93.496 E0.00986
G1 X87.512 Y93.370 E0.00986
G1 X87.208 Y93.277 E0.00995
G1 X86.747 Y93.205 E0.01465
G1 X86.431 Y93.200 E0.00990
G1 X86.115 Y93.230 E0.00995
G1 X85.812 Y93.304 E0.00978
G1 X85.578 Y92.993 E0.01222
G1 X85.273 Y92.482 E0.01865
G1 X85.048 Y91.977 E0.01734
G1 X85.162 Y91.864 E0.00502
G1 X85.443 Y91.494 E0.01459
G1 X85.598 Y91.216 E0.00995
G1 X85.719 Y90.926 E0.00986
G1 X85.806 Y90.624 E0.00986
G1 X85.859 Y90.314 E0.00986
G1 X85.877 Y90.000 E0.00986
G1 X85.859 Y89.683 E0.00995
G1 X85.767 Y89.224 E0.01469
G1 X85.598 Y88.784 E0.01478
G1 X85.359 Y88.381 E0.01469
G1 X85.089 Y88.063 E0.01307
M204 S1250
G1 X85.362 Y87.862 F9000.000
G1 X86.068 Y88.461
M204 S800
;TYPE:Gap fill
;WIDTH:0.580168
G1 F1200.000
G1 X86.035 Y87.881 E0.02596
G1 X86.097 Y87.763 E0.00597
G1 X86.181 Y87.624 E0.00726
G1 X86.687 Y87.382 E0.02501
M204 S1250
G1 X87.449 Y87.090 F9000.000
M204 S800
;WIDTH:0.120073
G1 F1200.000
G1 X87.689 Y86.834 E0.00225
G1 X88.422 Y86.413 E0.00543
M204 S1250
G1 E-2.24000 F4200.000
;WIPE_START
G1 F7200.000
G1 X87.689 Y86.834 E-0.46895
G1 X87.449 Y87.090 E-0.19413
;WIPE_END
G1 E-0.29692 F4200.000
G1 Z0.400 F9000.000
G1 X91.298 Y86.087
G1 Z0.200
G1 E3.20000 F2400.000
M204 S800
;WIDTH:0.112487
G1 F1200.000
G1 X91.548 Y86.395 E0.00229
G1 X92.245 Y86.803 E0.00467
M204 S1250
M204 S800
;WIDTH:0.210018
G1 X92.398 Y86.888 E0.00243
M204 S1250
M204 S800
;WIDTH:0.202516
G1 X92.414 Y86.921 E0.00049
M204 S1250
M204 S800
;WIDTH:0.172787
G1 X92.430 Y86.954 E0.00040
M204 S1250
M204 S800
;WIDTH:0.143058
G1 X92.622 Y87.154 E0.00231
M204 S1250
G1 X92.739 Y86.919 F9000.000
M204 S800
;WIDTH:0.112489
G1 F1200.000
G1 X92.435 Y86.878 E0.00178
M204 S1250
M204 S800
;WIDTH:0.210874
G1 X92.397 Y86.882 E0.00054
M204 S1250
G1 E-2.24000 F4200.000
;WIPE_START
G1 F7200.000
G1 X92.435 Y86.878 E-0.02129
;WIPE_END
G1 E-0.93871 F4200.000
G1 Z0.400 F9000.000
G1 X93.816 Y87.624
G1 Z0.200
G1 E3.20000 F2400.000
M204 S800
;WIDTH:0.588325
G1 F1200.000
G1 X93.966 Y87.884 E0.01357
M204 S1250
G1 X94.037 Y89.171 F9000.000
M204 S800
;WIDTH:0.113118
G1 F1200.000
G1 X93.976 Y89.322 E0.00095
M204 S1250
M204 S800
;WIDTH:0.135033
G1 X93.941 Y89.431 E0.00088
G1 X93.894 Y89.496 E0.00061
G1 X93.894 Y90.100 E0.00463
M204 S1250
M204 S800
;WIDTH:0.1688
G1 X93.892 Y90.353 E0.00265
M204 S1250
M204 S800
;WIDTH:0.203439
G1 X93.900 Y90.481 E0.00171
M204 S1250
M204 S800
;WIDTH:0.212636
G1 X93.900 Y90.507 E0.00037
M204 S1250
G1 E-2.24000 F4200.000
;WIPE_START
G1 F7200.000
G1 X93.900 Y90.481 E-0.01442
;WIPE_END
G1 E-0.94558 F4200.000
G1 Z0.400 F9000.000
G1 X92.592 Y93.112
G1 Z0.200
G1 E3.20000 F2400.000
M204 S800
;WIDTH:0.122641
G1 F1200.000
G1 X92.467 Y93.141 E0.00085
M204 S1250
M204 S800
;WIDTH:0.132419
G1 X92.295 Y93.172 E0.00130
G1 X91.943 Y93.370 E0.00301
M204 S1250
M204 S800
;WIDTH:0.151581
G1 X91.722 Y93.503 E0.00233
M204 S1250
M204 S800
;WIDTH:0.167061
G1 X91.645 Y93.545 E0.00090
M204 S1250
M204 S800
;WIDTH:0.182742
G1 X91.598 Y93.574 E0.00064
M204 S1250
G1 E-2.24000 F4200.000
;WIPE_START
G1 F7200.000
G1 X91.645 Y93.545 E-0.03060
;WIPE_END
G1 E-0.92940 F4200.000
G1 Z0.400 F9000.000
G1 X88.686 Y93.888
G1 Z0.200
G1 E3.20000 F2400.000
M204 S800
;WIDTH:0.120045
G1 F1200.000
G1 X88.469 Y93.613 E0.00225
G1 X87.688 Y93.165 E0.00577
G1 X87.449 Y92.910 E0.00224
M204 S1250
G1 E-2.24000 F4200.000
;WIPE_START
G1 F7200.000
G1 X87.688 Y93.165 E-0.19372
