; generated by PrusaSlicer 2.3.0+win64 on 2021-08-10 at 13:27:49 UTC


;
;

;
;
; 

; external perimeters extrusion width = 0.45mm
; perimeters extrusion width = 0.45mm
; infill extrusion width = 0.45mm
; solid infill extrusion width = 0.45mm
; top infill extrusion width = 0.40mm
; first layer extrusion width = 0.42mm

M73 P0 R4
M201 X1250 Y1250 Z400 E5000 ; sets maximum accelerations, mm/sec^2
M203 X180 Y180 Z12 E80 ; sets maximum feedrates, mm/sec
M204 P1250 R1250 T1250 ; sets acceleration (P, T) and retract acceleration (R), mm/sec^2
M205 X8.00 Y8.00 Z2.00 E10.00 ; sets the jerk limits, mm/sec
M205 S0 T0 ; sets the minimum extruding and travel feed rate, mm/sec
M107
;TYPE:Custom
G90 ; use absolute coordinates
M83 ; extruder relative mode
M104 S170 ; set extruder temp for bed leveling
M140 S60 ; set bed temp
M109 R170 ; wait for bed leveling temp
M190 S60 ; wait for bed temp
G28 ; home all without mesh bed level
G29 ; mesh bed leveling 
M104 S215 ; set extruder temp
G92 E0.0
G1 Y-2.0 X179 F2400
M73 P2 R4
G1 Z3 F720
M109 S215 ; wait for extruder temp

; intro line
G1 X170 F1000
G1 Z0.2 F720
G1 X110.0 E8.0 F900
M73 P4 R3
G1 X40.0 E10.0 F700
G92 E0.0

M221 S95 ; set flow
G21 ; set units to millimeters
G90 ; use absolute coordinates
M83 ; use relative distances for extrusion
M900 K0.2 ; Filament gcode LA 1.5
; ; Filament gcode LA 1.0
;LAYER_CHANGE
;Z:0.2
;HEIGHT:0.2
;BEFORE_LAYER_CHANGE
G92 E0.0
;0.2


M73 P7 R3
G1 E-3.20000 F4200.000
G1 Z0.200 F9000.000
;AFTER_LAYER_CHANGE
;0.2
G1 Z0.400
G1 X77.002 Y83.688
G1 Z0.200
G1 E3.20000 F2400.000
M204 S800
;TYPE:Skirt
;WIDTH:0.42
G1 F1200.000
G1 X78.412 Y82.467 E0.05848
G1 X79.310 Y81.910 E0.03314
G1 X80.472 Y81.381 E0.04003
G1 X81.671 Y81.022 E0.03926
G1 X82.909 Y80.830 E0.03927
G1 X96.379 Y80.796 E0.42235
M73 P8 R3
G1 X97.722 Y80.907 E0.04225
G1 X99.238 Y81.278 E0.04892
G1 X100.473 Y81.797 E0.04202
G1 X101.798 Y82.619 E0.04888
G1 X102.821 Y83.505 E0.04244
G1 X103.823 Y84.698 E0.04884
G1 X104.513 Y85.844 E0.04195
G1 X105.092 Y87.278 E0.04847
G1 X105.427 Y88.810 E0.04919
G1 X105.503 Y90.154 E0.04220
G1 X105.383 Y91.491 E0.04208
G1 X105.003 Y92.997 E0.04870
G1 X104.472 Y94.234 E0.04221
G1 X103.642 Y95.551 E0.04883
G1 X102.760 Y96.556 E0.04193
G1 X101.588 Y97.533 E0.04782
G1 X100.688 Y98.091 E0.03321
G1 X99.524 Y98.621 E0.04009
G1 X98.336 Y98.976 E0.03890
G1 X97.078 Y99.171 E0.03990
G1 X82.947 Y99.173 E0.44308
M73 P9 R3
G1 X81.990 Y99.044 E0.03027
G1 X81.042 Y98.812 E0.03059
G1 X80.132 Y98.485 E0.03032
G1 X79.230 Y98.046 E0.03146
G1 X78.408 Y97.531 E0.03040
G1 X77.484 Y96.788 E0.03717
G1 X76.777 Y96.066 E0.03168
G1 X76.188 Y95.319 E0.02982
G1 X75.351 Y93.874 E0.05237
G1 X74.736 Y92.088 E0.05922
G1 X74.498 Y90.205 E0.05950
G1 X74.616 Y88.517 E0.05305
G1 X75.110 Y86.693 E0.05928
G1 X75.959 Y85.021 E0.05877
G1 X76.965 Y83.735 E0.05119
M204 S1250
G1 E-2.24000 F4200.000
;WIPE_START
G1 F7200.000
G1 X78.202 Y82.650 E-0.91200
;WIPE_END
G1 E-0.04800 F4200.000
G1 Z0.400 F9000.000
G1 X76.297 Y85.193
G1 Z0.200
G1 E3.20000 F2400.000
M204 S800
G1 F1200.000
G1 X77.420 Y83.797 E0.05617
G1 X78.657 Y82.755 E0.05070
G1 X79.691 Y82.136 E0.03780
G1 X80.610 Y81.732 E0.03146
G1 X81.758 Y81.389 E0.03756
G1 X82.953 Y81.205 E0.03792
G1 X96.379 Y81.173 E0.42097
M73 P10 R3
G1 X97.838 Y81.309 E0.04594
G1 X99.121 Y81.636 E0.04151
G1 X100.498 Y82.236 E0.04711
G1 X101.576 Y82.923 E0.04007
G1 X102.550 Y83.767 E0.04043
G1 X103.517 Y84.918 E0.04712
G1 X104.175 Y86.013 E0.04007
G1 X104.734 Y87.396 E0.04676
G1 X105.053 Y88.864 E0.04710
G1 X105.126 Y90.151 E0.04043
G1 X105.011 Y91.427 E0.04017
G1 X104.644 Y92.881 E0.04701
G1 X104.139 Y94.058 E0.04017
G1 X103.339 Y95.326 E0.04701
G1 X102.494 Y96.289 E0.04017
G1 X101.343 Y97.245 E0.04689
G1 X100.309 Y97.864 E0.03780
G1 X99.390 Y98.268 E0.03146
G1 X98.250 Y98.609 E0.03733
G1 X97.039 Y98.796 E0.03840
G1 X82.979 Y98.797 E0.44085
M73 P11 R3
G1 X82.056 Y98.673 E0.02919
G1 X81.126 Y98.443 E0.03004
G1 X80.251 Y98.125 E0.02920
G1 X79.229 Y97.610 E0.03590
G1 X78.430 Y97.081 E0.03003
G1 X77.713 Y96.487 E0.02920
G1 X77.053 Y95.809 E0.02966
G1 X76.476 Y95.073 E0.02932
G1 X75.595 Y93.496 E0.05664
G1 X75.095 Y91.967 E0.05043
G1 X74.874 Y90.158 E0.05714
G1 X75.029 Y88.350 E0.05689
G1 X75.476 Y86.793 E0.05080
G1 X76.270 Y85.246 E0.05452
M204 S1250
; printing object spanner02.stl id:0 copy 0
G1 E-2.24000 F4200.000
;WIPE_START
G1 F7200.000
G1 X77.293 Y83.957 E-0.91200
;WIPE_END
G1 E-0.04800 F4200.000
G1 Z0.400 F9000.000
G1 X92.114 Y89.090
G1 Z0.200
G1 E3.20000 F2400.000
M204 S800
;TYPE:Perimeter
G1 F1200.000
G1 X92.186 Y88.792 E0.00960
G1 X92.319 Y88.406 E0.01279
G1 X92.489 Y88.035 E0.01279
G1 X92.693 Y87.682 E0.01279
G1 X92.930 Y87.349 E0.01279
G1 X93.197 Y87.041 E0.01279
G1 X93.492 Y86.759 E0.01279
G1 X93.813 Y86.507 E0.01279
G1 X94.156 Y86.287 E0.01279
G1 X94.519 Y86.100 E0.01279
G1 X94.898 Y85.948 E0.01279
G1 X95.289 Y85.833 E0.01279
G1 X95.694 Y85.755 E0.01294
G1 X96.208 Y85.714 E0.01617
G1 X96.704 Y85.731 E0.01554
G1 X97.112 Y85.790 E0.01291
G1 X97.508 Y85.886 E0.01279
G1 X97.894 Y86.019 E0.01279
G1 X98.265 Y86.189 E0.01279
G1 X98.618 Y86.393 E0.01279
G1 X98.951 Y86.630 E0.01279
G1 X99.259 Y86.897 E0.01279
G1 X99.541 Y87.192 E0.01279
G1 X99.793 Y87.513 E0.01279
G1 X100.013 Y87.856 E0.01279
M73 P12 R3
G1 X100.200 Y88.219 E0.01279
G1 X100.355 Y88.604 E0.01301
G1 X100.509 Y89.182 E0.01875
G1 X100.569 Y89.592 E0.01301
G1 X100.588 Y90.000 E0.01279
G1 X100.569 Y90.408 E0.01279
G1 X100.510 Y90.811 E0.01279
G1 X100.414 Y91.208 E0.01279
G1 X100.281 Y91.594 E0.01279
G1 X100.111 Y91.965 E0.01279
G1 X99.907 Y92.318 E0.01279
G1 X99.671 Y92.651 E0.01279
G1 X99.403 Y92.959 E0.01279
G1 X99.108 Y93.241 E0.01279
G1 X98.787 Y93.493 E0.01279
G1 X98.444 Y93.713 E0.01279
G1 X98.081 Y93.900 E0.01279
G1 X97.703 Y94.052 E0.01279
G1 X97.304 Y94.169 E0.01301
G1 X96.715 Y94.268 E0.01875
G1 X96.300 Y94.288 E0.01301
G1 X95.886 Y94.268 E0.01301
G1 X95.296 Y94.169 E0.01875
G1 X94.898 Y94.052 E0.01301
G1 X94.519 Y93.900 E0.01279
G1 X94.156 Y93.713 E0.01279
G1 X93.813 Y93.493 E0.01279
G1 X93.492 Y93.241 E0.01279
G1 X93.197 Y92.959 E0.01279
G1 X92.930 Y92.651 E0.01279
G1 X92.693 Y92.318 E0.01279
G1 X92.489 Y91.965 E0.01279
G1 X92.319 Y91.594 E0.01279
G1 X92.186 Y91.208 E0.01279
G1 X92.090 Y90.811 E0.01279
G1 X92.032 Y90.408 E0.01279
G1 X92.012 Y90.000 E0.01279
G1 X92.032 Y89.592 E0.01279
G1 X92.100 Y89.148 E0.01410
M204 S1250
G1 X92.466 Y89.237 F9000.000
M204 S800
;TYPE:External perimeter
G1 F1200.000
G1 X92.548 Y88.898 E0.01092
G1 X92.670 Y88.547 E0.01167
G1 X92.825 Y88.208 E0.01167
G1 X93.011 Y87.886 E0.01167
G1 X93.226 Y87.583 E0.01167
G1 X93.470 Y87.302 E0.01167
G1 X93.739 Y87.045 E0.01167
G1 X94.032 Y86.815 E0.01167
G1 X94.345 Y86.614 E0.01167
G1 X94.676 Y86.443 E0.01167
G1 X95.021 Y86.305 E0.01167
G1 X95.378 Y86.200 E0.01167
G1 X95.745 Y86.129 E0.01172
G1 X96.217 Y86.092 E0.01484
G1 X96.670 Y86.107 E0.01423
G1 X97.040 Y86.160 E0.01171
G1 X97.402 Y86.248 E0.01167
G1 X97.753 Y86.370 E0.01167
G1 X98.092 Y86.524 E0.01167
G1 X98.414 Y86.710 E0.01167
G1 X98.717 Y86.926 E0.01167
G1 X98.999 Y87.170 E0.01167
G1 X99.255 Y87.439 E0.01167
G1 X99.485 Y87.732 E0.01167
G1 X99.687 Y88.045 E0.01167
G1 X99.857 Y88.376 E0.01167
G1 X99.996 Y88.723 E0.01175
G1 X100.139 Y89.257 E0.01734
G1 X100.193 Y89.628 E0.01175
G1 X100.210 Y90.000 E0.01167
G1 X100.193 Y90.372 E0.01167
G1 X100.140 Y90.740 E0.01167
G1 X100.052 Y91.102 E0.01167
G1 X99.930 Y91.453 E0.01167
G1 X99.776 Y91.792 E0.01167
G1 X99.590 Y92.114 E0.01167
G1 X99.374 Y92.417 E0.01167
G1 X99.130 Y92.698 E0.01167
G1 X98.861 Y92.955 E0.01167
G1 X98.568 Y93.185 E0.01167
G1 X98.255 Y93.386 E0.01167
G1 X97.925 Y93.557 E0.01167
G1 X97.579 Y93.695 E0.01167
G1 X97.220 Y93.801 E0.01175
G1 X96.674 Y93.892 E0.01734
G1 X96.300 Y93.910 E0.01175
G1 X95.926 Y93.892 E0.01175
G1 X95.381 Y93.801 E0.01734
G1 X95.021 Y93.695 E0.01175
G1 X94.676 Y93.557 E0.01167
G1 X94.345 Y93.386 E0.01167
G1 X94.032 Y93.185 E0.01167
G1 X93.739 Y92.955 E0.01167
G1 X93.470 Y92.698 E0.01167
G1 X93.226 Y92.417 E0.01167
G1 X93.011 Y92.114 E0.01167
G1 X92.825 Y91.792 E0.01167
G1 X92.670 Y91.453 E0.01167
G1 X92.548 Y91.102 E0.01167
G1 X92.461 Y90.740 E0.01167
G1 X92.408 Y90.372 E0.01167
G1 X92.390 Y90.000 E0.01167
G1 X92.408 Y89.628 E0.01167
G1 X92.455 Y89.296 E0.01053
M204 S1250
G1 X92.203 Y89.008 F9000.000
G1 E-2.24000 F4200.000
;WIPE_START
M73 P13 R3
G1 F7200.000
G1 X92.548 Y88.898 E-0.22621
G1 X92.670 Y88.547 E-0.20622
G1 X92.825 Y88.208 E-0.20622
G1 X93.011 Y87.886 E-0.20622
G1 X93.081 Y87.787 E-0.06714
;WIPE_END
G1 E-0.04800 F4200.000
G1 Z0.400 F9000.000
G1 X87.726 Y89.697
G1 Z0.200
G1 E3.20000 F2400.000
M204 S800
;TYPE:Perimeter
G1 F1200.000
G1 X87.726 Y90.303 E0.01900
G1 X87.677 Y90.696 E0.01241
G1 X87.589 Y91.085 E0.01252
G1 X87.463 Y91.464 E0.01252
G1 X87.300 Y91.829 E0.01252
G1 X87.102 Y92.175 E0.01252
G1 X86.870 Y92.501 E0.01252
G1 X86.608 Y92.802 E0.01252
G1 X86.317 Y93.075 E0.01252
G1 X86.000 Y93.319 E0.01252
G1 X85.661 Y93.530 E0.01252
G1 X85.303 Y93.706 E0.01252
G1 X84.929 Y93.846 E0.01252
G1 X84.543 Y93.949 E0.01252
G1 X84.148 Y94.013 E0.01252
G1 X83.750 Y94.038 E0.01252
G1 X83.351 Y94.023 E0.01252
G1 X82.955 Y93.969 E0.01252
G1 X82.567 Y93.876 E0.01252
G1 X82.189 Y93.745 E0.01252
G1 X81.827 Y93.577 E0.01252
G1 X81.483 Y93.375 E0.01252
G1 X81.160 Y93.139 E0.01252
G1 X80.862 Y92.873 E0.01252
G1 X80.592 Y92.578 E0.01252
G1 X80.353 Y92.259 E0.01252
G1 X80.146 Y91.917 E0.01252
G1 X79.974 Y91.557 E0.01252
G1 X79.839 Y91.181 E0.01252
G1 X79.741 Y90.794 E0.01252
G1 X79.682 Y90.399 E0.01252
G1 X79.662 Y90.000 E0.01252
G1 X79.682 Y89.601 E0.01252
G1 X79.741 Y89.206 E0.01252
G1 X79.839 Y88.819 E0.01252
G1 X79.974 Y88.443 E0.01252
G1 X80.146 Y88.083 E0.01252
G1 X80.353 Y87.741 E0.01252
G1 X80.592 Y87.422 E0.01252
G1 X80.862 Y87.127 E0.01252
G1 X81.160 Y86.861 E0.01252
G1 X81.483 Y86.625 E0.01252
G1 X81.827 Y86.423 E0.01252
G1 X82.189 Y86.255 E0.01252
G1 X82.567 Y86.124 E0.01252
G1 X82.955 Y86.031 E0.01252
G1 X83.349 Y85.978 E0.01246
G1 X83.668 Y85.963 E0.01001
G1 X84.144 Y85.986 E0.01497
G1 X84.543 Y86.051 E0.01265
G1 X84.929 Y86.154 E0.01252
G1 X85.303 Y86.294 E0.01252
G1 X85.661 Y86.470 E0.01252
G1 X86.000 Y86.681 E0.01252
G1 X86.317 Y86.925 E0.01252
G1 X86.608 Y87.198 E0.01252
G1 X86.870 Y87.499 E0.01252
G1 X87.102 Y87.825 E0.01252
G1 X87.300 Y88.171 E0.01252
G1 X87.463 Y88.536 E0.01252
G1 X87.589 Y88.915 E0.01252
G1 X87.677 Y89.304 E0.01252
G1 X87.719 Y89.638 E0.01053
M204 S1250
G1 X87.345 Y89.684 F9000.000
M204 S800
;TYPE:External perimeter
G1 F1200.000
G1 X87.360 Y90.000 E0.00992
G1 X87.350 Y90.273 E0.00855
G1 X87.305 Y90.631 E0.01131
G1 X87.225 Y90.984 E0.01135
G1 X87.111 Y91.327 E0.01135
G1 X86.963 Y91.658 E0.01135
G1 X86.784 Y91.972 E0.01135
G1 X86.574 Y92.267 E0.01135
G1 X86.336 Y92.540 E0.01135
G1 X86.072 Y92.788 E0.01135
G1 X85.785 Y93.008 E0.01135
G1 X85.477 Y93.200 E0.01135
G1 X85.153 Y93.360 E0.01135
G1 X84.814 Y93.487 E0.01135
G1 X84.464 Y93.580 E0.01135
G1 X84.106 Y93.638 E0.01135
G1 X83.745 Y93.660 E0.01135
G1 X83.383 Y93.647 E0.01135
G1 X83.025 Y93.598 E0.01135
G1 X82.673 Y93.513 E0.01135
G1 X82.331 Y93.395 E0.01135
G1 X82.002 Y93.243 E0.01135
G1 X81.690 Y93.059 E0.01135
G1 X81.398 Y92.846 E0.01135
G1 X81.128 Y92.604 E0.01135
G1 X80.883 Y92.337 E0.01135
G1 X80.666 Y92.048 E0.01135
G1 X80.478 Y91.738 E0.01135
M73 P14 R3
G1 X80.323 Y91.411 E0.01135
G1 X80.200 Y91.071 E0.01135
G1 X80.111 Y90.720 E0.01135
G1 X80.057 Y90.362 E0.01135
G1 X80.040 Y90.000 E0.01135
G1 X80.057 Y89.638 E0.01135
G1 X80.111 Y89.280 E0.01135
G1 X80.200 Y88.929 E0.01135
G1 X80.323 Y88.589 E0.01135
G1 X80.478 Y88.262 E0.01135
G1 X80.666 Y87.952 E0.01135
G1 X80.883 Y87.663 E0.01135
G1 X81.128 Y87.396 E0.01135
G1 X81.398 Y87.154 E0.01135
G1 X81.690 Y86.941 E0.01135
G1 X82.002 Y86.757 E0.01135
G1 X82.331 Y86.605 E0.01135
G1 X82.673 Y86.487 E0.01135
G1 X83.025 Y86.402 E0.01135
G1 X83.383 Y86.353 E0.01133
G1 X83.667 Y86.341 E0.00892
G1 X84.105 Y86.362 E0.01375
G1 X84.464 Y86.420 E0.01140
G1 X84.814 Y86.513 E0.01135
G1 X85.153 Y86.640 E0.01135
G1 X85.477 Y86.800 E0.01135
G1 X85.785 Y86.992 E0.01135
G1 X86.072 Y87.212 E0.01135
G1 X86.336 Y87.460 E0.01135
G1 X86.574 Y87.733 E0.01135
G1 X86.784 Y88.028 E0.01135
G1 X86.963 Y88.342 E0.01135
G1 X87.111 Y88.673 E0.01135
G1 X87.225 Y89.016 E0.01135
G1 X87.305 Y89.369 E0.01135
G1 X87.337 Y89.625 E0.00806
M204 S1250
G1 X87.632 Y89.817 F9000.000
G1 E-2.24000 F4200.000
;WIPE_START
G1 F7200.000
G1 X87.360 Y90.000 E-0.20847
G1 X87.350 Y90.273 E-0.15120
G1 X87.305 Y90.631 E-0.19992
G1 X87.225 Y90.984 E-0.20063
G1 X87.139 Y91.244 E-0.15178
;WIPE_END
G1 E-0.04800 F4200.000
G1 Z0.400 F9000.000
G1 X89.312 Y89.081
G1 Z0.200
G1 E3.20000 F2400.000
M204 S800
;TYPE:Perimeter
G1 F1200.000
G1 X89.356 Y89.242 E0.00525
G1 X90.652 Y89.242 E0.04064
G1 X90.868 Y88.402 E0.02718
G1 X90.993 Y88.026 E0.01244
G1 X91.144 Y87.659 E0.01244
G1 X91.321 Y87.303 E0.01247
G1 X91.522 Y86.962 E0.01240
G1 X91.743 Y86.639 E0.01229
G1 X92.125 Y86.176 E0.01881
G1 X92.549 Y85.759 E0.01865
G1 X93.015 Y85.389 E0.01865
G1 X93.521 Y85.067 E0.01881
G1 X93.869 Y84.886 E0.01228
G1 X94.233 Y84.728 E0.01244
G1 X94.602 Y84.598 E0.01228
G1 X95.183 Y84.449 E0.01881
G1 X95.772 Y84.363 E0.01865
G1 X96.376 Y84.338 E0.01898
G1 X96.762 Y84.356 E0.01211
G1 X97.151 Y84.402 E0.01228
G1 X97.739 Y84.524 E0.01881
G1 X98.305 Y84.705 E0.01865
G1 X98.850 Y84.945 E0.01865
G1 X99.371 Y85.242 E0.01881
G1 X99.688 Y85.463 E0.01212
G1 X100.149 Y85.847 E0.01881
G1 X100.563 Y86.274 E0.01865
G1 X100.931 Y86.742 E0.01865
G1 X101.247 Y87.245 E0.01865
G1 X101.509 Y87.780 E0.01866
G1 X101.713 Y88.339 E0.01865
G1 X101.859 Y88.921 E0.01881
G1 X101.919 Y89.302 E0.01212
G1 X101.961 Y89.901 E0.01881
G1 X101.941 Y90.495 E0.01865
G1 X101.857 Y91.089 E0.01881
G1 X101.769 Y91.466 E0.01212
G1 X101.583 Y92.036 E0.01881
G1 X101.338 Y92.584 E0.01882
G1 X101.149 Y92.925 E0.01223
G1 X100.931 Y93.259 E0.01248
M73 P15 R3
G1 X100.692 Y93.575 E0.01244
G1 X100.434 Y93.870 E0.01228
G1 X99.997 Y94.289 E0.01898
G1 X99.692 Y94.534 E0.01228
G1 X99.366 Y94.760 E0.01244
G1 X99.026 Y94.963 E0.01244
G1 X98.671 Y95.142 E0.01244
G1 X98.306 Y95.296 E0.01244
G1 X97.935 Y95.421 E0.01228
G1 X97.347 Y95.565 E0.01898
G1 X96.960 Y95.624 E0.01228
G1 X96.569 Y95.656 E0.01228
G1 X95.964 Y95.652 E0.01898
G1 X95.574 Y95.616 E0.01228
G1 X95.183 Y95.551 E0.01244
G1 X94.797 Y95.459 E0.01244
G1 X94.419 Y95.341 E0.01244
G1 X94.049 Y95.196 E0.01244
G1 X93.691 Y95.026 E0.01244
G1 X93.345 Y94.831 E0.01244
G1 X93.014 Y94.612 E0.01244
G1 X92.700 Y94.370 E0.01244
G1 X92.406 Y94.111 E0.01228
G1 X91.990 Y93.672 E0.01898
G1 X91.748 Y93.367 E0.01221
G1 X91.485 Y92.979 E0.01469
G1 X91.228 Y92.517 E0.01658
G1 X91.065 Y92.159 E0.01233
G1 X90.929 Y91.792 E0.01228
G1 X90.644 Y90.758 E0.03362
G1 X89.348 Y90.758 E0.04064
G1 X89.132 Y91.598 E0.02718
G1 X89.009 Y91.969 E0.01228
G1 X88.770 Y92.520 E0.01881
G1 X88.478 Y93.038 E0.01865
G1 X88.133 Y93.523 E0.01865
G1 X87.739 Y93.968 E0.01865
G1 X87.300 Y94.370 E0.01865
G1 X86.818 Y94.727 E0.01881
G1 X86.484 Y94.931 E0.01228
G1 X86.136 Y95.111 E0.01228
G1 X85.577 Y95.342 E0.01898
G1 X85.203 Y95.459 E0.01228
G1 X84.822 Y95.550 E0.01228
G1 X84.228 Y95.637 E0.01881
G1 X83.634 Y95.662 E0.01865
G1 X83.035 Y95.623 E0.01881
G1 X82.648 Y95.564 E0.01228
G1 X82.266 Y95.478 E0.01228
G1 X81.695 Y95.295 E0.01881
G1 X81.145 Y95.053 E0.01881
G1 X80.807 Y94.867 E0.01212
G1 X80.304 Y94.531 E0.01898
G1 X80.003 Y94.289 E0.01212
G1 X79.570 Y93.873 E0.01881
G1 X79.183 Y93.415 E0.01881
G1 X78.958 Y93.094 E0.01228
G1 X78.755 Y92.759 E0.01228
G1 X78.489 Y92.216 E0.01898
G1 X78.348 Y91.850 E0.01228
G1 X78.233 Y91.476 E0.01228
G1 X78.108 Y90.891 E0.01874
G1 X78.059 Y90.495 E0.01252
G1 X78.038 Y90.104 E0.01227
G1 X78.059 Y89.505 E0.01881
G1 X78.143 Y88.911 E0.01881
G1 X78.232 Y88.529 E0.01228
G1 X78.348 Y88.150 E0.01244
G1 X78.491 Y87.780 E0.01244
G1 X78.657 Y87.425 E0.01228
G1 X78.960 Y86.902 E0.01898
G1 X79.183 Y86.585 E0.01212
G1 X79.573 Y86.123 E0.01898
G1 X79.847 Y85.850 E0.01212
G1 X80.312 Y85.463 E0.01898
G1 X80.629 Y85.242 E0.01212
G1 X81.155 Y84.942 E0.01898
