; generated by PrusaSlicer 2.3.0+win64 on 2021-08-10 at 13:56:28 UTC


;
;

;
;
; 

; external perimeters extrusion width = 0.45mm
; perimeters extrusion width = 0.45mm
; infill extrusion width = 0.45mm
; solid infill extrusion width = 0.45mm
; top infill extrusion width = 0.40mm
; first layer extrusion width = 0.42mm

M73 P0 R4
M201 X1250 Y1250 Z400 E5000 ; sets maximum accelerations, mm/sec^2
M203 X180 Y180 Z12 E80 ; sets maximum feedrates, mm/sec
M204 P1250 R1250 T1250 ; sets acceleration (P, T) and retract acceleration (R), mm/sec^2
M205 X8.00 Y8.00 Z2.00 E10.00 ; sets the jerk limits, mm/sec
M205 S0 T0 ; sets the minimum extruding and travel feed rate, mm/sec
M107
;TYPE:Custom
G90 ; use absolute coordinates
M83 ; extruder relative mode
M104 S170 ; set extruder temp for bed leveling
M140 S60 ; set bed temp
M109 R170 ; wait for bed leveling temp
M190 S60 ; wait for bed temp
G28 ; home all without mesh bed level
G29 ; mesh bed leveling 
M104 S215 ; set extruder temp
G92 E0.0
G1 Y-2.0 X179 F2400
M73 P2 R3
G1 Z3 F720
M109 S215 ; wait for extruder temp

; intro line
G1 X170 F1000
G1 Z0.2 F720
G1 X110.0 E8.0 F900
M73 P4 R3
G1 X40.0 E10.0 F700
G92 E0.0

M221 S95 ; set flow
G21 ; set units to millimeters
G90 ; use absolute coordinates
M83 ; use relative distances for extrusion
M900 K0.2 ; Filament gcode LA 1.5
; ; Filament gcode LA 1.0
;LAYER_CHANGE
;Z:0.2
;HEIGHT:0.2
;BEFORE_LAYER_CHANGE
G92 E0.0
;0.2


M73 P7 R3
G1 E-3.20000 F4200.000
G1 Z0.200 F9000.000
;AFTER_LAYER_CHANGE
;0.2
G1 Z0.400
G1 X77.106 Y83.939
G1 Z0.200
G1 E3.20000 F2400.000
M204 S800
;TYPE:Skirt
;WIDTH:0.42
G1 F1200.000
G1 X78.489 Y82.652 E0.05922
G1 X79.566 Y81.952 E0.04027
G1 X80.519 Y81.493 E0.03318
G1 X81.700 Y81.096 E0.03906
G1 X82.987 Y80.856 E0.04106
G1 X83.941 Y80.797 E0.02996
G1 X96.039 Y80.796 E0.37934
M73 P8 R3
G1 X97.391 Y80.907 E0.04253
G1 X98.905 Y81.277 E0.04886
G1 X100.140 Y81.796 E0.04198
G1 X101.428 Y82.591 E0.04748
G1 X102.474 Y83.490 E0.04323
G1 X103.455 Y84.648 E0.04759
G1 X104.153 Y85.791 E0.04200
G1 X104.678 Y87.026 E0.04208
G1 X105.048 Y88.499 E0.04761
G1 X105.170 Y89.832 E0.04196
G1 X105.097 Y91.172 E0.04210
G1 X104.766 Y92.704 E0.04912
G1 X104.187 Y94.142 E0.04862
G1 X103.497 Y95.294 E0.04210
G1 X102.649 Y96.330 E0.04198
G1 X101.511 Y97.348 E0.04787
G1 X100.434 Y98.048 E0.04028
G1 X99.475 Y98.509 E0.03336
G1 X98.285 Y98.908 E0.03935
G1 X96.988 Y99.147 E0.04134
G1 X96.043 Y99.204 E0.02970
G1 X83.319 Y99.176 E0.39896
M73 P9 R3
G1 X82.346 Y99.048 E0.03076
G1 X81.399 Y98.819 E0.03057
G1 X80.494 Y98.497 E0.03012
G1 X79.625 Y98.080 E0.03021
G1 X78.788 Y97.564 E0.03082
G1 X78.026 Y96.974 E0.03021
G1 X77.324 Y96.302 E0.03047
G1 X76.712 Y95.579 E0.02971
G1 X75.726 Y93.964 E0.05932
G1 X75.146 Y92.399 E0.05232
G1 X74.844 Y90.539 E0.05909
G1 X74.902 Y88.836 E0.05344
G1 X75.322 Y87.025 E0.05830
G1 X76.015 Y85.479 E0.05309
G1 X77.071 Y83.988 E0.05731
M204 S1250
G1 X77.376 Y84.211 F9000.000
M204 S800
G1 F1200.000
G1 X78.747 Y82.931 E0.05880
G1 X79.783 Y82.263 E0.03866
G1 X80.868 Y81.760 E0.03748
G1 X82.020 Y81.406 E0.03781
G1 X83.036 Y81.230 E0.03232
G1 X83.943 Y81.174 E0.02850
G1 X96.039 Y81.173 E0.37925
M73 P10 R3
G1 X97.331 Y81.279 E0.04065
G1 X98.785 Y81.634 E0.04691
G1 X99.967 Y82.131 E0.04022
G1 X101.211 Y82.899 E0.04584
G1 X102.206 Y83.755 E0.04116
G1 X103.153 Y84.874 E0.04595
G1 X103.817 Y85.963 E0.03999
G1 X104.322 Y87.150 E0.04045
G1 X104.677 Y88.565 E0.04572
G1 X104.793 Y89.838 E0.04008
G1 X104.723 Y91.122 E0.04033
G1 X104.405 Y92.596 E0.04728
G1 X103.848 Y93.976 E0.04667
G1 X103.184 Y95.083 E0.04046
G1 X102.374 Y96.072 E0.04008
G1 X101.253 Y97.069 E0.04705
G1 X100.213 Y97.739 E0.03878
G1 X99.093 Y98.255 E0.03867
G1 X97.920 Y98.608 E0.03843
G1 X96.716 Y98.795 E0.03818
G1 X83.340 Y98.800 E0.41940
M73 P11 R3
G1 X81.503 Y98.457 E0.05859
G1 X79.799 Y97.746 E0.05788
G1 X78.267 Y96.684 E0.05847
G1 X76.991 Y95.323 E0.05847
G1 X76.061 Y93.791 E0.05622
G1 X75.503 Y92.272 E0.05072
G1 X75.218 Y90.479 E0.05694
G1 X75.307 Y88.665 E0.05693
G1 X75.701 Y87.085 E0.05107
G1 X76.467 Y85.451 E0.05658
G1 X77.341 Y84.259 E0.04633
M204 S1250
; printing object spanner03.stl id:0 copy 0
G1 E-2.24000 F4200.000
;WIPE_START
G1 F7200.000
G1 X78.537 Y83.129 E-0.91200
;WIPE_END
G1 E-0.04800 F4200.000
G1 Z0.400 F9000.000
G1 X91.854 Y88.792
G1 Z0.200
G1 E3.20000 F2400.000
M204 S800
;TYPE:Perimeter
G1 F1200.000
G1 X91.987 Y88.406 E0.01279
G1 X92.157 Y88.035 E0.01279
G1 X92.361 Y87.682 E0.01279
G1 X92.597 Y87.349 E0.01279
G1 X92.865 Y87.041 E0.01279
G1 X93.160 Y86.759 E0.01279
G1 X93.481 Y86.507 E0.01279
G1 X93.824 Y86.287 E0.01279
G1 X94.187 Y86.100 E0.01279
G1 X94.565 Y85.948 E0.01279
G1 X94.957 Y85.833 E0.01279
G1 X95.362 Y85.755 E0.01294
G1 X95.876 Y85.714 E0.01617
G1 X96.372 Y85.731 E0.01554
G1 X96.779 Y85.790 E0.01291
G1 X97.176 Y85.886 E0.01279
G1 X97.561 Y86.019 E0.01279
G1 X97.933 Y86.189 E0.01279
G1 X98.286 Y86.393 E0.01279
G1 X98.618 Y86.630 E0.01279
G1 X98.927 Y86.897 E0.01279
G1 X99.208 Y87.192 E0.01279
G1 X99.465 Y87.518 E0.01301
G1 X99.776 Y88.029 E0.01875
G1 X99.948 Y88.406 E0.01301
G1 X100.082 Y88.792 E0.01279
G1 X100.178 Y89.189 E0.01279
M73 P12 R3
G1 X100.236 Y89.592 E0.01279
G1 X100.256 Y90.000 E0.01279
G1 X100.236 Y90.408 E0.01279
G1 X100.178 Y90.811 E0.01279
G1 X100.082 Y91.208 E0.01279
G1 X99.948 Y91.594 E0.01279
G1 X99.779 Y91.965 E0.01279
G1 X99.575 Y92.318 E0.01279
G1 X99.338 Y92.651 E0.01279
G1 X99.071 Y92.959 E0.01279
G1 X98.776 Y93.241 E0.01279
G1 X98.455 Y93.493 E0.01279
G1 X98.112 Y93.713 E0.01279
G1 X97.749 Y93.900 E0.01279
G1 X97.370 Y94.052 E0.01279
G1 X96.972 Y94.169 E0.01301
G1 X96.382 Y94.268 E0.01875
G1 X95.968 Y94.288 E0.01301
G1 X95.553 Y94.268 E0.01301
G1 X94.964 Y94.169 E0.01875
G1 X94.565 Y94.052 E0.01301
G1 X94.187 Y93.900 E0.01279
G1 X93.824 Y93.713 E0.01279
G1 X93.481 Y93.493 E0.01279
G1 X93.160 Y93.241 E0.01279
G1 X92.865 Y92.959 E0.01279
G1 X92.597 Y92.651 E0.01279
G1 X92.361 Y92.318 E0.01279
G1 X92.157 Y91.965 E0.01279
G1 X91.987 Y91.594 E0.01279
G1 X91.854 Y91.208 E0.01279
G1 X91.757 Y90.811 E0.01279
G1 X91.699 Y90.408 E0.01279
G1 X91.680 Y90.000 E0.01279
G1 X91.699 Y89.592 E0.01279
G1 X91.757 Y89.189 E0.01279
G1 X91.840 Y88.850 E0.01091
M204 S1250
G1 X92.206 Y88.939 F9000.000
M204 S800
;TYPE:External perimeter
G1 F1200.000
G1 X92.338 Y88.547 E0.01298
G1 X92.492 Y88.208 E0.01167
G1 X92.678 Y87.886 E0.01167
G1 X92.894 Y87.583 E0.01167
G1 X93.138 Y87.302 E0.01167
G1 X93.407 Y87.045 E0.01167
G1 X93.700 Y86.815 E0.01167
G1 X94.013 Y86.614 E0.01167
G1 X94.343 Y86.443 E0.01167
G1 X94.689 Y86.305 E0.01167
G1 X95.046 Y86.200 E0.01167
G1 X95.413 Y86.129 E0.01172
G1 X95.885 Y86.092 E0.01484
G1 X96.338 Y86.107 E0.01423
G1 X96.708 Y86.160 E0.01171
G1 X97.069 Y86.248 E0.01167
G1 X97.421 Y86.370 E0.01167
G1 X97.760 Y86.524 E0.01167
G1 X98.082 Y86.710 E0.01167
G1 X98.385 Y86.926 E0.01167
G1 X98.666 Y87.170 E0.01167
G1 X98.923 Y87.439 E0.01167
G1 X99.155 Y87.734 E0.01175
G1 X99.442 Y88.206 E0.01734
G1 X99.598 Y88.547 E0.01175
G1 X99.720 Y88.898 E0.01167
G1 X99.807 Y89.260 E0.01167
G1 X99.860 Y89.628 E0.01167
G1 X99.878 Y90.000 E0.01167
G1 X99.860 Y90.372 E0.01167
G1 X99.807 Y90.740 E0.01167
G1 X99.720 Y91.102 E0.01167
G1 X99.598 Y91.453 E0.01167
G1 X99.443 Y91.792 E0.01167
G1 X99.257 Y92.114 E0.01167
G1 X99.042 Y92.417 E0.01167
G1 X98.798 Y92.698 E0.01167
G1 X98.529 Y92.955 E0.01167
G1 X98.236 Y93.185 E0.01167
G1 X97.923 Y93.386 E0.01167
G1 X97.592 Y93.557 E0.01167
G1 X97.247 Y93.695 E0.01167
G1 X96.887 Y93.801 E0.01175
G1 X96.342 Y93.892 E0.01734
G1 X95.968 Y93.910 E0.01175
G1 X95.594 Y93.892 E0.01175
G1 X95.048 Y93.801 E0.01734
G1 X94.689 Y93.695 E0.01175
G1 X94.343 Y93.557 E0.01167
G1 X94.013 Y93.386 E0.01167
G1 X93.700 Y93.185 E0.01167
G1 X93.407 Y92.955 E0.01167
G1 X93.138 Y92.698 E0.01167
G1 X92.894 Y92.417 E0.01167
G1 X92.678 Y92.114 E0.01167
G1 X92.492 Y91.792 E0.01167
G1 X92.338 Y91.453 E0.01167
G1 X92.216 Y91.102 E0.01167
G1 X92.128 Y90.740 E0.01167
G1 X92.075 Y90.372 E0.01167
G1 X92.058 Y90.000 E0.01167
G1 X92.075 Y89.628 E0.01167
G1 X92.128 Y89.260 E0.01167
G1 X92.192 Y88.998 E0.00847
M204 S1250
G1 X91.928 Y88.652 F9000.000
G1 E-2.24000 F4200.000
;WIPE_START
G1 F7200.000
G1 X92.338 Y88.547 E-0.26256
M73 P13 R3
G1 X92.492 Y88.208 E-0.20622
G1 X92.678 Y87.886 E-0.20622
G1 X92.894 Y87.583 E-0.20621
G1 X92.930 Y87.541 E-0.03079
;WIPE_END
G1 E-0.04800 F4200.000
G1 Z0.400 F9000.000
G1 X88.296 Y89.558
G1 Z0.200
G1 E3.20000 F2400.000
M204 S800
;TYPE:Perimeter
G1 F1200.000
G1 X88.320 Y90.000 E0.01389
G1 X88.301 Y90.408 E0.01279
G1 X88.243 Y90.811 E0.01279
G1 X88.146 Y91.208 E0.01279
G1 X88.013 Y91.594 E0.01279
G1 X87.843 Y91.965 E0.01279
G1 X87.639 Y92.318 E0.01279
G1 X87.403 Y92.651 E0.01279
G1 X87.135 Y92.959 E0.01279
G1 X86.840 Y93.241 E0.01279
G1 X86.519 Y93.493 E0.01279
G1 X86.176 Y93.713 E0.01279
G1 X85.813 Y93.900 E0.01279
G1 X85.435 Y94.052 E0.01279
G1 X85.036 Y94.169 E0.01301
G1 X84.447 Y94.268 E0.01875
G1 X84.032 Y94.288 E0.01301
G1 X83.625 Y94.268 E0.01279
G1 X83.221 Y94.210 E0.01279
G1 X82.824 Y94.114 E0.01279
G1 X82.439 Y93.981 E0.01279
G1 X82.067 Y93.811 E0.01279
G1 X81.714 Y93.607 E0.01279
G1 X81.378 Y93.368 E0.01294
G1 X80.993 Y93.024 E0.01617
G1 X80.664 Y92.654 E0.01554
G1 X80.425 Y92.318 E0.01291
G1 X80.221 Y91.965 E0.01279
G1 X80.052 Y91.594 E0.01279
G1 X79.918 Y91.208 E0.01279
G1 X79.822 Y90.811 E0.01279
G1 X79.764 Y90.408 E0.01279
G1 X79.744 Y90.000 E0.01279
G1 X79.764 Y89.592 E0.01279
G1 X79.822 Y89.189 E0.01279
G1 X79.918 Y88.792 E0.01279
G1 X80.052 Y88.406 E0.01279
G1 X80.221 Y88.035 E0.01279
G1 X80.425 Y87.682 E0.01279
G1 X80.662 Y87.349 E0.01279
G1 X80.929 Y87.041 E0.01279
G1 X81.224 Y86.759 E0.01279
G1 X81.545 Y86.507 E0.01279
G1 X81.888 Y86.287 E0.01279
G1 X82.251 Y86.100 E0.01279
G1 X82.630 Y85.948 E0.01279
G1 X83.021 Y85.833 E0.01279
G1 X83.426 Y85.755 E0.01294
G1 X83.941 Y85.714 E0.01617
G1 X84.436 Y85.731 E0.01554
G1 X84.844 Y85.790 E0.01291
G1 X85.240 Y85.886 E0.01279
G1 X85.626 Y86.019 E0.01279
G1 X85.997 Y86.189 E0.01279
G1 X86.350 Y86.393 E0.01279
G1 X86.683 Y86.630 E0.01279
G1 X86.995 Y86.900 E0.01294
G1 X87.345 Y87.278 E0.01617
G1 X87.637 Y87.679 E0.01554
G1 X87.843 Y88.035 E0.01291
G1 X88.013 Y88.406 E0.01279
G1 X88.146 Y88.792 E0.01279
G1 X88.243 Y89.189 E0.01279
G1 X88.287 Y89.498 E0.00981
M204 S1250
G1 X87.914 Y89.552 F9000.000
M204 S800
;TYPE:External perimeter
G1 F1200.000
G1 X87.942 Y90.000 E0.01408
G1 X87.925 Y90.372 E0.01167
G1 X87.872 Y90.740 E0.01167
G1 X87.784 Y91.102 E0.01167
G1 X87.662 Y91.453 E0.01167
G1 X87.508 Y91.792 E0.01167
G1 X87.322 Y92.114 E0.01167
G1 X87.106 Y92.417 E0.01167
G1 X86.862 Y92.698 E0.01167
G1 X86.593 Y92.955 E0.01167
G1 X86.300 Y93.185 E0.01167
G1 X85.987 Y93.386 E0.01167
G1 X85.657 Y93.557 E0.01167
G1 X85.311 Y93.695 E0.01167
G1 X84.952 Y93.801 E0.01175
G1 X84.406 Y93.892 E0.01734
G1 X84.032 Y93.910 E0.01175
G1 X83.660 Y93.893 E0.01167
G1 X83.292 Y93.840 E0.01167
G1 X82.931 Y93.752 E0.01167
G1 X82.579 Y93.630 E0.01167
G1 X82.240 Y93.476 E0.01167
M73 P14 R3
G1 X81.918 Y93.290 E0.01167
G1 X81.614 Y93.073 E0.01172
G1 X81.261 Y92.757 E0.01484
G1 X80.959 Y92.418 E0.01423
G1 X80.743 Y92.114 E0.01171
G1 X80.557 Y91.792 E0.01167
G1 X80.402 Y91.453 E0.01167
G1 X80.280 Y91.102 E0.01167
G1 X80.193 Y90.740 E0.01167
G1 X80.140 Y90.372 E0.01167
G1 X80.122 Y90.000 E0.01167
G1 X80.140 Y89.628 E0.01167
G1 X80.193 Y89.260 E0.01167
G1 X80.280 Y88.898 E0.01167
G1 X80.402 Y88.547 E0.01167
G1 X80.557 Y88.208 E0.01167
G1 X80.743 Y87.886 E0.01167
G1 X80.958 Y87.583 E0.01167
G1 X81.202 Y87.302 E0.01167
G1 X81.471 Y87.045 E0.01167
G1 X81.764 Y86.815 E0.01167
G1 X82.077 Y86.614 E0.01167
G1 X82.408 Y86.443 E0.01167
G1 X82.753 Y86.305 E0.01167
G1 X83.110 Y86.200 E0.01167
G1 X83.477 Y86.129 E0.01172
G1 X83.949 Y86.092 E0.01484
G1 X84.403 Y86.107 E0.01423
G1 X84.772 Y86.160 E0.01171
G1 X85.134 Y86.248 E0.01167
G1 X85.486 Y86.370 E0.01167
G1 X85.824 Y86.524 E0.01167
G1 X86.146 Y86.710 E0.01167
G1 X86.449 Y86.926 E0.01167
G1 X86.732 Y87.171 E0.01172
G1 X87.053 Y87.519 E0.01484
G1 X87.321 Y87.885 E0.01423
G1 X87.508 Y88.208 E0.01171
G1 X87.662 Y88.547 E0.01167
G1 X87.784 Y88.898 E0.01167
G1 X87.872 Y89.260 E0.01167
G1 X87.905 Y89.493 E0.00737
M204 S1250
G1 X88.280 Y89.713 F9000.000
G1 E-2.24000 F4200.000
;WIPE_START
G1 F7200.000
G1 X87.942 Y90.000 E-0.28195
G1 X87.925 Y90.372 E-0.20622
G1 X87.872 Y90.740 E-0.20622
G1 X87.784 Y91.102 E-0.20622
G1 X87.777 Y91.121 E-0.01140
;WIPE_END
G1 E-0.04800 F4200.000
G1 Z0.400 F9000.000
G1 X89.494 Y88.340
G1 Z0.200
G1 E3.20000 F2400.000
M204 S800
;TYPE:Perimeter
G1 F1200.000
G1 X90.512 Y88.340 E0.03193
G1 X90.893 Y87.489 E0.02923
G1 X91.080 Y87.140 E0.01241
G1 X91.293 Y86.805 E0.01245
G1 X91.528 Y86.485 E0.01245
G1 X91.785 Y86.183 E0.01245
G1 X92.060 Y85.903 E0.01229
G1 X92.514 Y85.513 E0.01875
G1 X92.838 Y85.281 E0.01253
G1 X93.177 Y85.073 E0.01244
G1 X93.529 Y84.890 E0.01245
G1 X93.888 Y84.733 E0.01229
G1 X94.462 Y84.541 E0.01899
G1 X94.843 Y84.450 E0.01229
G1 X95.235 Y84.385 E0.01245
G1 X95.625 Y84.348 E0.01229
G1 X96.223 Y84.344 E0.01875
G1 X96.622 Y84.375 E0.01253
G1 X97.009 Y84.434 E0.01228
G1 X97.597 Y84.577 E0.01899
G1 X97.968 Y84.703 E0.01229
G1 X98.330 Y84.854 E0.01229
G1 X98.866 Y85.136 E0.01899
G1 X99.196 Y85.348 E0.01229
G1 X99.510 Y85.582 E0.01229
G1 X99.961 Y85.986 E0.01899
G1 X100.229 Y86.271 E0.01229
G1 X100.480 Y86.579 E0.01245
G1 X100.709 Y86.904 E0.01245
G1 X100.911 Y87.239 E0.01229
G1 X101.176 Y87.778 E0.01883
G1 X101.382 Y88.342 E0.01883
G1 X101.484 Y88.721 E0.01229
G1 X101.559 Y89.105 E0.01229
G1 X101.622 Y89.702 E0.01883
G1 X101.622 Y90.303 E0.01883
G1 X101.588 Y90.688 E0.01212
G1 X101.483 Y91.284 E0.01899
M73 P15 R3
G1 X101.381 Y91.663 E0.01229
G1 X101.251 Y92.038 E0.01245
G1 X101.095 Y92.403 E0.01245
G1 X100.916 Y92.752 E0.01229
G1 X100.594 Y93.265 E0.01899
G1 X100.361 Y93.573 E0.01212
G1 X99.954 Y94.022 E0.01899
G1 X99.666 Y94.288 E0.01229
G1 X99.361 Y94.533 E0.01229
G1 X98.857 Y94.870 E0.01899
G1 X98.518 Y95.056 E0.01212
G1 X97.968 Y95.297 E0.01883
G1 X97.401 Y95.478 E0.01867
G1 X96.818 Y95.598 E0.01867
G1 X96.226 Y95.656 E0.01867
G1 X95.630 Y95.652 E0.01867
G1 X95.039 Y95.585 E0.01867
G1 X94.457 Y95.457 E0.01867
G1 X93.888 Y95.267 E0.01883
G1 X93.533 Y95.112 E0.01212
G1 X93.006 Y94.825 E0.01883
G1 X92.515 Y94.488 E0.01867
G1 X92.063 Y94.101 E0.01867
G1 X91.654 Y93.668 E0.01867
G1 X91.293 Y93.195 E0.01867
G1 X90.984 Y92.688 E0.01861
G1 X90.506 Y91.660 E0.03555
G1 X89.488 Y91.660 E0.03193
G1 X89.107 Y92.511 E0.02923
G1 X88.920 Y92.860 E0.01241
G1 X88.710 Y93.191 E0.01229
G1 X88.342 Y93.672 E0.01899
G1 X88.082 Y93.958 E0.01212
G1 X87.640 Y94.364 E0.01883
G1 X87.157 Y94.722 E0.01883
G1 X86.828 Y94.924 E0.01212
G1 X86.286 Y95.194 E0.01899
G1 X85.921 Y95.338 E0.01229
G1 X85.548 Y95.456 E0.01229
G1 X84.956 Y95.586 E0.01899
G1 X84.568 Y95.637 E0.01229
G1 X84.171 Y95.661 E0.01245
G1 X83.780 Y95.657 E0.01229
G1 X83.177 Y95.597 E0.01899
G1 X82.792 Y95.525 E0.01229
G1 X82.413 Y95.426 E0.01229
G1 X81.847 Y95.224 E0.01883
G1 X81.311 Y94.965 E0.01867
G1 X80.800 Y94.649 E0.01883
G1 X80.486 Y94.415 E0.01229
G1 X80.190 Y94.159 E0.01229
G1 X79.771 Y93.728 E0.01883
G1 X79.400 Y93.256 E0.01883
G1 X79.186 Y92.928 E0.01229
G1 X78.995 Y92.586 E0.01229
G1 X78.750 Y92.038 E0.01883
G1 X78.565 Y91.472 E0.01867
G1 X78.439 Y90.885 E0.01883
G1 X78.392 Y90.501 E0.01212
G1 X78.371 Y89.901 E0.01883
G1 X78.413 Y89.302 E0.01883
G1 X78.474 Y88.920 E0.01212
G1 X78.620 Y88.337 E0.01883
G1 X78.823 Y87.780 E0.01859
G1 X78.990 Y87.423 E0.01237
G1 X79.292 Y86.904 E0.01882
G1 X79.643 Y86.423 E0.01867
G1 X80.043 Y85.982 E0.01867
G1 X80.487 Y85.586 E0.01867
G1 X80.970 Y85.238 E0.01867
G1 X81.487 Y84.942 E0.01867
G1 X82.032 Y84.703 E0.01867
G1 X82.599 Y84.522 E0.01867
G1 X83.182 Y84.402 E0.01867
G1 X83.774 Y84.344 E0.01867
G1 X84.370 Y84.348 E0.01867
G1 X84.961 Y84.415 E0.01867
G1 X85.543 Y84.543 E0.01867
M73 P16 R3
G1 X86.107 Y84.732 E0.01867
G1 X86.649 Y84.979 E0.01867
G1 X87.166 Y85.284 E0.01883
G1 X87.481 Y85.509 E0.01212
G1 X87.937 Y85.899 E0.01883
G1 X88.346 Y86.332 E0.01867
G1 X88.707 Y86.805 E0.01867
G1 X89.016 Y87.312 E0.01861
