; generated by PrusaSlicer 2.3.0+win64 on 2021-08-10 at 15:51:03 UTC


;
;

;
;
; 

; external perimeters extrusion width = 0.45mm
; perimeters extrusion width = 0.45mm
; infill extrusion width = 0.45mm
; solid infill extrusion width = 0.45mm
; top infill extrusion width = 0.40mm
; first layer extrusion width = 0.42mm

M73 P0 R29
M201 X1250 Y1250 Z400 E5000 ; sets maximum accelerations, mm/sec^2
M203 X180 Y180 Z12 E80 ; sets maximum feedrates, mm/sec
M204 P1250 R1250 T1250 ; sets acceleration (P, T) and retract acceleration (R), mm/sec^2
M205 X8.00 Y8.00 Z2.00 E10.00 ; sets the jerk limits, mm/sec
M205 S0 T0 ; sets the minimum extruding and travel feed rate, mm/sec
M107
;TYPE:Custom
G90 ; use absolute coordinates
M83 ; extruder relative mode
M104 S170 ; set extruder temp for bed leveling
M140 S60 ; set bed temp
M109 R170 ; wait for bed leveling temp
M190 S60 ; wait for bed temp
G28 ; home all without mesh bed level
G29 ; mesh bed leveling 
M104 S215 ; set extruder temp
G92 E0.0
G1 Y-2.0 X179 F2400
G1 Z3 F720
M109 S215 ; wait for extruder temp

; intro line
G1 X170 F1000
G1 Z0.2 F720
G1 X110.0 E8.0 F900
G1 X40.0 E10.0 F700
G92 E0.0

M221 S95 ; set flow
G21 ; set units to millimeters
G90 ; use absolute coordinates
M83 ; use relative distances for extrusion
M900 K0.2 ; Filament gcode LA 1.5
; ; Filament gcode LA 1.0
;LAYER_CHANGE
;Z:0.2
;HEIGHT:0.2
;BEFORE_LAYER_CHANGE
G92 E0.0
;0.2


M73 P0 R28
G1 E-3.20000 F4200.000
G1 Z0.200 F9000.000
;AFTER_LAYER_CHANGE
;0.2
G1 Z0.400
G1 X83.424 Y83.119
G1 Z0.200
G1 E3.20000 F2400.000
M204 S800
;TYPE:Skirt
;WIDTH:0.42
G1 F1200.000
G1 X87.273 Y80.885 E0.13955
G1 X88.534 Y80.582 E0.04066
G1 X90.117 Y80.470 E0.04976
G1 X91.788 Y80.638 E0.05264
G1 X92.949 Y80.984 E0.03800
G1 X96.351 Y82.949 E0.12317
M73 P1 R28
G1 X96.804 Y83.326 E0.01848
G1 X97.446 Y84.050 E0.03035
G1 X98.045 Y84.889 E0.03232
G1 X98.534 Y85.755 E0.03118
G1 X99.205 Y87.534 E0.05962
G1 X99.290 Y88.201 E0.02107
G1 X99.290 Y91.782 E0.11231
G1 X99.232 Y92.343 E0.01766
G1 X99.055 Y92.974 E0.02055
G1 X98.399 Y94.506 E0.05227
G1 X97.498 Y95.883 E0.05160
G1 X96.571 Y96.886 E0.04280
G1 X92.719 Y99.118 E0.13962
G1 X91.456 Y99.419 E0.04069
G1 X89.843 Y99.530 E0.05069
G1 X88.202 Y99.360 E0.05173
G1 X87.047 Y99.014 E0.03782
G1 X83.649 Y97.051 E0.12304
G1 X83.193 Y96.671 E0.01861
G1 X82.550 Y95.945 E0.03040
G1 X81.955 Y95.111 E0.03212
G1 X81.468 Y94.249 E0.03106
G1 X80.794 Y92.462 E0.05988
G1 X80.710 Y91.800 E0.02093
G1 X80.710 Y88.218 E0.11231
G1 X80.768 Y87.657 E0.01766
G1 X80.944 Y87.027 E0.02053
G1 X81.601 Y85.494 E0.05228
G1 X82.500 Y84.119 E0.05153
G1 X83.383 Y83.163 E0.04080
M204 S1250
G1 X83.658 Y83.417 F9000.000
M204 S800
G1 F1200.000
G1 X87.410 Y81.237 E0.13606
G1 X88.595 Y80.955 E0.03817
G1 X90.117 Y80.847 E0.04785
G1 X91.713 Y81.008 E0.05030
G1 X92.786 Y81.324 E0.03507
G1 X96.133 Y83.257 E0.12118
G1 X96.545 Y83.600 E0.01681
G1 X97.159 Y84.295 E0.02908
G1 X97.728 Y85.094 E0.03077
G1 X98.198 Y85.926 E0.02996
G1 X98.841 Y87.634 E0.05721
G1 X98.913 Y88.215 E0.01835
G1 X98.913 Y91.780 E0.11178
G1 X98.692 Y92.871 E0.03491
G1 X98.061 Y94.338 E0.05008
G1 X97.199 Y95.654 E0.04933
G1 X96.324 Y96.601 E0.04043
G1 X92.582 Y98.766 E0.13555
G1 X91.172 Y99.079 E0.04527
G1 X89.846 Y99.153 E0.04165
G1 X88.278 Y98.990 E0.04944
G1 X87.210 Y98.675 E0.03491
G1 X83.864 Y96.741 E0.12118
G1 X83.455 Y96.400 E0.01669
G1 X82.838 Y95.701 E0.02926
G1 X82.272 Y94.906 E0.03058
G1 X81.804 Y94.077 E0.02984
G1 X81.159 Y92.366 E0.05734
G1 X81.087 Y91.786 E0.01835
G1 X81.087 Y88.220 E0.11178
G1 X81.307 Y87.130 E0.03489
G1 X81.939 Y85.662 E0.05009
G1 X82.800 Y84.348 E0.04926
G1 X83.618 Y83.461 E0.03783
M204 S1250
G1 X83.894 Y83.715 F9000.000
M204 S800
G1 F1200.000
G1 X87.549 Y81.587 E0.13263
G1 X88.876 Y81.296 E0.04258
G1 X90.117 Y81.224 E0.03898
G1 X91.422 Y81.339 E0.04108
G1 X92.621 Y81.663 E0.03896
G1 X95.919 Y83.568 E0.11941
G1 X96.871 Y84.539 E0.04264
G1 X97.862 Y86.098 E0.05791
G1 X98.476 Y87.729 E0.05464
G1 X98.536 Y88.227 E0.01574
G1 X98.536 Y91.773 E0.11118
G1 X98.331 Y92.763 E0.03169
G1 X97.726 Y94.166 E0.04791
G1 X96.900 Y95.425 E0.04722
G1 X96.076 Y96.316 E0.03805
G1 X92.447 Y98.414 E0.13143
G1 X91.116 Y98.706 E0.04274
G1 X89.853 Y98.776 E0.03966
G1 X88.570 Y98.660 E0.04038
G1 X87.375 Y98.336 E0.03882
G1 X84.081 Y96.432 E0.11929
G1 X83.128 Y95.460 E0.04268
G1 X82.140 Y93.906 E0.05774
G1 X81.524 Y92.271 E0.05477
G1 X81.464 Y91.773 E0.01574
G1 X81.464 Y88.227 E0.11119
G1 X81.669 Y87.238 E0.03167
G1 X82.274 Y85.835 E0.04792
G1 X83.097 Y84.580 E0.04703
G1 X83.853 Y83.759 E0.03500
M204 S1250
; printing object spanner04.stl id:0 copy 0
G1 E-2.24000 F4200.000
;WIPE_START
G1 F7200.000
G1 X85.272 Y82.926 E-0.91200
;WIPE_END
G1 E-0.04800 F4200.000
G1 Z0.400 F9000.000
G1 X86.941 Y86.999
G1 Z0.200
G1 E3.20000 F2400.000
M204 S800
;TYPE:Perimeter
G1 F1200.000
G1 X87.192 Y86.760 E0.01086
G1 X87.513 Y86.507 E0.01279
G1 X87.856 Y86.287 E0.01279
G1 X88.219 Y86.100 E0.01279
G1 X88.598 Y85.948 E0.01279
G1 X88.989 Y85.833 E0.01279
G1 X89.390 Y85.756 E0.01279
G1 X89.796 Y85.717 E0.01279
G1 X90.204 Y85.717 E0.01279
G1 X90.610 Y85.756 E0.01279
G1 X91.011 Y85.833 E0.01279
G1 X91.402 Y85.948 E0.01279
G1 X91.781 Y86.100 E0.01279
G1 X92.144 Y86.287 E0.01279
G1 X92.493 Y86.511 E0.01301
G1 X92.954 Y86.892 E0.01875
G1 X93.240 Y87.192 E0.01301
G1 X93.493 Y87.513 E0.01279
G1 X93.713 Y87.856 E0.01279
G1 X93.900 Y88.219 E0.01279
G1 X94.052 Y88.598 E0.01279
G1 X94.167 Y88.989 E0.01279
G1 X94.244 Y89.390 E0.01279
G1 X94.283 Y89.796 E0.01279
G1 X94.283 Y90.204 E0.01279
G1 X94.244 Y90.610 E0.01279
G1 X94.167 Y91.011 E0.01279
G1 X94.052 Y91.402 E0.01279
G1 X93.900 Y91.781 E0.01279
G1 X93.710 Y92.150 E0.01301
G1 X93.375 Y92.645 E0.01874
G1 X93.103 Y92.959 E0.01301
G1 X92.808 Y93.241 E0.01279
G1 X92.487 Y93.493 E0.01279
G1 X92.144 Y93.713 E0.01279
G1 X91.781 Y93.900 E0.01279
G1 X91.402 Y94.052 E0.01279
G1 X91.011 Y94.167 E0.01279
G1 X90.610 Y94.244 E0.01279
G1 X90.197 Y94.284 E0.01301
G1 X89.599 Y94.269 E0.01874
G1 X89.189 Y94.210 E0.01301
G1 X88.792 Y94.114 E0.01279
G1 X88.406 Y93.981 E0.01279
G1 X88.035 Y93.811 E0.01279
G1 X87.682 Y93.607 E0.01279
G1 X87.349 Y93.370 E0.01279
G1 X87.041 Y93.103 E0.01279
G1 X86.759 Y92.808 E0.01279
G1 X86.507 Y92.487 E0.01279
G1 X86.287 Y92.144 E0.01279
G1 X86.100 Y91.781 E0.01279
G1 X85.948 Y91.402 E0.01279
G1 X85.833 Y91.011 E0.01279
G1 X85.756 Y90.610 E0.01279
G1 X85.716 Y90.197 E0.01301
G1 X85.731 Y89.599 E0.01875
G1 X85.790 Y89.189 E0.01301
G1 X85.886 Y88.792 E0.01279
G1 X86.019 Y88.406 E0.01279
G1 X86.189 Y88.035 E0.01279
G1 X86.393 Y87.682 E0.01279
G1 X86.630 Y87.349 E0.01279
G1 X86.898 Y87.040 E0.01285
M204 S1250
G1 X87.170 Y87.302 F9000.000
M204 S800
;TYPE:External perimeter
G1 F1200.000
G1 X87.439 Y87.045 E0.01167
G1 X87.732 Y86.815 E0.01167
G1 X88.045 Y86.614 E0.01167
G1 X88.376 Y86.443 E0.01167
G1 X88.721 Y86.305 E0.01167
G1 X89.078 Y86.200 E0.01167
G1 X89.444 Y86.130 E0.01167
G1 X89.814 Y86.094 E0.01167
G1 X90.186 Y86.094 E0.01167
G1 X90.557 Y86.130 E0.01167
G1 X90.922 Y86.200 E0.01167
G1 X91.279 Y86.305 E0.01167
G1 X91.624 Y86.443 E0.01167
G1 X91.955 Y86.614 E0.01167
G1 X92.270 Y86.816 E0.01175
G1 X92.697 Y87.168 E0.01734
G1 X92.955 Y87.439 E0.01175
G1 X93.185 Y87.732 E0.01167
G1 X93.386 Y88.045 E0.01167
G1 X93.557 Y88.376 E0.01167
G1 X93.695 Y88.721 E0.01167
G1 X93.800 Y89.078 E0.01167
G1 X93.870 Y89.443 E0.01167
G1 X93.906 Y89.814 E0.01167
G1 X93.906 Y90.186 E0.01167
G1 X93.870 Y90.556 E0.01167
G1 X93.800 Y90.922 E0.01167
G1 X93.695 Y91.279 E0.01167
G1 X93.557 Y91.624 E0.01167
G1 X93.385 Y91.957 E0.01175
G1 X93.075 Y92.415 E0.01734
G1 X92.830 Y92.698 E0.01175
G1 X92.561 Y92.955 E0.01167
G1 X92.268 Y93.185 E0.01167
G1 X91.955 Y93.386 E0.01167
G1 X91.624 Y93.557 E0.01167
G1 X91.279 Y93.695 E0.01167
G1 X90.922 Y93.800 E0.01167
G1 X90.556 Y93.870 E0.01167
G1 X90.184 Y93.906 E0.01175
G1 X89.631 Y93.893 E0.01734
G1 X89.260 Y93.840 E0.01175
G1 X88.898 Y93.752 E0.01167
G1 X88.547 Y93.630 E0.01167
G1 X88.208 Y93.476 E0.01167
G1 X87.886 Y93.290 E0.01167
G1 X87.583 Y93.074 E0.01167
G1 X87.302 Y92.830 E0.01167
G1 X87.045 Y92.561 E0.01167
G1 X86.815 Y92.268 E0.01167
G1 X86.614 Y91.955 E0.01167
G1 X86.443 Y91.624 E0.01167
G1 X86.305 Y91.279 E0.01167
G1 X86.200 Y90.922 E0.01167
G1 X86.130 Y90.556 E0.01167
G1 X86.094 Y90.184 E0.01175
G1 X86.107 Y89.631 E0.01734
G1 X86.160 Y89.260 E0.01175
G1 X86.248 Y88.898 E0.01167
G1 X86.370 Y88.547 E0.01167
G1 X86.524 Y88.208 E0.01167
G1 X86.710 Y87.886 E0.01167
G1 X86.926 Y87.583 E0.01167
G1 X87.131 Y87.347 E0.00979
M204 S1250
G1 X87.065 Y86.945 F9000.000
G1 E-2.24000 F4200.000
;WIPE_START
G1 F7200.000
G1 X87.439 Y87.045 E-0.23934
G1 X87.732 Y86.815 E-0.20622
G1 X88.045 Y86.614 E-0.20622
G1 X88.376 Y86.443 E-0.20622
G1 X88.466 Y86.407 E-0.05401
;WIPE_END
G1 E-0.04800 F4200.000
G1 Z0.400 F9000.000
G1 X85.794 Y86.300
G1 Z0.200
G1 E3.20000 F2400.000
M204 S800
;TYPE:Perimeter
G1 F1200.000
G1 X86.023 Y86.282 E0.00721
G1 X86.618 Y86.153 E0.01910
G1 X87.181 Y85.944 E0.01883
G1 X87.555 Y85.751 E0.01319
G1 X88.048 Y85.417 E0.01868
G1 X88.366 Y85.141 E0.01320
G1 X88.770 Y84.695 E0.01888
G1 X88.903 Y84.500 E0.00740
G1 X89.505 Y84.409 E0.01909
G1 X89.901 Y84.388 E0.01242
G1 X90.291 Y84.395 E0.01223
G1 X90.892 Y84.459 E0.01894
G1 X91.097 Y84.500 E0.00655
G1 X91.228 Y84.691 E0.00725
G1 X91.496 Y85.002 E0.01288
G1 X91.790 Y85.283 E0.01275
G1 X92.115 Y85.539 E0.01297
G1 X92.629 Y85.853 E0.01890
G1 X93.190 Y86.092 E0.01912
G1 X93.772 Y86.247 E0.01890
G1 X94.222 Y86.311 E0.01422
G1 X94.399 Y86.514 E0.00846
G1 X94.632 Y86.831 E0.01233
G1 X94.844 Y87.165 E0.01242
G1 X95.032 Y87.514 E0.01242
G1 X95.193 Y87.871 E0.01228
G1 X95.310 Y88.204 E0.01106
G1 X95.209 Y88.415 E0.00734
G1 X95.023 Y88.993 E0.01903
G1 X94.922 Y89.587 E0.01890
G1 X94.902 Y90.000 E0.01297
G1 X94.922 Y90.413 E0.01297
G1 X95.023 Y91.007 E0.01890
G1 X95.209 Y91.585 E0.01903
G1 X95.312 Y91.802 E0.00753
G1 X95.118 Y92.302 E0.01682
G1 X94.844 Y92.835 E0.01879
G1 X94.518 Y93.328 E0.01853
G1 X94.206 Y93.700 E0.01523
G1 X93.977 Y93.718 E0.00720
G1 X93.391 Y93.845 E0.01881
G1 X92.991 Y93.982 E0.01326
G1 X92.457 Y94.242 E0.01861
G1 X92.101 Y94.471 E0.01326
G1 X91.639 Y94.854 E0.01883
G1 X91.232 Y95.304 E0.01903
G1 X91.097 Y95.500 E0.00747
G1 X90.495 Y95.591 E0.01909
G1 X90.099 Y95.612 E0.01242
G1 X89.708 Y95.605 E0.01226
G1 X89.108 Y95.541 E0.01892
G1 X88.903 Y95.500 E0.00655
G1 X88.772 Y95.309 E0.00725
G1 X88.504 Y94.998 E0.01288
G1 X88.210 Y94.717 E0.01275
G1 X87.885 Y94.461 E0.01297
G1 X87.371 Y94.147 E0.01890
G1 X86.810 Y93.908 E0.01912
G1 X86.227 Y93.753 E0.01890
G1 X85.779 Y93.690 E0.01421
G1 X85.601 Y93.486 E0.00847
G1 X85.368 Y93.169 E0.01233
G1 X85.156 Y92.835 E0.01240
G1 X84.968 Y92.486 E0.01245
G1 X84.807 Y92.130 E0.01225
G1 X84.690 Y91.796 E0.01108
G1 X84.791 Y91.585 E0.00734
G1 X84.975 Y91.014 E0.01881
G1 X85.055 Y90.601 E0.01319
G1 X85.098 Y90.007 E0.01867
G1 X85.078 Y89.587 E0.01319
G1 X84.977 Y88.993 E0.01890
G1 X84.791 Y88.415 E0.01903
G1 X84.688 Y88.198 E0.00753
G1 X84.882 Y87.698 E0.01682
G1 X85.156 Y87.165 E0.01879
G1 X85.482 Y86.672 E0.01853
G1 X85.755 Y86.346 E0.01335
M204 S1250
G1 X85.607 Y85.936 F9000.000
M204 S800
;TYPE:External perimeter
G1 F1200.000
G1 X85.968 Y85.908 E0.01137
G1 X86.512 Y85.790 E0.01745
G1 X87.029 Y85.598 E0.01727
G1 X87.362 Y85.427 E0.01177
G1 X87.818 Y85.118 E0.01726
G1 X88.102 Y84.871 E0.01177
G1 X88.473 Y84.461 E0.01737
G1 X88.679 Y84.160 E0.01141
G1 X89.053 Y84.086 E0.01195
G1 X89.472 Y84.033 E0.01324
G1 X89.894 Y84.011 E0.01326
G1 X90.314 Y84.018 E0.01317
G1 X90.949 Y84.086 E0.02001
G1 X91.321 Y84.160 E0.01190
G1 X91.527 Y84.460 E0.01140
G1 X91.770 Y84.742 E0.01166
G1 X92.037 Y84.998 E0.01162
G1 X92.330 Y85.229 E0.01169
G1 X92.802 Y85.517 E0.01734
G1 X93.313 Y85.735 E0.01742
G1 X93.847 Y85.877 E0.01734
G1 X94.398 Y85.939 E0.01736
G1 X94.693 Y86.278 E0.01411
G1 X94.943 Y86.617 E0.01322
G1 X95.170 Y86.975 E0.01326
G1 X95.370 Y87.347 E0.01326
G1 X95.543 Y87.731 E0.01320
G1 X95.717 Y88.226 E0.01645
G1 X95.560 Y88.555 E0.01142
G1 X95.390 Y89.082 E0.01738
G1 X95.298 Y89.627 E0.01734
G1 X95.280 Y90.000 E0.01169
G1 X95.298 Y90.373 E0.01169
G1 X95.390 Y90.918 E0.01734
G1 X95.560 Y91.446 E0.01739
G1 X95.718 Y91.776 E0.01149
G1 X95.461 Y92.460 E0.02291
G1 X95.170 Y93.025 E0.01994
G1 X94.821 Y93.554 E0.01985
G1 X94.393 Y94.064 E0.02088
G1 X94.032 Y94.092 E0.01137
G1 X93.492 Y94.208 E0.01730
G1 X93.135 Y94.332 E0.01184
G1 X92.642 Y94.571 E0.01719
G1 X92.324 Y94.775 E0.01184
G1 X91.900 Y95.127 E0.01727
G1 X91.528 Y95.538 E0.01739
G1 X91.321 Y95.840 E0.01148
G1 X90.947 Y95.914 E0.01195
G1 X90.528 Y95.967 E0.01324
G1 X90.106 Y95.989 E0.01326
G1 X89.685 Y95.981 E0.01320
G1 X89.051 Y95.914 E0.01998
G1 X88.679 Y95.840 E0.01190
G1 X88.473 Y95.540 E0.01140
G1 X88.230 Y95.258 E0.01166
G1 X87.963 Y95.002 E0.01162
G1 X87.670 Y94.771 E0.01169
G1 X87.198 Y94.483 E0.01734
G1 X86.687 Y94.265 E0.01742
G1 X86.152 Y94.123 E0.01734
G1 X85.602 Y94.061 E0.01735
G1 X85.307 Y93.722 E0.01411
G1 X85.057 Y93.383 E0.01322
G1 X84.831 Y93.026 E0.01323
G1 X84.630 Y92.653 E0.01328
G1 X84.457 Y92.270 E0.01318
G1 X84.283 Y91.774 E0.01647
G1 X84.440 Y91.445 E0.01142
G1 X84.609 Y90.920 E0.01730
G1 X84.681 Y90.551 E0.01178
G1 X84.720 Y90.003 E0.01726
G1 X84.702 Y89.627 E0.01177
G1 X84.610 Y89.082 E0.01734
G1 X84.440 Y88.555 E0.01738
G1 X84.282 Y88.224 E0.01149
G1 X84.539 Y87.540 E0.02291
G1 X84.830 Y86.975 E0.01994
G1 X85.179 Y86.446 E0.01985
G1 X85.568 Y85.982 E0.01900
M204 S1250
G1 X85.887 Y86.166 F9000.000
G1 X85.848 Y86.411
M204 S800
;TYPE:Solid infill
;WIDTH:0.467857
G1 F1200.000
G1 X86.502 Y87.065 E0.03268
G1 X86.242 Y87.406 E0.01515
G1 X85.696 Y86.860 E0.02728
G1 X85.457 Y87.222 E0.01533
G1 X86.012 Y87.777 E0.02769
G1 X85.813 Y88.179 E0.01585
G1 X85.245 Y87.611 E0.02837
G1 X85.058 Y88.025 E0.01606
G1 X85.781 Y88.748 E0.03614
M204 S1250
G1 X85.399 Y89.012 F9000.000
M204 S800
;TYPE:Gap fill
;WIDTH:0.43023
G1 F1200.000
G1 X85.401 Y89.189 E0.00570
M204 S1250
M204 S800
;WIDTH:0.39546
G1 X85.403 Y89.366 E0.00519
M204 S1250
M204 S800
;WIDTH:0.360691
G1 X85.405 Y89.543 E0.00468
M204 S1250
M204 S800
;WIDTH:0.325922
G1 X85.405 Y89.580 E0.00088
M204 S1250
M204 S800
;WIDTH:0.318736
G1 X85.410 Y90.003 E0.00970
M204 S1250
M204 S800
;WIDTH:0.288394
G1 X85.405 Y90.669 E0.01358
M204 S1250
M204 S800
;WIDTH:0.424688
G1 X85.405 Y90.984 E0.01000
M204 S1250
G1 E-2.24000 F4200.000
;WIPE_START
G1 F7200.000
G1 X85.405 Y90.669 E-0.17463
;WIPE_END
G1 E-0.78537 F4200.000
G1 Z0.400 F9000.000
G1 X86.924 Y93.166
G1 Z0.200
G1 E3.20000 F2400.000
M204 S800
;TYPE:Solid infill
;WIDTH:0.476167
G1 F1200.000
G1 X85.150 Y91.393 E0.09035
G1 X85.055 Y91.690 E0.01124
G1 X84.996 Y91.813 E0.00491
G1 X85.017 Y91.872 E0.00227
G1 X86.565 Y93.420 E0.07886
G1 X86.495 Y93.531 E0.00472
G1 X86.284 Y93.475 E0.00789
G1 X85.962 Y93.430 E0.01172
G1 X85.189 Y92.657 E0.03938
M204 S1250
G1 E-2.24000 F4200.000
;WIPE_START
G1 F7200.000
G1 X85.962 Y93.430 E-0.60571
G1 X86.284 Y93.475 E-0.18029
G1 X86.495 Y93.531 E-0.12138
G1 X86.500 Y93.524 E-0.00462
;WIPE_END
G1 E-0.04800 F4200.000
G1 Z0.400 F9000.000
G1 X86.858 Y93.485
G1 Z0.200
G1 E3.20000 F2400.000
M204 S800
;TYPE:Gap fill
;WIDTH:0.381931
G1 F1200.000
G1 X87.320 Y93.761 E0.01518
M204 S1250
M204 S800
;WIDTH:0.288855
G1 X87.521 Y93.874 E0.00472
M204 S1250
M204 S800
;WIDTH:0.299852
G1 X87.895 Y94.096 E0.00929
M204 S1250
M204 S800
;WIDTH:0.325899
G1 X88.081 Y94.195 E0.00495
M204 S1250
M204 S800
;WIDTH:0.351864
G1 X88.174 Y94.251 E0.00280
M204 S1250
M204 S800
;WIDTH:0.382462
G1 X88.281 Y94.316 E0.00353
M204 S1250
M204 S800
;WIDTH:0.426587
G1 X88.565 Y94.472 E0.01035
M204 S1250
G1 E-2.24000 F4200.000
;WIPE_START
G1 F7200.000
G1 X88.281 Y94.316 E-0.17982
;WIPE_END
G1 E-0.78018 F4200.000
G1 Z0.400 F9000.000
G1 X91.237 Y95.129
G1 Z0.200
G1 E3.20000 F2400.000
M204 S800
;TYPE:Solid infill
;WIDTH:0.445847
G1 F1200.000
G1 X90.634 Y94.526 E0.02856
M73 P2 R28
G1 X90.103 Y94.564 E0.01785
G1 X90.798 Y95.259 E0.03292
G1 X90.466 Y95.309 E0.01124
G1 X90.287 Y95.318 E0.00600
G1 X89.511 Y94.542 E0.03677
G1 X89.135 Y94.488 E0.01273
G1 X88.909 Y94.433 E0.00780
