; generated by PrusaSlicer 2.3.0+win64 on 2021-08-11 at 11:21:11 UTC


;
;

;
;
; 

; external perimeters extrusion width = 0.45mm
; perimeters extrusion width = 0.45mm
; infill extrusion width = 0.45mm
; solid infill extrusion width = 0.45mm
; top infill extrusion width = 0.40mm
; first layer extrusion width = 0.42mm

M73 P0 R15
M201 X1250 Y1250 Z400 E5000 ; sets maximum accelerations, mm/sec^2
M203 X180 Y180 Z12 E80 ; sets maximum feedrates, mm/sec
M204 P1250 R1250 T1250 ; sets acceleration (P, T) and retract acceleration (R), mm/sec^2
M205 X8.00 Y8.00 Z2.00 E10.00 ; sets the jerk limits, mm/sec
M205 S0 T0 ; sets the minimum extruding and travel feed rate, mm/sec
M107
;TYPE:Custom
G90 ; use absolute coordinates
M83 ; extruder relative mode
M104 S170 ; set extruder temp for bed leveling
M140 S60 ; set bed temp
M109 R170 ; wait for bed leveling temp
M190 S60 ; wait for bed temp
G28 ; home all without mesh bed level
G29 ; mesh bed leveling 
M104 S215 ; set extruder temp
G92 E0.0
G1 Y-2.0 X179 F2400
G1 Z3 F720
M109 S215 ; wait for extruder temp

; intro line
G1 X170 F1000
G1 Z0.2 F720
G1 X110.0 E8.0 F900
M73 P1 R15
G1 X40.0 E10.0 F700
G92 E0.0

M221 S95 ; set flow
G21 ; set units to millimeters
G90 ; use absolute coordinates
M83 ; use relative distances for extrusion
M900 K0.2 ; Filament gcode LA 1.5
; ; Filament gcode LA 1.0
;LAYER_CHANGE
;Z:0.2
;HEIGHT:0.2
;BEFORE_LAYER_CHANGE
G92 E0.0
;0.2


G1 E-3.20000 F4200.000
G1 Z0.200 F9000.000
;AFTER_LAYER_CHANGE
;0.2
G1 Z0.400
G1 X60.517 Y60.481
G1 Z0.200
G1 E3.20000 F2400.000
M204 S800
;TYPE:Skirt
;WIDTH:0.42
G1 F1200.000
G1 X61.594 Y59.737 E0.04105
G1 X62.672 Y59.314 E0.03631
G1 X63.943 Y59.126 E0.04029
G1 X115.967 Y59.124 E1.63117
M73 P2 R15
G1 X116.874 Y59.211 E0.02858
G1 X117.878 Y59.496 E0.03270
G1 X118.774 Y59.950 E0.03150
G1 X119.513 Y60.508 E0.02904
G1 X120.215 Y61.277 E0.03264
G1 X120.688 Y62.031 E0.02791
G1 X121.072 Y62.990 E0.03239
G1 X121.254 Y63.886 E0.02869
G1 X121.287 Y96.156 E1.01180
G1 X121.199 Y96.977 E0.02588
G1 X121.001 Y97.735 E0.02457
G1 X120.748 Y98.350 E0.02083
G1 X120.338 Y99.053 E0.02553
G1 X108.776 Y112.320 E0.55176
G1 X107.161 Y114.010 E0.07330
G1 X105.388 Y115.546 E0.07355
G1 X103.127 Y117.131 E0.08659
G1 X101.076 Y118.275 E0.07360
G1 X98.930 Y119.219 E0.07352
G1 X96.228 Y120.084 E0.08895
G1 X94.444 Y120.476 E0.05728
G1 X93.045 Y120.689 E0.04436
G1 X91.617 Y120.824 E0.04498
G1 X89.789 Y120.876 E0.05733
G1 X86.977 Y120.692 E0.08838
G1 X85.567 Y120.478 E0.04470
G1 X83.773 Y120.084 E0.05761
G1 X81.087 Y119.225 E0.08841
G1 X78.499 Y118.058 E0.08901
G1 X76.918 Y117.159 E0.05703
G1 X75.726 Y116.374 E0.04477
G1 X73.517 Y114.632 E0.08821
G1 X71.513 Y112.645 E0.08847
G1 X59.965 Y99.451 E0.54976
G1 X59.356 Y98.553 E0.03402
G1 X58.931 Y97.522 E0.03497
G1 X58.762 Y96.739 E0.02511
G1 X58.711 Y95.965 E0.02433
G1 X58.712 Y64.400 E0.98968
M73 P3 R14
G1 X58.789 Y63.587 E0.02560
G1 X58.988 Y62.798 E0.02552
G1 X59.304 Y62.048 E0.02552
G1 X59.718 Y61.369 E0.02493
G1 X60.477 Y60.526 E0.03557
M204 S1250
; printing object SpeakerRing03.stl id:0 copy 1
G1 E-2.24000 F4200.000
;WIPE_START
G1 F7200.000
G1 X61.594 Y59.737 E-0.75783
G1 X61.853 Y59.636 E-0.15417
;WIPE_END
G1 E-0.04800 F4200.000
G1 Z0.400 F9000.000
G1 X66.230 Y96.787
G1 Z0.200
G1 E3.20000 F2400.000
M204 S800
;TYPE:Perimeter
G1 F1200.000
G1 X70.735 Y96.787 E0.14127
G1 X70.750 Y97.193 E0.01275
G1 X70.816 Y97.992 E0.02515
G1 X70.975 Y99.171 E0.03730
G1 X71.124 Y99.961 E0.02519
G1 X71.404 Y101.117 E0.03730
G1 X71.632 Y101.884 E0.02509
G1 X71.892 Y102.641 E0.02509
G1 X72.336 Y103.744 E0.03730
G1 X72.674 Y104.473 E0.02519
G1 X73.229 Y105.525 E0.03730
G1 X73.640 Y106.215 E0.02519
G1 X74.303 Y107.207 E0.03740
G1 X75.026 Y108.156 E0.03740
G1 X75.543 Y108.766 E0.02509
G1 X76.085 Y109.355 E0.02509
G1 X76.937 Y110.190 E0.03740
G1 X77.839 Y110.970 E0.03740
G1 X78.471 Y111.461 E0.02509
G1 X79.119 Y111.925 E0.02500
G1 X79.789 Y112.362 E0.02509
G1 X80.818 Y112.961 E0.03730
G1 X81.532 Y113.328 E0.02519
G1 X82.616 Y113.818 E0.03730
G1 X83.365 Y114.110 E0.02519
G1 X84.494 Y114.484 E0.03730
G1 X85.265 Y114.697 E0.02509
G1 X86.045 Y114.877 E0.02509
G1 X87.219 Y115.085 E0.03740
G1 X88.404 Y115.221 E0.03740
G1 X89.203 Y115.270 E0.02509
G1 X90.003 Y115.287 E0.02509
G1 X91.192 Y115.250 E0.03730
G1 X91.990 Y115.184 E0.02509
G1 X92.781 Y115.085 E0.02500
G1 X93.567 Y114.954 E0.02500
G1 X94.347 Y114.790 E0.02500
G1 X95.120 Y114.595 E0.02500
G1 X95.884 Y114.367 E0.02500
G1 X96.638 Y114.108 E0.02500
G1 X97.381 Y113.819 E0.02500
G1 X98.111 Y113.498 E0.02500
G1 X98.827 Y113.148 E0.02500
G1 X99.528 Y112.769 E0.02500
G1 X100.213 Y112.361 E0.02500
G1 X100.881 Y111.925 E0.02500
G1 X101.532 Y111.460 E0.02509
G1 X102.465 Y110.717 E0.03740
G1 X103.351 Y109.919 E0.03740
G1 X103.919 Y109.351 E0.02519
G1 X104.718 Y108.465 E0.03740
G1 X105.460 Y107.531 E0.03740
G1 X105.927 Y106.878 E0.02519
G1 X106.569 Y105.872 E0.03740
G1 X107.147 Y104.829 E0.03740
G1 X107.499 Y104.111 E0.02509
G1 X107.820 Y103.378 E0.02509
G1 X108.241 Y102.265 E0.03731
G1 X108.490 Y101.489 E0.02555
G1 X108.790 Y100.350 E0.03694
G1 X108.957 Y99.552 E0.02555
G1 X109.139 Y98.385 E0.03703
G1 X109.250 Y97.196 E0.03745
G1 X109.265 Y96.787 E0.01284
G1 X113.775 Y96.787 E0.14142
G1 X113.869 Y97.036 E0.00835
G1 X114.134 Y97.442 E0.01520
G1 X114.376 Y97.697 E0.01103
G1 X114.758 Y97.977 E0.01486
G1 X114.881 Y98.037 E0.00430
G1 X114.841 Y98.212 E0.00565
G1 X111.621 Y98.212 E0.10098
G1 X111.402 Y99.658 E0.04585
G1 X111.250 Y100.461 E0.02561
G1 X111.067 Y101.257 E0.02561
G1 X110.855 Y102.043 E0.02553
G1 X110.479 Y103.215 E0.03859
G1 X110.194 Y103.977 E0.02553
G1 X109.880 Y104.731 E0.02561
G1 X109.537 Y105.473 E0.02561
G1 X109.168 Y106.199 E0.02553
G1 X108.560 Y107.268 E0.03859
G1 X108.124 Y107.956 E0.02553
G1 X107.662 Y108.629 E0.02561
G1 X107.174 Y109.285 E0.02561
G1 X106.662 Y109.921 E0.02561
G1 X106.128 Y110.536 E0.02553
G1 X105.281 Y111.425 E0.03850
G1 X104.384 Y112.264 E0.03850
G1 X103.765 Y112.792 E0.02553
G1 X103.125 Y113.296 E0.02553
G1 X102.124 Y114.012 E0.03859
G1 X101.441 Y114.454 E0.02553
G1 X100.741 Y114.870 E0.02553
G1 X99.662 Y115.444 E0.03832
G1 X98.918 Y115.796 E0.02580
G1 X98.170 Y116.117 E0.02552
G1 X97.020 Y116.546 E0.03850
G1 X95.855 Y116.908 E0.03823
G1 X95.061 Y117.114 E0.02571
G1 X93.857 Y117.367 E0.03859
G1 X93.053 Y117.497 E0.02553
G1 X92.245 Y117.596 E0.02553
G1 X91.018 Y117.688 E0.03859
G1 X90.204 Y117.711 E0.02553
G1 X89.387 Y117.704 E0.02561
G1 X88.574 Y117.665 E0.02553
G1 X87.352 Y117.550 E0.03850
G1 X86.146 Y117.367 E0.03823
G1 X85.339 Y117.206 E0.02580
G1 X84.545 Y117.016 E0.02561
G1 X83.761 Y116.797 E0.02553
G1 X82.593 Y116.410 E0.03859
G1 X81.833 Y116.118 E0.02553
G1 X81.082 Y115.796 E0.02561
G1 X80.346 Y115.448 E0.02553
G1 X79.259 Y114.870 E0.03859
G1 X78.562 Y114.455 E0.02544
G1 X77.535 Y113.778 E0.03859
G1 X76.879 Y113.299 E0.02544
G1 X75.920 Y112.528 E0.03859
G1 X75.312 Y111.991 E0.02544
G1 X74.432 Y111.135 E0.03850
G1 X73.601 Y110.230 E0.03850
G1 X73.081 Y109.608 E0.02544
G1 X72.339 Y108.629 E0.03850
G1 X71.653 Y107.611 E0.03850
G1 X71.232 Y106.917 E0.02544
G1 X70.645 Y105.839 E0.03850
G1 X70.119 Y104.729 E0.03850
G1 X69.807 Y103.980 E0.02544
G1 X69.387 Y102.823 E0.03859
G1 X69.147 Y102.048 E0.02544
G1 X68.838 Y100.860 E0.03850
G1 X68.597 Y99.656 E0.03850
G1 X68.380 Y98.213 E0.04575
G1 X65.158 Y98.210 E0.10102
G1 X65.111 Y98.046 E0.00534
G1 X65.498 Y97.804 E0.01433
G1 X65.751 Y97.572 E0.01074
G1 X65.974 Y97.297 E0.01111
G1 X66.213 Y96.844 E0.01606
M204 S1250
G1 X65.851 Y96.737 F9000.000
M204 S800
;TYPE:External perimeter
G1 F1200.000
G1 X65.660 Y97.086 E0.01249
G1 X65.476 Y97.313 E0.00917
G1 X65.269 Y97.502 E0.00878
G1 X64.922 Y97.719 E0.01284
G1 X64.533 Y97.859 E0.01296
G1 X64.123 Y97.911 E0.01296
G1 X63.711 Y97.873 E0.01296
G1 X63.317 Y97.749 E0.01295
G1 X62.973 Y97.551 E0.01243
G1 X62.747 Y97.361 E0.00929
G1 X62.489 Y97.046 E0.01274
G1 X62.352 Y96.798 E0.00889
G1 X62.221 Y96.410 E0.01284
G1 X62.177 Y96.000 E0.01296
G1 X62.221 Y95.589 E0.01296
G1 X62.352 Y95.201 E0.01284
G1 X62.489 Y94.953 E0.00889
G1 X62.749 Y94.636 E0.01284
G1 X63.070 Y94.382 E0.01284
G1 X63.321 Y94.249 E0.00889
G1 X63.711 Y94.126 E0.01283
G1 X64.105 Y94.089 E0.01243
G1 X64.400 Y94.114 E0.00929
G1 X64.796 Y94.224 E0.01286
G1 X65.157 Y94.416 E0.01284
G1 X65.380 Y94.591 E0.00888
G1 X65.650 Y94.899 E0.01284
G1 X65.851 Y95.260 E0.01296
G1 X65.967 Y95.653 E0.01285
G1 X65.998 Y95.943 E0.00915
G1 X65.968 Y96.343 E0.01257
G1 X65.868 Y96.679 E0.01100
M204 S1250
G1 X66.093 Y97.053 F9000.000
G1 E-2.24000 F4200.000
;WIPE_START
G1 F7200.000
G1 X65.660 Y97.086 E-0.25335
G1 X65.476 Y97.313 E-0.16203
G1 X65.269 Y97.502 E-0.15523
G1 X64.922 Y97.719 E-0.22692
G1 X64.727 Y97.789 E-0.11447
;WIPE_END
G1 E-0.04800 F4200.000
G1 Z0.400 F9000.000
G1 X114.002 Y96.069
M73 P4 R14
G1 Z0.200
G1 E3.20000 F2400.000
M204 S800
G1 F1200.000
G1 X114.031 Y95.660 E0.01284
G1 X114.102 Y95.386 E0.00888
G1 X114.274 Y95.014 E0.01284
G1 X114.524 Y94.685 E0.01295
G1 X114.826 Y94.428 E0.01243
G1 X115.081 Y94.279 E0.00929
G1 X115.467 Y94.141 E0.01285
G1 X115.860 Y94.090 E0.01243
G1 X116.156 Y94.104 E0.00929
G1 X116.555 Y94.199 E0.01285
G1 X116.912 Y94.371 E0.01243
G1 X117.149 Y94.543 E0.00917
G1 X117.348 Y94.739 E0.00878
G1 X117.584 Y95.074 E0.01284
G1 X117.744 Y95.455 E0.01296
G1 X117.818 Y95.862 E0.01296
G1 X117.803 Y96.275 E0.01296
G1 X117.701 Y96.671 E0.01284
G1 X117.582 Y96.928 E0.00888
G1 X117.346 Y97.263 E0.01284
G1 X117.041 Y97.542 E0.01296
G1 X116.686 Y97.747 E0.01284
G1 X116.420 Y97.842 E0.00889
G1 X116.015 Y97.908 E0.01284
G1 X115.603 Y97.886 E0.01296
G1 X115.208 Y97.776 E0.01284
G1 X114.953 Y97.653 E0.00889
G1 X114.626 Y97.413 E0.01272
G1 X114.431 Y97.207 E0.00888
G1 X114.207 Y96.864 E0.01284
G1 X114.061 Y96.478 E0.01296
G1 X114.010 Y96.128 E0.01108
M204 S1250
G1 X113.648 Y95.881 F9000.000
G1 E-2.24000 F4200.000
;WIPE_START
G1 F7200.000
G1 X114.031 Y95.660 E-0.25949
G1 X114.102 Y95.386 E-0.15704
G1 X114.274 Y95.014 E-0.22692
G1 X114.524 Y94.685 E-0.22889
G1 X114.579 Y94.639 E-0.03966
;WIPE_END
G1 E-0.04800 F4200.000
G1 Z0.400 F9000.000
G1 X66.695 Y96.410
G1 Z0.200
G1 E3.20000 F2400.000
M204 S800
G1 F1200.000
G1 X71.099 Y96.410 E0.13808
G1 X71.126 Y97.171 E0.02388
G1 X71.191 Y97.951 E0.02456
G1 X71.348 Y99.111 E0.03669
G1 X71.493 Y99.881 E0.02458
G1 X71.768 Y101.019 E0.03669
G1 X71.991 Y101.769 E0.02454
G1 X72.246 Y102.509 E0.02454
G1 X72.682 Y103.595 E0.03669
G1 X73.012 Y104.306 E0.02458
G1 X73.558 Y105.341 E0.03669
G1 X73.959 Y106.014 E0.02458
G1 X74.610 Y106.988 E0.03672
G1 X75.320 Y107.919 E0.03672
G1 X75.826 Y108.517 E0.02454
G1 X76.356 Y109.093 E0.02454
G1 X77.193 Y109.912 E0.03672
G1 X78.078 Y110.678 E0.03672
G1 X78.696 Y111.159 E0.02454
G1 X79.332 Y111.613 E0.02451
G1 X79.987 Y112.041 E0.02454
G1 X80.999 Y112.630 E0.03669
G1 X81.696 Y112.989 E0.02458
G1 X82.762 Y113.470 E0.03669
G1 X83.493 Y113.755 E0.02458
G1 X84.603 Y114.123 E0.03669
G1 X85.358 Y114.331 E0.02454
G1 X86.120 Y114.507 E0.02454
G1 X87.274 Y114.712 E0.03672
G1 X88.437 Y114.845 E0.03672
G1 X89.219 Y114.893 E0.02454
G1 X90.001 Y114.910 E0.02454
G1 X91.171 Y114.873 E0.03669
G1 X91.951 Y114.809 E0.02454
G1 X92.726 Y114.712 E0.02451
G1 X93.497 Y114.583 E0.02451
G1 X94.262 Y114.423 E0.02451
G1 X95.020 Y114.231 E0.02451
G1 X95.769 Y114.008 E0.02451
G1 X96.508 Y113.754 E0.02451
G1 X97.237 Y113.470 E0.02451
G1 X97.952 Y113.156 E0.02451
G1 X98.655 Y112.813 E0.02451
G1 X99.342 Y112.441 E0.02451
G1 X100.013 Y112.041 E0.02451
G1 X100.668 Y111.613 E0.02451
G1 X101.305 Y111.158 E0.02454
G1 X102.222 Y110.430 E0.03672
G1 X103.091 Y109.645 E0.03672
G1 X103.646 Y109.091 E0.02458
G1 X104.430 Y108.221 E0.03672
G1 X105.159 Y107.304 E0.03672
G1 X105.614 Y106.666 E0.02458
G1 X106.245 Y105.679 E0.03672
G1 X106.813 Y104.655 E0.03672
G1 X107.157 Y103.952 E0.02454
G1 X107.471 Y103.235 E0.02454
G1 X107.885 Y102.141 E0.03669
G1 X108.127 Y101.383 E0.02494
G1 X108.423 Y100.263 E0.03633
G1 X108.586 Y99.484 E0.02494
G1 X108.765 Y98.339 E0.03636
G1 X108.874 Y97.172 E0.03674
G1 X108.901 Y96.410 E0.02391
G1 X113.305 Y96.410 E0.13808
G1 X113.354 Y95.599 E0.02547
G1 X113.407 Y95.344 E0.00818
G1 X113.487 Y95.091 E0.00831
G1 X113.593 Y94.848 E0.00831
G1 X113.723 Y94.616 E0.00831
G1 X113.876 Y94.400 E0.00831
G1 X114.050 Y94.200 E0.00831
G1 X114.244 Y94.019 E0.00831
G1 X114.455 Y93.859 E0.00831
G1 X114.681 Y93.721 E0.00831
G1 X114.921 Y93.607 E0.00831
G1 X115.171 Y93.518 E0.00831
G1 X115.428 Y93.455 E0.00831
G1 X115.689 Y93.420 E0.00823
G1 X116.089 Y93.416 E0.01255
G1 X116.352 Y93.448 E0.00831
G1 X116.608 Y93.505 E0.00823
G1 X116.986 Y93.643 E0.01263
G1 X117.217 Y93.763 E0.00815
G1 X117.548 Y93.993 E0.01263
G1 X117.741 Y94.167 E0.00815
G1 X118.003 Y94.473 E0.01263
G1 X118.146 Y94.690 E0.00815
G1 X118.321 Y95.050 E0.01255
G1 X118.406 Y95.301 E0.00831
G1 X118.463 Y95.557 E0.00823
G1 X118.501 Y95.958 E0.01263
G1 X118.492 Y96.218 E0.00815
G1 X118.428 Y96.613 E0.01255
G1 X118.303 Y96.993 E0.01255
G1 X118.191 Y97.230 E0.00823
G1 X118.053 Y97.457 E0.00831
G1 X117.893 Y97.668 E0.00831
G1 X117.712 Y97.862 E0.00831
G1 X117.512 Y98.036 E0.00831
G1 X117.295 Y98.189 E0.00831
G1 X117.064 Y98.319 E0.00831
G1 X116.821 Y98.425 E0.00831
G1 X116.571 Y98.504 E0.00823
G1 X116.174 Y98.576 E0.01263
G1 X115.904 Y98.590 E0.00848
G1 X111.945 Y98.590 E0.12413
G1 X111.774 Y99.722 E0.03590
G1 X111.619 Y100.538 E0.02606
G1 X111.433 Y101.348 E0.02606
G1 X111.217 Y102.150 E0.02603
G1 X110.835 Y103.338 E0.03914
G1 X110.545 Y104.116 E0.02603
G1 X110.225 Y104.883 E0.02606
G1 X109.877 Y105.637 E0.02606
G1 X109.500 Y106.377 E0.02603
G1 X108.883 Y107.463 E0.03915
G1 X108.439 Y108.164 E0.02603
G1 X107.968 Y108.849 E0.02606
G1 X107.472 Y109.516 E0.02606
G1 X106.952 Y110.163 E0.02606
G1 X106.407 Y110.790 E0.02603
G1 X105.546 Y111.693 E0.03911
G1 X104.636 Y112.545 E0.03911
G1 X104.004 Y113.084 E0.02603
G1 X103.352 Y113.598 E0.02603
G1 X102.336 Y114.324 E0.03914
G1 X101.639 Y114.774 E0.02603
G1 X100.926 Y115.198 E0.02603
G1 X99.831 Y115.781 E0.03887
G1 X99.073 Y116.140 E0.02630
G1 X98.310 Y116.467 E0.02603
G1 X97.142 Y116.903 E0.03911
G1 X95.958 Y117.271 E0.03884
G1 X95.148 Y117.481 E0.02627
G1 X93.926 Y117.738 E0.03914
G1 X93.106 Y117.870 E0.02603
G1 X92.282 Y117.971 E0.02603
G1 X91.038 Y118.065 E0.03914
G1 X90.208 Y118.089 E0.02603
G1 X89.377 Y118.081 E0.02606
G1 X88.548 Y118.042 E0.02603
G1 X87.306 Y117.925 E0.03911
G1 X86.081 Y117.739 E0.03884
G1 X85.258 Y117.575 E0.02630
G1 X84.450 Y117.381 E0.02606
G1 X83.651 Y117.157 E0.02603
G1 X82.466 Y116.765 E0.03914
G1 X81.691 Y116.467 E0.02603
G1 X80.927 Y116.140 E0.02606
G1 X80.176 Y115.785 E0.02603
G1 X79.074 Y115.198 E0.03914
G1 X78.362 Y114.775 E0.02600
G1 X77.319 Y114.087 E0.03914
G1 X76.650 Y113.599 E0.02600
G1 X75.677 Y112.816 E0.03914
G1 X75.056 Y112.267 E0.02600
G1 X74.161 Y111.398 E0.03911
G1 X73.317 Y110.479 E0.03911
G1 X72.786 Y109.843 E0.02600
G1 X72.032 Y108.849 E0.03911
G1 X71.335 Y107.814 E0.03911
G1 X70.905 Y107.105 E0.02600
G1 X70.308 Y106.010 E0.03911
G1 X69.775 Y104.882 E0.03911
M73 P5 R14
G1 X69.456 Y104.117 E0.02600
G1 X69.030 Y102.943 E0.03915
G1 X68.784 Y102.151 E0.02600
G1 X68.471 Y100.944 E0.03911
G1 X68.226 Y99.721 E0.03911
G1 X68.055 Y98.590 E0.03587
G1 X63.956 Y98.586 E0.12854
G1 X63.692 Y98.559 E0.00832
G1 X63.435 Y98.505 E0.00823
G1 X63.056 Y98.375 E0.01255
G1 X62.705 Y98.189 E0.01246
G1 X62.384 Y97.950 E0.01255
G1 X62.197 Y97.769 E0.00815
G1 X61.947 Y97.456 E0.01255
G1 X61.750 Y97.112 E0.01246
G1 X61.606 Y96.738 E0.01255
G1 X61.545 Y96.486 E0.00815
G1 X61.500 Y96.085 E0.01263
G1 X61.504 Y95.823 E0.00823
G1 X61.536 Y95.560 E0.00831
G1 X61.594 Y95.301 E0.00831
G1 X61.679 Y95.050 E0.00831
G1 X61.789 Y94.808 E0.00831
G1 X61.923 Y94.579 E0.00831
G1 X62.079 Y94.365 E0.00831
G1 X62.257 Y94.168 E0.00831
G1 X62.454 Y93.991 E0.00831
G1 X62.668 Y93.834 E0.00831
G1 X62.897 Y93.700 E0.00831
G1 X63.138 Y93.590 E0.00831
G1 X63.389 Y93.506 E0.00831
G1 X63.648 Y93.448 E0.00831
G1 X63.911 Y93.416 E0.00831
G1 X64.176 Y93.411 E0.00831
G1 X64.441 Y93.434 E0.00831
G1 X64.701 Y93.484 E0.00831
G1 X64.955 Y93.559 E0.00831
G1 X65.200 Y93.661 E0.00831
