; generated by PrusaSlicer 2.3.0+win64 on 2021-08-13 at 16:18:17 UTC


;
;

;
;
; 

; external perimeters extrusion width = 0.45mm
; perimeters extrusion width = 0.45mm
; infill extrusion width = 0.45mm
; solid infill extrusion width = 0.45mm
; top infill extrusion width = 0.40mm
; first layer extrusion width = 0.42mm

M73 P0 R19
M201 X1250 Y1250 Z400 E5000 ; sets maximum accelerations, mm/sec^2
M203 X180 Y180 Z12 E80 ; sets maximum feedrates, mm/sec
M204 P1250 R1250 T1250 ; sets acceleration (P, T) and retract acceleration (R), mm/sec^2
M205 X8.00 Y8.00 Z2.00 E10.00 ; sets the jerk limits, mm/sec
M205 S0 T0 ; sets the minimum extruding and travel feed rate, mm/sec
M107
;TYPE:Custom
G90 ; use absolute coordinates
M83 ; extruder relative mode
M104 S170 ; set extruder temp for bed leveling
M140 S60 ; set bed temp
M109 R170 ; wait for bed leveling temp
M190 S60 ; wait for bed temp
G28 ; home all without mesh bed level
G29 ; mesh bed leveling 
M104 S215 ; set extruder temp
G92 E0.0
G1 Y-2.0 X179 F2400
G1 Z3 F720
M109 S215 ; wait for extruder temp

; intro line
G1 X170 F1000
G1 Z0.2 F720
G1 X110.0 E8.0 F900
M73 P0 R18
G1 X40.0 E10.0 F700
G92 E0.0

M221 S95 ; set flow
G21 ; set units to millimeters
G90 ; use absolute coordinates
M83 ; use relative distances for extrusion
M900 K0.2 ; Filament gcode LA 1.5
; ; Filament gcode LA 1.0
;LAYER_CHANGE
;Z:0.2
;HEIGHT:0.2
;BEFORE_LAYER_CHANGE
G92 E0.0
;0.2


M73 P1 R18
G1 E-3.20000 F4200.000
G1 Z0.200 F9000.000
;AFTER_LAYER_CHANGE
;0.2
G1 Z0.400
G1 X62.774 Y62.952
G1 Z0.200
G1 E3.20000 F2400.000
M204 S800
;TYPE:Skirt
;WIDTH:0.42
G1 F1200.000
G1 X64.406 Y61.403 E0.07054
G1 X65.723 Y60.277 E0.05434
G1 X67.088 Y59.213 E0.05425
G1 X68.932 Y57.923 E0.07054
G1 X71.909 Y56.155 E0.10857
G1 X73.438 Y55.381 E0.05374
G1 X75.495 Y54.469 E0.07054
G1 X78.757 Y53.307 E0.10857
G1 X80.926 Y52.711 E0.07054
G1 X82.615 Y52.340 E0.05422
G1 X84.324 Y52.045 E0.05437
G1 X86.558 Y51.778 E0.07054
G1 X90.005 Y51.623 E0.10817
G1 X91.731 Y51.662 E0.05414
G1 X93.974 Y51.829 E0.07054
G1 X97.383 Y52.340 E0.10806
G1 X99.073 Y52.711 E0.05426
G1 X101.242 Y53.307 E0.07054
G1 X104.504 Y54.469 E0.10857
G1 X106.561 Y55.381 E0.07054
G1 X108.107 Y56.163 E0.05434
G1 X109.614 Y57.014 E0.05426
G1 X111.513 Y58.220 E0.07054
G1 X114.290 Y60.289 E0.10857
G1 X115.990 Y61.763 E0.07054
G1 X117.230 Y62.957 E0.05398
G1 X119.552 Y65.516 E0.10833
G1 X120.936 Y67.290 E0.07054
G1 X121.927 Y68.706 E0.05422
G1 X122.857 Y70.171 E0.05437
G1 X123.962 Y72.130 E0.07054
G1 X125.431 Y75.256 E0.10829
G1 X126.057 Y76.861 E0.05402
G1 X126.765 Y78.997 E0.07054
G1 X127.606 Y82.347 E0.10829
G1 X127.911 Y84.042 E0.05402
G1 X128.196 Y86.282 E0.07078
G1 X128.377 Y89.999 E0.11668
G1 X128.196 Y93.717 E0.11673
G1 X127.991 Y95.428 E0.05402
G1 X127.606 Y97.652 E0.07078
G1 X126.765 Y101.003 E0.10833
G1 X126.057 Y103.139 E0.07054
G1 X125.432 Y104.743 E0.05398
G1 X123.962 Y107.870 E0.10833
G1 X122.857 Y109.829 E0.07054
G1 X121.928 Y111.293 E0.05434
G1 X120.936 Y112.710 E0.05426
G1 X119.552 Y114.484 E0.07054
G1 X117.231 Y117.042 E0.10829
M73 P2 R18
G1 X115.990 Y118.237 E0.05402
G1 X114.290 Y119.711 E0.07054
G1 X111.513 Y121.780 E0.10857
G1 X109.614 Y122.986 E0.07054
G1 X108.105 Y123.838 E0.05434
G1 X106.561 Y124.619 E0.05426
G1 X104.504 Y125.531 E0.07054
G1 X101.242 Y126.693 E0.10857
G1 X99.073 Y127.289 E0.07054
G1 X97.384 Y127.660 E0.05422
G1 X93.974 Y128.171 E0.10809
G1 X91.731 Y128.338 E0.07054
G1 X89.998 Y128.377 E0.05434
G1 X88.268 Y128.338 E0.05425
G1 X86.025 Y128.171 E0.07054
G1 X82.616 Y127.660 E0.10806
G1 X80.926 Y127.289 E0.05426
G1 X78.757 Y126.693 E0.07054
G1 X75.495 Y125.531 E0.10857
G1 X73.438 Y124.619 E0.07054
G1 X71.892 Y123.837 E0.05434
G1 X70.385 Y122.986 E0.05426
G1 X68.486 Y121.780 E0.07054
G1 X65.709 Y119.711 E0.10857
G1 X64.009 Y118.237 E0.07054
G1 X62.764 Y117.037 E0.05422
G1 X60.447 Y114.484 E0.10809
G1 X59.063 Y112.710 E0.07054
G1 X58.070 Y111.290 E0.05434
G1 X57.142 Y109.829 E0.05426
G1 X56.037 Y107.870 E0.07054
G1 X54.564 Y104.736 E0.10857
G1 X53.805 Y102.755 E0.06651
G1 X53.234 Y101.003 E0.05778
G1 X52.392 Y97.645 E0.10857
G1 X52.008 Y95.428 E0.07054
G1 X51.802 Y93.707 E0.05434
G1 X51.674 Y91.981 E0.05425
G1 X51.623 Y89.732 E0.07054
G1 X51.804 Y86.274 E0.10857
G1 X52.088 Y84.042 E0.07054
G1 X52.395 Y82.337 E0.05434
G1 X52.779 Y80.649 E0.05426
G1 X53.391 Y78.484 E0.07054
G1 X54.572 Y75.247 E0.10806
G1 X55.273 Y73.665 E0.05425
G1 X56.290 Y71.658 E0.07054
G1 X58.071 Y68.707 E0.10806
G1 X59.063 Y67.290 E0.05426
G1 X60.447 Y65.516 E0.07054
G1 X62.734 Y62.996 E0.10669
M204 S1250
; printing object SpeakerBezzle01.stl id:0 copy 0
G1 E-2.24000 F4200.000
;WIPE_START
G1 F7200.000
G1 X63.926 Y61.861 E-0.91200
;WIPE_END
G1 E-0.04800 F4200.000
G1 Z0.400 F9000.000
G1 X66.724 Y66.908
G1 Z0.200
G1 E3.20000 F2400.000
M204 S800
;TYPE:Perimeter
G1 F1200.000
G1 X67.843 Y65.832 E0.04868
G1 X69.013 Y64.810 E0.04868
G1 X70.229 Y63.844 E0.04868
G1 X71.489 Y62.938 E0.04868
G1 X72.791 Y62.092 E0.04868
G1 X74.130 Y61.309 E0.04861
G1 X75.045 Y60.822 E0.03251
G1 X75.741 Y60.477 E0.02437
G1 X76.444 Y60.146 E0.02437
G1 X77.395 Y59.733 E0.03251
G1 X78.840 Y59.170 E0.04861
G1 X80.312 Y58.677 E0.04868
G1 X81.806 Y58.253 E0.04868
G1 X83.318 Y57.901 E0.04868
G1 X84.845 Y57.620 E0.04868
G1 X86.384 Y57.413 E0.04868
G1 X87.928 Y57.278 E0.04861
G1 X88.964 Y57.229 E0.03253
G1 X89.992 Y57.213 E0.03221
G1 X91.552 Y57.250 E0.04892
G1 X93.101 Y57.360 E0.04869
G1 X94.642 Y57.543 E0.04868
G1 X96.174 Y57.799 E0.04868
G1 X97.689 Y58.127 E0.04861
G1 X98.693 Y58.386 E0.03251
G1 X99.439 Y58.602 E0.02437
G1 X100.181 Y58.834 E0.02437
G1 X101.161 Y59.171 E0.03251
G1 X102.604 Y59.733 E0.04854
G1 X103.555 Y60.146 E0.03251
G1 X104.258 Y60.477 E0.02437
G1 X104.954 Y60.822 E0.02437
G1 X105.869 Y61.309 E0.03251
G1 X107.208 Y62.092 E0.04861
G1 X108.510 Y62.938 E0.04868
G1 X109.770 Y63.844 E0.04868
G1 X110.986 Y64.810 E0.04868
G1 X112.156 Y65.832 E0.04868
G1 X113.275 Y66.908 E0.04868
G1 X114.342 Y68.035 E0.04868
G1 X115.355 Y69.212 E0.04868
G1 X116.310 Y70.436 E0.04868
G1 X117.206 Y71.702 E0.04861
G1 X117.771 Y72.572 E0.03253
G1 X118.309 Y73.459 E0.03253
G1 X119.059 Y74.816 E0.04861
G1 X119.745 Y76.209 E0.04868
G1 X120.365 Y77.632 E0.04868
G1 X120.916 Y79.084 E0.04868
G1 X121.398 Y80.560 E0.04868
G1 X121.810 Y82.057 E0.04868
G1 X122.150 Y83.572 E0.04868
G1 X122.419 Y85.101 E0.04868
G1 X122.614 Y86.641 E0.04868
G1 X122.737 Y88.190 E0.04872
G1 X122.787 Y89.996 E0.05663
G1 X122.737 Y91.810 E0.05689
G1 X122.614 Y93.359 E0.04872
G1 X122.419 Y94.899 E0.04868
G1 X122.150 Y96.428 E0.04868
G1 X121.810 Y97.943 E0.04868
G1 X121.398 Y99.440 E0.04868
G1 X120.916 Y100.916 E0.04868
G1 X120.365 Y102.368 E0.04868
G1 X119.746 Y103.789 E0.04861
G1 X119.295 Y104.723 E0.03253
G1 X118.819 Y105.634 E0.03221
M73 P3 R18
G1 X118.043 Y106.988 E0.04892
G1 X117.207 Y108.296 E0.04869
G1 X116.310 Y109.564 E0.04868
G1 X115.355 Y110.788 E0.04868
G1 X114.342 Y111.965 E0.04868
G1 X113.275 Y113.092 E0.04868
G1 X112.156 Y114.168 E0.04868
G1 X110.986 Y115.190 E0.04868
G1 X109.770 Y116.156 E0.04868
G1 X108.510 Y117.062 E0.04868
G1 X107.208 Y117.908 E0.04868
G1 X105.869 Y118.691 E0.04861
G1 X104.954 Y119.178 E0.03251
G1 X104.258 Y119.523 E0.02437
G1 X103.555 Y119.854 E0.02437
G1 X102.604 Y120.267 E0.03251
G1 X101.159 Y120.830 E0.04861
G1 X99.687 Y121.323 E0.04868
G1 X98.193 Y121.747 E0.04868
G1 X96.681 Y122.099 E0.04868
G1 X95.154 Y122.380 E0.04868
G1 X93.618 Y122.587 E0.04861
G1 X92.585 Y122.685 E0.03253
G1 X91.549 Y122.751 E0.03253
G1 X89.999 Y122.787 E0.04861
G1 X88.447 Y122.750 E0.04868
G1 X86.898 Y122.640 E0.04868
G1 X85.357 Y122.457 E0.04868
G1 X83.825 Y122.201 E0.04868
G1 X82.308 Y121.872 E0.04868
G1 X80.807 Y121.472 E0.04869
G1 X79.330 Y121.003 E0.04861
G1 X78.355 Y120.650 E0.03251
G1 X77.632 Y120.364 E0.02437
G1 X76.916 Y120.063 E0.02437
G1 X75.972 Y119.635 E0.03251
G1 X74.587 Y118.939 E0.04861
G1 X73.234 Y118.176 E0.04868
G1 X71.919 Y117.351 E0.04868
G1 X70.644 Y116.464 E0.04868
G1 X69.413 Y115.518 E0.04868
G1 X68.228 Y114.515 E0.04868
G1 X67.092 Y113.457 E0.04868
G1 X66.007 Y112.346 E0.04868
G1 X64.976 Y111.185 E0.04868
G1 X64.001 Y109.977 E0.04868
G1 X63.086 Y108.725 E0.04861
G1 X62.507 Y107.865 E0.03251
G1 X62.092 Y107.208 E0.02437
G1 X61.691 Y106.542 E0.02437
G1 X61.182 Y105.639 E0.03251
G1 X60.475 Y104.259 E0.04861
G1 X59.833 Y102.845 E0.04868
G1 X59.259 Y101.403 E0.04868
G1 X58.754 Y99.937 E0.04861
G1 X58.456 Y98.943 E0.03253
G1 X58.191 Y97.951 E0.03220
G1 X57.849 Y96.428 E0.04894
G1 X57.580 Y94.899 E0.04869
G1 X57.385 Y93.359 E0.04868
G1 X57.262 Y91.811 E0.04868
G1 X57.213 Y90.259 E0.04868
G1 X57.238 Y88.706 E0.04868
G1 X57.336 Y87.159 E0.04861
G1 X57.442 Y86.128 E0.03251
G1 X57.544 Y85.357 E0.02437
G1 X57.662 Y84.589 E0.02437
G1 X57.849 Y83.570 E0.03251
G1 X58.189 Y82.057 E0.04861
G1 X58.601 Y80.560 E0.04868
G1 X59.083 Y79.084 E0.04868
G1 X59.634 Y77.632 E0.04868
G1 X60.254 Y76.209 E0.04868
G1 X60.940 Y74.816 E0.04868
G1 X61.692 Y73.457 E0.04868
G1 X62.506 Y72.136 E0.04868
G1 X63.382 Y70.856 E0.04861
G1 X64.001 Y70.023 E0.03253
G1 X64.640 Y69.219 E0.03221
G1 X65.657 Y68.035 E0.04892
G1 X66.683 Y66.951 E0.04680
M204 S1250
G1 X66.957 Y67.210 F9000.000
M204 S800
;TYPE:External perimeter
G1 F1200.000
G1 X68.098 Y66.110 E0.04972
G1 X69.254 Y65.100 E0.04812
G1 X70.456 Y64.145 E0.04812
G1 X71.702 Y63.249 E0.04812
G1 X72.989 Y62.413 E0.04812
G1 X74.313 Y61.639 E0.04810
G1 X75.217 Y61.158 E0.03210
G1 X75.905 Y60.816 E0.02407
G1 X76.600 Y60.490 E0.02407
G1 X77.538 Y60.081 E0.03210
G1 X78.968 Y59.525 E0.04810
G1 X80.423 Y59.037 E0.04812
G1 X81.900 Y58.618 E0.04812
G1 X83.395 Y58.270 E0.04812
G1 X84.904 Y57.993 E0.04812
G1 X86.425 Y57.788 E0.04812
G1 X87.953 Y57.655 E0.04810
G1 X88.976 Y57.606 E0.03211
G1 X89.990 Y57.590 E0.03180
G1 X91.534 Y57.626 E0.04841
G1 X93.065 Y57.735 E0.04812
G1 X94.589 Y57.917 E0.04812
G1 X96.103 Y58.170 E0.04812
G1 X97.602 Y58.494 E0.04809
G1 X98.593 Y58.750 E0.03210
G1 X99.331 Y58.963 E0.02407
G1 X100.064 Y59.192 E0.02407
G1 X101.032 Y59.525 E0.03210
G1 X102.461 Y60.081 E0.04807
G1 X103.399 Y60.490 E0.03210
G1 X104.094 Y60.816 E0.02407
G1 X104.782 Y61.158 E0.02407
G1 X105.686 Y61.639 E0.03210
G1 X107.010 Y62.413 E0.04810
G1 X108.297 Y63.249 E0.04812
G1 X109.543 Y64.145 E0.04812
G1 X110.745 Y65.100 E0.04812
G1 X111.901 Y66.110 E0.04812
G1 X113.007 Y67.173 E0.04812
G1 X114.062 Y68.288 E0.04812
G1 X115.063 Y69.452 E0.04812
G1 X116.008 Y70.661 E0.04812
G1 X116.894 Y71.914 E0.04810
G1 X117.452 Y72.772 E0.03211
G1 X117.982 Y73.648 E0.03211
G1 X118.725 Y74.991 E0.04810
G1 X119.403 Y76.367 E0.04812
G1 X120.015 Y77.775 E0.04812
G1 X120.561 Y79.209 E0.04812
G1 X121.037 Y80.668 E0.04812
G1 X121.444 Y82.148 E0.04812
G1 X121.781 Y83.646 E0.04812
G1 X122.046 Y85.157 E0.04812
G1 X122.239 Y86.680 E0.04812
G1 X122.360 Y88.211 E0.04814
G1 X122.410 Y89.996 E0.05600
G1 X122.360 Y91.789 E0.05626
G1 X122.239 Y93.320 E0.04814
G1 X122.046 Y94.843 E0.04812
G1 X121.781 Y96.354 E0.04812
G1 X121.444 Y97.852 E0.04812
G1 X121.037 Y99.332 E0.04812
G1 X120.561 Y100.791 E0.04812
G1 X120.015 Y102.225 E0.04812
G1 X119.403 Y103.632 E0.04810
G1 X118.958 Y104.554 E0.03211
G1 X118.488 Y105.453 E0.03180
G1 X117.720 Y106.792 E0.04841
G1 X116.894 Y108.086 E0.04812
G1 X116.008 Y109.339 E0.04812
G1 X115.063 Y110.548 E0.04812
G1 X114.062 Y111.712 E0.04812
G1 X113.007 Y112.827 E0.04812
G1 X111.901 Y113.890 E0.04812
G1 X110.745 Y114.900 E0.04812
G1 X109.543 Y115.855 E0.04812
G1 X108.297 Y116.751 E0.04812
G1 X107.010 Y117.587 E0.04812
G1 X105.686 Y118.361 E0.04810
M73 P4 R18
G1 X104.782 Y118.842 E0.03210
G1 X104.094 Y119.184 E0.02407
G1 X103.399 Y119.510 E0.02407
G1 X102.461 Y119.919 E0.03210
G1 X101.031 Y120.475 E0.04810
G1 X99.576 Y120.963 E0.04812
G1 X98.099 Y121.382 E0.04812
G1 X96.604 Y121.730 E0.04812
G1 X95.095 Y122.007 E0.04812
G1 X93.575 Y122.212 E0.04810
G1 X92.555 Y122.309 E0.03211
G1 X91.533 Y122.374 E0.03211
G1 X89.999 Y122.410 E0.04810
G1 X88.465 Y122.374 E0.04812
G1 X86.934 Y122.265 E0.04812
G1 X85.410 Y122.083 E0.04812
G1 X83.896 Y121.830 E0.04812
G1 X82.396 Y121.506 E0.04812
G1 X80.913 Y121.110 E0.04813
G1 X79.451 Y120.645 E0.04810
G1 X78.489 Y120.297 E0.03210
G1 X77.775 Y120.015 E0.02407
G1 X77.067 Y119.718 E0.02407
G1 X76.134 Y119.295 E0.03210
G1 X74.764 Y118.606 E0.04810
G1 X73.427 Y117.852 E0.04812
G1 X72.127 Y117.036 E0.04812
G1 X70.867 Y116.160 E0.04812
G1 X69.650 Y115.225 E0.04812
G1 X68.478 Y114.233 E0.04812
G1 X67.355 Y113.187 E0.04812
G1 X66.283 Y112.089 E0.04812
G1 X65.264 Y110.941 E0.04812
G1 X64.300 Y109.747 E0.04812
G1 X63.394 Y108.509 E0.04810
G1 X62.823 Y107.659 E0.03210
G1 X62.413 Y107.010 E0.02407
G1 X62.017 Y106.352 E0.02407
G1 X61.515 Y105.460 E0.03210
G1 X60.815 Y104.095 E0.04810
G1 X60.180 Y102.698 E0.04812
G1 X59.613 Y101.272 E0.04812
G1 X59.113 Y99.821 E0.04810
G1 X58.818 Y98.840 E0.03211
G1 X58.557 Y97.861 E0.03178
G1 X58.218 Y96.354 E0.04842
G1 X57.953 Y94.843 E0.04812
G1 X57.760 Y93.320 E0.04812
G1 X57.639 Y91.790 E0.04812
G1 X57.590 Y90.256 E0.04812
G1 X57.615 Y88.721 E0.04812
G1 X57.711 Y87.190 E0.04810
G1 X57.816 Y86.172 E0.03210
G1 X57.917 Y85.411 E0.02407
G1 X58.034 Y84.652 E0.02407
G1 X58.219 Y83.645 E0.03210
G1 X58.555 Y82.148 E0.04810
G1 X58.962 Y80.668 E0.04812
G1 X59.438 Y79.209 E0.04812
G1 X59.984 Y77.775 E0.04812
G1 X60.596 Y76.367 E0.04812
G1 X61.274 Y74.991 E0.04812
G1 X62.017 Y73.647 E0.04812
G1 X62.823 Y72.341 E0.04812
G1 X63.689 Y71.075 E0.04810
G1 X64.300 Y70.253 E0.03211
G1 X64.930 Y69.459 E0.03180
G1 X65.937 Y68.288 E0.04841
G1 X66.916 Y67.254 E0.04464
M204 S1250
G1 X66.851 Y66.825 F9000.000
G1 E-2.24000 F4200.000
;WIPE_START
G1 F7200.000
G1 X68.098 Y66.110 E-0.91200
;WIPE_END
G1 E-0.04800 F4200.000
G1 Z0.400 F9000.000
G1 X64.916 Y65.299
G1 Z0.200
G1 E3.20000 F2400.000
M204 S800
;TYPE:Perimeter
G1 F1200.000
G1 X65.380 Y64.824 E0.02080
G1 X66.529 Y63.750 E0.04931
G1 X67.726 Y62.727 E0.04938
G1 X68.546 Y62.077 E0.03281
G1 X69.385 Y61.452 E0.03281
G1 X70.682 Y60.559 E0.04938
G1 X72.016 Y59.726 E0.04931
G1 X73.386 Y58.953 E0.04931
G1 X74.791 Y58.241 E0.04938
G1 X75.741 Y57.803 E0.03281
G1 X76.704 Y57.394 E0.03281
G1 X78.175 Y56.832 E0.04938
G1 X79.668 Y56.337 E0.04931
G1 X81.184 Y55.909 E0.04938
G1 X82.200 Y55.662 E0.03281
G1 X83.226 Y55.445 E0.03288
G1 X84.258 Y55.258 E0.03288
G1 X85.293 Y55.103 E0.03281
G1 X86.858 Y54.928 E0.04938
G1 X88.429 Y54.822 E0.04938
G1 X89.475 Y54.791 E0.03281
G1 X90.481 Y54.791 E0.03152
G1 X92.096 Y54.850 E0.05067
G1 X93.663 Y54.978 E0.04930
G1 X95.225 Y55.177 E0.04938
G1 X96.258 Y55.348 E0.03281
G1 X97.284 Y55.549 E0.03281
G1 X98.817 Y55.909 E0.04938
G1 X100.331 Y56.337 E0.04931
G1 X101.826 Y56.833 E0.04938
G1 X102.806 Y57.199 E0.03281
G1 X103.775 Y57.594 E0.03281
G1 X105.212 Y58.243 E0.04945
G1 X106.149 Y58.709 E0.03281
G1 X107.072 Y59.203 E0.03281
G1 X108.432 Y59.997 E0.04938
G1 X109.755 Y60.851 E0.04938
G1 X110.612 Y61.451 E0.03281
G1 X111.419 Y62.051 E0.03152
G1 X112.679 Y63.063 E0.05067
G1 X113.859 Y64.102 E0.04930
G1 X114.993 Y65.195 E0.04938
G1 X115.719 Y65.949 E0.03281
G1 X116.422 Y66.724 E0.03281
G1 X117.436 Y67.928 E0.04938
G1 X118.394 Y69.175 E0.04931
G1 X119.296 Y70.464 E0.04931
G1 X120.140 Y71.794 E0.04938
G1 X120.668 Y72.697 E0.03281
G1 X121.169 Y73.616 E0.03281
G1 X121.870 Y75.026 E0.04938
G1 X122.507 Y76.464 E0.04931
G1 X123.079 Y77.929 E0.04931
G1 X123.585 Y79.420 E0.04938
G1 X123.885 Y80.423 E0.03281
G1 X124.155 Y81.434 E0.03281
G1 X124.503 Y82.970 E0.04938
G1 X124.783 Y84.520 E0.04938
G1 X124.931 Y85.555 E0.03281
G1 X125.047 Y86.595 E0.03281
G1 X125.165 Y88.168 E0.04945
G1 X125.204 Y89.214 E0.03281
G1 X125.211 Y90.260 E0.03280
G1 X125.164 Y91.836 E0.04946
G1 X125.094 Y92.880 E0.03281
G1 X124.993 Y93.922 E0.03281
G1 X124.783 Y95.483 E0.04938
G1 X124.503 Y97.030 E0.04931
G1 X124.155 Y98.566 E0.04938
G1 X123.885 Y99.577 E0.03281
G1 X123.585 Y100.580 E0.03281
G1 X123.079 Y102.071 E0.04938
G1 X122.507 Y103.536 E0.04931
G1 X121.870 Y104.974 E0.04931
G1 X121.169 Y106.384 E0.04938
G1 X120.668 Y107.303 E0.03281
G1 X120.140 Y108.206 E0.03281
G1 X119.295 Y109.538 E0.04945
G1 X118.701 Y110.400 E0.03281
