; generated by PrusaSlicer 2.3.0+win64 on 2021-08-13 at 17:35:11 UTC


;
;

;
;
; 

; external perimeters extrusion width = 0.45mm
; perimeters extrusion width = 0.45mm
; infill extrusion width = 0.45mm
; solid infill extrusion width = 0.45mm
; top infill extrusion width = 0.40mm
; first layer extrusion width = 0.42mm

M73 P0 R19
M201 X1250 Y1250 Z400 E5000 ; sets maximum accelerations, mm/sec^2
M203 X180 Y180 Z12 E80 ; sets maximum feedrates, mm/sec
M204 P1250 R1250 T1250 ; sets acceleration (P, T) and retract acceleration (R), mm/sec^2
M205 X8.00 Y8.00 Z2.00 E10.00 ; sets the jerk limits, mm/sec
M205 S0 T0 ; sets the minimum extruding and travel feed rate, mm/sec
M107
;TYPE:Custom
G90 ; use absolute coordinates
M83 ; extruder relative mode
M104 S170 ; set extruder temp for bed leveling
M140 S60 ; set bed temp
M109 R170 ; wait for bed leveling temp
M190 S60 ; wait for bed temp
G28 ; home all without mesh bed level
G29 ; mesh bed leveling 
M104 S215 ; set extruder temp
G92 E0.0
G1 Y-2.0 X179 F2400
M73 P0 R18
G1 Z3 F720
M109 S215 ; wait for extruder temp

; intro line
G1 X170 F1000
G1 Z0.2 F720
G1 X110.0 E8.0 F900
G1 X40.0 E10.0 F700
G92 E0.0

M221 S95 ; set flow
G21 ; set units to millimeters
G90 ; use absolute coordinates
M83 ; use relative distances for extrusion
M900 K0.2 ; Filament gcode LA 1.5
; ; Filament gcode LA 1.0
;LAYER_CHANGE
;Z:0.2
;HEIGHT:0.2
;BEFORE_LAYER_CHANGE
G92 E0.0
;0.2


M73 P1 R18
G1 E-3.20000 F4200.000
G1 Z0.200 F9000.000
;AFTER_LAYER_CHANGE
;0.2
G1 Z0.400
G1 X62.774 Y62.952
G1 Z0.200
G1 E3.20000 F2400.000
M204 S800
;TYPE:Skirt
;WIDTH:0.42
G1 F1200.000
G1 X64.406 Y61.403 E0.07054
G1 X65.723 Y60.277 E0.05434
G1 X67.088 Y59.213 E0.05425
G1 X68.932 Y57.923 E0.07054
G1 X71.909 Y56.155 E0.10857
G1 X73.438 Y55.381 E0.05374
G1 X75.495 Y54.469 E0.07054
G1 X78.757 Y53.307 E0.10857
G1 X80.926 Y52.711 E0.07054
G1 X82.615 Y52.340 E0.05422
G1 X84.315 Y52.046 E0.05408
G1 X86.549 Y51.779 E0.07054
G1 X90.004 Y51.623 E0.10845
G1 X91.731 Y51.662 E0.05415
G1 X93.974 Y51.829 E0.07054
G1 X97.383 Y52.340 E0.10805
G1 X99.073 Y52.711 E0.05426
G1 X101.242 Y53.307 E0.07054
G1 X104.504 Y54.469 E0.10857
G1 X106.561 Y55.381 E0.07054
G1 X108.107 Y56.163 E0.05434
G1 X109.614 Y57.014 E0.05426
G1 X111.513 Y58.220 E0.07054
G1 X114.290 Y60.289 E0.10857
G1 X115.990 Y61.763 E0.07054
G1 X117.230 Y62.957 E0.05398
G1 X119.552 Y65.516 E0.10833
G1 X120.936 Y67.290 E0.07054
G1 X121.927 Y68.706 E0.05422
G1 X122.857 Y70.171 E0.05437
G1 X123.962 Y72.130 E0.07054
G1 X125.431 Y75.256 E0.10829
G1 X126.057 Y76.861 E0.05402
G1 X126.765 Y78.997 E0.07054
G1 X127.606 Y82.346 E0.10828
G1 X127.911 Y84.042 E0.05403
G1 X128.195 Y86.273 E0.07050
G1 X128.377 Y89.994 E0.11683
G1 X128.196 Y93.717 E0.11686
G1 X127.918 Y95.914 E0.06942
G1 X127.606 Y97.652 E0.05538
G1 X126.765 Y101.003 E0.10833
G1 X126.057 Y103.139 E0.07054
G1 X125.432 Y104.743 E0.05398
G1 X123.962 Y107.870 E0.10833
G1 X122.857 Y109.829 E0.07054
G1 X121.928 Y111.293 E0.05434
G1 X120.936 Y112.710 E0.05426
G1 X119.552 Y114.484 E0.07054
G1 X117.231 Y117.042 E0.10829
M73 P2 R18
G1 X115.990 Y118.237 E0.05402
G1 X114.290 Y119.711 E0.07054
G1 X111.513 Y121.780 E0.10857
G1 X109.614 Y122.986 E0.07054
G1 X108.105 Y123.838 E0.05434
G1 X106.561 Y124.619 E0.05426
G1 X104.504 Y125.531 E0.07054
G1 X101.242 Y126.693 E0.10857
G1 X99.073 Y127.289 E0.07054
G1 X97.384 Y127.660 E0.05422
G1 X95.675 Y127.955 E0.05437
G1 X93.450 Y128.221 E0.07025
G1 X89.999 Y128.377 E0.10834
G1 X88.268 Y128.338 E0.05427
G1 X86.025 Y128.171 E0.07054
G1 X82.616 Y127.660 E0.10805
G1 X80.926 Y127.289 E0.05426
G1 X78.757 Y126.693 E0.07054
G1 X75.495 Y125.531 E0.10857
G1 X73.438 Y124.619 E0.07054
G1 X71.892 Y123.837 E0.05434
G1 X70.385 Y122.986 E0.05426
G1 X68.486 Y121.780 E0.07054
G1 X65.709 Y119.711 E0.10857
G1 X64.009 Y118.237 E0.07054
G1 X62.764 Y117.037 E0.05422
G1 X60.447 Y114.484 E0.10809
G1 X59.063 Y112.710 E0.07054
G1 X58.070 Y111.290 E0.05434
G1 X57.142 Y109.829 E0.05426
G1 X56.037 Y107.870 E0.07054
G1 X54.564 Y104.736 E0.10857
G1 X53.805 Y102.755 E0.06651
G1 X53.234 Y101.003 E0.05778
G1 X52.392 Y97.645 E0.10857
G1 X52.008 Y95.428 E0.07054
G1 X51.803 Y93.716 E0.05406
G1 X51.674 Y91.981 E0.05453
G1 X51.623 Y89.732 E0.07054
G1 X51.804 Y86.274 E0.10857
G1 X52.088 Y84.042 E0.07054
G1 X52.395 Y82.340 E0.05422
G1 X53.234 Y78.997 E0.10809
G1 X53.942 Y76.861 E0.07054
G1 X54.572 Y75.247 E0.05434
G1 X55.273 Y73.665 E0.05425
G1 X56.290 Y71.658 E0.07054
G1 X58.071 Y68.707 E0.10806
G1 X59.063 Y67.290 E0.05426
G1 X60.447 Y65.516 E0.07054
G1 X62.734 Y62.996 E0.10669
M204 S1250
; printing object SpeakerBezzle03.stl id:0 copy 0
G1 E-2.24000 F4200.000
;WIPE_START
G1 F7200.000
G1 X63.926 Y61.861 E-0.91200
;WIPE_END
G1 E-0.04800 F4200.000
G1 Z0.400 F9000.000
G1 X65.923 Y66.295
G1 Z0.200
G1 E3.20000 F2400.000
M204 S800
;TYPE:Perimeter
G1 F1200.000
G1 X67.055 Y65.198 E0.04942
G1 X68.237 Y64.155 E0.04942
G1 X69.464 Y63.170 E0.04935
G1 X70.310 Y62.543 E0.03302
G1 X71.167 Y61.948 E0.03270
G1 X72.503 Y61.096 E0.04967
G1 X73.870 Y60.311 E0.04942
G1 X75.272 Y59.591 E0.04942
G1 X76.706 Y58.938 E0.04942
G1 X78.170 Y58.351 E0.04942
G1 X79.659 Y57.834 E0.04942
G1 X81.168 Y57.387 E0.04935
G1 X82.189 Y57.128 E0.03302
G1 X83.217 Y56.901 E0.03302
G1 X84.766 Y56.621 E0.04935
G1 X86.328 Y56.413 E0.04942
G1 X87.897 Y56.278 E0.04935
G1 X88.949 Y56.229 E0.03302
G1 X89.992 Y56.213 E0.03270
G1 X91.575 Y56.250 E0.04967
G1 X93.148 Y56.360 E0.04942
G1 X94.713 Y56.543 E0.04942
G1 X96.269 Y56.799 E0.04942
G1 X97.810 Y57.128 E0.04942
G1 X99.333 Y57.527 E0.04935
G1 X100.340 Y57.834 E0.03302
G1 X101.338 Y58.172 E0.03302
G1 X102.808 Y58.735 E0.04935
G1 X104.252 Y59.366 E0.04942
G1 X105.665 Y60.064 E0.04942
G1 X107.043 Y60.826 E0.04935
G1 X107.944 Y61.372 E0.03302
G1 X108.819 Y61.939 E0.03270
G1 X110.113 Y62.852 E0.04967
G1 X111.358 Y63.820 E0.04943
G1 X112.555 Y64.844 E0.04942
G1 X113.704 Y65.924 E0.04942
G1 X114.801 Y67.056 E0.04942
G1 X115.843 Y68.236 E0.04935
G1 X116.509 Y69.052 E0.03302
G1 X117.143 Y69.880 E0.03270
G1 X118.056 Y71.174 E0.04967
G1 X118.904 Y72.503 E0.04942
G1 X119.688 Y73.870 E0.04942
G1 X120.407 Y75.271 E0.04935
G1 X120.851 Y76.225 E0.03300
G1 X121.162 Y76.945 E0.02460
G1 X121.460 Y77.680 E0.02487
G1 X121.829 Y78.666 E0.03300
G1 X122.322 Y80.161 E0.04935
G1 X122.746 Y81.679 E0.04942
G1 X123.099 Y83.215 E0.04942
G1 X123.379 Y84.764 E0.04935
G1 X123.525 Y85.807 E0.03302
G1 X123.639 Y86.844 E0.03270
G1 X123.750 Y88.424 E0.04967
G1 X123.787 Y90.000 E0.04942
G1 X123.750 Y91.576 E0.04942
G1 X123.640 Y93.148 E0.04942
G1 X123.456 Y94.714 E0.04942
G1 X123.200 Y96.269 E0.04942
G1 X122.872 Y97.811 E0.04942
G1 X122.472 Y99.333 E0.04935
G1 X122.165 Y100.341 E0.03302
M73 P3 R18
G1 X121.827 Y101.338 E0.03302
G1 X121.265 Y102.808 E0.04935
G1 X120.633 Y104.253 E0.04942
G1 X119.935 Y105.666 E0.04942
G1 X119.173 Y107.043 E0.04935
G1 X118.628 Y107.944 E0.03302
G1 X118.055 Y108.828 E0.03302
G1 X117.149 Y110.112 E0.04928
G1 X116.509 Y110.948 E0.03302
G1 X115.849 Y111.757 E0.03270
G1 X114.801 Y112.944 E0.04967
G1 X113.704 Y114.076 E0.04942
G1 X112.555 Y115.156 E0.04942
G1 X111.358 Y116.180 E0.04942
G1 X110.113 Y117.148 E0.04942
G1 X108.827 Y118.055 E0.04935
G1 X107.944 Y118.628 E0.03302
G1 X107.043 Y119.174 E0.03302
G1 X105.665 Y119.936 E0.04935
G1 X104.252 Y120.634 E0.04942
G1 X102.808 Y121.265 E0.04942
G1 X101.338 Y121.828 E0.04935
G1 X100.340 Y122.166 E0.03302
G1 X99.333 Y122.473 E0.03302
G1 X97.810 Y122.872 E0.04935
G1 X96.269 Y123.201 E0.04942
G1 X94.713 Y123.457 E0.04942
G1 X93.148 Y123.640 E0.04942
G1 X91.575 Y123.750 E0.04942
G1 X89.999 Y123.787 E0.04942
G1 X88.424 Y123.750 E0.04942
G1 X86.851 Y123.640 E0.04942
G1 X85.286 Y123.457 E0.04942
G1 X83.730 Y123.201 E0.04942
G1 X82.189 Y122.872 E0.04942
G1 X80.666 Y122.473 E0.04935
G1 X79.659 Y122.166 E0.03302
G1 X78.661 Y121.828 E0.03302
G1 X77.191 Y121.265 E0.04935
G1 X75.747 Y120.634 E0.04942
G1 X74.334 Y119.936 E0.04942
G1 X72.956 Y119.174 E0.04935
G1 X72.055 Y118.628 E0.03302
G1 X71.172 Y118.055 E0.03302
G1 X69.888 Y117.149 E0.04928
G1 X69.051 Y116.509 E0.03302
G1 X68.243 Y115.850 E0.03270
G1 X67.055 Y114.802 E0.04967
G1 X65.923 Y113.705 E0.04942
G1 X64.844 Y112.556 E0.04942
G1 X63.819 Y111.358 E0.04942
G1 X62.852 Y110.114 E0.04942
G1 X61.944 Y108.828 E0.04935
G1 X61.371 Y107.944 E0.03302
G1 X60.826 Y107.043 E0.03302
G1 X60.064 Y105.666 E0.04935
G1 X59.366 Y104.253 E0.04942
G1 X58.734 Y102.808 E0.04942
G1 X58.171 Y101.336 E0.04942
G1 X57.677 Y99.839 E0.04942
G1 X57.252 Y98.319 E0.04950
G1 X57.010 Y97.299 E0.03287
G1 X56.801 Y96.277 E0.03270
G1 X56.543 Y94.714 E0.04967
G1 X56.359 Y93.148 E0.04942
G1 X56.249 Y91.576 E0.04942
G1 X56.212 Y90.000 E0.04942
G1 X56.249 Y88.424 E0.04942
G1 X56.359 Y86.852 E0.04942
G1 X56.543 Y85.286 E0.04942
G1 X56.799 Y83.731 E0.04942
G1 X57.127 Y82.189 E0.04942
G1 X57.527 Y80.667 E0.04935
G1 X57.834 Y79.659 E0.03302
G1 X58.172 Y78.662 E0.03302
G1 X58.734 Y77.192 E0.04935
G1 X59.366 Y75.747 E0.04942
G1 X60.064 Y74.334 E0.04942
G1 X60.826 Y72.957 E0.04935
G1 X61.371 Y72.056 E0.03302
G1 X61.939 Y71.181 E0.03270
G1 X62.852 Y69.886 E0.04967
G1 X63.819 Y68.642 E0.04943
G1 X64.844 Y67.444 E0.04942
G1 X65.882 Y66.339 E0.04754
M204 S1250
G1 X66.157 Y66.597 F9000.000
M204 S800
;TYPE:External perimeter
G1 F1200.000
G1 X67.311 Y65.475 E0.05048
G1 X68.480 Y64.444 E0.04887
G1 X69.694 Y63.468 E0.04885
G1 X70.530 Y62.849 E0.03261
G1 X71.376 Y62.262 E0.03229
G1 X72.698 Y61.419 E0.04916
G1 X74.050 Y60.643 E0.04887
G1 X75.437 Y59.931 E0.04887
G1 X76.855 Y59.284 E0.04887
G1 X78.302 Y58.705 E0.04887
G1 X79.774 Y58.193 E0.04887
G1 X81.268 Y57.751 E0.04885
G1 X82.276 Y57.495 E0.03261
G1 X83.291 Y57.270 E0.03261
G1 X84.824 Y56.993 E0.04885
G1 X86.369 Y56.788 E0.04887
G1 X87.922 Y56.655 E0.04885
G1 X88.960 Y56.606 E0.03261
G1 X89.990 Y56.590 E0.03229
G1 X91.558 Y56.626 E0.04916
G1 X93.113 Y56.735 E0.04887
G1 X94.661 Y56.917 E0.04887
G1 X96.199 Y57.170 E0.04887
G1 X97.723 Y57.495 E0.04887
G1 X99.230 Y57.890 E0.04885
G1 X100.225 Y58.193 E0.03261
G1 X101.210 Y58.527 E0.03261
G1 X102.665 Y59.084 E0.04885
G1 X104.093 Y59.708 E0.04887
G1 X105.491 Y60.398 E0.04887
G1 X106.854 Y61.153 E0.04885
G1 X107.743 Y61.691 E0.03261
G1 X108.607 Y62.252 E0.03229
G1 X109.889 Y63.155 E0.04916
G1 X111.119 Y64.112 E0.04887
G1 X112.304 Y65.125 E0.04887
G1 X113.440 Y66.193 E0.04887
G1 X114.524 Y67.312 E0.04887
G1 X115.555 Y68.480 E0.04885
G1 X116.213 Y69.285 E0.03261
G1 X116.839 Y70.103 E0.03229
G1 X117.743 Y71.384 E0.04916
G1 X118.581 Y72.699 E0.04887
G1 X119.357 Y74.050 E0.04887
G1 X120.068 Y75.436 E0.04885
G1 X120.507 Y76.379 E0.03260
G1 X120.814 Y77.091 E0.02431
G1 X121.109 Y77.817 E0.02458
G1 X121.473 Y78.791 E0.03260
G1 X121.961 Y80.270 E0.04885
G1 X122.380 Y81.772 E0.04887
G1 X122.729 Y83.291 E0.04887
G1 X123.006 Y84.824 E0.04885
G1 X123.151 Y85.854 E0.03261
G1 X123.263 Y86.878 E0.03229
G1 X123.373 Y88.442 E0.04916
G1 X123.410 Y90.000 E0.04887
G1 X123.373 Y91.558 E0.04887
G1 X123.264 Y93.113 E0.04887
G1 X123.083 Y94.661 E0.04887
G1 X122.829 Y96.199 E0.04887
G1 X122.505 Y97.724 E0.04887
G1 X122.109 Y99.230 E0.04885
G1 X121.806 Y100.225 E0.03261
G1 X121.473 Y101.210 E0.03261
G1 X120.916 Y102.665 E0.04885
G1 X120.291 Y104.094 E0.04887
G1 X119.601 Y105.491 E0.04887
G1 X118.847 Y106.854 E0.04885
G1 X118.308 Y107.744 E0.03261
G1 X117.742 Y108.616 E0.03261
G1 X116.845 Y109.889 E0.04882
M73 P4 R18
G1 X116.213 Y110.715 E0.03261
G1 X115.562 Y111.513 E0.03229
G1 X114.524 Y112.688 E0.04916
G1 X113.440 Y113.807 E0.04887
G1 X112.304 Y114.875 E0.04887
G1 X111.119 Y115.888 E0.04887
G1 X109.889 Y116.845 E0.04887
G1 X108.616 Y117.743 E0.04885
G1 X107.743 Y118.309 E0.03261
G1 X106.854 Y118.847 E0.03261
G1 X105.491 Y119.602 E0.04885
G1 X104.093 Y120.292 E0.04887
G1 X102.665 Y120.916 E0.04887
G1 X101.210 Y121.473 E0.04885
G1 X100.225 Y121.807 E0.03261
G1 X99.230 Y122.110 E0.03261
G1 X97.723 Y122.505 E0.04885
G1 X96.199 Y122.830 E0.04887
G1 X94.661 Y123.083 E0.04887
G1 X93.113 Y123.265 E0.04887
G1 X91.558 Y123.374 E0.04887
G1 X89.999 Y123.410 E0.04887
G1 X88.441 Y123.374 E0.04887
G1 X86.886 Y123.265 E0.04887
G1 X85.338 Y123.083 E0.04887
G1 X83.800 Y122.830 E0.04887
G1 X82.276 Y122.505 E0.04887
G1 X80.769 Y122.110 E0.04885
G1 X79.774 Y121.807 E0.03261
G1 X78.789 Y121.473 E0.03261
G1 X77.334 Y120.916 E0.04885
G1 X75.906 Y120.292 E0.04887
G1 X74.508 Y119.602 E0.04887
G1 X73.145 Y118.847 E0.04885
G1 X72.256 Y118.309 E0.03261
G1 X71.383 Y117.743 E0.03261
G1 X70.111 Y116.845 E0.04882
G1 X69.285 Y116.213 E0.03261
G1 X68.487 Y115.562 E0.03229
G1 X67.311 Y114.525 E0.04916
G1 X66.192 Y113.440 E0.04887
G1 X65.125 Y112.304 E0.04887
G1 X64.111 Y111.120 E0.04887
G1 X63.155 Y109.889 E0.04887
G1 X62.257 Y108.616 E0.04885
G1 X61.691 Y107.744 E0.03261
G1 X61.152 Y106.854 E0.03261
G1 X60.398 Y105.491 E0.04885
G1 X59.708 Y104.094 E0.04887
G1 X59.083 Y102.665 E0.04887
G1 X58.526 Y101.210 E0.04887
G1 X58.038 Y99.729 E0.04887
G1 X57.618 Y98.224 E0.04899
G1 X57.378 Y97.217 E0.03246
G1 X57.171 Y96.208 E0.03229
G1 X56.916 Y94.661 E0.04916
G1 X56.735 Y93.113 E0.04887
G1 X56.626 Y91.558 E0.04887
G1 X56.589 Y90.000 E0.04887
G1 X56.626 Y88.442 E0.04887
G1 X56.735 Y86.887 E0.04887
G1 X56.916 Y85.339 E0.04887
G1 X57.170 Y83.801 E0.04887
G1 X57.494 Y82.276 E0.04887
G1 X57.890 Y80.770 E0.04885
G1 X58.193 Y79.775 E0.03261
G1 X58.526 Y78.790 E0.03261
G1 X59.083 Y77.335 E0.04885
G1 X59.708 Y75.906 E0.04887
G1 X60.398 Y74.509 E0.04887
G1 X61.152 Y73.146 E0.04885
G1 X61.691 Y72.256 E0.03261
G1 X62.251 Y71.392 E0.03229
G1 X63.155 Y70.111 E0.04916
G1 X64.111 Y68.880 E0.04887
G1 X65.125 Y67.696 E0.04887
G1 X66.116 Y66.641 E0.04538
M204 S1250
G1 X66.050 Y66.212 F9000.000
G1 E-2.24000 F4200.000
;WIPE_START
G1 F7200.000
G1 X67.294 Y65.492 E-0.91200
;WIPE_END
G1 E-0.04800 F4200.000
G1 Z0.400 F9000.000
G1 X64.832 Y65.385
G1 Z0.200
G1 E3.20000 F2400.000
M204 S800
;TYPE:Perimeter
G1 F1200.000
G1 X65.380 Y64.824 E0.02459
G1 X66.529 Y63.750 E0.04931
G1 X67.726 Y62.727 E0.04938
G1 X68.546 Y62.077 E0.03281
G1 X69.385 Y61.452 E0.03281
G1 X70.682 Y60.559 E0.04938
G1 X72.016 Y59.726 E0.04931
G1 X73.386 Y58.953 E0.04931
G1 X74.791 Y58.241 E0.04938
G1 X75.741 Y57.803 E0.03281
G1 X76.704 Y57.394 E0.03281
G1 X78.175 Y56.832 E0.04938
G1 X79.668 Y56.337 E0.04931
G1 X81.184 Y55.909 E0.04938
G1 X82.200 Y55.662 E0.03281
G1 X83.226 Y55.445 E0.03288
G1 X84.258 Y55.258 E0.03288
G1 X85.286 Y55.104 E0.03258
G1 X86.858 Y54.928 E0.04961
G1 X88.426 Y54.822 E0.04927
G1 X90.262 Y54.789 E0.05757
G1 X92.093 Y54.849 E0.05745
G1 X93.663 Y54.978 E0.04938
G1 X95.225 Y55.177 E0.04938
G1 X96.258 Y55.348 E0.03281
G1 X97.284 Y55.549 E0.03281
G1 X98.817 Y55.909 E0.04938
G1 X100.331 Y56.337 E0.04931
G1 X101.826 Y56.833 E0.04938
G1 X102.806 Y57.199 E0.03281
G1 X103.775 Y57.594 E0.03281
G1 X105.212 Y58.243 E0.04945
G1 X106.149 Y58.709 E0.03281
G1 X107.072 Y59.203 E0.03281
G1 X108.432 Y59.997 E0.04938
G1 X109.755 Y60.851 E0.04938
G1 X110.612 Y61.451 E0.03281
G1 X111.419 Y62.051 E0.03152
G1 X112.679 Y63.063 E0.05067
G1 X113.859 Y64.102 E0.04930
G1 X114.993 Y65.195 E0.04938
G1 X115.719 Y65.949 E0.03281
G1 X116.422 Y66.724 E0.03281
G1 X117.436 Y67.928 E0.04938
G1 X118.394 Y69.175 E0.04931
G1 X119.296 Y70.464 E0.04931
G1 X120.140 Y71.794 E0.04938
G1 X120.668 Y72.697 E0.03281
G1 X121.169 Y73.616 E0.03281
G1 X121.870 Y75.026 E0.04938
G1 X122.507 Y76.464 E0.04931
G1 X123.079 Y77.929 E0.04931
G1 X123.585 Y79.420 E0.04938
G1 X123.885 Y80.423 E0.03281
G1 X124.155 Y81.434 E0.03281
G1 X124.503 Y82.970 E0.04938
G1 X124.783 Y84.520 E0.04938
G1 X124.931 Y85.555 E0.03281
G1 X125.047 Y86.595 E0.03281
G1 X125.165 Y88.168 E0.04945
G1 X125.204 Y89.214 E0.03281
G1 X125.211 Y90.260 E0.03280
G1 X125.164 Y91.836 E0.04946
G1 X125.094 Y92.880 E0.03281
G1 X124.993 Y93.922 E0.03281
G1 X124.783 Y95.483 E0.04938
G1 X124.503 Y97.030 E0.04931
G1 X124.155 Y98.566 E0.04938
G1 X123.885 Y99.577 E0.03281
G1 X123.585 Y100.580 E0.03281
G1 X123.079 Y102.071 E0.04938
G1 X122.507 Y103.536 E0.04931
G1 X121.870 Y104.974 E0.04931
G1 X121.169 Y106.384 E0.04938
G1 X120.668 Y107.303 E0.03281
G1 X120.140 Y108.206 E0.03281
G1 X119.296 Y109.536 E0.04938
