; generated by PrusaSlicer 2.3.0+win64 on 2021-08-27 at 09:24:35 UTC


;
;

;
;
; 

; external perimeters extrusion width = 0.45mm
; perimeters extrusion width = 0.45mm
; infill extrusion width = 0.45mm
; solid infill extrusion width = 0.45mm
; top infill extrusion width = 0.40mm
; first layer extrusion width = 0.42mm

M73 P0 R38
M201 X1250 Y1250 Z400 E5000 ; sets maximum accelerations, mm/sec^2
M203 X180 Y180 Z12 E80 ; sets maximum feedrates, mm/sec
M204 P1250 R1250 T1250 ; sets acceleration (P, T) and retract acceleration (R), mm/sec^2
M205 X8.00 Y8.00 Z2.00 E10.00 ; sets the jerk limits, mm/sec
M205 S0 T0 ; sets the minimum extruding and travel feed rate, mm/sec
M107
;TYPE:Custom
G90 ; use absolute coordinates
M83 ; extruder relative mode
M104 S170 ; set extruder temp for bed leveling
M140 S60 ; set bed temp
M109 R170 ; wait for bed leveling temp
M190 S60 ; wait for bed temp
G28 ; home all without mesh bed level
G29 ; mesh bed leveling 
M104 S215 ; set extruder temp
G92 E0.0
G1 Y-2.0 X179 F2400
G1 Z3 F720
M109 S215 ; wait for extruder temp

; intro line
G1 X170 F1000
G1 Z0.2 F720
G1 X110.0 E8.0 F900
G1 X40.0 E10.0 F700
G92 E0.0

M221 S95 ; set flow
G21 ; set units to millimeters
G90 ; use absolute coordinates
M83 ; use relative distances for extrusion
M900 K0.2 ; Filament gcode LA 1.5
; ; Filament gcode LA 1.0
;LAYER_CHANGE
;Z:0.2
;HEIGHT:0.2
;BEFORE_LAYER_CHANGE
G92 E0.0
;0.2


G1 E-3.20000 F4200.000
G1 Z0.200 F9000.000
;AFTER_LAYER_CHANGE
;0.2
G1 Z0.400
G1 X52.039 Y72.264
G1 Z0.200
G1 E3.20000 F2400.000
M204 S800
;TYPE:Skirt
;WIDTH:0.42
G1 F1200.000
G1 X53.852 Y71.003 E0.06924
M73 P0 R37
G1 X55.773 Y69.930 E0.06900
G1 X57.415 Y69.196 E0.05639
G1 X59.484 Y68.485 E0.06861
G1 X61.614 Y67.978 E0.06864
G1 X63.480 Y67.713 E0.05910
G1 X112.918 Y66.348 E1.55069
G1 X114.777 Y66.422 E0.05833
G1 X116.978 Y66.700 E0.06956
G1 X118.797 Y67.091 E0.05832
G1 X120.582 Y67.625 E0.05845
G1 X122.642 Y68.441 E0.06944
G1 X124.309 Y69.273 E0.05844
G1 X125.906 Y70.235 E0.05845
G1 X127.698 Y71.537 E0.06944
G1 X129.106 Y72.758 E0.05844
G1 X130.410 Y74.084 E0.05832
G1 X131.825 Y75.793 E0.06956
G1 X132.885 Y77.327 E0.05844
G1 X133.821 Y78.939 E0.05844
G1 X134.764 Y80.942 E0.06944
G1 X135.409 Y82.691 E0.05844
G1 X135.915 Y84.485 E0.05844
G1 X136.330 Y86.661 E0.06944
G1 X136.520 Y88.515 E0.05844
G1 X136.564 Y90.378 E0.05844
G1 X136.425 Y92.589 E0.06944
G1 X136.148 Y94.432 E0.05844
G1 X135.728 Y96.244 E0.05832
G1 X135.042 Y98.354 E0.06956
G1 X134.316 Y100.070 E0.05844
G1 X133.456 Y101.724 E0.05845
G1 X132.267 Y103.598 E0.06956
G1 X131.139 Y105.076 E0.05832
G1 X129.895 Y106.465 E0.05844
G1 X128.278 Y107.983 E0.06956
G1 X126.817 Y109.135 E0.05832
G1 X125.267 Y110.170 E0.05845
G1 X123.326 Y111.237 E0.06944
M73 P1 R37
G1 X121.162 Y112.168 E0.07388
G1 X118.544 Y112.972 E0.08585
G1 X115.879 Y113.466 E0.08499
G1 X113.171 Y113.651 E0.08511
G1 X63.558 Y112.291 E1.55618
G1 X62.502 Y112.169 E0.03331
G1 X59.907 Y111.633 E0.08307
G1 X57.394 Y110.795 E0.08307
G1 X54.994 Y109.664 E0.08319
G1 X52.731 Y108.248 E0.08371
G1 X51.674 Y107.448 E0.04156
G1 X50.396 Y106.336 E0.05311
G1 X48.558 Y104.392 E0.08390
G1 X46.966 Y102.246 E0.08379
G1 X45.655 Y99.952 E0.08283
G1 X44.921 Y98.310 E0.05639
G1 X44.210 Y96.241 E0.06861
G1 X43.704 Y94.114 E0.06853
G1 X43.439 Y92.260 E0.05874
G1 X43.448 Y87.640 E0.14485
G1 X43.874 Y85.062 E0.08192
G1 X44.476 Y82.906 E0.07019
G1 X45.275 Y80.855 E0.06900
G1 X46.274 Y78.886 E0.06924
G1 X47.463 Y77.025 E0.06924
G1 X48.829 Y75.290 E0.06924
G1 X50.360 Y73.698 E0.06924
G1 X51.994 Y72.303 E0.06736
M204 S1250
; printing object SpeakerHousinga_01.stl id:1 copy 0
G1 E-2.24000 F4200.000
;WIPE_START
G1 F7200.000
G1 X53.342 Y71.360 E-0.91200
;WIPE_END
G1 E-0.04800 F4200.000
G1 Z0.400 F9000.000
G1 X111.407 Y110.430
G1 Z0.200
G1 E3.20000 F2400.000
M204 S800
;TYPE:Perimeter
G1 F1200.000
G1 X111.592 Y110.179 E0.00979
G1 X111.810 Y109.967 E0.00954
G1 X111.954 Y109.858 E0.00567
G1 X112.222 Y109.710 E0.00958
G1 X112.394 Y109.644 E0.00577
G1 X112.762 Y109.570 E0.01178
G1 X113.067 Y109.570 E0.00955
G1 X113.241 Y109.595 E0.00551
G1 X113.534 Y109.679 E0.00955
G1 X113.702 Y109.755 E0.00577
G1 X113.861 Y109.849 E0.00580
G1 X114.105 Y110.042 E0.00975
G1 X114.234 Y110.174 E0.00577
G1 X114.423 Y110.430 E0.00999
G1 X113.510 Y110.479 E0.02865
G1 X112.319 Y110.479 E0.03734
G1 X111.467 Y110.434 E0.02677
M204 S1250
G1 E-2.24000 F4200.000
;WIPE_START
G1 F7200.000
G1 X111.592 Y110.179 E-0.15730
G1 X111.810 Y109.967 E-0.16857
G1 X111.954 Y109.858 E-0.10017
G1 X112.222 Y109.710 E-0.16940
G1 X112.394 Y109.644 E-0.10204
G1 X112.762 Y109.570 E-0.20827
G1 X112.774 Y109.570 E-0.00625
;WIPE_END
G1 E-0.04800 F4200.000
G1 Z0.400 F9000.000
G1 X133.343 Y91.507
G1 Z0.200
G1 E3.20000 F2400.000
M204 S800
G1 F1200.000
G1 X133.094 Y91.323 E0.00973
G1 X132.881 Y91.105 E0.00954
G1 X132.773 Y90.960 E0.00567
G1 X132.625 Y90.693 E0.00958
G1 X132.511 Y90.335 E0.01179
G1 X132.485 Y90.152 E0.00577
G1 X132.485 Y89.848 E0.00955
G1 X132.510 Y89.674 E0.00551
G1 X132.594 Y89.381 E0.00955
G1 X132.764 Y89.054 E0.01156
G1 X132.957 Y88.810 E0.00976
G1 X133.089 Y88.681 E0.00577
G1 X133.350 Y88.488 E0.01019
G1 X133.402 Y89.902 E0.04436
G1 X133.391 Y90.689 E0.02469
G1 X133.347 Y91.447 E0.02380
M204 S1250
G1 E-2.24000 F4200.000
;WIPE_START
G1 F7200.000
G1 X133.094 Y91.323 E-0.15628
G1 X132.881 Y91.105 E-0.16862
G1 X132.773 Y90.960 E-0.10019
G1 X132.625 Y90.693 E-0.16941
G1 X132.511 Y90.335 E-0.20830
G1 X132.485 Y90.152 E-0.10200
G1 X132.485 Y90.139 E-0.00720
;WIPE_END
G1 E-0.04800 F4200.000
G1 Z0.400 F9000.000
G1 X114.429 Y69.568
G1 Z0.200
G1 E3.20000 F2400.000
M204 S800
G1 F1200.000
G1 X114.236 Y69.824 E0.01004
G1 X114.099 Y69.963 E0.00612
G1 X113.786 Y70.199 E0.01228
G1 X113.436 Y70.356 E0.01205
G1 X113.067 Y70.430 E0.01178
G1 X112.762 Y70.430 E0.00955
G1 X112.588 Y70.405 E0.00551
G1 X112.296 Y70.321 E0.00955
G1 X112.127 Y70.245 E0.00578
G1 X111.968 Y70.151 E0.00580
G1 X111.725 Y69.957 E0.00976
G1 X111.596 Y69.826 E0.00577
G1 X111.405 Y69.568 E0.01005
G1 X112.117 Y69.528 E0.02235
G1 X113.316 Y69.516 E0.03761
G1 X114.369 Y69.564 E0.03304
M204 S1250
G1 E-2.24000 F4200.000
;WIPE_START
G1 F7200.000
G1 X114.236 Y69.824 E-0.16169
G1 X114.099 Y69.963 E-0.10819
G1 X113.786 Y70.199 E-0.21708
G1 X113.436 Y70.356 E-0.21292
G1 X113.067 Y70.430 E-0.20827
G1 X113.060 Y70.430 E-0.00385
;WIPE_END
G1 E-0.04800 F4200.000
G1 Z0.400 F9000.000
G1 X110.945 Y69.579
G1 Z0.200
G1 E3.20000 F2400.000
M204 S800
;TYPE:External perimeter
G1 F1200.000
G1 X111.308 Y70.071 E0.01919
G1 X111.472 Y70.238 E0.00733
G1 X111.754 Y70.462 E0.01130
G1 X111.954 Y70.581 E0.00728
G1 X112.165 Y70.675 E0.00727
G1 X112.509 Y70.775 E0.01122
G1 X112.736 Y70.807 E0.00718
G1 X113.094 Y70.807 E0.01122
G1 X113.323 Y70.774 E0.00727
G1 X113.550 Y70.716 E0.00736
G1 X113.770 Y70.632 E0.00736
G1 X113.978 Y70.524 E0.00736
G1 X114.174 Y70.392 E0.00740
G1 X114.522 Y70.071 E0.01486
G1 X114.882 Y69.581 E0.01905
G1 X116.164 Y69.748 E0.04053
G1 X116.962 Y69.892 E0.02545
G1 X118.158 Y70.170 E0.03848
G1 X119.331 Y70.518 E0.03836
G1 X120.480 Y70.935 E0.03832
G1 X121.233 Y71.252 E0.02564
G1 X122.334 Y71.780 E0.03829
G1 X123.053 Y72.170 E0.02564
G1 X124.097 Y72.805 E0.03832
G1 X125.102 Y73.502 E0.03832
G1 X125.749 Y74.000 E0.02561
G1 X126.376 Y74.523 E0.02561
G1 X127.274 Y75.353 E0.03832
G1 X128.120 Y76.234 E0.03832
G1 X128.656 Y76.850 E0.02561
G1 X129.167 Y77.488 E0.02561
G1 X129.884 Y78.478 E0.03832
G1 X130.540 Y79.509 E0.03832
G1 X130.944 Y80.220 E0.02564
G1 X131.494 Y81.310 E0.03829
G1 X131.826 Y82.058 E0.02564
G1 X132.265 Y83.197 E0.03829
G1 X132.521 Y83.974 E0.02564
G1 X132.845 Y85.151 E0.03829
G1 X133.022 Y85.948 E0.02561
G1 X133.167 Y86.752 E0.02560
G1 X133.336 Y88.030 E0.04042
G1 X132.843 Y88.393 E0.01919
G1 X132.676 Y88.557 E0.00733
G1 X132.452 Y88.839 E0.01130
G1 X132.334 Y89.039 E0.00728
G1 X132.239 Y89.251 E0.00727
G1 X132.140 Y89.594 E0.01122
G1 X132.108 Y89.821 E0.00718
G1 X132.108 Y90.179 E0.01122
G1 X132.140 Y90.408 E0.00727
G1 X132.199 Y90.636 E0.00736
G1 X132.282 Y90.852 E0.00727
G1 X132.456 Y91.166 E0.01123
G1 X132.594 Y91.351 E0.00725
G1 X132.845 Y91.608 E0.01127
G1 X133.336 Y91.970 E0.01912
G1 X133.167 Y93.248 E0.04042
G1 X133.021 Y94.053 E0.02563
G1 X132.745 Y95.242 E0.03829
G1 X132.520 Y96.027 E0.02561
G1 X132.265 Y96.803 E0.02561
G1 X131.825 Y97.943 E0.03832
G1 X131.321 Y99.051 E0.03816
G1 X130.944 Y99.781 E0.02576
G1 X130.540 Y100.491 E0.02561
G1 X129.884 Y101.521 E0.03829
G1 X129.412 Y102.189 E0.02564
G1 X128.657 Y103.149 E0.03829
G1 X128.120 Y103.766 E0.02564
G1 X127.273 Y104.647 E0.03832
G1 X126.375 Y105.476 E0.03832
G1 X125.749 Y106.000 E0.02561
G1 X125.102 Y106.498 E0.02561
G1 X124.097 Y107.195 E0.03832
G1 X123.058 Y107.828 E0.03816
G1 X122.335 Y108.220 E0.02580
G1 X121.238 Y108.747 E0.03813
G1 X120.481 Y109.065 E0.02576
G1 X119.716 Y109.351 E0.02561
G1 X118.552 Y109.721 E0.03829
G1 X117.762 Y109.930 E0.02561
G1 X116.966 Y110.107 E0.02557
G1 X116.163 Y110.252 E0.02560
G1 X114.885 Y110.421 E0.04043
G1 X114.521 Y109.929 E0.01920
G1 X114.357 Y109.762 E0.00733
G1 X114.075 Y109.538 E0.01130
G1 X113.876 Y109.419 E0.00728
G1 X113.664 Y109.325 E0.00727
G1 X113.320 Y109.225 E0.01122
G1 X113.094 Y109.193 E0.00718
G1 X112.736 Y109.193 E0.01122
G1 X112.506 Y109.226 E0.00727
G1 X112.279 Y109.284 E0.00736
G1 X112.062 Y109.367 E0.00727
G1 X111.749 Y109.541 E0.01123
G1 X111.564 Y109.679 E0.00725
G1 X111.307 Y109.930 E0.01127
G1 X110.945 Y110.421 E0.01913
G1 X109.667 Y110.252 E0.04043
G1 X108.862 Y110.107 E0.02563
G1 X107.673 Y109.830 E0.03829
G1 X106.886 Y109.606 E0.02564
G1 X105.730 Y109.212 E0.03829
G1 X104.970 Y108.910 E0.02564
G1 X103.864 Y108.406 E0.03813
G1 X103.134 Y108.029 E0.02576
G1 X102.424 Y107.625 E0.02561
G1 X101.393 Y106.969 E0.03829
G1 X100.726 Y106.497 E0.02564
G1 X99.765 Y105.741 E0.03832
G1 X98.851 Y104.930 E0.03832
G1 X98.268 Y104.359 E0.02561
G1 X97.708 Y103.764 E0.02561
G1 X96.915 Y102.835 E0.03829
G1 X96.417 Y102.187 E0.02564
G1 X95.720 Y101.183 E0.03832
G1 X95.087 Y100.143 E0.03817
G1 X94.695 Y99.421 E0.02577
G1 X94.334 Y98.688 E0.02561
G1 X93.850 Y97.566 E0.03832
G1 X93.435 Y96.422 E0.03816
G1 X93.193 Y95.636 E0.02576
G1 X92.985 Y94.848 E0.02557
G1 X92.808 Y94.051 E0.02557
G1 X92.663 Y93.248 E0.02560
G1 X92.494 Y91.970 E0.04042
G1 X92.986 Y91.607 E0.01919
G1 X93.153 Y91.443 E0.00733
G1 X93.377 Y91.161 E0.01130
G1 X93.495 Y90.961 E0.00728
G1 X93.590 Y90.749 E0.00727
G1 X93.689 Y90.406 E0.01122
G1 X93.721 Y90.179 E0.00718
G1 X93.721 Y89.821 E0.01122
G1 X93.689 Y89.592 E0.00727
G1 X93.630 Y89.364 E0.00736
G1 X93.547 Y89.148 E0.00727
G1 X93.374 Y88.834 E0.01123
G1 X93.235 Y88.649 E0.00725
G1 X92.984 Y88.392 E0.01127
G1 X92.494 Y88.030 E0.01912
G1 X92.662 Y86.752 E0.04042
G1 X92.807 Y85.948 E0.02560
G1 X92.985 Y85.151 E0.02561
G1 X93.309 Y83.974 E0.03829
G1 X93.565 Y83.197 E0.02564
G1 X94.004 Y82.057 E0.03832
G1 X94.509 Y80.949 E0.03816
G1 X94.886 Y80.219 E0.02576
G1 X95.290 Y79.509 E0.02561
G1 X95.946 Y78.478 E0.03832
G1 X96.662 Y77.488 E0.03832
G1 X97.174 Y76.850 E0.02564
G1 X97.984 Y75.936 E0.03829
G1 X98.557 Y75.352 E0.02564
G1 X99.454 Y74.523 E0.03829
G1 X100.081 Y74.000 E0.02561
G1 X100.728 Y73.502 E0.02561
G1 X101.732 Y72.805 E0.03832
G1 X102.772 Y72.172 E0.03816
G1 X103.495 Y71.780 E0.02580
G1 X104.591 Y71.254 E0.03813
G1 X105.350 Y70.935 E0.02580
G1 X106.493 Y70.520 E0.03813
G1 X107.279 Y70.279 E0.02576
G1 X108.067 Y70.070 E0.02557
G1 X108.863 Y69.893 E0.02557
G1 X109.667 Y69.748 E0.02560
G1 X110.885 Y69.587 E0.03854
M204 S1250
G1 X111.301 Y69.397 F9000.000
G1 E-2.24000 F4200.000
;WIPE_START
G1 F7200.000
G1 X111.308 Y70.071 E-0.35643
G1 X111.472 Y70.238 E-0.12959
G1 X111.754 Y70.462 E-0.19969
G1 X111.954 Y70.581 E-0.12864
G1 X112.115 Y70.653 E-0.09765
;WIPE_END
G1 E-0.04800 F4200.000
G1 Z0.400 F9000.000
G1 X92.484 Y88.491
G1 Z0.200
G1 E3.20000 F2400.000
M204 S800
;TYPE:Perimeter
G1 F1200.000
G1 X92.736 Y88.677 E0.00981
G1 X92.948 Y88.895 E0.00954
G1 X93.057 Y89.040 E0.00567
G1 X93.205 Y89.307 E0.00959
G1 X93.270 Y89.479 E0.00577
G1 X93.344 Y89.848 E0.01178
G1 X93.344 Y90.152 E0.00955
G1 X93.320 Y90.326 E0.00551
G1 X93.235 Y90.619 E0.00955
G1 X93.160 Y90.787 E0.00578
G1 X93.066 Y90.946 E0.00580
G1 X92.872 Y91.190 E0.00976
G1 X92.741 Y91.319 E0.00577
G1 X92.486 Y91.507 E0.00993
G1 X92.439 Y90.697 E0.02544
G1 X92.433 Y89.504 E0.03740
G1 X92.481 Y88.551 E0.02991
M204 S1250
G1 X92.104 Y88.532 F9000.000
M204 S800
;TYPE:External perimeter
G1 F1200.000
G1 X92.138 Y87.877 E0.02057
G1 X92.179 Y87.483 E0.01243
G1 X92.359 Y86.286 E0.03796
G1 X92.518 Y85.494 E0.02533
G1 X92.814 Y84.319 E0.03797
G1 X93.049 Y83.544 E0.02541
G1 X93.457 Y82.404 E0.03797
G1 X93.764 Y81.659 E0.02526
G1 X94.281 Y80.562 E0.03801
G1 X94.858 Y79.499 E0.03793
G1 X95.279 Y78.806 E0.02541
G1 X95.957 Y77.804 E0.03793
G1 X96.691 Y76.843 E0.03793
G1 X97.212 Y76.225 E0.02534
G1 X98.037 Y75.338 E0.03797
G1 X98.615 Y74.774 E0.02534
G1 X99.521 Y73.971 E0.03796
G1 X100.153 Y73.463 E0.02541
G1 X101.133 Y72.752 E0.03797
G1 X101.807 Y72.310 E0.02526
G1 X102.851 Y71.696 E0.03797
G1 X103.566 Y71.321 E0.02534
G1 X104.664 Y70.811 E0.03797
G1 X105.415 Y70.505 E0.02541
G1 X106.557 Y70.103 E0.03797
G1 X107.329 Y69.873 E0.02526
G1 X108.505 Y69.583 E0.03797
G1 X109.299 Y69.427 E0.02537
G1 X110.095 Y69.303 E0.02528
G1 X110.894 Y69.220 E0.02519
G1 X112.104 Y69.151 E0.03800
G1 X113.322 Y69.139 E0.03817
G1 X114.124 Y69.169 E0.02519
G1 X115.338 Y69.253 E0.03813
G1 X116.532 Y69.427 E0.03784
G1 X117.322 Y69.582 E0.02526
G1 X118.500 Y69.873 E0.03804
G1 X119.273 Y70.103 E0.02529
G1 X120.037 Y70.364 E0.02529
G1 X121.163 Y70.809 E0.03797
G1 X121.901 Y71.144 E0.02541
G1 X122.979 Y71.696 E0.03797
G1 X123.679 Y72.099 E0.02534
G1 X124.697 Y72.752 E0.03793
G1 X125.676 Y73.463 E0.03793
G1 X126.306 Y73.969 E0.02533
G1 X127.216 Y74.775 E0.03809
G1 X128.072 Y75.628 E0.03790
G1 X128.879 Y76.529 E0.03793
G1 X129.389 Y77.159 E0.02541
G1 X130.106 Y78.135 E0.03797
G1 X130.552 Y78.809 E0.02534
G1 X131.170 Y79.849 E0.03793
G1 X131.728 Y80.924 E0.03798
G1 X132.223 Y82.031 E0.03801
G1 X132.516 Y82.781 E0.02526
G1 X132.902 Y83.931 E0.03804
G1 X133.121 Y84.707 E0.02526
G1 X133.395 Y85.889 E0.03804
G1 X133.538 Y86.681 E0.02525
G1 X133.692 Y87.881 E0.03791
G1 X133.779 Y89.898 E0.06333
G1 X133.768 Y90.703 E0.02523
G1 X133.674 Y92.320 E0.05080
G1 X133.433 Y93.915 E0.05057
G1 X133.266 Y94.703 E0.02526
G1 X132.960 Y95.875 E0.03797
G1 X132.717 Y96.647 E0.02537
G1 X132.445 Y97.408 E0.02537
G1 X131.983 Y98.527 E0.03793
G1 X131.458 Y99.617 E0.03794
G1 X131.072 Y100.327 E0.02537
G1 X130.659 Y101.021 E0.02529
G1 X129.990 Y102.031 E0.03801
G1 X129.265 Y103.000 E0.03793
G1 X128.748 Y103.624 E0.02541
G1 X127.932 Y104.519 E0.03797
G1 X127.361 Y105.087 E0.02526
G1 X126.462 Y105.899 E0.03797
G1 X125.835 Y106.412 E0.02541
G1 X124.863 Y107.133 E0.03793
G1 X123.851 Y107.796 E0.03793
G1 X123.153 Y108.207 E0.02541
G1 X122.082 Y108.769 E0.03793
G1 X120.977 Y109.270 E0.03801
G1 X120.227 Y109.567 E0.02529
G1 X119.467 Y109.834 E0.02529
G1 X118.305 Y110.181 E0.03801
G1 X117.127 Y110.459 E0.03793
G1 X116.333 Y110.607 E0.02534
G1 X115.138 Y110.770 E0.03782
G1 X113.520 Y110.856 E0.05079
G1 X112.309 Y110.856 E0.03797
G1 X110.692 Y110.770 E0.05077
G1 X109.101 Y110.537 E0.05041
G1 X108.310 Y110.374 E0.02534
G1 X107.137 Y110.073 E0.03797
G1 X106.362 Y109.834 E0.02541
G1 X105.224 Y109.421 E0.03796
G1 X104.481 Y109.110 E0.02526
G1 X103.388 Y108.589 E0.03797
G1 X102.676 Y108.207 E0.02534
G1 X101.638 Y107.583 E0.03797
G1 X100.965 Y107.132 E0.02541
G1 X99.993 Y106.411 E0.03793
G1 X99.063 Y105.634 E0.03801
G1 X98.470 Y105.088 E0.02526
G1 X97.618 Y104.224 E0.03804
G1 X97.081 Y103.624 E0.02526
G1 X96.318 Y102.684 E0.03797
G1 X95.839 Y102.030 E0.02541
G1 X95.170 Y101.021 E0.03797
M73 P2 R37
G1 X94.758 Y100.328 E0.02526
G1 X94.190 Y99.258 E0.03801
G1 X93.685 Y98.158 E0.03793
G1 X93.384 Y97.408 E0.02534
G1 X92.988 Y96.264 E0.03797
G1 X92.760 Y95.486 E0.02541
G1 X92.476 Y94.309 E0.03797
G1 X92.325 Y93.518 E0.02526
G1 X92.156 Y92.323 E0.03782
G1 X92.062 Y90.709 E0.05071
G1 X92.056 Y89.496 E0.03804
G1 X92.101 Y88.592 E0.02836
M204 S1250
