; generated by PrusaSlicer 2.3.0+win64 on 2021-08-11 at 10:07:55 UTC


;
;

;
;
; 

; external perimeters extrusion width = 0.45mm
; perimeters extrusion width = 0.45mm
; infill extrusion width = 0.45mm
; solid infill extrusion width = 0.45mm
; top infill extrusion width = 0.40mm
; first layer extrusion width = 0.42mm

M73 P0 R8
M201 X1250 Y1250 Z400 E5000 ; sets maximum accelerations, mm/sec^2
M203 X180 Y180 Z12 E80 ; sets maximum feedrates, mm/sec
M204 P1250 R1250 T1250 ; sets acceleration (P, T) and retract acceleration (R), mm/sec^2
M205 X8.00 Y8.00 Z2.00 E10.00 ; sets the jerk limits, mm/sec
M205 S0 T0 ; sets the minimum extruding and travel feed rate, mm/sec
M107
;TYPE:Custom
G90 ; use absolute coordinates
M83 ; extruder relative mode
M104 S170 ; set extruder temp for bed leveling
M140 S60 ; set bed temp
M109 R170 ; wait for bed leveling temp
M190 S60 ; wait for bed temp
G28 ; home all without mesh bed level
G29 ; mesh bed leveling 
M104 S215 ; set extruder temp
G92 E0.0
G1 Y-2.0 X179 F2400
G1 Z3 F720
M109 S215 ; wait for extruder temp

; intro line
G1 X170 F1000
M73 P1 R8
G1 Z0.2 F720
G1 X110.0 E8.0 F900
G1 X40.0 E10.0 F700
G92 E0.0

M221 S95 ; set flow
G21 ; set units to millimeters
G90 ; use absolute coordinates
M83 ; use relative distances for extrusion
M900 K0.2 ; Filament gcode LA 1.5
; ; Filament gcode LA 1.0
;LAYER_CHANGE
;Z:0.2
;HEIGHT:0.2
;BEFORE_LAYER_CHANGE
G92 E0.0
;0.2


M73 P3 R8
G1 E-3.20000 F4200.000
G1 Z0.200 F9000.000
;AFTER_LAYER_CHANGE
;0.2
G1 Z0.400
G1 X65.273 Y71.503
G1 Z0.200
G1 E3.20000 F2400.000
M204 S800
;TYPE:Skirt
;WIDTH:0.42
G1 F1200.000
G1 X66.043 Y71.373 E0.02449
G1 X113.956 Y71.373 E1.50227
G1 X114.521 Y71.442 E0.01787
G1 X115.052 Y71.643 E0.01779
G1 X150.252 Y90.024 E1.24507
M73 P4 R8
G1 X151.111 Y90.537 E0.03138
G1 X152.094 Y91.287 E0.03877
G1 X153.423 Y92.688 E0.06053
G1 X154.449 Y94.313 E0.06029
G1 X155.142 Y96.107 E0.06029
G1 X155.474 Y98.001 E0.06029
G1 X155.432 Y99.924 E0.06029
G1 X155.018 Y101.806 E0.06041
G1 X154.248 Y103.568 E0.06029
G1 X153.141 Y105.159 E0.06077
G1 X152.467 Y105.874 E0.03081
G1 X151.545 Y106.657 E0.03793
G1 X149.870 Y107.669 E0.06136
G1 X148.023 Y108.332 E0.06151
G1 X146.834 Y108.553 E0.03793
G1 X145.855 Y108.625 E0.03078
G1 X34.154 Y108.625 E3.50230
M73 P5 R8
G1 X32.601 Y108.466 E0.04896
G1 X31.291 Y108.133 E0.04237
G1 X29.844 Y107.527 E0.04919
G1 X28.511 Y106.698 E0.04920
G1 X27.481 Y105.823 E0.04237
G1 X26.448 Y104.642 E0.04920
G1 X25.615 Y103.313 E0.04920
G1 X25.074 Y102.074 E0.04238
G1 X24.664 Y100.556 E0.04931
G1 X24.500 Y98.965 E0.05015
G1 X24.595 Y97.368 E0.05015
G1 X24.939 Y95.833 E0.04932
G1 X25.427 Y94.568 E0.04253
G1 X26.219 Y93.180 E0.05012
G1 X27.207 Y91.955 E0.04932
G1 X28.397 Y90.887 E0.05015
G1 X29.755 Y90.020 E0.05051
G1 X65.220 Y71.531 E1.25402
M204 S1250
; printing object speakerMount02.stl id:0 copy 0
M73 P6 R8
G1 E-2.24000 F4200.000
;WIPE_START
G1 F7200.000
G1 X66.043 Y71.373 E-0.46460
G1 X66.850 Y71.373 E-0.44740
;WIPE_END
G1 E-0.04800 F4200.000
G1 Z0.400 F9000.000
G1 X141.272 Y97.468
G1 Z0.200
G1 E3.20000 F2400.000
M204 S800
;TYPE:Perimeter
G1 F1200.000
G1 X141.408 Y97.074 E0.01308
G1 X141.579 Y96.695 E0.01305
G1 X141.785 Y96.333 E0.01305
G1 X142.022 Y95.991 E0.01305
G1 X142.290 Y95.673 E0.01305
G1 X142.591 Y95.376 E0.01326
G1 X143.071 Y94.999 E0.01914
G1 X143.432 Y94.778 E0.01326
G1 X143.805 Y94.594 E0.01305
G1 X144.193 Y94.444 E0.01305
G1 X144.594 Y94.331 E0.01305
G1 X145.009 Y94.254 E0.01324
G1 X145.595 Y94.213 E0.01842
G1 X146.040 Y94.231 E0.01396
G1 X146.453 Y94.289 E0.01308
G1 X146.858 Y94.383 E0.01305
G1 X147.253 Y94.514 E0.01305
G1 X147.640 Y94.684 E0.01324
G1 X148.148 Y94.979 E0.01842
G1 X148.505 Y95.244 E0.01396
G1 X148.815 Y95.523 E0.01308
G1 X149.097 Y95.829 E0.01305
G1 X149.350 Y96.159 E0.01305
G1 X149.572 Y96.511 E0.01305
G1 X149.761 Y96.882 E0.01305
G1 X149.914 Y97.269 E0.01305
G1 X150.032 Y97.668 E0.01305
G1 X150.114 Y98.083 E0.01326
G1 X150.163 Y98.690 E0.01908
G1 X150.148 Y99.114 E0.01331
G1 X150.096 Y99.527 E0.01305
G1 X150.006 Y99.933 E0.01305
G1 X149.877 Y100.336 E0.01326
G1 X149.626 Y100.892 E0.01914
G1 X149.409 Y101.255 E0.01326
G1 X149.163 Y101.591 E0.01305
G1 X148.888 Y101.903 E0.01305
G1 X148.586 Y102.189 E0.01305
G1 X148.258 Y102.446 E0.01305
G1 X147.904 Y102.675 E0.01324
G1 X147.377 Y102.936 E0.01842
G1 X146.959 Y103.088 E0.01396
G1 X146.555 Y103.192 E0.01308
G1 X146.144 Y103.258 E0.01305
G1 X145.729 Y103.287 E0.01305
G1 X145.313 Y103.277 E0.01305
G1 X144.900 Y103.230 E0.01305
G1 X144.492 Y103.144 E0.01305
G1 X144.088 Y103.020 E0.01326
G1 X143.529 Y102.775 E0.01914
G1 X143.164 Y102.562 E0.01326
G1 X142.825 Y102.321 E0.01305
G1 X142.510 Y102.050 E0.01305
G1 X142.220 Y101.750 E0.01305
G1 X141.960 Y101.426 E0.01305
G1 X141.730 Y101.079 E0.01305
G1 X141.533 Y100.712 E0.01305
G1 X141.368 Y100.323 E0.01326
G1 X141.196 Y99.738 E0.01914
G1 X141.123 Y99.321 E0.01326
G1 X141.090 Y98.906 E0.01305
G1 X141.095 Y98.484 E0.01324
G1 X141.168 Y97.901 E0.01842
G1 X141.258 Y97.527 E0.01208
M204 S1250
G1 X141.624 Y97.615 F9000.000
M204 S800
;TYPE:External perimeter
G1 F1200.000
G1 X141.759 Y97.213 E0.01328
G1 X141.916 Y96.866 E0.01196
G1 X142.104 Y96.534 E0.01196
G1 X142.322 Y96.221 E0.01196
G1 X142.568 Y95.929 E0.01196
G1 X142.841 Y95.659 E0.01204
G1 X143.287 Y95.309 E0.01778
G1 X143.614 Y95.108 E0.01204
G1 X143.956 Y94.939 E0.01196
G1 X144.312 Y94.803 E0.01196
G1 X144.679 Y94.699 E0.01196
G1 X145.057 Y94.629 E0.01203
G1 X145.600 Y94.590 E0.01709
G1 X146.006 Y94.607 E0.01272
G1 X146.384 Y94.660 E0.01197
G1 X146.755 Y94.746 E0.01196
G1 X147.117 Y94.867 E0.01196
G1 X147.469 Y95.021 E0.01203
G1 X147.940 Y95.294 E0.01709
G1 X148.266 Y95.536 E0.01272
G1 X148.550 Y95.792 E0.01197
G1 X148.809 Y96.072 E0.01196
G1 X149.040 Y96.375 E0.01196
G1 X149.244 Y96.698 E0.01196
G1 X149.416 Y97.038 E0.01196
G1 X149.557 Y97.392 E0.01196
G1 X149.665 Y97.758 E0.01196
G1 X149.740 Y98.135 E0.01204
G1 X149.785 Y98.698 E0.01773
G1 X149.772 Y99.084 E0.01209
G1 X149.724 Y99.462 E0.01196
G1 X149.641 Y99.835 E0.01196
G1 X149.524 Y100.200 E0.01204
G1 X149.291 Y100.717 E0.01778
G1 X149.094 Y101.047 E0.01204
G1 X148.869 Y101.355 E0.01196
G1 X148.617 Y101.641 E0.01196
G1 X148.340 Y101.903 E0.01196
G1 X148.039 Y102.138 E0.01196
G1 X147.717 Y102.346 E0.01203
G1 X147.229 Y102.589 E0.01709
G1 X146.847 Y102.727 E0.01272
G1 X146.478 Y102.822 E0.01197
G1 X146.101 Y102.883 E0.01196
G1 X145.720 Y102.909 E0.01196
G1 X145.339 Y102.901 E0.01196
G1 X144.960 Y102.857 E0.01196
G1 X144.587 Y102.779 E0.01196
G1 X144.220 Y102.666 E0.01204
G1 X143.700 Y102.439 E0.01778
G1 X143.368 Y102.245 E0.01204
G1 X143.058 Y102.024 E0.01196
G1 X142.769 Y101.775 E0.01196
G1 X142.504 Y101.501 E0.01196
G1 X142.265 Y101.203 E0.01196
G1 X142.054 Y100.885 E0.01196
G1 X141.874 Y100.549 E0.01196
G1 X141.724 Y100.196 E0.01204
G1 X141.563 Y99.652 E0.01778
G1 X141.498 Y99.274 E0.01204
G1 X141.467 Y98.893 E0.01196
G1 X141.472 Y98.510 E0.01203
G1 X141.539 Y97.969 E0.01709
G1 X141.610 Y97.673 E0.00953
M204 S1250
G1 X141.344 Y97.329 F9000.000
G1 E-2.24000 F4200.000
;WIPE_START
G1 F7200.000
G1 X141.759 Y97.213 E-0.26792
G1 X141.916 Y96.866 E-0.21140
G1 X142.104 Y96.534 E-0.21139
G1 X142.322 Y96.221 E-0.21140
G1 X142.333 Y96.207 E-0.00989
;WIPE_END
G1 E-0.04800 F4200.000
G1 Z0.400 F9000.000
G1 X38.913 Y98.690
M73 P7 R8
G1 Z0.200
G1 E3.20000 F2400.000
M204 S800
;TYPE:Perimeter
G1 F1200.000
G1 X38.898 Y99.114 E0.01331
G1 X38.846 Y99.527 E0.01305
G1 X38.756 Y99.933 E0.01305
G1 X38.629 Y100.329 E0.01305
G1 X38.467 Y100.712 E0.01305
G1 X38.266 Y101.085 E0.01326
G1 X37.918 Y101.586 E0.01914
G1 X37.638 Y101.903 E0.01326
G1 X37.336 Y102.189 E0.01305
G1 X37.008 Y102.446 E0.01305
G1 X36.659 Y102.671 E0.01305
G1 X36.290 Y102.864 E0.01305
G1 X35.905 Y103.022 E0.01305
G1 X35.501 Y103.146 E0.01326
G1 X34.901 Y103.258 E0.01914
G1 X34.479 Y103.287 E0.01326
G1 X34.063 Y103.277 E0.01305
G1 X33.650 Y103.230 E0.01305
G1 X33.242 Y103.144 E0.01305
G1 X32.838 Y103.020 E0.01326
G1 X32.279 Y102.775 E0.01914
G1 X31.914 Y102.562 E0.01326
G1 X31.575 Y102.321 E0.01305
G1 X31.260 Y102.050 E0.01305
G1 X30.970 Y101.750 E0.01305
G1 X30.710 Y101.426 E0.01305
G1 X30.480 Y101.079 E0.01305
G1 X30.283 Y100.712 E0.01305
G1 X30.118 Y100.323 E0.01326
G1 X29.946 Y99.738 E0.01914
G1 X29.873 Y99.321 E0.01326
G1 X29.840 Y98.906 E0.01305
G1 X29.845 Y98.483 E0.01326
G1 X29.922 Y97.878 E0.01914
G1 X30.022 Y97.467 E0.01326
G1 X30.158 Y97.074 E0.01305
G1 X30.329 Y96.695 E0.01305
G1 X30.535 Y96.333 E0.01305
G1 X30.772 Y95.991 E0.01305
G1 X31.040 Y95.673 E0.01305
G1 X31.336 Y95.380 E0.01305
G1 X31.658 Y95.116 E0.01305
G1 X32.007 Y94.879 E0.01326
G1 X32.548 Y94.596 E0.01914
G1 X32.943 Y94.444 E0.01326
G1 X33.344 Y94.331 E0.01305
G1 X33.759 Y94.254 E0.01324
G1 X34.345 Y94.213 E0.01842
G1 X34.790 Y94.231 E0.01396
G1 X35.203 Y94.289 E0.01308
G1 X35.608 Y94.383 E0.01305
G1 X36.003 Y94.514 E0.01305
G1 X36.384 Y94.681 E0.01305
G1 X36.748 Y94.883 E0.01305
G1 X37.098 Y95.120 E0.01326
G1 X37.561 Y95.518 E0.01914
G1 X37.847 Y95.829 E0.01326
G1 X38.100 Y96.159 E0.01305
G1 X38.322 Y96.511 E0.01305
G1 X38.511 Y96.882 E0.01305
G1 X38.664 Y97.269 E0.01305
G1 X38.782 Y97.668 E0.01305
G1 X38.864 Y98.083 E0.01326
G1 X38.908 Y98.630 E0.01720
M204 S1250
G1 X38.532 Y98.660 F9000.000
M204 S800
;TYPE:External perimeter
G1 F1200.000
G1 X38.522 Y99.084 E0.01329
G1 X38.474 Y99.462 E0.01196
G1 X38.391 Y99.835 E0.01196
G1 X38.275 Y100.198 E0.01196
G1 X38.126 Y100.549 E0.01196
G1 X37.945 Y100.887 E0.01204
G1 X37.621 Y101.353 E0.01778
G1 X37.367 Y101.641 E0.01204
G1 X37.090 Y101.903 E0.01196
G1 X36.789 Y102.138 E0.01196
G1 X36.469 Y102.345 E0.01196
G1 X36.131 Y102.522 E0.01196
G1 X35.778 Y102.667 E0.01196
G1 X35.411 Y102.780 E0.01204
G1 X34.853 Y102.883 E0.01778
G1 X34.470 Y102.909 E0.01204
G1 X34.089 Y102.901 E0.01196
G1 X33.710 Y102.857 E0.01196
G1 X33.337 Y102.779 E0.01196
G1 X32.970 Y102.666 E0.01204
G1 X32.450 Y102.439 E0.01778
G1 X32.118 Y102.245 E0.01204
G1 X31.808 Y102.024 E0.01196
G1 X31.519 Y101.775 E0.01196
G1 X31.254 Y101.501 E0.01196
G1 X31.015 Y101.203 E0.01196
G1 X30.804 Y100.885 E0.01196
G1 X30.624 Y100.549 E0.01196
G1 X30.474 Y100.196 E0.01204
G1 X30.313 Y99.652 E0.01778
G1 X30.248 Y99.274 E0.01204
G1 X30.217 Y98.893 E0.01196
G1 X30.222 Y98.509 E0.01204
G1 X30.293 Y97.947 E0.01778
G1 X30.384 Y97.574 E0.01204
G1 X30.509 Y97.213 E0.01196
G1 X30.666 Y96.866 E0.01196
G1 X30.854 Y96.534 E0.01196
G1 X31.072 Y96.221 E0.01196
G1 X31.318 Y95.929 E0.01196
G1 X31.589 Y95.661 E0.01196
G1 X31.884 Y95.418 E0.01196
G1 X32.201 Y95.203 E0.01204
G1 X32.704 Y94.940 E0.01778
G1 X33.062 Y94.803 E0.01204
G1 X33.429 Y94.699 E0.01196
G1 X33.807 Y94.629 E0.01203
G1 X34.350 Y94.590 E0.01709
G1 X34.756 Y94.607 E0.01272
G1 X35.134 Y94.660 E0.01197
G1 X35.505 Y94.746 E0.01196
G1 X35.867 Y94.867 E0.01196
G1 X36.217 Y95.020 E0.01196
G1 X36.551 Y95.204 E0.01196
G1 X36.868 Y95.420 E0.01204
G1 X37.298 Y95.790 E0.01778
G1 X37.559 Y96.072 E0.01204
G1 X37.790 Y96.375 E0.01196
G1 X37.994 Y96.698 E0.01196
G1 X38.166 Y97.038 E0.01196
G1 X38.307 Y97.392 E0.01196
G1 X38.415 Y97.758 E0.01196
G1 X38.490 Y98.135 E0.01204
G1 X38.527 Y98.600 E0.01464
M204 S1250
G1 X38.884 Y98.851 F9000.000
G1 E-2.24000 F4200.000
;WIPE_START
G1 F7200.000
G1 X38.522 Y99.084 E-0.26793
G1 X38.474 Y99.462 E-0.21142
G1 X38.391 Y99.835 E-0.21140
G1 X38.275 Y100.198 E-0.21140
G1 X38.268 Y100.214 E-0.00985
;WIPE_END
G1 E-0.04800 F4200.000
G1 Z0.400 F9000.000
G1 X113.165 Y80.905
G1 Z0.200
G1 E3.20000 F2400.000
M204 S800
;TYPE:Perimeter
G1 F1200.000
G1 X122.369 Y80.905 E0.28859
G1 X128.943 Y89.480 E0.33877
G1 X145.554 Y92.036 E0.52696
M73 P8 R8
G1 X146.056 Y92.052 E0.01576
G1 X146.711 Y92.126 E0.02066
G1 X147.351 Y92.264 E0.02052
G1 X147.959 Y92.457 E0.02002
G1 X148.373 Y92.626 E0.01403
G1 X148.960 Y92.925 E0.02064
G1 X149.511 Y93.278 E0.02051
G1 X150.026 Y93.682 E0.02051
G1 X150.498 Y94.134 E0.02051
G1 X150.924 Y94.631 E0.02051
G1 X151.300 Y95.166 E0.02051
G1 X151.622 Y95.735 E0.02051
G1 X151.887 Y96.333 E0.02051
G1 X152.093 Y96.955 E0.02051
G1 X152.237 Y97.593 E0.02051
G1 X152.318 Y98.242 E0.02051
G1 X152.336 Y98.896 E0.02051
G1 X152.290 Y99.548 E0.02051
G1 X152.180 Y100.193 E0.02051
G1 X152.009 Y100.824 E0.02051
G1 X151.776 Y101.436 E0.02051
G1 X151.484 Y102.026 E0.02066
G1 X151.264 Y102.392 E0.01338
G1 X150.876 Y102.931 E0.02081
G1 X150.600 Y103.256 E0.01338
G1 X150.134 Y103.722 E0.02066
G1 X149.629 Y104.138 E0.02052
G1 X149.099 Y104.494 E0.02002
G1 X148.708 Y104.713 E0.01403
G1 X148.105 Y104.988 E0.02079
G1 X147.704 Y105.133 E0.01338
G1 X147.068 Y105.305 E0.02066
G1 X146.423 Y105.415 E0.02051
G1 X145.770 Y105.461 E0.02051
G1 X145.116 Y105.443 E0.02051
G1 X144.463 Y105.361 E0.02066
G1 X144.045 Y105.274 E0.01338
G1 X143.408 Y105.086 E0.02081
G1 X143.006 Y104.931 E0.01353
G1 X142.614 Y104.749 E0.01354
G1 X142.054 Y104.433 E0.02017
G1 X141.683 Y104.183 E0.01403
G1 X141.166 Y103.768 E0.02079
G1 X140.856 Y103.474 E0.01338
G1 X140.413 Y102.980 E0.02081
G1 X140.155 Y102.640 E0.01339
G1 X139.808 Y102.099 E0.02017
G1 X139.595 Y101.700 E0.01418
G1 X139.418 Y101.307 E0.01351
G1 X139.196 Y100.681 E0.02081
G1 X139.087 Y100.269 E0.01338
G1 X138.969 Y99.616 E0.02081
G1 X138.927 Y99.188 E0.01348
G1 X138.893 Y97.963 E0.03841
G1 X129.669 Y97.963 E0.28920
G1 X118.169 Y87.963 E0.47783
G1 X112.274 Y87.963 E0.18483
G1 X112.274 Y76.147 E0.37048
G1 X67.726 Y76.147 E1.39679
M73 P9 R8
G1 X67.726 Y87.963 E0.37048
G1 X61.831 Y87.963 E0.18483
G1 X50.331 Y97.963 E0.47783
G1 X41.107 Y97.963 E0.28920
G1 X41.073 Y99.183 E0.03826
G1 X40.999 Y99.836 E0.02062
G1 X40.861 Y100.480 E0.02066
G1 X40.738 Y100.889 E0.01338
G1 X40.495 Y101.507 E0.02081
G1 X40.308 Y101.890 E0.01338
G1 X39.969 Y102.461 E0.02081
G1 X39.719 Y102.813 E0.01353
G1 X39.447 Y103.147 E0.01353
G1 X38.988 Y103.627 E0.02081
G1 X38.669 Y103.910 E0.01338
G1 X38.138 Y104.309 E0.02081
G1 X37.777 Y104.537 E0.01338
G1 X37.189 Y104.844 E0.02081
G1 X36.796 Y105.011 E0.01338
G1 X36.171 Y105.218 E0.02066
G1 X35.533 Y105.362 E0.02051
G1 X34.884 Y105.443 E0.02051
G1 X34.230 Y105.461 E0.02051
G1 X33.577 Y105.415 E0.02051
G1 X32.927 Y105.305 E0.02066
G1 X32.509 Y105.198 E0.01353
G1 X32.099 Y105.065 E0.01353
G1 X31.491 Y104.811 E0.02066
G1 X30.915 Y104.502 E0.02051
G1 X30.371 Y104.137 E0.02051
G1 X29.866 Y103.722 E0.02051
G1 X29.403 Y103.260 E0.02051
G1 X28.988 Y102.754 E0.02051
G1 X28.621 Y102.207 E0.02066
G1 X28.411 Y101.830 E0.01353
G1 X28.234 Y101.459 E0.01288
G1 X27.991 Y100.824 E0.02131
G1 X27.818 Y100.189 E0.02064
G1 X27.740 Y99.769 E0.01338
G1 X27.673 Y99.114 E0.02066
G1 X27.669 Y98.455 E0.02066
G1 X27.701 Y98.029 E0.01338
G1 X27.805 Y97.374 E0.02081
G1 X27.907 Y96.954 E0.01353
G1 X28.036 Y96.543 E0.01353
G1 X28.285 Y95.927 E0.02081
G1 X28.477 Y95.546 E0.01338
M73 P10 R8
G1 X28.822 Y94.979 E0.02081
G1 X29.073 Y94.634 E0.01338
G1 X29.502 Y94.134 E0.02066
G1 X29.978 Y93.679 E0.02066
G1 X30.313 Y93.406 E0.01353
G1 X30.664 Y93.157 E0.01353
G1 X31.235 Y92.817 E0.02081
G1 X31.618 Y92.630 E0.01338
G1 X32.236 Y92.388 E0.02081
G1 X32.645 Y92.265 E0.01338
G1 X33.289 Y92.126 E0.02066
G1 X33.944 Y92.052 E0.02066
G1 X34.446 Y92.036 E0.01576
G1 X51.057 Y89.480 E0.52696
G1 X57.631 Y80.905 E0.33877
G1 X66.835 Y80.905 E0.28859
G1 X66.835 Y74.537 E0.19967
G1 X113.165 Y74.537 E1.45263
G1 X113.165 Y80.845 E0.19778
M204 S1250
M73 P11 R8
G1 X113.542 Y80.528 F9000.000
M204 S800
;TYPE:External perimeter
G1 F1200.000
G1 X122.555 Y80.528 E0.28260
G1 X129.150 Y89.130 E0.33986
G1 X145.589 Y91.659 E0.52149
G1 X146.084 Y91.675 E0.01553
G1 X146.772 Y91.754 E0.02172
G1 X147.448 Y91.899 E0.02167
G1 X148.088 Y92.102 E0.02106
G1 X148.531 Y92.283 E0.01500
G1 X149.148 Y92.598 E0.02171
G1 X149.730 Y92.970 E0.02166
G1 X150.273 Y93.397 E0.02166
G1 X150.772 Y93.875 E0.02166
G1 X151.222 Y94.399 E0.02166
G1 X151.619 Y94.964 E0.02166
G1 X151.959 Y95.566 E0.02166
G1 X152.239 Y96.198 E0.02166
G1 X152.456 Y96.854 E0.02166
G1 X152.608 Y97.528 E0.02166
G1 X152.694 Y98.213 E0.02166
G1 X152.713 Y98.904 E0.02166
G1 X152.664 Y99.593 E0.02166
G1 X152.549 Y100.274 E0.02166
G1 X152.368 Y100.941 E0.02166
G1 X152.122 Y101.587 E0.02166
