; generated by PrusaSlicer 2.3.0+win64 on 2021-08-11 at 10:51:25 UTC


;
;

;
;
; 

; external perimeters extrusion width = 0.45mm
; perimeters extrusion width = 0.45mm
; infill extrusion width = 0.45mm
; solid infill extrusion width = 0.45mm
; top infill extrusion width = 0.40mm
; first layer extrusion width = 0.42mm

M73 P0 R8
M201 X1250 Y1250 Z400 E5000 ; sets maximum accelerations, mm/sec^2
M203 X180 Y180 Z12 E80 ; sets maximum feedrates, mm/sec
M204 P1250 R1250 T1250 ; sets acceleration (P, T) and retract acceleration (R), mm/sec^2
M205 X8.00 Y8.00 Z2.00 E10.00 ; sets the jerk limits, mm/sec
M205 S0 T0 ; sets the minimum extruding and travel feed rate, mm/sec
M107
;TYPE:Custom
G90 ; use absolute coordinates
M83 ; extruder relative mode
M104 S170 ; set extruder temp for bed leveling
M140 S60 ; set bed temp
M109 R170 ; wait for bed leveling temp
M190 S60 ; wait for bed temp
G28 ; home all without mesh bed level
G29 ; mesh bed leveling 
M104 S215 ; set extruder temp
G92 E0.0
G1 Y-2.0 X179 F2400
G1 Z3 F720
M109 S215 ; wait for extruder temp

; intro line
G1 X170 F1000
M73 P1 R8
G1 Z0.2 F720
G1 X110.0 E8.0 F900
G1 X40.0 E10.0 F700
G92 E0.0

M221 S95 ; set flow
G21 ; set units to millimeters
G90 ; use absolute coordinates
M83 ; use relative distances for extrusion
M900 K0.2 ; Filament gcode LA 1.5
; ; Filament gcode LA 1.0
;LAYER_CHANGE
;Z:0.2
;HEIGHT:0.2
;BEFORE_LAYER_CHANGE
G92 E0.0
;0.2


M73 P3 R8
G1 E-3.20000 F4200.000
G1 Z0.200 F9000.000
;AFTER_LAYER_CHANGE
;0.2
G1 Z0.400
G1 X65.254 Y71.510
G1 Z0.200
G1 E3.20000 F2400.000
M204 S800
;TYPE:Skirt
;WIDTH:0.42
G1 F1200.000
G1 X66.042 Y71.373 E0.02508
G1 X113.956 Y71.373 E1.50229
G1 X114.547 Y71.449 E0.01870
G1 X115.103 Y71.671 E0.01877
G1 X148.516 Y90.169 E1.19748
M73 P4 R8
G1 X149.371 Y90.717 E0.03183
G1 X150.333 Y91.501 E0.03892
G1 X151.615 Y92.944 E0.06053
G1 X152.589 Y94.602 E0.06029
G1 X153.223 Y96.418 E0.06029
G1 X153.493 Y98.326 E0.06041
G1 X153.389 Y100.242 E0.06017
G1 X152.913 Y102.109 E0.06041
G1 X152.087 Y103.845 E0.06029
G1 X150.929 Y105.399 E0.06077
G1 X149.486 Y106.700 E0.06092
G1 X148.536 Y107.319 E0.03552
G1 X147.612 Y107.786 E0.03247
G1 X145.756 Y108.395 E0.06124
G1 X143.855 Y108.625 E0.06006
G1 X36.150 Y108.625 E3.37700
M73 P5 R8
G1 X34.597 Y108.466 E0.04896
G1 X33.291 Y108.133 E0.04226
G1 X31.844 Y107.527 E0.04919
G1 X30.511 Y106.698 E0.04920
G1 X29.481 Y105.823 E0.04237
G1 X28.448 Y104.642 E0.04920
G1 X27.617 Y103.316 E0.04908
G1 X27.081 Y102.092 E0.04190
G1 X26.666 Y100.563 E0.04967
G1 X26.501 Y98.999 E0.04932
G1 X26.560 Y97.649 E0.04238
G1 X26.859 Y96.105 E0.04931
G1 X27.409 Y94.607 E0.05003
G1 X28.181 Y93.236 E0.04932
G1 X29.010 Y92.169 E0.04237
G1 X30.157 Y91.076 E0.04967
G1 X31.490 Y90.166 E0.05062
G1 X65.202 Y71.539 E1.20762
M204 S1250
; printing object speakerMount03.stl id:0 copy 0
M73 P6 R8
G1 E-2.24000 F4200.000
;WIPE_START
G1 F7200.000
G1 X66.042 Y71.373 E-0.47481
G1 X66.831 Y71.373 E-0.43719
;WIPE_END
G1 E-0.04800 F4200.000
G1 Z0.400 F9000.000
G1 X139.380 Y97.155
G1 Z0.200
G1 E3.20000 F2400.000
M204 S800
;TYPE:Perimeter
G1 F1200.000
G1 X139.579 Y96.695 E0.01572
G1 X139.785 Y96.333 E0.01305
G1 X140.022 Y95.991 E0.01305
G1 X140.290 Y95.673 E0.01305
G1 X140.591 Y95.376 E0.01326
G1 X141.071 Y94.999 E0.01914
G1 X141.432 Y94.778 E0.01326
G1 X141.805 Y94.594 E0.01305
G1 X142.193 Y94.444 E0.01305
G1 X142.594 Y94.331 E0.01305
G1 X143.009 Y94.254 E0.01324
G1 X143.595 Y94.213 E0.01842
G1 X144.040 Y94.231 E0.01396
G1 X144.453 Y94.289 E0.01308
G1 X144.858 Y94.383 E0.01305
G1 X145.253 Y94.514 E0.01305
G1 X145.640 Y94.684 E0.01324
G1 X146.148 Y94.979 E0.01842
G1 X146.505 Y95.244 E0.01396
G1 X146.815 Y95.523 E0.01308
G1 X147.097 Y95.829 E0.01305
G1 X147.350 Y96.159 E0.01305
G1 X147.572 Y96.511 E0.01305
G1 X147.761 Y96.882 E0.01305
G1 X147.914 Y97.269 E0.01305
G1 X148.032 Y97.668 E0.01305
G1 X148.114 Y98.083 E0.01326
G1 X148.163 Y98.690 E0.01908
G1 X148.148 Y99.114 E0.01331
G1 X148.096 Y99.527 E0.01305
G1 X148.006 Y99.933 E0.01305
G1 X147.877 Y100.336 E0.01326
G1 X147.626 Y100.892 E0.01914
G1 X147.409 Y101.255 E0.01326
G1 X147.163 Y101.591 E0.01305
G1 X146.888 Y101.903 E0.01305
G1 X146.586 Y102.189 E0.01305
G1 X146.258 Y102.446 E0.01305
G1 X145.904 Y102.675 E0.01324
G1 X145.377 Y102.936 E0.01842
G1 X144.959 Y103.088 E0.01396
G1 X144.555 Y103.192 E0.01308
G1 X144.144 Y103.258 E0.01305
G1 X143.729 Y103.287 E0.01305
G1 X143.313 Y103.277 E0.01305
G1 X142.900 Y103.230 E0.01305
G1 X142.492 Y103.144 E0.01305
G1 X142.088 Y103.020 E0.01326
G1 X141.529 Y102.775 E0.01914
G1 X141.164 Y102.562 E0.01326
G1 X140.825 Y102.321 E0.01305
G1 X140.510 Y102.050 E0.01305
G1 X140.221 Y101.750 E0.01305
G1 X139.960 Y101.426 E0.01305
G1 X139.730 Y101.079 E0.01305
G1 X139.533 Y100.712 E0.01305
G1 X139.368 Y100.323 E0.01326
G1 X139.196 Y99.738 E0.01914
G1 X139.123 Y99.321 E0.01326
G1 X139.090 Y98.906 E0.01305
G1 X139.095 Y98.484 E0.01324
G1 X139.168 Y97.901 E0.01842
G1 X139.272 Y97.468 E0.01396
G1 X139.361 Y97.211 E0.00852
M204 S1250
G1 X139.717 Y97.335 F9000.000
M204 S800
;TYPE:External perimeter
G1 F1200.000
G1 X139.916 Y96.866 E0.01597
G1 X140.104 Y96.534 E0.01196
G1 X140.322 Y96.221 E0.01196
G1 X140.568 Y95.929 E0.01196
G1 X140.841 Y95.659 E0.01204
G1 X141.287 Y95.309 E0.01778
G1 X141.614 Y95.108 E0.01204
G1 X141.956 Y94.939 E0.01196
G1 X142.312 Y94.803 E0.01196
G1 X142.679 Y94.699 E0.01196
G1 X143.057 Y94.629 E0.01203
G1 X143.600 Y94.590 E0.01709
G1 X144.006 Y94.607 E0.01272
G1 X144.384 Y94.660 E0.01197
G1 X144.755 Y94.746 E0.01196
G1 X145.117 Y94.867 E0.01196
G1 X145.469 Y95.021 E0.01203
G1 X145.940 Y95.294 E0.01709
G1 X146.266 Y95.536 E0.01272
G1 X146.550 Y95.792 E0.01197
G1 X146.809 Y96.072 E0.01196
G1 X147.040 Y96.375 E0.01196
G1 X147.244 Y96.698 E0.01196
G1 X147.416 Y97.038 E0.01196
G1 X147.557 Y97.392 E0.01196
G1 X147.665 Y97.758 E0.01196
G1 X147.740 Y98.135 E0.01204
G1 X147.785 Y98.698 E0.01773
G1 X147.772 Y99.084 E0.01209
G1 X147.724 Y99.462 E0.01196
G1 X147.641 Y99.835 E0.01196
G1 X147.524 Y100.200 E0.01204
G1 X147.291 Y100.717 E0.01778
G1 X147.094 Y101.047 E0.01204
G1 X146.869 Y101.355 E0.01196
G1 X146.617 Y101.641 E0.01196
G1 X146.340 Y101.903 E0.01196
G1 X146.039 Y102.138 E0.01196
G1 X145.717 Y102.346 E0.01203
G1 X145.229 Y102.589 E0.01709
G1 X144.847 Y102.727 E0.01272
G1 X144.478 Y102.822 E0.01197
G1 X144.101 Y102.883 E0.01196
G1 X143.720 Y102.909 E0.01196
G1 X143.339 Y102.901 E0.01196
G1 X142.960 Y102.857 E0.01196
G1 X142.587 Y102.779 E0.01196
G1 X142.220 Y102.666 E0.01204
G1 X141.700 Y102.439 E0.01778
G1 X141.368 Y102.245 E0.01204
G1 X141.058 Y102.024 E0.01196
G1 X140.769 Y101.775 E0.01196
G1 X140.504 Y101.501 E0.01196
G1 X140.265 Y101.203 E0.01196
G1 X140.054 Y100.885 E0.01196
G1 X139.874 Y100.549 E0.01196
G1 X139.724 Y100.196 E0.01204
G1 X139.563 Y99.652 E0.01778
G1 X139.498 Y99.274 E0.01204
G1 X139.467 Y98.893 E0.01196
G1 X139.472 Y98.510 E0.01203
G1 X139.539 Y97.969 E0.01709
G1 X139.634 Y97.574 E0.01272
G1 X139.698 Y97.391 E0.00607
M204 S1250
G1 X139.463 Y97.026 F9000.000
G1 E-2.24000 F4200.000
;WIPE_START
G1 F7200.000
G1 X139.916 Y96.866 E-0.31538
G1 X140.104 Y96.534 E-0.21139
G1 X140.322 Y96.221 E-0.21140
G1 X140.524 Y95.981 E-0.17383
;WIPE_END
G1 E-0.04800 F4200.000
G1 Z0.400 F9000.000
G1 X40.913 Y98.690
G1 Z0.200
G1 E3.20000 F2400.000
M204 S800
;TYPE:Perimeter
G1 F1200.000
G1 X40.898 Y99.114 E0.01331
G1 X40.846 Y99.527 E0.01305
G1 X40.756 Y99.933 E0.01305
M73 P7 R8
G1 X40.629 Y100.329 E0.01305
G1 X40.467 Y100.712 E0.01305
G1 X40.266 Y101.085 E0.01326
G1 X39.918 Y101.586 E0.01914
G1 X39.638 Y101.903 E0.01326
G1 X39.336 Y102.189 E0.01305
G1 X39.008 Y102.446 E0.01305
G1 X38.659 Y102.671 E0.01305
G1 X38.290 Y102.864 E0.01305
G1 X37.905 Y103.022 E0.01305
G1 X37.501 Y103.146 E0.01326
G1 X36.901 Y103.258 E0.01914
G1 X36.479 Y103.287 E0.01326
G1 X36.063 Y103.277 E0.01305
G1 X35.650 Y103.230 E0.01305
G1 X35.242 Y103.144 E0.01305
G1 X34.838 Y103.020 E0.01326
G1 X34.279 Y102.775 E0.01914
G1 X33.914 Y102.562 E0.01326
G1 X33.575 Y102.321 E0.01305
G1 X33.260 Y102.050 E0.01305
G1 X32.970 Y101.750 E0.01305
G1 X32.710 Y101.426 E0.01305
G1 X32.480 Y101.079 E0.01305
G1 X32.283 Y100.712 E0.01305
G1 X32.118 Y100.323 E0.01326
G1 X31.946 Y99.738 E0.01914
G1 X31.873 Y99.321 E0.01326
G1 X31.840 Y98.906 E0.01305
G1 X31.845 Y98.483 E0.01326
G1 X31.922 Y97.878 E0.01914
G1 X32.022 Y97.467 E0.01326
G1 X32.158 Y97.074 E0.01305
G1 X32.329 Y96.695 E0.01305
G1 X32.535 Y96.333 E0.01305
G1 X32.772 Y95.991 E0.01305
G1 X33.040 Y95.673 E0.01305
G1 X33.336 Y95.380 E0.01305
G1 X33.658 Y95.116 E0.01305
G1 X34.007 Y94.879 E0.01326
G1 X34.548 Y94.596 E0.01914
G1 X34.943 Y94.444 E0.01326
G1 X35.344 Y94.331 E0.01305
G1 X35.759 Y94.254 E0.01324
G1 X36.345 Y94.213 E0.01842
G1 X36.790 Y94.231 E0.01396
G1 X37.203 Y94.289 E0.01308
G1 X37.608 Y94.383 E0.01305
G1 X38.003 Y94.514 E0.01305
G1 X38.384 Y94.681 E0.01305
G1 X38.748 Y94.883 E0.01305
G1 X39.098 Y95.120 E0.01326
G1 X39.561 Y95.518 E0.01914
G1 X39.847 Y95.829 E0.01326
G1 X40.100 Y96.159 E0.01305
G1 X40.322 Y96.511 E0.01305
G1 X40.511 Y96.882 E0.01305
G1 X40.664 Y97.269 E0.01305
G1 X40.782 Y97.668 E0.01305
G1 X40.864 Y98.083 E0.01326
G1 X40.908 Y98.630 E0.01720
M204 S1250
G1 X40.532 Y98.660 F9000.000
M204 S800
;TYPE:External perimeter
G1 F1200.000
G1 X40.522 Y99.084 E0.01329
G1 X40.474 Y99.462 E0.01196
G1 X40.391 Y99.835 E0.01196
G1 X40.275 Y100.198 E0.01196
G1 X40.126 Y100.549 E0.01196
G1 X39.945 Y100.887 E0.01204
G1 X39.621 Y101.353 E0.01778
G1 X39.367 Y101.641 E0.01204
G1 X39.090 Y101.903 E0.01196
G1 X38.789 Y102.138 E0.01196
G1 X38.469 Y102.345 E0.01196
G1 X38.131 Y102.522 E0.01196
G1 X37.778 Y102.667 E0.01196
G1 X37.411 Y102.780 E0.01204
G1 X36.853 Y102.883 E0.01778
G1 X36.470 Y102.909 E0.01204
G1 X36.089 Y102.901 E0.01196
G1 X35.710 Y102.857 E0.01196
G1 X35.337 Y102.779 E0.01196
G1 X34.970 Y102.666 E0.01204
G1 X34.450 Y102.439 E0.01778
G1 X34.118 Y102.245 E0.01204
G1 X33.808 Y102.024 E0.01196
G1 X33.519 Y101.775 E0.01196
G1 X33.254 Y101.501 E0.01196
G1 X33.015 Y101.203 E0.01196
G1 X32.804 Y100.885 E0.01196
G1 X32.624 Y100.549 E0.01196
G1 X32.474 Y100.196 E0.01204
G1 X32.313 Y99.652 E0.01778
G1 X32.248 Y99.274 E0.01204
G1 X32.217 Y98.893 E0.01196
G1 X32.222 Y98.509 E0.01204
G1 X32.293 Y97.947 E0.01778
G1 X32.384 Y97.574 E0.01204
G1 X32.509 Y97.213 E0.01196
G1 X32.666 Y96.866 E0.01196
G1 X32.854 Y96.534 E0.01196
G1 X33.072 Y96.221 E0.01196
G1 X33.318 Y95.929 E0.01196
G1 X33.589 Y95.661 E0.01196
G1 X33.884 Y95.418 E0.01196
G1 X34.201 Y95.203 E0.01204
G1 X34.704 Y94.940 E0.01778
G1 X35.062 Y94.803 E0.01204
G1 X35.429 Y94.699 E0.01196
G1 X35.807 Y94.629 E0.01203
G1 X36.350 Y94.590 E0.01709
G1 X36.756 Y94.607 E0.01272
G1 X37.134 Y94.660 E0.01197
G1 X37.505 Y94.746 E0.01196
G1 X37.867 Y94.867 E0.01196
G1 X38.217 Y95.020 E0.01196
G1 X38.551 Y95.204 E0.01196
G1 X38.868 Y95.420 E0.01204
G1 X39.298 Y95.790 E0.01778
G1 X39.559 Y96.072 E0.01204
G1 X39.790 Y96.375 E0.01196
G1 X39.994 Y96.698 E0.01196
G1 X40.166 Y97.038 E0.01196
G1 X40.307 Y97.392 E0.01196
G1 X40.415 Y97.758 E0.01196
G1 X40.490 Y98.135 E0.01204
G1 X40.527 Y98.600 E0.01464
M204 S1250
G1 X40.884 Y98.851 F9000.000
G1 E-2.24000 F4200.000
;WIPE_START
G1 F7200.000
G1 X40.522 Y99.084 E-0.26793
G1 X40.474 Y99.462 E-0.21142
G1 X40.391 Y99.835 E-0.21140
G1 X40.275 Y100.198 E-0.21140
G1 X40.268 Y100.214 E-0.00985
;WIPE_END
G1 E-0.04800 F4200.000
G1 Z0.400 F9000.000
G1 X113.165 Y80.905
G1 Z0.200
G1 E3.20000 F2400.000
M204 S800
;TYPE:Perimeter
G1 F1200.000
G1 X122.369 Y80.905 E0.28859
G1 X129.210 Y89.829 E0.35256
G1 X143.549 Y92.035 E0.45488
M73 P8 R8
G1 X144.279 Y92.070 E0.02290
G1 X144.926 Y92.165 E0.02051
G1 X145.546 Y92.319 E0.02002
G1 X145.970 Y92.461 E0.01403
G1 X146.575 Y92.721 E0.02064
G1 X147.148 Y93.037 E0.02051
G1 X147.687 Y93.407 E0.02051
G1 X148.188 Y93.827 E0.02051
G1 X148.645 Y94.295 E0.02051
G1 X149.055 Y94.805 E0.02051
G1 X149.414 Y95.352 E0.02051
G1 X149.717 Y95.932 E0.02051
G1 X149.962 Y96.538 E0.02051
G1 X150.147 Y97.166 E0.02051
G1 X150.271 Y97.808 E0.02051
G1 X150.331 Y98.459 E0.02051
G1 X150.327 Y99.114 E0.02051
G1 X150.260 Y99.764 E0.02051
G1 X150.130 Y100.405 E0.02051
G1 X149.938 Y101.031 E0.02051
G1 X149.686 Y101.634 E0.02051
G1 X149.376 Y102.211 E0.02051
G1 X149.010 Y102.758 E0.02066
G1 X148.744 Y103.092 E0.01338
G1 X148.293 Y103.573 E0.02066
G1 X147.798 Y104.008 E0.02066
G1 X147.456 Y104.262 E0.01338
G1 X146.897 Y104.611 E0.02066
G1 X146.306 Y104.904 E0.02066
G1 X145.910 Y105.062 E0.01338
G1 X145.276 Y105.257 E0.02081
G1 X144.859 Y105.348 E0.01338
G1 X144.201 Y105.438 E0.02081
G1 X143.775 Y105.461 E0.01338
G1 X143.116 Y105.443 E0.02066
G1 X142.463 Y105.361 E0.02066
G1 X142.045 Y105.274 E0.01338
G1 X141.408 Y105.086 E0.02081
G1 X141.006 Y104.931 E0.01353
G1 X140.614 Y104.749 E0.01354
G1 X140.054 Y104.433 E0.02017
G1 X139.683 Y104.183 E0.01403
G1 X139.166 Y103.768 E0.02079
G1 X138.856 Y103.474 E0.01338
G1 X138.413 Y102.980 E0.02081
G1 X138.155 Y102.640 E0.01339
G1 X137.808 Y102.099 E0.02017
G1 X137.595 Y101.700 E0.01418
G1 X137.418 Y101.307 E0.01351
G1 X137.196 Y100.681 E0.02081
G1 X137.087 Y100.269 E0.01338
G1 X136.969 Y99.616 E0.02081
G1 X136.927 Y99.188 E0.01348
G1 X136.893 Y97.963 E0.03841
G1 X129.669 Y97.963 E0.22649
G1 X118.169 Y87.963 E0.47783
G1 X110.787 Y87.963 E0.23147
G1 X110.787 Y76.147 E0.37048
G1 X69.213 Y76.147 E1.30353
M73 P9 R8
G1 X69.213 Y87.963 E0.37048
G1 X61.831 Y87.963 E0.23147
G1 X50.331 Y97.963 E0.47783
G1 X43.107 Y97.963 E0.22649
G1 X43.073 Y99.188 E0.03841
G1 X43.031 Y99.620 E0.01363
G1 X42.961 Y100.046 E0.01353
G1 X42.801 Y100.690 E0.02081
G1 X42.665 Y101.095 E0.01338
G1 X42.402 Y101.704 E0.02081
G1 X42.203 Y102.081 E0.01338
G1 X41.848 Y102.636 E0.02066
G1 X41.440 Y103.155 E0.02066
G1 X41.147 Y103.471 E0.01353
G1 X40.834 Y103.768 E0.01353
G1 X40.317 Y104.183 E0.02081
G1 X39.963 Y104.423 E0.01338
G1 X39.386 Y104.750 E0.02081
G1 X38.998 Y104.929 E0.01338
G1 X38.380 Y105.156 E0.02066
G1 X37.747 Y105.321 E0.02051
G1 X37.101 Y105.423 E0.02051
G1 X36.448 Y105.462 E0.02051
G1 X35.794 Y105.437 E0.02051
G1 X35.146 Y105.349 E0.02051
G1 X34.509 Y105.198 E0.02051
G1 X33.886 Y104.984 E0.02066
G1 X33.491 Y104.812 E0.01353
G1 X33.107 Y104.614 E0.01353
G1 X32.548 Y104.265 E0.02066
G1 X32.026 Y103.863 E0.02066
G1 X31.706 Y103.573 E0.01353
G1 X31.406 Y103.263 E0.01353
G1 X30.988 Y102.754 E0.02066
G1 X30.624 Y102.211 E0.02051
G1 X30.314 Y101.634 E0.02051
G1 X30.062 Y101.031 E0.02051
G1 X29.870 Y100.405 E0.02051
G1 X29.739 Y99.760 E0.02066
G1 X29.688 Y99.331 E0.01353
G1 X29.664 Y98.900 E0.01353
G1 X29.682 Y98.237 E0.02081
G1 X29.728 Y97.813 E0.01338
G1 X29.853 Y97.161 E0.02081
G1 X29.968 Y96.750 E0.01338
G1 X30.195 Y96.131 E0.02066
G1 X30.481 Y95.538 E0.02066
G1 X30.700 Y95.166 E0.01353
G1 X30.942 Y94.809 E0.01353
G1 X31.355 Y94.295 E0.02066
G1 X31.812 Y93.827 E0.02051
G1 X32.317 Y93.404 E0.02066
G1 X32.664 Y93.157 E0.01338
G1 X33.235 Y92.817 E0.02081
G1 X33.618 Y92.630 E0.01338
G1 X34.236 Y92.388 E0.02081
G1 X34.645 Y92.265 E0.01338
G1 X35.289 Y92.126 E0.02066
G1 X35.944 Y92.052 E0.02066
G1 X36.446 Y92.036 E0.01576
G1 X50.790 Y89.829 E0.45503
M73 P10 R8
G1 X57.631 Y80.905 E0.35256
G1 X66.835 Y80.905 E0.28859
G1 X66.835 Y74.537 E0.19967
G1 X113.165 Y74.537 E1.45263
G1 X113.165 Y80.845 E0.19778
M204 S1250
G1 X113.542 Y80.528 F9000.000
M204 S800
;TYPE:External perimeter
G1 F1200.000
G1 X122.555 Y80.528 E0.28260
G1 X129.417 Y89.479 E0.35364
M73 P11 R8
G1 X143.587 Y91.659 E0.44951
G1 X144.315 Y91.694 E0.02286
G1 X144.999 Y91.795 E0.02167
G1 X145.651 Y91.956 E0.02106
G1 X146.105 Y92.108 E0.01500
G1 X146.741 Y92.382 E0.02171
G1 X147.346 Y92.715 E0.02166
G1 X147.916 Y93.106 E0.02166
G1 X148.445 Y93.551 E0.02166
G1 X148.928 Y94.044 E0.02166
G1 X149.361 Y94.583 E0.02166
G1 X149.739 Y95.161 E0.02166
G1 X150.059 Y95.773 E0.02166
G1 X150.319 Y96.414 E0.02166
G1 X150.514 Y97.076 E0.02166
G1 X150.645 Y97.755 E0.02166
G1 X150.708 Y98.443 E0.02166
G1 X150.704 Y99.134 E0.02166
G1 X150.633 Y99.821 E0.02166
G1 X150.496 Y100.498 E0.02166
G1 X150.293 Y101.159 E0.02166
G1 X150.027 Y101.797 E0.02166
G1 X149.700 Y102.405 E0.02166
G1 X149.314 Y102.981 E0.02172
