; generated by PrusaSlicer 2.3.0+win64 on 2021-08-10 at 10:21:32 UTC


;
;

;
;
; 

; external perimeters extrusion width = 0.45mm
; perimeters extrusion width = 0.45mm
; infill extrusion width = 0.45mm
; solid infill extrusion width = 0.45mm
; top infill extrusion width = 0.40mm
; first layer extrusion width = 0.42mm

M73 P0 R9
M201 X1250 Y1250 Z400 E5000 ; sets maximum accelerations, mm/sec^2
M203 X180 Y180 Z12 E80 ; sets maximum feedrates, mm/sec
M204 P1250 R1250 T1250 ; sets acceleration (P, T) and retract acceleration (R), mm/sec^2
M205 X8.00 Y8.00 Z2.00 E10.00 ; sets the jerk limits, mm/sec
M205 S0 T0 ; sets the minimum extruding and travel feed rate, mm/sec
M107
;TYPE:Custom
G90 ; use absolute coordinates
M83 ; extruder relative mode
M104 S170 ; set extruder temp for bed leveling
M140 S60 ; set bed temp
M109 R170 ; wait for bed leveling temp
M190 S60 ; wait for bed temp
G28 ; home all without mesh bed level
G29 ; mesh bed leveling 
M104 S215 ; set extruder temp
G92 E0.0
G1 Y-2.0 X179 F2400
G1 Z3 F720
M109 S215 ; wait for extruder temp

; intro line
G1 X170 F1000
G1 Z0.2 F720
M73 P1 R9
G1 X110.0 E8.0 F900
G1 X40.0 E10.0 F700
G92 E0.0

M221 S95 ; set flow
G21 ; set units to millimeters
G90 ; use absolute coordinates
M83 ; use relative distances for extrusion
M900 K0.2 ; Filament gcode LA 1.5
; ; Filament gcode LA 1.0
;LAYER_CHANGE
;Z:0.2
;HEIGHT:0.2
;BEFORE_LAYER_CHANGE
G92 E0.0
;0.2


M73 P2 R9
G1 E-3.20000 F4200.000
G1 Z0.200 F9000.000
;AFTER_LAYER_CHANGE
;0.2
G1 Z0.400
G1 X70.650 Y90.653
G1 Z0.200
G1 E3.20000 F2400.000
M204 S800
;TYPE:Skirt
;WIDTH:0.42
M73 P3 R9
G1 F1200.000
G1 X80.704 Y78.681 E0.49019
G1 X82.569 Y76.742 E0.08436
G1 X84.272 Y75.314 E0.06967
G1 X85.784 Y74.261 E0.05778
G1 X87.702 Y73.162 E0.06929
G1 X89.749 Y72.241 E0.07039
G1 X91.874 Y71.527 E0.07027
G1 X94.024 Y71.030 E0.06920
G1 X95.874 Y70.772 E0.05858
G1 X98.102 Y70.663 E0.06992
G1 X100.754 Y70.818 E0.08330
G1 X103.024 Y71.200 E0.07217
G1 X105.593 Y71.926 E0.08371
G1 X108.078 Y72.955 E0.08434
G1 X135.799 Y87.757 E0.98531
G1 X136.455 Y88.183 E0.02452
G1 X137.042 Y88.700 E0.02454
G1 X137.900 Y89.845 E0.04487
G1 X138.244 Y90.588 E0.02567
G1 X138.463 Y91.342 E0.02459
G1 X138.573 Y92.776 E0.04511
G1 X138.464 Y93.585 E0.02561
G1 X138.243 Y94.346 E0.02483
G1 X137.558 Y95.624 E0.04547
G1 X126.795 Y108.311 E0.52164
G1 X125.507 Y109.552 E0.05608
G1 X124.438 Y110.447 E0.04371
G1 X123.004 Y111.488 E0.05558
G1 X121.472 Y112.426 E0.05632
M73 P4 R9
G1 X119.442 Y113.435 E0.07107
G1 X116.967 Y114.348 E0.08271
G1 X114.757 Y114.904 E0.07146
G1 X112.536 Y115.233 E0.07039
G1 X110.270 Y115.343 E0.07114
G1 X107.639 Y115.189 E0.08264
G1 X105.405 Y114.815 E0.07102
G1 X103.235 Y114.227 E0.07047
G1 X101.539 Y113.602 E0.05668
G1 X99.887 Y112.839 E0.05707
G1 X72.616 Y98.263 E0.96953
G1 X71.943 Y97.829 E0.02512
G1 X71.355 Y97.312 E0.02454
G1 X70.492 Y96.163 E0.04505
G1 X69.977 Y94.871 E0.04363
G1 X69.810 Y93.451 E0.04482
G1 X69.878 Y92.683 E0.02417
G1 X70.057 Y91.929 E0.02430
G1 X70.625 Y90.708 E0.04223
M204 S1250
; printing object SpeakerRing01.stl id:1 copy 0
G1 E-2.24000 F4200.000
;WIPE_START
G1 F7200.000
G1 X71.682 Y89.447 E-0.91200
;WIPE_END
G1 E-0.04800 F4200.000
G1 Z0.400 F9000.000
G1 X76.144 Y91.419
G1 Z0.200
G1 E3.20000 F2400.000
M204 S800
;TYPE:Perimeter
G1 F1200.000
G1 X76.465 Y91.402 E0.01007
G1 X76.812 Y91.339 E0.01107
G1 X77.282 Y91.177 E0.01560
G1 X77.602 Y91.007 E0.01135
G1 X78.001 Y90.710 E0.01560
G1 X78.254 Y90.451 E0.01135
G1 X78.549 Y90.039 E0.01588
G1 X78.767 Y89.572 E0.01614
G1 X79.126 Y88.189 E0.04480
G1 X79.350 Y87.449 E0.02426
G1 X79.604 Y86.718 E0.02427
G1 X79.886 Y85.997 E0.02427
G1 X80.196 Y85.288 E0.02427
G1 X80.533 Y84.594 E0.02418
G1 X81.093 Y83.570 E0.03658
G1 X81.496 Y82.913 E0.02418
G1 X81.926 Y82.269 E0.02427
G1 X82.379 Y81.645 E0.02418
G1 X83.110 Y80.736 E0.03658
G1 X83.623 Y80.159 E0.02418
G1 X84.159 Y79.601 E0.02427
G1 X84.717 Y79.065 E0.02427
G1 X85.294 Y78.553 E0.02418
G1 X86.203 Y77.821 E0.03658
G1 X86.827 Y77.368 E0.02418
G1 X87.470 Y76.938 E0.02427
G1 X88.128 Y76.535 E0.02418
G1 X89.151 Y75.975 E0.03658
G1 X89.845 Y75.638 E0.02418
G1 X90.554 Y75.328 E0.02427
G1 X91.275 Y75.046 E0.02427
G1 X92.004 Y74.793 E0.02418
G1 X93.116 Y74.468 E0.03633
G1 X93.874 Y74.286 E0.02443
G1 X94.633 Y74.135 E0.02427
G1 X95.394 Y74.014 E0.02418
G1 X96.554 Y73.888 E0.03658
G1 X97.321 Y73.843 E0.02409
G1 X98.480 Y73.832 E0.03633
G1 X99.259 Y73.862 E0.02443
G1 X100.030 Y73.923 E0.02427
G1 X100.796 Y74.013 E0.02418
G1 X101.947 Y74.207 E0.03658
G1 X102.697 Y74.372 E0.02409
G1 X103.823 Y74.677 E0.03658
G1 X104.557 Y74.916 E0.02418
G1 X105.283 Y75.184 E0.02427
G1 X105.995 Y75.479 E0.02418
G1 X107.043 Y75.974 E0.03633
M73 P5 R9
G1 X107.730 Y76.341 E0.02443
G1 X108.396 Y76.731 E0.02418
G1 X109.372 Y77.370 E0.03658
G1 X109.996 Y77.823 E0.02418
G1 X110.604 Y78.302 E0.02427
G1 X111.192 Y78.805 E0.02427
G1 X111.761 Y79.330 E0.02427
G1 X112.308 Y79.878 E0.02427
G1 X112.834 Y80.446 E0.02427
G1 X113.336 Y81.035 E0.02427
G1 X113.816 Y81.643 E0.02427
G1 X114.271 Y82.269 E0.02427
G1 X114.701 Y82.913 E0.02427
G1 X115.104 Y83.570 E0.02418
G1 X115.664 Y84.594 E0.03658
G1 X116.000 Y85.288 E0.02418
G1 X116.310 Y85.997 E0.02427
G1 X116.593 Y86.718 E0.02427
G1 X116.846 Y87.449 E0.02427
G1 X117.071 Y88.189 E0.02426
G1 X117.430 Y89.572 E0.04480
G1 X117.647 Y90.039 E0.01614
G1 X117.947 Y90.458 E0.01617
G1 X118.313 Y90.809 E0.01588
G1 X118.602 Y91.011 E0.01107
G1 X118.914 Y91.177 E0.01107
G1 X119.384 Y91.339 E0.01560
G1 X119.819 Y91.406 E0.01380
G1 X119.859 Y91.570 E0.00528
G1 X119.704 Y91.660 E0.00561
G1 X119.347 Y91.966 E0.01475
G1 X119.047 Y92.360 E0.01551
G1 X118.865 Y92.753 E0.01361
G1 X117.363 Y92.753 E0.04710
G1 X117.348 Y92.344 E0.01284
G1 X117.238 Y91.158 E0.03736
G1 X117.122 Y90.363 E0.02519
G1 X116.889 Y89.193 E0.03740
G1 X116.585 Y88.040 E0.03740
G1 X116.339 Y87.275 E0.02519
G1 X115.917 Y86.160 E0.03740
G1 X115.426 Y85.070 E0.03749
G1 X114.869 Y84.015 E0.03740
G1 X114.458 Y83.325 E0.02519
G1 X113.795 Y82.333 E0.03740
G1 X113.071 Y81.382 E0.03749
G1 X112.290 Y80.480 E0.03740
G1 X111.736 Y79.902 E0.02509
G1 X111.159 Y79.348 E0.02509
G1 X110.259 Y78.570 E0.03730
G1 X109.628 Y78.079 E0.02509
G1 X108.979 Y77.615 E0.02500
G1 X108.309 Y77.178 E0.02509
G1 X107.281 Y76.579 E0.03730
G1 X106.569 Y76.213 E0.02509
G1 X105.846 Y75.878 E0.02500
G1 X105.109 Y75.573 E0.02500
G1 X104.361 Y75.298 E0.02500
G1 X103.602 Y75.055 E0.02500
G1 X102.833 Y74.843 E0.02500
G1 X102.056 Y74.664 E0.02500
G1 X101.273 Y74.516 E0.02500
G1 X100.484 Y74.401 E0.02500
G1 X99.691 Y74.319 E0.02500
G1 X98.895 Y74.270 E0.02500
G1 X98.098 Y74.253 E0.02500
G1 X97.301 Y74.270 E0.02500
G1 X96.505 Y74.319 E0.02500
G1 X95.713 Y74.401 E0.02500
G1 X94.924 Y74.516 E0.02500
G1 X94.140 Y74.664 E0.02500
G1 X93.363 Y74.843 E0.02500
G1 X92.595 Y75.055 E0.02500
G1 X91.822 Y75.303 E0.02546
G1 X90.720 Y75.720 E0.03693
G1 X89.987 Y76.042 E0.02509
G1 X89.271 Y76.392 E0.02500
G1 X88.570 Y76.771 E0.02500
G1 X87.885 Y77.179 E0.02500
G1 X87.218 Y77.615 E0.02500
G1 X86.569 Y78.079 E0.02500
G1 X85.937 Y78.570 E0.02509
G1 X85.038 Y79.348 E0.03730
G1 X84.458 Y79.904 E0.02519
G1 X83.643 Y80.771 E0.03730
G1 X83.117 Y81.394 E0.02555
G1 X82.401 Y82.333 E0.03703
G1 X81.739 Y83.325 E0.03739
G1 X81.327 Y84.015 E0.02519
G1 X80.771 Y85.070 E0.03740
G1 X80.279 Y86.160 E0.03749
G1 X79.857 Y87.275 E0.03740
G1 X79.612 Y88.040 E0.02519
G1 X79.308 Y89.190 E0.03730
G1 X79.141 Y89.988 E0.02555
G1 X78.959 Y91.155 E0.03703
G1 X78.848 Y92.344 E0.03745
G1 X78.834 Y92.753 E0.01284
G1 X77.328 Y92.753 E0.04721
G1 X77.299 Y92.654 E0.00324
G1 X77.059 Y92.221 E0.01553
G1 X76.731 Y91.849 E0.01553
G1 X76.192 Y91.455 E0.02094
M204 S1250
G1 E-2.24000 F4200.000
;WIPE_START
G1 F7200.000
G1 X76.465 Y91.402 E-0.15369
G1 X76.812 Y91.339 E-0.19564
G1 X77.282 Y91.177 E-0.27570
G1 X77.602 Y91.007 E-0.20068
G1 X77.727 Y90.914 E-0.08629
;WIPE_END
G1 E-0.04800 F4200.000
G1 Z0.400 F9000.000
G1 X119.100 Y93.610
G1 Z0.200
G1 E3.20000 F2400.000
M204 S800
;TYPE:External perimeter
G1 F1200.000
G1 X119.130 Y93.201 E0.01284
G1 X119.200 Y92.927 E0.00888
G1 X119.372 Y92.555 E0.01284
G1 X119.622 Y92.226 E0.01295
G1 X119.924 Y91.969 E0.01243
G1 X120.179 Y91.819 E0.00929
G1 X120.565 Y91.682 E0.01285
G1 X120.958 Y91.631 E0.01243
G1 X121.254 Y91.645 E0.00929
G1 X121.653 Y91.740 E0.01285
G1 X122.010 Y91.912 E0.01243
G1 X122.247 Y92.084 E0.00917
G1 X122.447 Y92.280 E0.00878
G1 X122.682 Y92.615 E0.01284
G1 X122.842 Y92.996 E0.01296
G1 X122.917 Y93.403 E0.01296
G1 X122.902 Y93.816 E0.01296
G1 X122.799 Y94.212 E0.01284
G1 X122.680 Y94.469 E0.00888
G1 X122.444 Y94.804 E0.01284
G1 X122.139 Y95.083 E0.01295
G1 X121.797 Y95.282 E0.01243
G1 X121.518 Y95.383 E0.00929
G1 X121.117 Y95.448 E0.01274
G1 X120.834 Y95.443 E0.00888
M73 P6 R9
G1 X120.433 Y95.363 E0.01284
G1 X120.054 Y95.196 E0.01296
G1 X119.721 Y94.952 E0.01295
G1 X119.458 Y94.655 E0.01243
G1 X119.304 Y94.402 E0.00929
G1 X119.160 Y94.019 E0.01286
G1 X119.109 Y93.669 E0.01108
M204 S1250
G1 X118.747 Y93.422 F9000.000
G1 E-2.24000 F4200.000
;WIPE_START
G1 F7200.000
G1 X119.130 Y93.201 E-0.25949
G1 X119.200 Y92.927 E-0.15704
G1 X119.372 Y92.555 E-0.22692
G1 X119.622 Y92.226 E-0.22889
G1 X119.677 Y92.180 E-0.03966
;WIPE_END
G1 E-0.04800 F4200.000
G1 Z0.400 F9000.000
G1 X77.066 Y93.884
G1 Z0.200
G1 E3.20000 F2400.000
M204 S800
G1 F1200.000
G1 X76.950 Y94.276 E0.01283
G1 X76.822 Y94.529 E0.00889
G1 X76.576 Y94.852 E0.01272
G1 X76.367 Y95.043 E0.00889
G1 X76.020 Y95.260 E0.01284
G1 X75.631 Y95.399 E0.01296
G1 X75.225 Y95.451 E0.01284
G1 X74.942 Y95.436 E0.00888
G1 X74.543 Y95.341 E0.01284
G1 X74.171 Y95.160 E0.01296
G1 X73.847 Y94.904 E0.01296
G1 X73.588 Y94.587 E0.01284
G1 X73.450 Y94.339 E0.00889
G1 X73.320 Y93.951 E0.01284
G1 X73.275 Y93.541 E0.01296
G1 X73.320 Y93.130 E0.01296
G1 X73.452 Y92.738 E0.01296
G1 X73.663 Y92.387 E0.01284
G1 X73.850 Y92.174 E0.00889
G1 X74.168 Y91.923 E0.01272
G1 X74.419 Y91.790 E0.00888
G1 X74.809 Y91.667 E0.01283
G1 X75.203 Y91.630 E0.01243
G1 X75.499 Y91.655 E0.00929
G1 X75.890 Y91.764 E0.01274
G1 X76.145 Y91.887 E0.00888
G1 X76.475 Y92.129 E0.01284
G1 X76.749 Y92.439 E0.01296
G1 X76.949 Y92.801 E0.01296
G1 X77.066 Y93.194 E0.01285
G1 X77.096 Y93.484 E0.00915
G1 X77.071 Y93.824 E0.01069
M204 S1250
G1 X77.368 Y94.146 F9000.000
G1 E-2.24000 F4200.000
;WIPE_START
G1 F7200.000
G1 X76.950 Y94.276 E-0.25940
G1 X76.822 Y94.529 E-0.15704
G1 X76.576 Y94.852 E-0.22480
G1 X76.367 Y95.043 E-0.15704
G1 X76.193 Y95.152 E-0.11373
;WIPE_END
G1 E-0.04800 F4200.000
G1 Z0.400 F9000.000
G1 X118.407 Y93.131
G1 Z0.200
G1 E3.20000 F2400.000
M204 S800
G1 F1200.000
G1 X116.999 Y93.131 E0.04414
G1 X116.972 Y92.368 E0.02391
G1 X116.863 Y91.203 E0.03671
G1 X116.750 Y90.427 E0.02458
G1 X116.522 Y89.278 E0.03672
G1 X116.222 Y88.146 E0.03672
G1 X115.983 Y87.399 E0.02458
G1 X115.569 Y86.304 E0.03672
G1 X115.087 Y85.235 E0.03676
G1 X114.540 Y84.199 E0.03672
G1 X114.139 Y83.526 E0.02458
G1 X113.488 Y82.552 E0.03672
G1 X112.778 Y81.620 E0.03676
G1 X112.012 Y80.734 E0.03672
G1 X111.470 Y80.169 E0.02454
G1 X110.905 Y79.627 E0.02454
G1 X110.020 Y78.862 E0.03669
G1 X109.402 Y78.381 E0.02454
G1 X108.766 Y77.927 E0.02451
G1 X108.111 Y77.499 E0.02454
G1 X107.099 Y76.910 E0.03669
G1 X106.403 Y76.552 E0.02454
G1 X105.694 Y76.223 E0.02451
G1 X104.972 Y75.924 E0.02451
G1 X104.238 Y75.655 E0.02451
G1 X103.494 Y75.417 E0.02451
G1 X102.740 Y75.209 E0.02451
G1 X101.979 Y75.033 E0.02451
G1 X101.211 Y74.888 E0.02451
G1 X100.437 Y74.776 E0.02451
G1 X99.660 Y74.695 E0.02451
G1 X98.880 Y74.647 E0.02451
G1 X98.098 Y74.630 E0.02451
G1 X97.317 Y74.647 E0.02451
G1 X96.537 Y74.695 E0.02451
G1 X95.759 Y74.776 E0.02451
G1 X94.986 Y74.888 E0.02451
G1 X94.218 Y75.033 E0.02451
G1 X93.456 Y75.209 E0.02451
G1 X92.702 Y75.417 E0.02451
G1 X91.946 Y75.659 E0.02491
G1 X90.863 Y76.069 E0.03632
G1 X90.146 Y76.384 E0.02454
G1 X89.444 Y76.727 E0.02451
G1 X88.756 Y77.099 E0.02451
G1 X88.085 Y77.499 E0.02451
G1 X87.430 Y77.927 E0.02451
G1 X86.794 Y78.381 E0.02451
G1 X86.177 Y78.862 E0.02454
G1 X85.292 Y79.627 E0.03669
G1 X84.726 Y80.170 E0.02458
G1 X83.925 Y81.023 E0.03669
G1 X83.411 Y81.630 E0.02494
G1 X82.708 Y82.552 E0.03636
G1 X82.058 Y83.526 E0.03672
G1 X81.656 Y84.199 E0.02458
G1 X81.110 Y85.235 E0.03672
G1 X80.628 Y86.304 E0.03676
G1 X80.213 Y87.399 E0.03672
G1 X79.974 Y88.146 E0.02458
G1 X79.675 Y89.277 E0.03669
G1 X79.512 Y90.056 E0.02494
G1 X79.333 Y91.201 E0.03636
G1 X79.224 Y92.368 E0.03674
G1 X79.198 Y93.131 E0.02391
G1 X77.790 Y93.131 E0.04414
G1 X77.762 Y93.806 E0.02119
G1 X77.690 Y94.201 E0.01261
G1 X77.558 Y94.580 E0.01256
G1 X77.369 Y94.933 E0.01256
G1 X77.127 Y95.255 E0.01265
G1 X76.942 Y95.444 E0.00829
G1 X76.738 Y95.614 E0.00829
G1 X76.397 Y95.829 E0.01265
G1 X76.030 Y95.989 E0.01256
G1 X75.642 Y96.089 E0.01256
G1 X75.243 Y96.129 E0.01256
M73 P7 R9
G1 X74.843 Y96.107 E0.01256
G1 X74.452 Y96.023 E0.01256
G1 X74.077 Y95.880 E0.01256
G1 X73.727 Y95.680 E0.01265
G1 X73.519 Y95.522 E0.00821
G1 X73.231 Y95.239 E0.01265
G1 X72.993 Y94.917 E0.01256
G1 X72.807 Y94.562 E0.01256
G1 X72.678 Y94.183 E0.01256
G1 X72.609 Y93.788 E0.01256
G1 X72.601 Y93.385 E0.01265
G1 X72.631 Y93.122 E0.00829
G1 X72.687 Y92.863 E0.00829
G1 X72.822 Y92.484 E0.01265
G1 X73.014 Y92.132 E0.01256
G1 X73.257 Y91.813 E0.01256
G1 X73.547 Y91.536 E0.01256
G1 X73.875 Y91.307 E0.01256
G1 X74.236 Y91.132 E0.01256
G1 X74.619 Y91.014 E0.01256
G1 X75.015 Y90.957 E0.01256
G1 X75.418 Y90.961 E0.01262
G1 X75.832 Y91.023 E0.01313
G1 X76.124 Y91.043 E0.00917
G1 X76.421 Y91.026 E0.00932
G1 X76.716 Y90.973 E0.00942
G1 X77.131 Y90.830 E0.01377
G1 X77.400 Y90.688 E0.00953
G1 X77.752 Y90.425 E0.01377
G1 X77.965 Y90.208 E0.00953
G1 X78.222 Y89.848 E0.01387
G1 X78.410 Y89.444 E0.01396
G1 X78.763 Y88.087 E0.04396
G1 X78.992 Y87.332 E0.02473
G1 X79.250 Y86.587 E0.02473
G1 X79.537 Y85.852 E0.02473
G1 X79.854 Y85.130 E0.02473
G1 X80.197 Y84.421 E0.02470
G1 X80.766 Y83.381 E0.03716
G1 X81.178 Y82.709 E0.02470
G1 X81.616 Y82.053 E0.02473
G1 X82.079 Y81.416 E0.02470
G1 X82.822 Y80.492 E0.03716
G1 X83.346 Y79.903 E0.02470
G1 X83.892 Y79.335 E0.02473
G1 X84.461 Y78.788 E0.02473
G1 X85.050 Y78.265 E0.02470
G1 X85.974 Y77.522 E0.03716
G1 X86.611 Y77.059 E0.02470
G1 X87.267 Y76.620 E0.02473
G1 X87.939 Y76.209 E0.02470
G1 X88.978 Y75.640 E0.03716
G1 X89.687 Y75.296 E0.02470
G1 X90.410 Y74.980 E0.02473
G1 X91.145 Y74.692 E0.02473
G1 X91.889 Y74.434 E0.02470
G1 X93.019 Y74.103 E0.03691
G1 X93.793 Y73.917 E0.02496
G1 X94.566 Y73.763 E0.02473
G1 X95.345 Y73.640 E0.02470
G1 X96.523 Y73.512 E0.03716
G1 X97.308 Y73.466 E0.02467
G1 X98.486 Y73.454 E0.03691
G1 X99.281 Y73.485 E0.02496
G1 X100.067 Y73.547 E0.02473
G1 X100.850 Y73.640 E0.02470
G1 X102.019 Y73.837 E0.03716
G1 X102.787 Y74.005 E0.02467
G1 X103.931 Y74.316 E0.03716
G1 X104.680 Y74.559 E0.02470
G1 X105.420 Y74.832 E0.02473
M73 P7 R8
G1 X106.148 Y75.134 E0.02470
G1 X107.213 Y75.637 E0.03691
G1 X107.915 Y76.012 E0.02496
G1 X108.594 Y76.410 E0.02470
G1 X109.586 Y77.059 E0.03716
G1 X110.224 Y77.522 E0.02470
G1 X110.843 Y78.011 E0.02473
G1 X111.443 Y78.523 E0.02473
G1 X112.022 Y79.059 E0.02473
G1 X112.580 Y79.616 E0.02473
G1 X113.116 Y80.196 E0.02473
G1 X113.628 Y80.796 E0.02473
G1 X114.116 Y81.415 E0.02473
G1 X114.580 Y82.053 E0.02473
G1 X115.018 Y82.709 E0.02473
G1 X115.430 Y83.381 E0.02470
G1 X115.999 Y84.421 E0.03716
G1 X116.343 Y85.130 E0.02470
G1 X116.659 Y85.852 E0.02473
G1 X116.946 Y86.587 E0.02473
G1 X117.205 Y87.332 E0.02473
G1 X117.434 Y88.087 E0.02473
G1 X117.786 Y89.444 E0.04396
G1 X117.974 Y89.848 E0.01396
G1 X118.234 Y90.210 E0.01398
G1 X118.553 Y90.517 E0.01387
G1 X118.799 Y90.689 E0.00942
G1 X119.065 Y90.830 E0.00942
G1 X119.480 Y90.973 E0.01377
G1 X119.776 Y91.026 E0.00942
G1 X120.073 Y91.043 E0.00932
G1 X120.365 Y91.023 E0.00917
G1 X120.779 Y90.961 E0.01313
G1 X121.181 Y90.957 E0.01262
G1 X121.578 Y91.014 E0.01256
G1 X121.961 Y91.132 E0.01256
G1 X122.321 Y91.307 E0.01256
G1 X122.650 Y91.536 E0.01256
G1 X122.939 Y91.813 E0.01256
G1 X123.183 Y92.132 E0.01256
G1 X123.374 Y92.484 E0.01256
G1 X123.510 Y92.863 E0.01265
G1 X123.566 Y93.122 E0.00829
