; generated by PrusaSlicer 2.3.0+win64 on 2021-08-11 at 11:32:58 UTC


;
;

;
;
; 

; external perimeters extrusion width = 0.45mm
; perimeters extrusion width = 0.45mm
; infill extrusion width = 0.45mm
; solid infill extrusion width = 0.45mm
; top infill extrusion width = 0.40mm
; first layer extrusion width = 0.42mm

M73 P0 R70
M201 X1250 Y1250 Z400 E5000 ; sets maximum accelerations, mm/sec^2
M203 X180 Y180 Z12 E80 ; sets maximum feedrates, mm/sec
M204 P1250 R1250 T1250 ; sets acceleration (P, T) and retract acceleration (R), mm/sec^2
M205 X8.00 Y8.00 Z2.00 E10.00 ; sets the jerk limits, mm/sec
M205 S0 T0 ; sets the minimum extruding and travel feed rate, mm/sec
M107
;TYPE:Custom
G90 ; use absolute coordinates
M83 ; extruder relative mode
M104 S170 ; set extruder temp for bed leveling
M140 S60 ; set bed temp
M109 R170 ; wait for bed leveling temp
M190 S60 ; wait for bed temp
G28 ; home all without mesh bed level
G29 ; mesh bed leveling 
M104 S215 ; set extruder temp
G92 E0.0
G1 Y-2.0 X179 F2400
G1 Z3 F720
M109 S215 ; wait for extruder temp

; intro line
G1 X170 F1000
G1 Z0.2 F720
G1 X110.0 E8.0 F900
G1 X40.0 E10.0 F700
G92 E0.0

M221 S95 ; set flow
G21 ; set units to millimeters
G90 ; use absolute coordinates
M83 ; use relative distances for extrusion
M900 K0.2 ; Filament gcode LA 1.5
; ; Filament gcode LA 1.0
;LAYER_CHANGE
;Z:0.2
;HEIGHT:0.2
;BEFORE_LAYER_CHANGE
G92 E0.0
;0.2


G1 E-3.20000 F4200.000
G1 Z0.200 F9000.000
;AFTER_LAYER_CHANGE
;0.2
G1 Z0.400
G1 X31.829 Y72.481
G1 Z0.200
G1 E3.20000 F2400.000
M204 S800
;TYPE:Skirt
;WIDTH:0.42
G1 F1200.000
G1 X33.624 Y71.764 E0.06061
G1 X35.499 Y71.412 E0.05982
G1 X143.548 Y71.373 E3.38779
G1 X145.071 Y71.479 E0.04789
G1 X146.363 Y71.760 E0.04146
G1 X147.607 Y72.211 E0.04149
G1 X148.952 Y72.932 E0.04783
G1 X150.007 Y73.712 E0.04115
G1 X150.957 Y74.632 E0.04144
G1 X151.895 Y75.850 E0.04823
G1 X152.527 Y76.972 E0.04036
G1 X153.015 Y78.187 E0.04105
G1 X153.340 Y79.467 E0.04142
G1 X153.499 Y81.001 E0.04837
G1 X153.445 Y82.312 E0.04111
G1 X153.215 Y83.611 E0.04139
G1 X152.736 Y85.062 E0.04790
G1 X152.144 Y86.248 E0.04155
G1 X151.418 Y87.318 E0.04054
G1 X150.106 Y88.703 E0.05983
G1 X148.543 Y89.815 E0.06016
G1 X115.093 Y108.335 E1.19880
G1 X114.167 Y108.617 E0.03036
G1 X66.044 Y108.627 E1.50885
G1 X65.357 Y108.524 E0.02178
G1 X64.897 Y108.329 E0.01568
G1 X30.893 Y89.466 E1.21923
G1 X29.927 Y88.731 E0.03806
G1 X29.202 Y88.040 E0.03140
G1 X28.412 Y87.092 E0.03869
G1 X27.857 Y86.250 E0.03162
G1 X27.395 Y85.362 E0.03139
G1 X26.953 Y84.213 E0.03861
G1 X26.701 Y83.241 E0.03145
G1 X26.530 Y82.039 E0.03808
G1 X26.567 Y80.084 E0.06131
G1 X26.976 Y78.214 E0.06001
G1 X27.749 Y76.439 E0.06071
G1 X28.835 Y74.870 E0.05983
G1 X30.222 Y73.524 E0.06060
G1 X31.779 Y72.514 E0.05819
M204 S1250
; printing object speakerMount04.stl id:0 copy 0
G1 E-2.24000 F4200.000
;WIPE_START
G1 F7200.000
G1 X33.303 Y71.894 E-0.91200
;WIPE_END
G1 E-0.04800 F4200.000
G1 Z0.400 F9000.000
G1 X139.102 Y80.886
G1 Z0.200
G1 E3.20000 F2400.000
M204 S800
;TYPE:Perimeter
G1 F1200.000
G1 X139.154 Y80.473 E0.01305
G1 X139.244 Y80.067 E0.01305
G1 X139.371 Y79.671 E0.01305
G1 X139.533 Y79.288 E0.01305
G1 X139.730 Y78.921 E0.01305
G1 X139.964 Y78.569 E0.01326
G1 X140.357 Y78.101 E0.01914
G1 X140.664 Y77.811 E0.01326
G1 X140.992 Y77.554 E0.01305
G1 X141.341 Y77.329 E0.01305
G1 X141.710 Y77.136 E0.01305
G1 X142.101 Y76.975 E0.01326
G1 X142.688 Y76.809 E0.01914
G1 X143.106 Y76.742 E0.01326
G1 X143.521 Y76.713 E0.01305
G1 X143.937 Y76.723 E0.01305
G1 X144.350 Y76.770 E0.01305
G1 X144.758 Y76.856 E0.01305
G1 X145.162 Y76.980 E0.01326
G1 X145.721 Y77.225 E0.01914
G1 X146.086 Y77.438 E0.01326
G1 X146.425 Y77.679 E0.01305
G1 X146.746 Y77.955 E0.01326
G1 X147.159 Y78.403 E0.01914
G1 X147.409 Y78.745 E0.01326
G1 X147.622 Y79.102 E0.01305
G1 X147.802 Y79.477 E0.01305
G1 X147.947 Y79.867 E0.01305
G1 X148.057 Y80.276 E0.01326
G1 X148.148 Y80.879 E0.01914
G1 X148.163 Y81.309 E0.01347
G1 X148.114 Y81.917 E0.01914
G1 X148.032 Y82.332 E0.01326
G1 X147.914 Y82.731 E0.01305
G1 X147.761 Y83.118 E0.01305
G1 X147.572 Y83.489 E0.01305
G1 X147.350 Y83.841 E0.01305
G1 X147.097 Y84.171 E0.01305
G1 X146.815 Y84.477 E0.01305
G1 X146.506 Y84.755 E0.01305
G1 X146.173 Y85.005 E0.01305
G1 X145.818 Y85.222 E0.01305
G1 X145.445 Y85.406 E0.01305
G1 X145.057 Y85.556 E0.01305
G1 X144.650 Y85.671 E0.01326
G1 X144.047 Y85.768 E0.01914
G1 X143.625 Y85.788 E0.01326
G1 X143.203 Y85.768 E0.01326
G1 X142.600 Y85.671 E0.01914
G1 X142.193 Y85.556 E0.01326
G1 X141.805 Y85.406 E0.01305
G1 X141.432 Y85.222 E0.01305
G1 X141.077 Y85.005 E0.01305
G1 X140.744 Y84.755 E0.01305
G1 X140.435 Y84.477 E0.01305
G1 X140.153 Y84.171 E0.01305
G1 X139.900 Y83.841 E0.01305
G1 X139.678 Y83.489 E0.01305
G1 X139.486 Y83.112 E0.01326
G1 X139.274 Y82.539 E0.01914
G1 X139.173 Y82.129 E0.01326
G1 X139.111 Y81.717 E0.01305
G1 X139.088 Y81.302 E0.01305
G1 X139.100 Y80.946 E0.01116
M204 S1250
G1 X139.477 Y80.959 F9000.000
M204 S800
;TYPE:External perimeter
G1 F1200.000
G1 X139.526 Y80.538 E0.01329
G1 X139.609 Y80.165 E0.01196
G1 X139.725 Y79.802 E0.01196
G1 X139.874 Y79.451 E0.01196
G1 X140.054 Y79.115 E0.01196
G1 X140.266 Y78.795 E0.01204
G1 X140.631 Y78.361 E0.01778
G1 X140.910 Y78.097 E0.01204
G1 X141.211 Y77.862 E0.01196
G1 X141.531 Y77.655 E0.01196
G1 X141.869 Y77.478 E0.01196
G1 X142.224 Y77.332 E0.01204
G1 X142.770 Y77.178 E0.01778
G1 X143.149 Y77.117 E0.01204
G1 X143.530 Y77.091 E0.01196
G1 X143.911 Y77.099 E0.01196
G1 X144.290 Y77.143 E0.01196
G1 X144.663 Y77.221 E0.01196
G1 X145.030 Y77.334 E0.01204
G1 X145.550 Y77.561 E0.01778
G1 X145.882 Y77.755 E0.01204
G1 X146.192 Y77.976 E0.01196
G1 X146.483 Y78.226 E0.01204
G1 X146.868 Y78.643 E0.01778
G1 X147.094 Y78.953 E0.01204
G1 X147.290 Y79.281 E0.01196
G1 X147.455 Y79.625 E0.01196
G1 X147.588 Y79.982 E0.01196
G1 X147.688 Y80.353 E0.01204
G1 X147.772 Y80.914 E0.01778
G1 X147.785 Y81.300 E0.01211
G1 X147.740 Y81.865 E0.01778
G1 X147.665 Y82.242 E0.01204
G1 X147.557 Y82.608 E0.01196
G1 X147.416 Y82.962 E0.01196
G1 X147.244 Y83.302 E0.01196
G1 X147.040 Y83.625 E0.01196
G1 X146.809 Y83.928 E0.01196
G1 X146.550 Y84.208 E0.01196
G1 X146.267 Y84.464 E0.01196
G1 X145.961 Y84.692 E0.01196
G1 X145.636 Y84.892 E0.01196
G1 X145.294 Y85.061 E0.01196
G1 X144.938 Y85.198 E0.01196
G1 X144.568 Y85.302 E0.01204
G1 X144.008 Y85.392 E0.01778
G1 X143.625 Y85.410 E0.01204
G1 X143.242 Y85.392 E0.01204
G1 X142.682 Y85.302 E0.01778
G1 X142.312 Y85.197 E0.01204
G1 X141.956 Y85.061 E0.01196
G1 X141.614 Y84.892 E0.01196
G1 X141.289 Y84.692 E0.01196
G1 X140.983 Y84.464 E0.01196
G1 X140.700 Y84.208 E0.01196
G1 X140.441 Y83.928 E0.01196
G1 X140.210 Y83.625 E0.01196
G1 X140.006 Y83.302 E0.01196
G1 X139.832 Y82.960 E0.01204
G1 X139.635 Y82.428 E0.01778
G1 X139.544 Y82.056 E0.01204
G1 X139.487 Y81.678 E0.01196
G1 X139.465 Y81.297 E0.01196
G1 X139.475 Y81.019 E0.00874
M204 S1250
G1 X139.146 Y80.734 F9000.000
G1 E-2.24000 F4200.000
;WIPE_START
G1 F7200.000
G1 X139.526 Y80.538 E-0.26813
G1 X139.609 Y80.165 E-0.21139
G1 X139.725 Y79.802 E-0.21139
G1 X139.874 Y79.451 E-0.21140
G1 X139.882 Y79.435 E-0.00968
;WIPE_END
G1 E-0.04800 F4200.000
G1 Z0.400 F9000.000
G1 X40.913 Y81.309
G1 Z0.200
G1 E3.20000 F2400.000
M204 S800
;TYPE:Perimeter
G1 F1200.000
G1 X40.864 Y81.917 E0.01914
G1 X40.782 Y82.332 E0.01326
G1 X40.664 Y82.731 E0.01305
G1 X40.511 Y83.118 E0.01305
G1 X40.322 Y83.489 E0.01305
G1 X40.100 Y83.841 E0.01305
G1 X39.847 Y84.171 E0.01305
G1 X39.565 Y84.477 E0.01305
G1 X39.256 Y84.755 E0.01305
G1 X38.923 Y85.005 E0.01305
G1 X38.568 Y85.222 E0.01305
G1 X38.195 Y85.406 E0.01305
G1 X37.807 Y85.556 E0.01305
G1 X37.400 Y85.671 E0.01326
G1 X36.797 Y85.768 E0.01914
G1 X36.375 Y85.788 E0.01326
G1 X35.953 Y85.768 E0.01326
G1 X35.350 Y85.671 E0.01914
G1 X34.943 Y85.556 E0.01326
G1 X34.555 Y85.406 E0.01305
G1 X34.182 Y85.222 E0.01305
G1 X33.827 Y85.005 E0.01305
G1 X33.494 Y84.755 E0.01305
G1 X33.185 Y84.477 E0.01305
G1 X32.903 Y84.171 E0.01305
G1 X32.650 Y83.841 E0.01305
G1 X32.428 Y83.489 E0.01305
G1 X32.236 Y83.112 E0.01326
G1 X32.024 Y82.539 E0.01914
G1 X31.923 Y82.129 E0.01326
G1 X31.861 Y81.717 E0.01305
G1 X31.838 Y81.302 E0.01305
G1 X31.852 Y80.886 E0.01305
G1 X31.904 Y80.473 E0.01305
G1 X31.994 Y80.067 E0.01305
G1 X32.123 Y79.664 E0.01326
G1 X32.374 Y79.108 E0.01914
G1 X32.591 Y78.745 E0.01326
G1 X32.837 Y78.409 E0.01305
G1 X33.112 Y78.097 E0.01305
G1 X33.414 Y77.811 E0.01305
G1 X33.742 Y77.554 E0.01305
G1 X34.091 Y77.329 E0.01305
G1 X34.460 Y77.136 E0.01305
G1 X34.851 Y76.975 E0.01326
G1 X35.438 Y76.809 E0.01914
G1 X35.856 Y76.742 E0.01326
G1 X36.271 Y76.713 E0.01305
G1 X36.687 Y76.723 E0.01305
G1 X37.107 Y76.771 E0.01326
G1 X37.701 Y76.910 E0.01914
G1 X38.099 Y77.052 E0.01326
G1 X38.483 Y77.231 E0.01326
G1 X39.003 Y77.550 E0.01914
G1 X39.336 Y77.811 E0.01326
G1 X39.638 Y78.097 E0.01305
G1 X39.913 Y78.409 E0.01305
G1 X40.159 Y78.745 E0.01305
G1 X40.372 Y79.102 E0.01305
G1 X40.552 Y79.477 E0.01305
G1 X40.697 Y79.867 E0.01305
G1 X40.807 Y80.276 E0.01326
G1 X40.898 Y80.879 E0.01914
M73 P0 R69
G1 X40.911 Y81.249 E0.01159
M204 S1250
G1 X40.534 Y81.262 F9000.000
M204 S800
;TYPE:External perimeter
G1 F1200.000
G1 X40.490 Y81.865 E0.01898
G1 X40.415 Y82.242 E0.01204
G1 X40.307 Y82.608 E0.01196
G1 X40.166 Y82.962 E0.01196
G1 X39.994 Y83.302 E0.01196
G1 X39.790 Y83.625 E0.01196
G1 X39.559 Y83.928 E0.01196
G1 X39.300 Y84.208 E0.01196
G1 X39.017 Y84.464 E0.01196
G1 X38.711 Y84.692 E0.01196
G1 X38.386 Y84.892 E0.01196
G1 X38.044 Y85.061 E0.01196
G1 X37.688 Y85.198 E0.01196
G1 X37.318 Y85.302 E0.01204
G1 X36.758 Y85.392 E0.01778
G1 X36.375 Y85.410 E0.01204
G1 X35.992 Y85.392 E0.01204
G1 X35.432 Y85.302 E0.01778
G1 X35.062 Y85.197 E0.01204
G1 X34.706 Y85.061 E0.01196
G1 X34.364 Y84.892 E0.01196
G1 X34.039 Y84.692 E0.01196
G1 X33.733 Y84.464 E0.01196
G1 X33.450 Y84.208 E0.01196
G1 X33.191 Y83.928 E0.01196
G1 X32.960 Y83.625 E0.01196
G1 X32.756 Y83.302 E0.01196
G1 X32.582 Y82.960 E0.01204
G1 X32.385 Y82.428 E0.01778
G1 X32.294 Y82.056 E0.01204
G1 X32.237 Y81.678 E0.01196
G1 X32.215 Y81.297 E0.01196
G1 X32.228 Y80.916 E0.01196
G1 X32.276 Y80.538 E0.01196
G1 X32.359 Y80.165 E0.01196
G1 X32.475 Y79.800 E0.01204
G1 X32.709 Y79.283 E0.01778
G1 X32.906 Y78.953 E0.01204
G1 X33.131 Y78.645 E0.01196
G1 X33.383 Y78.359 E0.01196
G1 X33.660 Y78.097 E0.01196
G1 X33.961 Y77.862 E0.01196
G1 X34.281 Y77.655 E0.01196
G1 X34.619 Y77.478 E0.01196
G1 X34.974 Y77.332 E0.01204
G1 X35.520 Y77.178 E0.01778
G1 X35.899 Y77.117 E0.01204
G1 X36.280 Y77.091 E0.01196
G1 X36.661 Y77.099 E0.01196
G1 X37.042 Y77.143 E0.01204
G1 X37.595 Y77.272 E0.01778
G1 X37.956 Y77.402 E0.01204
G1 X38.304 Y77.564 E0.01204
G1 X38.787 Y77.860 E0.01778
G1 X39.090 Y78.097 E0.01204
G1 X39.367 Y78.359 E0.01196
G1 X39.619 Y78.645 E0.01196
G1 X39.844 Y78.953 E0.01196
G1 X40.040 Y79.281 E0.01196
G1 X40.205 Y79.625 E0.01196
G1 X40.338 Y79.982 E0.01196
G1 X40.438 Y80.353 E0.01204
G1 X40.522 Y80.914 E0.01778
G1 X40.532 Y81.202 E0.00903
M204 S1250
G1 X40.877 Y81.466 F9000.000
G1 E-2.24000 F4200.000
;WIPE_START
G1 F7200.000
G1 X40.490 Y81.865 E-0.36850
G1 X40.415 Y82.242 E-0.21274
G1 X40.307 Y82.608 E-0.21140
G1 X40.228 Y82.808 E-0.11936
;WIPE_END
G1 E-0.04800 F4200.000
G1 Z0.400 F9000.000
G1 X113.165 Y99.095
G1 Z0.200
G1 E3.20000 F2400.000
M204 S800
;TYPE:Perimeter
G1 F1200.000
G1 X113.165 Y105.463 E0.19967
G1 X66.835 Y105.463 E1.45263
G1 X66.835 Y99.095 E0.19967
M73 P1 R69
G1 X57.631 Y99.095 E0.28859
G1 X50.790 Y90.171 E0.35256
G1 X36.446 Y87.964 E0.45503
G1 X35.944 Y87.948 E0.01576
G1 X35.289 Y87.874 E0.02066
G1 X34.645 Y87.735 E0.02066
G1 X34.232 Y87.611 E0.01353
G1 X33.823 Y87.458 E0.01368
G1 X33.425 Y87.279 E0.01368
G1 X33.040 Y87.075 E0.01368
G1 X32.668 Y86.846 E0.01368
G1 X32.313 Y86.594 E0.01368
G1 X31.978 Y86.321 E0.01353
G1 X31.499 Y85.862 E0.02081
G1 X31.212 Y85.540 E0.01353
G1 X30.944 Y85.195 E0.01368
G1 X30.700 Y84.834 E0.01368
G1 X30.479 Y84.458 E0.01368
G1 X30.285 Y84.073 E0.01353
G1 X30.037 Y83.459 E0.02074
G1 X29.907 Y83.046 E0.01360
G1 X29.804 Y82.622 E0.01368
G1 X29.729 Y82.192 E0.01368
G1 X29.682 Y81.763 E0.01353
G1 X29.664 Y81.104 E0.02066
G1 X29.710 Y80.452 E0.02051
G1 X29.820 Y79.807 E0.02051
G1 X29.991 Y79.176 E0.02051
G1 X30.224 Y78.564 E0.02051
G1 X30.514 Y77.978 E0.02051
G1 X30.863 Y77.419 E0.02066
G1 X31.120 Y77.073 E0.01353
G1 X31.400 Y76.744 E0.01353
G1 X31.866 Y76.278 E0.02066
G1 X32.371 Y75.863 E0.02051
G1 X32.915 Y75.498 E0.02051
G1 X33.491 Y75.189 E0.02051
G1 X34.099 Y74.935 E0.02066
G1 X34.509 Y74.802 E0.01353
G1 X34.927 Y74.695 E0.01353
G1 X35.577 Y74.585 E0.02066
G1 X36.234 Y74.539 E0.02066
G1 X36.666 Y74.543 E0.01353
G1 X37.096 Y74.576 E0.01353
G1 X37.747 Y74.679 E0.02066
G1 X38.380 Y74.844 E0.02051
G1 X38.994 Y75.070 E0.02051
G1 X39.583 Y75.354 E0.02051
G1 X40.142 Y75.694 E0.02051
G1 X40.665 Y76.087 E0.02051
G1 X41.147 Y76.529 E0.02051
G1 X41.584 Y77.016 E0.02051
G1 X41.971 Y77.543 E0.02051
G1 X42.305 Y78.106 E0.02051
G1 X42.583 Y78.698 E0.02051
G1 X42.802 Y79.314 E0.02051
G1 X42.960 Y79.949 E0.02051
G1 X43.055 Y80.594 E0.02044
G1 X43.115 Y82.037 E0.04527
G1 X52.153 Y82.037 E0.28339
G1 X59.820 Y92.037 E0.39509
G1 X69.213 Y92.037 E0.29451
G1 X69.213 Y103.853 E0.37048
G1 X110.787 Y103.853 E1.30353
G1 X110.787 Y92.037 E0.37048
G1 X120.180 Y92.037 E0.29451
G1 X127.847 Y82.037 E0.39509
G1 X136.885 Y82.037 E0.28339
G1 X136.945 Y80.594 E0.04527
G1 X137.040 Y79.949 E0.02044
G1 X137.198 Y79.314 E0.02051
G1 X137.417 Y78.698 E0.02051
G1 X137.695 Y78.106 E0.02051
G1 X138.029 Y77.543 E0.02051
G1 X138.416 Y77.016 E0.02051
G1 X138.853 Y76.529 E0.02051
G1 X139.335 Y76.087 E0.02051
G1 X139.858 Y75.694 E0.02051
G1 X140.417 Y75.354 E0.02051
G1 X141.006 Y75.070 E0.02051
G1 X141.620 Y74.844 E0.02051
G1 X142.253 Y74.679 E0.02051
G1 X142.904 Y74.576 E0.02066
G1 X143.334 Y74.543 E0.01353
G1 X143.768 Y74.539 E0.01361
G1 X144.206 Y74.562 E0.01375
G1 X144.639 Y74.614 E0.01368
G1 X145.068 Y74.694 E0.01368
G1 X145.491 Y74.802 E0.01368
G1 X145.906 Y74.937 E0.01368
G1 X146.306 Y75.096 E0.01353
G1 X146.901 Y75.391 E0.02081
G1 X147.271 Y75.614 E0.01353
G1 X147.625 Y75.860 E0.01353
G1 X148.136 Y76.280 E0.02074
G1 X148.448 Y76.581 E0.01360
G1 X148.741 Y76.904 E0.01368
G1 X149.010 Y77.242 E0.01353
G1 X149.378 Y77.791 E0.02074
G1 X149.589 Y78.170 E0.01360
G1 X149.777 Y78.564 E0.01368
G1 X149.938 Y78.969 E0.01368
G1 X150.072 Y79.380 E0.01353
G1 X150.224 Y80.023 E0.02074
G1 X150.290 Y80.452 E0.01360
G1 X150.327 Y80.882 E0.01353
G1 X150.331 Y81.545 E0.02081
G1 X150.298 Y81.976 E0.01353
G1 X150.238 Y82.403 E0.01353
G1 X150.092 Y83.048 E0.02074
G1 X149.963 Y83.462 E0.01360
G1 X149.806 Y83.869 E0.01368
G1 X149.622 Y84.265 E0.01368
G1 X149.416 Y84.644 E0.01353
G1 X149.053 Y85.199 E0.02081
G1 X148.788 Y85.540 E0.01353
G1 X148.501 Y85.862 E0.01353
G1 X148.022 Y86.321 E0.02081
G1 X147.687 Y86.594 E0.01353
G1 X147.332 Y86.846 E0.01368
G1 X146.960 Y87.075 E0.01368
G1 X146.579 Y87.277 E0.01353
G1 X145.971 Y87.539 E0.02074
G1 X145.560 Y87.677 E0.01360
G1 X145.139 Y87.789 E0.01368
G1 X144.711 Y87.874 E0.01368
G1 X144.285 Y87.930 E0.01345
G1 X143.549 Y87.965 E0.02311
G1 X129.210 Y90.171 E0.45488
G1 X122.369 Y99.095 E0.35256
G1 X113.225 Y99.095 E0.28670
M204 S1250
G1 X113.542 Y99.472 F9000.000
M204 S800
;TYPE:External perimeter
G1 F1200.000
G1 X113.542 Y105.840 E0.19967
G1 X66.458 Y105.840 E1.47628
G1 X66.458 Y99.472 E0.19967
G1 X57.445 Y99.472 E0.28260
G1 X50.583 Y90.521 E0.35364
G1 X36.411 Y88.341 E0.44956
G1 X35.916 Y88.325 E0.01553
G1 X35.228 Y88.246 E0.02172
G1 X34.551 Y88.101 E0.02172
G1 X34.111 Y87.969 E0.01439
G1 X33.680 Y87.807 E0.01445
G1 X33.259 Y87.618 E0.01445
G1 X32.852 Y87.403 E0.01445
G1 X32.460 Y87.161 E0.01445
G1 X32.084 Y86.894 E0.01445
G1 X31.728 Y86.604 E0.01439
G1 X31.227 Y86.124 E0.02177
G1 X30.922 Y85.781 E0.01439
G1 X30.639 Y85.417 E0.01445
G1 X30.381 Y85.036 E0.01445
G1 X30.147 Y84.638 E0.01445
G1 X29.941 Y84.228 E0.01439
G1 X29.681 Y83.587 E0.02170
G1 X29.544 Y83.146 E0.01446
G1 X29.435 Y82.699 E0.01445
G1 X29.355 Y82.245 E0.01445
G1 X29.306 Y81.789 E0.01439
G1 X29.287 Y81.096 E0.02172
G1 X29.336 Y80.407 E0.02166
