; generated by PrusaSlicer 2.3.0+win64 on 2021-08-21 at 12:54:58 UTC


;
;

;
;
; 

; external perimeters extrusion width = 0.45mm
; perimeters extrusion width = 0.45mm
; infill extrusion width = 0.45mm
; solid infill extrusion width = 0.45mm
; top infill extrusion width = 0.40mm
; first layer extrusion width = 0.42mm

M73 P0 R7
M201 X1250 Y1250 Z400 E5000 ; sets maximum accelerations, mm/sec^2
M203 X180 Y180 Z12 E80 ; sets maximum feedrates, mm/sec
M204 P1250 R1250 T1250 ; sets acceleration (P, T) and retract acceleration (R), mm/sec^2
M205 X8.00 Y8.00 Z2.00 E10.00 ; sets the jerk limits, mm/sec
M205 S0 T0 ; sets the minimum extruding and travel feed rate, mm/sec
M107
;TYPE:Custom
G90 ; use absolute coordinates
M83 ; extruder relative mode
M104 S170 ; set extruder temp for bed leveling
M140 S60 ; set bed temp
M109 R170 ; wait for bed leveling temp
M190 S60 ; wait for bed temp
G28 ; home all without mesh bed level
G29 ; mesh bed leveling 
M104 S215 ; set extruder temp
G92 E0.0
G1 Y-2.0 X179 F2400
M73 P1 R7
G1 Z3 F720
M109 S215 ; wait for extruder temp

; intro line
G1 X170 F1000
G1 Z0.2 F720
G1 X110.0 E8.0 F900
M73 P2 R7
G1 X40.0 E10.0 F700
G92 E0.0

M221 S95 ; set flow
G21 ; set units to millimeters
G90 ; use absolute coordinates
M83 ; use relative distances for extrusion
M900 K0.2 ; Filament gcode LA 1.5
; ; Filament gcode LA 1.0
;LAYER_CHANGE
;Z:0.2
;HEIGHT:0.2
;BEFORE_LAYER_CHANGE
G92 E0.0
;0.2


M73 P3 R7
G1 E-3.20000 F4200.000
G1 Z0.200 F9000.000
;AFTER_LAYER_CHANGE
;0.2
G1 Z0.400
G1 X60.556 Y80.654
G1 Z0.200
G1 E3.20000 F2400.000
M204 S800
;TYPE:Skirt
;WIDTH:0.42
G1 F1200.000
G1 X60.694 Y79.797 E0.02722
G1 X60.935 Y78.954 E0.02751
G1 X61.277 Y78.141 E0.02764
G1 X61.714 Y77.373 E0.02770
G1 X62.235 Y76.669 E0.02746
G1 X62.841 Y76.026 E0.02770
G1 X63.512 Y75.467 E0.02739
G1 X64.271 Y74.975 E0.02836
G1 X65.043 Y74.596 E0.02698
G1 X65.877 Y74.304 E0.02770
G1 X66.736 Y74.115 E0.02758
G1 X67.649 Y74.027 E0.02875
G1 X112.109 Y74.023 E1.39402
M73 P4 R7
G1 X113.514 Y74.159 E0.04426
G1 X114.691 Y74.491 E0.03836
G1 X115.966 Y75.114 E0.04449
G1 X116.976 Y75.860 E0.03938
G1 X117.949 Y76.898 E0.04461
G1 X118.700 Y78.095 E0.04430
G1 X119.166 Y79.264 E0.03944
G1 X119.441 Y80.625 E0.04353
G1 X119.481 Y98.703 E0.56684
G1 X119.407 Y99.652 E0.02984
G1 X119.238 Y100.484 E0.02662
G1 X118.965 Y101.314 E0.02740
G1 X118.594 Y102.110 E0.02752
G1 X118.150 Y102.829 E0.02650
G1 X117.131 Y103.999 E0.04865
G1 X116.482 Y104.538 E0.02644
G1 X115.729 Y105.025 E0.02812
G1 X114.953 Y105.405 E0.02710
G1 X114.090 Y105.705 E0.02865
G1 X113.227 Y105.891 E0.02767
G1 X112.156 Y105.976 E0.03367
G1 X67.569 Y105.970 E1.39801
M73 P5 R7
G1 X66.490 Y105.842 E0.03407
G1 X65.629 Y105.620 E0.02788
G1 X64.778 Y105.286 E0.02865
G1 X63.998 Y104.864 E0.02781
G1 X63.274 Y104.351 E0.02782
G1 X62.598 Y103.734 E0.02871
G1 X61.901 Y102.900 E0.03407
G1 X61.423 Y102.141 E0.02811
G1 X61.043 Y101.333 E0.02800
G1 X60.774 Y100.527 E0.02663
G1 X60.529 Y98.992 E0.04874
G1 X60.555 Y80.714 E0.57310
M204 S1250
; printing object speakerMountWashers01.stl id:0 copy 0
G1 E-2.24000 F4200.000
;WIPE_START
G1 F7200.000
G1 X60.694 Y79.797 E-0.51394
G1 X60.892 Y79.107 E-0.39806
;WIPE_END
G1 E-0.04800 F4200.000
G1 Z0.400 F9000.000
G1 X108.219 Y97.137
G1 Z0.200
G1 E3.20000 F2400.000
M204 S800
;TYPE:External perimeter
G1 F1200.000
G1 X108.271 Y96.985 E0.00505
G1 X108.440 Y96.631 E0.01229
G1 X108.636 Y96.303 E0.01197
G1 X108.861 Y95.995 E0.01196
G1 X109.113 Y95.709 E0.01196
G1 X109.391 Y95.447 E0.01196
G1 X109.691 Y95.212 E0.01196
G1 X110.013 Y95.004 E0.01203
G1 X110.514 Y94.756 E0.01753
G1 X110.883 Y94.623 E0.01229
G1 X111.253 Y94.528 E0.01197
G1 X111.629 Y94.467 E0.01196
G1 X112.010 Y94.441 E0.01196
G1 X112.391 Y94.449 E0.01196
G1 X112.770 Y94.493 E0.01196
G1 X113.146 Y94.572 E0.01203
G1 X113.676 Y94.748 E0.01753
G1 X114.032 Y94.913 E0.01229
G1 X114.362 Y95.105 E0.01197
G1 X114.672 Y95.326 E0.01196
G1 X114.961 Y95.575 E0.01196
G1 X115.228 Y95.851 E0.01203
G1 X115.568 Y96.295 E0.01753
G1 X115.770 Y96.631 E0.01229
G1 X115.935 Y96.975 E0.01197
G1 X116.068 Y97.332 E0.01196
G1 X116.167 Y97.701 E0.01196
G1 X116.233 Y98.079 E0.01203
G1 X116.265 Y98.637 E0.01753
G1 X116.243 Y99.028 E0.01229
G1 X116.187 Y99.406 E0.01197
G1 X116.096 Y99.776 E0.01196
G1 X115.971 Y100.137 E0.01196
G1 X115.813 Y100.486 E0.01203
G1 X115.527 Y100.966 E0.01753
G1 X115.289 Y101.278 E0.01229
G1 X115.030 Y101.558 E0.01197
G1 X114.745 Y101.815 E0.01203
G1 X114.290 Y102.140 E0.01753
G1 X113.947 Y102.330 E0.01229
G1 X113.598 Y102.483 E0.01197
G1 X113.236 Y102.604 E0.01196
G1 X112.864 Y102.690 E0.01196
G1 X112.486 Y102.743 E0.01196
G1 X112.105 Y102.760 E0.01196
M73 P6 R7
G1 X111.724 Y102.743 E0.01196
G1 X111.346 Y102.690 E0.01196
G1 X110.975 Y102.604 E0.01196
G1 X110.613 Y102.483 E0.01196
G1 X110.261 Y102.329 E0.01203
G1 X109.778 Y102.048 E0.01753
G1 X109.464 Y101.814 E0.01229
G1 X109.180 Y101.558 E0.01197
G1 X108.922 Y101.278 E0.01196
G1 X108.690 Y100.975 E0.01196
G1 X108.486 Y100.652 E0.01196
G1 X108.314 Y100.312 E0.01196
G1 X108.172 Y99.956 E0.01203
G1 X108.026 Y99.416 E0.01753
G1 X107.967 Y99.029 E0.01229
G1 X107.945 Y98.648 E0.01197
G1 X107.958 Y98.266 E0.01196
G1 X108.006 Y97.888 E0.01196
G1 X108.089 Y97.513 E0.01203
G1 X108.199 Y97.194 E0.01059
M204 S1250
G1 X108.111 Y97.017 F9000.000
G1 X107.789 Y97.059
M204 S800
G1 F1200.000
G1 X107.986 Y96.575 E0.01637
G1 X108.259 Y96.096 E0.01729
G1 X108.467 Y95.801 E0.01131
G1 X108.829 Y95.385 E0.01729
G1 X109.092 Y95.138 E0.01131
G1 X109.529 Y94.802 E0.01729
G1 X109.837 Y94.610 E0.01138
G1 X110.159 Y94.443 E0.01138
G1 X110.672 Y94.240 E0.01729
G1 X111.018 Y94.141 E0.01131
G1 X111.561 Y94.043 E0.01729
G1 X111.923 Y94.014 E0.01138
G1 X112.288 Y94.014 E0.01144
G1 X112.649 Y94.043 E0.01138
G1 X113.190 Y94.140 E0.01722
G1 X113.715 Y94.302 E0.01722
G1 X114.049 Y94.442 E0.01138
G1 X114.372 Y94.609 E0.01138
G1 X114.832 Y94.908 E0.01722
G1 X115.254 Y95.261 E0.01722
G1 X115.508 Y95.520 E0.01138
G1 X115.741 Y95.798 E0.01138
G1 X116.049 Y96.253 E0.01722
G1 X116.301 Y96.741 E0.01722
G1 X116.435 Y97.078 E0.01138
G1 X116.542 Y97.425 E0.01138
G1 X116.651 Y97.965 E0.01729
G1 X116.687 Y98.324 E0.01131
G1 X116.687 Y98.876 E0.01729
G1 X116.651 Y99.235 E0.01131
G1 X116.542 Y99.775 E0.01729
G1 X116.436 Y100.120 E0.01131
G1 X116.222 Y100.628 E0.01729
G1 X116.049 Y100.947 E0.01138
G1 X115.850 Y101.253 E0.01144
G1 X115.629 Y101.541 E0.01138
G1 X115.251 Y101.942 E0.01729
G1 X114.979 Y102.179 E0.01131
G1 X114.530 Y102.496 E0.01722
G1 X114.048 Y102.758 E0.01722
G1 X113.715 Y102.898 E0.01131
G1 X113.188 Y103.060 E0.01729
G1 X112.832 Y103.132 E0.01138
G1 X112.472 Y103.175 E0.01138
G1 X111.923 Y103.186 E0.01722
G1 X111.376 Y103.131 E0.01722
G1 X111.020 Y103.060 E0.01138
G1 X110.672 Y102.960 E0.01138
G1 X110.161 Y102.757 E0.01722
G1 X109.678 Y102.495 E0.01722
G1 X109.380 Y102.293 E0.01131
G1 X108.956 Y101.939 E0.01729
G1 X108.704 Y101.682 E0.01131
G1 X108.359 Y101.251 E0.01729
G1 X108.162 Y100.949 E0.01131
G1 X107.909 Y100.459 E0.01729
G1 X107.776 Y100.124 E0.01131
G1 X107.624 Y99.594 E0.01729
G1 X107.560 Y99.237 E0.01138
G1 X107.524 Y98.876 E0.01138
G1 X107.524 Y98.326 E0.01722
G1 X107.589 Y97.781 E0.01722
G1 X107.667 Y97.429 E0.01131
G1 X107.770 Y97.116 E0.01033
M204 S1250
G1 X108.183 Y96.989 F9000.000
G1 X107.951 Y97.170
M204 S800
;TYPE:Gap fill
;WIDTH:0.0994252
G1 F1200.000
G1 X108.231 Y96.575 E0.00309
M204 S1250
G1 X108.202 Y96.576 F9000.000
M204 S800
;WIDTH:0.0995855
G1 F1200.000
G1 X108.042 Y96.983 E0.00206
G1 X107.799 Y97.706 E0.00359
M204 S1250
G1 X107.792 Y97.871 F9000.000
M204 S800
;WIDTH:0.0959566
G1 F1200.000
G1 X107.875 Y97.486 E0.00174
G1 X108.015 Y96.976 E0.00233
M204 S1250
G1 X108.363 Y96.344 F9000.000
M204 S800
;WIDTH:0.0980795
G1 F1200.000
G1 X108.688 Y95.872 E0.00263
M204 S1250
G1 X108.946 Y95.575 F9000.000
M204 S800
;WIDTH:0.0959071
G1 F1200.000
G1 X109.270 Y95.269 E0.00196
M204 S1250
G1 X109.582 Y95.029 F9000.000
M204 S800
;WIDTH:0.0934515
G1 F1200.000
G1 X109.909 Y94.817 E0.00164
M204 S1250
M204 S800
;WIDTH:0.103448
G1 X110.386 Y94.582 E0.00268
M204 S1250
G1 X110.831 Y94.416 F9000.000
M204 S800
;WIDTH:0.0979233
G1 F1200.000
G1 X110.584 Y94.504 E0.00120
M204 S1250
G1 X110.577 Y94.485 F9000.000
M204 S800
;WIDTH:0.0990496
G1 F1200.000
G1 X111.169 Y94.330 E0.00285
M204 S1250
G1 X112.405 Y94.213 F9000.000
M204 S800
;WIDTH:0.0977264
G1 F1200.000
G1 X111.931 Y94.230 E0.00216
G1 X111.447 Y94.280 E0.00222
M204 S1250
G1 X111.667 Y94.223 F9000.000
M204 S800
;WIDTH:0.0989484
G1 F1200.000
G1 X112.403 Y94.237 E0.00343
M204 S1250
G1 X112.425 Y94.239 F9000.000
M204 S800
;WIDTH:0.0993699
G1 F1200.000
G1 X112.739 Y94.275 E0.00149
M204 S1250
G1 X112.987 Y94.320 F9000.000
M204 S800
;WIDTH:0.0968759
G1 F1200.000
G1 X113.201 Y94.366 E0.00098
M204 S1250
G1 X113.279 Y94.391 F9000.000
M204 S800
;WIDTH:0.101159
G1 F1200.000
G1 X113.759 Y94.551 E0.00245
M204 S1250
G1 X113.772 Y94.557 F9000.000
M204 S800
;WIDTH:0.0998145
G1 F1200.000
G1 X114.116 Y94.717 E0.00179
M204 S1250
G1 X114.140 Y94.729 F9000.000
M204 S800
;WIDTH:0.0991137
G1 F1200.000
G1 X114.384 Y94.871 E0.00132
M204 S1250
G1 X114.582 Y95.000 F9000.000
M204 S800
;WIDTH:0.0985032
G1 F1200.000
G1 X114.777 Y95.139 E0.00111
M204 S1250
G1 X115.011 Y95.336 F9000.000
M204 S800
;WIDTH:0.0933723
G1 F1200.000
G1 X115.348 Y95.665 E0.00197
G1 X115.651 Y96.002 E0.00190
M204 S1250
G1 X115.692 Y96.106 F9000.000
M204 S800
;WIDTH:0.104382
G1 F1200.000
G1 X115.204 Y95.479 E0.00406
M204 S1250
G1 X115.791 Y96.251 F9000.000
M204 S800
;WIDTH:0.09939
G1 F1200.000
G1 X115.922 Y96.470 E0.00120
M204 S1250
G1 X116.292 Y97.259 F9000.000
M204 S800
;WIDTH:0.0973558
G1 F1200.000
G1 X116.034 Y96.687 E0.00284
M204 S1250
G1 X116.050 Y96.679 F9000.000
M204 S800
;WIDTH:0.0989045
G1 F1200.000
G1 X116.270 Y97.266 E0.00292
M204 S1250
G1 X116.276 Y97.286 F9000.000
M204 S800
;WIDTH:0.0993612
G1 F1200.000
G1 X116.359 Y97.593 E0.00149
M204 S1250
G1 X116.498 Y98.442 F9000.000
M204 S800
;WIDTH:0.0969074
G1 F1200.000
G1 X116.408 Y97.841 E0.00273
M204 S1250
G1 X116.428 Y97.837 F9000.000
M204 S800
;WIDTH:0.104384
G1 F1200.000
G1 X116.474 Y98.551 E0.00365
M204 S1250
G1 X116.474 Y98.727 F9000.000
M204 S800
;WIDTH:0.0996206
G1 F1200.000
G1 X116.457 Y99.034 E0.00145
M204 S1250
G1 X116.454 Y99.061 F9000.000
M204 S800
;WIDTH:0.0991429
G1 F1200.000
G1 X116.412 Y99.342 E0.00133
M204 S1250
G1 X116.365 Y99.573 F9000.000
M204 S800
;WIDTH:0.0986367
G1 F1200.000
G1 X116.301 Y99.835 E0.00125
M204 S1250
G1 X116.294 Y99.854 F9000.000
M204 S800
;WIDTH:0.0993552
G1 F1200.000
G1 X116.190 Y100.156 E0.00150
M204 S1250
G1 X115.944 Y100.746 F9000.000
M204 S800
;WIDTH:0.0940156
G1 F1200.000
G1 X115.413 Y101.459 E0.00378
M204 S1250
G1 X115.547 Y101.338 F9000.000
M204 S800
;WIDTH:0.093444
G1 F1200.000
G1 X116.110 Y100.398 E0.00460
M204 S1250
G1 X116.091 Y100.390 F9000.000
M204 S800
;WIDTH:0.0968636
G1 F1200.000
G1 X115.819 Y100.955 E0.00281
M204 S1250
G1 E-2.24000 F4200.000
;WIPE_START
G1 F7200.000
G1 X116.091 Y100.390 E-0.34776
;WIPE_END
G1 E-0.61224 F4200.000
G1 Z0.400 F9000.000
G1 X114.676 Y102.162
G1 Z0.200
G1 E3.20000 F2400.000
M204 S800
;WIDTH:0.0984538
G1 F1200.000
G1 X115.164 Y101.724 E0.00303
M204 S1250
G1 X115.170 Y101.752 F9000.000
M204 S800
;WIDTH:0.0944362
G1 F1200.000
G1 X114.845 Y102.009 E0.00177
G1 X114.349 Y102.352 E0.00258
M204 S1250
G1 X114.028 Y102.527 F9000.000
M204 S800
;WIDTH:0.0981709
G1 F1200.000
G1 X113.494 Y102.743 E0.00265
M204 S1250
G1 X113.242 Y102.821 F9000.000
M204 S800
;WIDTH:0.0992466
G1 F1200.000
G1 X112.920 Y102.896 E0.00155
M204 S1250
G1 X112.907 Y102.899 F9000.000
M204 S800
;WIDTH:0.0985571
G1 F1200.000
G1 X112.299 Y102.982 E0.00284
M204 S1250
G1 X112.299 Y102.965 F9000.000
M204 S800
;WIDTH:0.0944119
G1 F1200.000
G1 X112.911 Y102.922 E0.00263
M204 S1250
G1 X112.044 Y102.970 F9000.000
M204 S800
;WIDTH:0.0990618
G1 F1200.000
G1 X111.799 Y102.959 E0.00114
M204 S1250
G1 X111.563 Y102.936 F9000.000
M204 S800
;WIDTH:0.0982966
G1 F1200.000
G1 X111.303 Y102.899 E0.00121
M204 S1250
G1 X111.290 Y102.896 F9000.000
M204 S800
;WIDTH:0.0993772
G1 F1200.000
G1 X110.928 Y102.812 E0.00175
M204 S1250
G1 X110.901 Y102.804 F9000.000
M204 S800
;WIDTH:0.0993661
G1 F1200.000
G1 X110.618 Y102.709 E0.00140
M204 S1250
G1 X110.394 Y102.620 F9000.000
M204 S800
;WIDTH:0.0978124
G1 F1200.000
G1 X110.182 Y102.527 E0.00106
M204 S1250
G1 X110.078 Y102.469 F9000.000
M204 S800
;WIDTH:0.102305
G1 F1200.000
G1 X109.661 Y102.227 E0.00238
M204 S1250
G1 X109.647 Y102.217 F9000.000
M204 S800
;WIDTH:0.0996093
G1 F1200.000
G1 X109.401 Y102.033 E0.00145
M204 S1250
G1 X109.221 Y101.882 F9000.000
M204 S800
;WIDTH:0.0982694
G1 F1200.000
G1 X109.027 Y101.707 E0.00120
M204 S1250
G1 X109.019 Y101.698 F9000.000
M204 S800
;WIDTH:0.0992357
G1 F1200.000
G1 X108.794 Y101.454 E0.00155
M204 S1250
G1 X108.629 Y101.246 F9000.000
M204 S800
;WIDTH:0.0962212
G1 F1200.000
G1 X108.308 Y100.769 E0.00255
M204 S1250
M73 P7 R7
G1 X108.128 Y100.419 F9000.000
M204 S800
;WIDTH:0.0962089
G1 F1200.000
G1 X107.971 Y100.029 E0.00186
G1 X107.987 Y99.994 E0.00017
M204 S1250
G1 X107.988 Y99.998 F9000.000
M204 S800
;WIDTH:0.0933209
G1 F1200.000
G1 X107.957 Y99.980 E0.00015
G1 X107.736 Y99.099 E0.00381
M204 S1250
G1 X107.865 Y99.749 F9000.000
M204 S800
;WIDTH:0.0995565
G1 F1200.000
G1 X107.756 Y99.060 E0.00329
M204 S1250
G1 X107.754 Y99.033 F9000.000
M204 S800
;WIDTH:0.0993777
G1 F1200.000
G1 X107.737 Y98.734 E0.00141
M204 S1250
G1 X107.737 Y98.493 F9000.000
M204 S800
;WIDTH:0.0977545
G1 F1200.000
G1 X107.746 Y98.262 E0.00106
M204 S1250
G1 E-2.24000 F4200.000
;WIPE_START
G1 F7200.000
G1 X107.737 Y98.493 E-0.12826
;WIPE_END
G1 E-0.83174 F4200.000
G1 Z0.400 F9000.000
G1 X72.055 Y98.637
G1 Z0.200
G1 E3.20000 F2400.000
M204 S800
;TYPE:External perimeter
;WIDTH:0.42
G1 F1200.000
G1 X72.033 Y99.028 E0.01229
G1 X71.976 Y99.406 E0.01197
G1 X71.885 Y99.776 E0.01196
G1 X71.761 Y100.137 E0.01196
G1 X71.603 Y100.487 E0.01204
G1 X71.312 Y100.973 E0.01778
G1 X71.078 Y101.278 E0.01204
G1 X70.820 Y101.558 E0.01196
G1 X70.535 Y101.815 E0.01203
G1 X70.080 Y102.140 E0.01753
G1 X69.737 Y102.330 E0.01229
G1 X69.387 Y102.483 E0.01197
G1 X69.025 Y102.604 E0.01196
G1 X68.654 Y102.690 E0.01196
G1 X68.276 Y102.743 E0.01196
G1 X67.895 Y102.760 E0.01196
G1 X67.514 Y102.743 E0.01196
G1 X67.136 Y102.690 E0.01196
G1 X66.764 Y102.604 E0.01196
G1 X66.402 Y102.483 E0.01196
G1 X66.053 Y102.330 E0.01196
G1 X65.719 Y102.146 E0.01196
G1 X65.401 Y101.930 E0.01204
G1 X64.972 Y101.560 E0.01778
G1 X64.711 Y101.278 E0.01204
G1 X64.479 Y100.975 E0.01196
G1 X64.275 Y100.650 E0.01203
G1 X64.033 Y100.147 E0.01753
G1 X63.904 Y99.776 E0.01229
G1 X63.813 Y99.406 E0.01197
G1 X63.757 Y99.028 E0.01196
G1 X63.735 Y98.648 E0.01196
G1 X63.748 Y98.266 E0.01196
G1 X63.796 Y97.888 E0.01196
G1 X63.879 Y97.513 E0.01203
G1 X64.061 Y96.985 E0.01753
G1 X64.230 Y96.631 E0.01229
G1 X64.426 Y96.303 E0.01197
G1 X64.651 Y95.995 E0.01196
G1 X64.903 Y95.709 E0.01196
G1 X65.180 Y95.447 E0.01196
G1 X65.480 Y95.212 E0.01196
G1 X65.801 Y95.005 E0.01196
G1 X66.139 Y94.828 E0.01196
G1 X66.492 Y94.683 E0.01196
G1 X66.859 Y94.571 E0.01203
G1 X67.408 Y94.468 E0.01753
G1 X67.799 Y94.441 E0.01229
G1 X68.181 Y94.449 E0.01197
G1 X68.560 Y94.493 E0.01196
G1 X68.935 Y94.572 E0.01203
G1 X69.466 Y94.748 E0.01753
G1 X69.822 Y94.913 E0.01229
G1 X70.151 Y95.105 E0.01197
G1 X70.462 Y95.326 E0.01196
G1 X70.751 Y95.575 E0.01196
G1 X71.016 Y95.849 E0.01196
G1 X71.255 Y96.147 E0.01196
G1 X71.467 Y96.467 E0.01204
G1 X71.724 Y96.973 E0.01778
G1 X71.857 Y97.332 E0.01204
G1 X71.957 Y97.701 E0.01196
G1 X72.022 Y98.079 E0.01203
G1 X72.051 Y98.577 E0.01565
M204 S1250
G1 X72.394 Y98.834 F9000.000
G1 X72.476 Y98.324
M204 S800
G1 F1200.000
G1 X72.476 Y98.876 E0.01729
G1 X72.440 Y99.237 E0.01138
G1 X72.376 Y99.594 E0.01138
G1 X72.224 Y100.124 E0.01729
G1 X72.091 Y100.459 E0.01131
G1 X71.838 Y100.949 E0.01729
G1 X71.641 Y101.251 E0.01131
G1 X71.296 Y101.682 E0.01729
G1 X71.042 Y101.941 E0.01138
G1 X70.768 Y102.179 E0.01138
G1 X70.320 Y102.496 E0.01722
G1 X69.837 Y102.758 E0.01722
G1 X69.505 Y102.898 E0.01131
G1 X68.978 Y103.060 E0.01729
