; generated by PrusaSlicer 2.3.0+win64 on 2021-08-21 at 13:40:31 UTC


;
;

;
;
; 

; external perimeters extrusion width = 0.45mm
; perimeters extrusion width = 0.45mm
; infill extrusion width = 0.45mm
; solid infill extrusion width = 0.45mm
; top infill extrusion width = 0.40mm
; first layer extrusion width = 0.42mm

M73 P0 R8
M201 X1250 Y1250 Z400 E5000 ; sets maximum accelerations, mm/sec^2
M203 X180 Y180 Z12 E80 ; sets maximum feedrates, mm/sec
M204 P1250 R1250 T1250 ; sets acceleration (P, T) and retract acceleration (R), mm/sec^2
M205 X8.00 Y8.00 Z2.00 E10.00 ; sets the jerk limits, mm/sec
M205 S0 T0 ; sets the minimum extruding and travel feed rate, mm/sec
M107
;TYPE:Custom
G90 ; use absolute coordinates
M83 ; extruder relative mode
M104 S170 ; set extruder temp for bed leveling
M140 S60 ; set bed temp
M109 R170 ; wait for bed leveling temp
M190 S60 ; wait for bed temp
G28 ; home all without mesh bed level
G29 ; mesh bed leveling 
M104 S215 ; set extruder temp
G92 E0.0
G1 Y-2.0 X179 F2400
G1 Z3 F720
M109 S215 ; wait for extruder temp

; intro line
G1 X170 F1000
M73 P1 R8
G1 Z0.2 F720
G1 X110.0 E8.0 F900
G1 X40.0 E10.0 F700
G92 E0.0

M221 S95 ; set flow
G21 ; set units to millimeters
G90 ; use absolute coordinates
M83 ; use relative distances for extrusion
M900 K0.2 ; Filament gcode LA 1.5
; ; Filament gcode LA 1.0
;LAYER_CHANGE
;Z:0.2
;HEIGHT:0.2
;BEFORE_LAYER_CHANGE
G92 E0.0
;0.2


M73 P3 R8
G1 E-3.20000 F4200.000
G1 Z0.200 F9000.000
;AFTER_LAYER_CHANGE
;0.2
G1 Z0.400
G1 X63.738 Y71.486
G1 Z0.200
G1 E3.20000 F2400.000
M204 S800
;TYPE:Skirt
;WIDTH:0.42
G1 F1200.000
G1 X64.988 Y70.801 E0.04470
G1 X66.184 Y70.405 E0.03949
G1 X67.592 Y70.210 E0.04459
G1 X112.109 Y70.204 E1.39579
G1 X113.511 Y70.339 E0.04417
G1 X114.687 Y70.670 E0.03830
G1 X115.949 Y71.285 E0.04400
G1 X116.939 Y72.008 E0.03846
G1 X117.794 Y72.885 E0.03840
G1 X118.583 Y74.052 E0.04417
G1 X119.137 Y75.352 E0.04431
G1 X119.411 Y76.556 E0.03870
G1 X119.481 Y77.467 E0.02864
G1 X119.468 Y102.872 E0.79656
M73 P4 R8
G1 X119.249 Y104.259 E0.04406
G1 X118.844 Y105.420 E0.03853
G1 X118.147 Y106.651 E0.04437
G1 X117.345 Y107.612 E0.03925
G1 X116.282 Y108.500 E0.04343
G1 X115.187 Y109.121 E0.03946
G1 X113.855 Y109.586 E0.04424
G1 X112.445 Y109.788 E0.04465
G1 X79.447 Y109.796 E1.03465
G1 X77.995 Y109.652 E0.04576
G1 X76.596 Y109.223 E0.04587
G1 X75.304 Y108.523 E0.04607
G1 X74.188 Y107.593 E0.04557
G1 X73.426 Y106.682 E0.03722
G1 X72.817 Y105.654 E0.03747
G1 X61.167 Y80.607 E0.86611
M73 P5 R8
G1 X60.857 Y79.790 E0.02742
G1 X60.630 Y78.863 E0.02991
G1 X60.521 Y77.786 E0.03394
G1 X60.553 Y76.862 E0.02901
G1 X60.703 Y75.939 E0.02931
G1 X61.022 Y74.900 E0.03409
G1 X61.416 Y74.052 E0.02930
G1 X62.024 Y73.114 E0.03503
G1 X62.647 Y72.396 E0.02982
G1 X63.692 Y71.525 E0.04266
M204 S1250
; printing object speakerMountWashers02.stl id:0 copy 0
G1 E-2.24000 F4200.000
;WIPE_START
G1 F7200.000
G1 X64.988 Y70.801 E-0.82263
G1 X65.141 Y70.750 E-0.08937
;WIPE_END
G1 E-0.04800 F4200.000
G1 Z0.400 F9000.000
G1 X108.534 Y100.284
G1 Z0.200
G1 E3.20000 F2400.000
M204 S800
;TYPE:External perimeter
G1 F1200.000
G1 X108.746 Y99.964 E0.01204
G1 X109.111 Y99.530 E0.01778
G1 X109.391 Y99.267 E0.01204
G1 X109.691 Y99.031 E0.01196
G1 X110.013 Y98.823 E0.01204
G1 X110.522 Y98.572 E0.01778
G1 X110.883 Y98.443 E0.01204
G1 X111.253 Y98.347 E0.01196
G1 X111.629 Y98.286 E0.01196
G1 X112.010 Y98.260 E0.01196
G1 X112.391 Y98.269 E0.01196
G1 X112.770 Y98.313 E0.01196
G1 X113.146 Y98.391 E0.01204
G1 X113.684 Y98.570 E0.01778
G1 X114.032 Y98.732 E0.01204
G1 X114.362 Y98.924 E0.01196
G1 X114.672 Y99.146 E0.01196
G1 X114.961 Y99.394 E0.01196
G1 X115.228 Y99.670 E0.01203
G1 X115.568 Y100.113 E0.01750
G1 X115.770 Y100.450 E0.01232
G1 X115.935 Y100.794 E0.01197
G1 X116.068 Y101.152 E0.01196
G1 X116.167 Y101.520 E0.01196
G1 X116.232 Y101.896 E0.01196
G1 X116.263 Y102.276 E0.01196
G1 X116.259 Y102.660 E0.01203
G1 X116.189 Y103.214 E0.01750
G1 X116.096 Y103.595 E0.01232
G1 X115.971 Y103.956 E0.01197
G1 X115.814 Y104.304 E0.01196
G1 X115.626 Y104.636 E0.01196
G1 X115.408 Y104.949 E0.01196
G1 X115.163 Y105.241 E0.01196
G1 X114.891 Y105.509 E0.01196
G1 X114.597 Y105.751 E0.01196
G1 X114.279 Y105.967 E0.01203
G1 X113.785 Y106.225 E0.01750
G1 X113.418 Y106.367 E0.01232
G1 X113.051 Y106.471 E0.01197
G1 X112.676 Y106.540 E0.01196
G1 X112.296 Y106.575 E0.01196
G1 X111.914 Y106.575 E0.01196
G1 X111.535 Y106.540 E0.01196
G1 X111.157 Y106.470 E0.01203
G1 X110.624 Y106.307 E0.01750
G1 X110.263 Y106.150 E0.01232
G1 X109.929 Y105.965 E0.01197
G1 X109.614 Y105.751 E0.01196
G1 X109.319 Y105.509 E0.01196
G1 X109.048 Y105.241 E0.01196
G1 X108.802 Y104.949 E0.01196
G1 X108.584 Y104.636 E0.01196
G1 X108.396 Y104.304 E0.01196
G1 X108.239 Y103.956 E0.01196
G1 X108.114 Y103.593 E0.01204
G1 X107.991 Y103.040 E0.01778
G1 X107.952 Y102.658 E0.01204
G1 X107.947 Y102.276 E0.01196
G1 X107.978 Y101.894 E0.01204
G1 X108.088 Y101.337 E0.01778
G1 X108.205 Y100.972 E0.01204
G1 X108.354 Y100.620 E0.01196
G1 X108.506 Y100.337 E0.01008
M204 S1250
G1 X108.348 Y99.949 F9000.000
G1 X108.126 Y100.141
M204 S800
G1 F1200.000
G1 X108.360 Y99.766 E0.01385
G1 X108.581 Y99.478 E0.01138
G1 X108.958 Y99.079 E0.01722
G1 X109.379 Y98.727 E0.01719
G1 X109.678 Y98.524 E0.01134
G1 X110.163 Y98.261 E0.01729
G1 X110.495 Y98.121 E0.01131
G1 X111.022 Y97.959 E0.01729
G1 X111.378 Y97.887 E0.01138
G1 X111.738 Y97.844 E0.01138
G1 X112.289 Y97.833 E0.01726
G1 X112.651 Y97.862 E0.01141
G1 X113.010 Y97.920 E0.01138
G1 X113.543 Y98.061 E0.01729
G1 X113.881 Y98.187 E0.01131
G1 X114.375 Y98.430 E0.01729
G1 X114.682 Y98.621 E0.01131
G1 X115.118 Y98.957 E0.01726
G1 X115.381 Y99.205 E0.01134
G1 X115.743 Y99.621 E0.01729
G1 X115.953 Y99.917 E0.01138
G1 X116.138 Y100.229 E0.01138
G1 X116.371 Y100.726 E0.01722
G1 X116.543 Y101.248 E0.01722
G1 X116.621 Y101.600 E0.01131
G1 X116.687 Y102.148 E0.01729
G1 X116.694 Y102.508 E0.01131
G1 X116.650 Y103.057 E0.01726
G1 X116.586 Y103.413 E0.01134
G1 X116.434 Y103.943 E0.01729
G1 X116.301 Y104.281 E0.01138
G1 X116.140 Y104.606 E0.01138
G1 X115.849 Y105.074 E0.01729
G1 X115.629 Y105.360 E0.01131
G1 X115.251 Y105.761 E0.01729
G1 X114.979 Y105.998 E0.01131
G1 X114.529 Y106.317 E0.01729
G1 X114.215 Y106.495 E0.01131
G1 X113.711 Y106.719 E0.01729
G1 X113.368 Y106.832 E0.01131
G1 X112.832 Y106.951 E0.01722
G1 X112.287 Y107.005 E0.01719
G1 X111.923 Y107.005 E0.01141
G1 X111.561 Y106.977 E0.01138
G1 X111.019 Y106.879 E0.01726
G1 X110.669 Y106.779 E0.01141
G1 X110.328 Y106.651 E0.01144
G1 X109.999 Y106.497 E0.01138
G1 X109.525 Y106.215 E0.01729
G1 X109.235 Y106.001 E0.01131
G1 X108.826 Y105.631 E0.01729
G1 X108.584 Y105.363 E0.01131
G1 X108.258 Y104.922 E0.01722
G1 X107.986 Y104.444 E0.01722
G1 X107.839 Y104.112 E0.01138
G1 X107.719 Y103.770 E0.01138
G1 X107.588 Y103.234 E0.01729
G1 X107.538 Y102.877 E0.01131
G1 X107.516 Y102.326 E0.01729
G1 X107.538 Y101.966 E0.01131
G1 X107.625 Y101.421 E0.01729
G1 X107.717 Y101.073 E0.01131
G1 X107.910 Y100.558 E0.01722
G1 X108.098 Y100.194 E0.01286
M204 S1250
G1 X108.526 Y100.135 F9000.000
G1 X108.286 Y100.295
M204 S800
;TYPE:Gap fill
;WIDTH:0.0973785
G1 F1200.000
G1 X108.536 Y99.891 E0.00215
G1 X108.801 Y99.520 E0.00206
M204 S1250
G1 X108.898 Y99.453 F9000.000
M204 S800
;WIDTH:0.104541
G1 F1200.000
G1 X108.388 Y100.069 E0.00410
M204 S1250
G1 X108.148 Y100.561 F9000.000
M204 S800
;WIDTH:0.0985683
G1 F1200.000
G1 X108.054 Y100.782 E0.00111
M204 S1250
G1 X107.971 Y101.002 F9000.000
M204 S800
;WIDTH:0.0990675
G1 F1200.000
G1 X107.886 Y101.271 E0.00132
M204 S1250
G1 X107.880 Y101.290 F9000.000
M204 S800
;WIDTH:0.103245
G1 F1200.000
G1 X107.786 Y101.764 E0.00242
M204 S1250
G1 X107.764 Y101.897 F9000.000
M204 S800
;WIDTH:0.0986767
G1 F1200.000
G1 X107.718 Y102.488 E0.00275
M204 S1250
G1 X107.736 Y102.487 F9000.000
M204 S800
;WIDTH:0.0971182
G1 F1200.000
G1 X107.743 Y101.894 E0.00267
M204 S1250
G1 X107.746 Y102.737 F9000.000
M204 S800
;WIDTH:0.0993817
G1 F1200.000
G1 X107.778 Y103.050 E0.00148
M204 S1250
G1 X107.780 Y103.071 F9000.000
M204 S800
;WIDTH:0.101113
G1 F1200.000
G1 X107.893 Y103.584 E0.00254
M204 S1250
G1 X107.908 Y103.647 F9000.000
M204 S800
;WIDTH:0.0971433
G1 F1200.000
G1 X108.039 Y104.034 E0.00184
G1 X108.209 Y104.406 E0.00184
M204 S1250
G1 X108.403 Y104.748 F9000.000
M204 S800
;WIDTH:0.0970373
M73 P6 R8
G1 F1200.000
G1 X108.529 Y104.930 E0.00100
M204 S1250
G1 X108.677 Y105.131 F9000.000
M204 S800
;WIDTH:0.0993853
G1 F1200.000
G1 X108.879 Y105.371 E0.00147
M204 S1250
G1 X108.894 Y105.388 F9000.000
M204 S800
;WIDTH:0.0987938
G1 F1200.000
G1 X109.088 Y105.580 E0.00127
M204 S1250
G1 X109.263 Y105.738 F9000.000
M204 S800
;WIDTH:0.0990399
G1 F1200.000
G1 X109.480 Y105.917 E0.00131
M204 S1250
G1 X109.501 Y105.932 F9000.000
M204 S800
;WIDTH:0.0993957
G1 F1200.000
G1 X109.753 Y106.103 E0.00143
M204 S1250
G1 X110.532 Y106.526 F9000.000
M204 S800
;WIDTH:0.0976574
G1 F1200.000
G1 X109.962 Y106.227 E0.00293
M204 S1250
G1 X109.953 Y106.244 F9000.000
M204 S800
;WIDTH:0.0994748
G1 F1200.000
G1 X110.542 Y106.504 E0.00303
M204 S1250
G1 X110.553 Y106.508 F9000.000
M204 S800
;WIDTH:0.0970152
G1 F1200.000
G1 X111.123 Y106.682 E0.00268
M204 S1250
G1 X111.512 Y106.752 F9000.000
M204 S800
;WIDTH:0.0960564
G1 F1200.000
G1 X111.906 Y106.789 E0.00175
G1 X112.328 Y106.788 E0.00187
M204 S1250
G1 X112.720 Y106.748 F9000.000
M204 S800
;WIDTH:0.0978456
G1 F1200.000
G1 X112.948 Y106.707 E0.00106
M204 S1250
G1 X113.183 Y106.655 F9000.000
M204 S800
;WIDTH:0.0993643
G1 F1200.000
G1 X113.469 Y106.574 E0.00140
M204 S1250
G1 X113.495 Y106.566 F9000.000
M204 S800
;WIDTH:0.0994091
G1 F1200.000
G1 X113.771 Y106.459 E0.00139
M204 S1250
G1 X113.940 Y106.384 F9000.000
M204 S800
;WIDTH:0.0958227
G1 F1200.000
G1 X114.388 Y106.151 E0.00222
G1 X114.536 Y106.050 E0.00079
M204 S1250
G1 X114.760 Y105.892 F9000.000
M204 S800
;WIDTH:0.0991364
G1 F1200.000
G1 X115.023 Y105.677 E0.00159
M204 S1250
G1 X115.028 Y105.673 F9000.000
M204 S800
;WIDTH:0.0980269
G1 F1200.000
G1 X115.211 Y105.493 E0.00117
M204 S1250
G1 X115.376 Y105.318 F9000.000
M204 S800
;WIDTH:0.0993556
G1 F1200.000
G1 X115.567 Y105.091 E0.00140
M204 S1250
G1 X115.584 Y105.069 F9000.000
M204 S800
;WIDTH:0.099196
G1 F1200.000
G1 X115.748 Y104.833 E0.00134
M204 S1250
G1 X115.873 Y104.633 F9000.000
M204 S800
;WIDTH:0.0985414
G1 F1200.000
G1 X116.004 Y104.400 E0.00124
M204 S1250
G1 X116.012 Y104.383 F9000.000
M204 S800
;WIDTH:0.099466
G1 F1200.000
G1 X116.164 Y104.048 E0.00173
M204 S1250
G1 X116.174 Y104.021 F9000.000
M204 S800
;WIDTH:0.0993093
G1 F1200.000
G1 X116.270 Y103.744 E0.00137
M204 S1250
G1 X116.333 Y103.521 F9000.000
M204 S800
;WIDTH:0.0987012
G1 F1200.000
G1 X116.399 Y103.252 E0.00128
M204 S1250
G1 X116.399 Y103.249 F9000.000
M204 S800
;WIDTH:0.103898
G1 F1200.000
G1 X116.459 Y102.775 E0.00243
M204 S1250
G1 X116.472 Y102.615 F9000.000
M204 S800
;WIDTH:0.099279
G1 F1200.000
G1 X116.476 Y102.287 E0.00154
M204 S1250
G1 X116.476 Y102.272 F9000.000
M204 S800
;WIDTH:0.0983802
G1 F1200.000
G1 X116.455 Y102.009 E0.00122
M204 S1250
G1 X116.427 Y101.773 F9000.000
M204 S800
;WIDTH:0.0992624
G1 F1200.000
G1 X116.378 Y101.487 E0.00136
M204 S1250
G1 X116.372 Y101.460 F9000.000
M204 S800
;WIDTH:0.0993168
G1 F1200.000
G1 X116.295 Y101.176 E0.00138
M204 S1250
G1 X116.220 Y100.950 F9000.000
M204 S800
;WIDTH:0.0980526
G1 F1200.000
G1 X116.138 Y100.730 E0.00108
M204 S1250
G1 X115.978 Y100.391 F9000.000
M204 S800
;WIDTH:0.0935166
G1 F1200.000
G1 X115.746 Y99.994 E0.00193
G1 X115.441 Y99.598 E0.00210
M204 S1250
G1 X115.318 Y99.457 F9000.000
M204 S800
;WIDTH:0.0992491
G1 F1200.000
G1 X115.117 Y99.249 E0.00135
M204 S1250
G1 X115.096 Y99.229 F9000.000
M204 S800
;WIDTH:0.0993084
G1 F1200.000
G1 X114.873 Y99.037 E0.00138
M204 S1250
G1 X114.684 Y98.892 F9000.000
M204 S800
;WIDTH:0.0981806
G1 F1200.000
G1 X114.473 Y98.742 E0.00119
M204 S1250
G1 X114.464 Y98.737 F9000.000
M204 S800
;WIDTH:0.0992026
G1 F1200.000
G1 X114.174 Y98.568 E0.00157
M204 S1250
G1 X113.933 Y98.451 F9000.000
M204 S800
;WIDTH:0.0960752
G1 F1200.000
G1 X113.762 Y98.371 E0.00083
G1 X113.280 Y98.211 E0.00224
M204 S1250
G1 X113.100 Y98.164 F9000.000
M204 S800
;WIDTH:0.0992413
G1 F1200.000
G1 X112.817 Y98.105 E0.00135
M204 S1250
G1 X112.789 Y98.100 F9000.000
M204 S800
;WIDTH:0.0995173
G1 F1200.000
G1 X112.426 Y98.058 E0.00172
M204 S1250
G1 X112.403 Y98.056 F9000.000
M204 S800
;WIDTH:0.0987042
G1 F1200.000
G1 X112.132 Y98.050 E0.00126
M204 S1250
G1 X111.897 Y98.054 F9000.000
M204 S800
;WIDTH:0.0990993
G1 F1200.000
G1 X111.614 Y98.074 E0.00132
M204 S1250
G1 X111.587 Y98.077 F9000.000
M204 S800
;WIDTH:0.0995613
G1 F1200.000
G1 X111.227 Y98.135 E0.00172
M204 S1250
G1 X111.203 Y98.140 F9000.000
M204 S800
;WIDTH:0.0989344
G1 F1200.000
G1 X110.934 Y98.209 E0.00129
M204 S1250
G1 X110.709 Y98.278 F9000.000
M204 S800
;WIDTH:0.0989129
G1 F1200.000
G1 X110.449 Y98.372 E0.00129
M204 S1250
G1 X110.433 Y98.379 F9000.000
M204 S800
;WIDTH:0.103512
G1 F1200.000
G1 X110.000 Y98.592 E0.00243
M204 S1250
G1 X109.875 Y98.659 F9000.000
M204 S800
;WIDTH:0.098866
G1 F1200.000
G1 X109.373 Y98.985 E0.00278
M204 S1250
G1 X109.385 Y99.000 F9000.000
M204 S800
;WIDTH:0.0974812
G1 F1200.000
G1 X109.864 Y98.640 E0.00272
M204 S1250
G1 X109.197 Y99.156 F9000.000
M204 S800
;WIDTH:0.0991395
G1 F1200.000
G1 X109.019 Y99.325 E0.00115
M204 S1250
G1 E-2.24000 F4200.000
;WIPE_START
G1 F7200.000
G1 X109.197 Y99.156 E-0.13614
;WIPE_END
G1 E-0.82386 F4200.000
G1 Z0.400 F9000.000
G1 X83.574 Y101.896
G1 Z0.200
G1 E3.20000 F2400.000
M204 S800
;TYPE:External perimeter
;WIDTH:0.42
G1 F1200.000
G1 X83.605 Y102.276 E0.01196
G1 X83.600 Y102.658 E0.01196
G1 X83.561 Y103.037 E0.01196
G1 X83.487 Y103.411 E0.01196
G1 X83.379 Y103.777 E0.01196
G1 X83.238 Y104.132 E0.01196
G1 X83.064 Y104.474 E0.01204
G1 X82.751 Y104.947 E0.01778
G1 X82.504 Y105.241 E0.01204
G1 X82.233 Y105.509 E0.01196
G1 X81.938 Y105.751 E0.01196
G1 X81.621 Y105.967 E0.01203
G1 X81.126 Y106.225 E0.01750
G1 X80.760 Y106.367 E0.01232
G1 X80.392 Y106.471 E0.01197
G1 X80.017 Y106.540 E0.01196
G1 X79.638 Y106.575 E0.01196
G1 X79.256 Y106.575 E0.01196
G1 X78.876 Y106.540 E0.01196
G1 X78.499 Y106.470 E0.01203
G1 X77.965 Y106.307 E0.01750
G1 X77.605 Y106.150 E0.01232
G1 X77.271 Y105.965 E0.01197
G1 X76.955 Y105.751 E0.01196
G1 X76.661 Y105.509 E0.01196
G1 X76.389 Y105.241 E0.01196
G1 X76.144 Y104.949 E0.01196
G1 X75.925 Y104.634 E0.01203
G1 X75.660 Y104.142 E0.01750
G1 X75.514 Y103.777 E0.01232
G1 X75.407 Y103.411 E0.01197
G1 X75.333 Y103.037 E0.01196
G1 X75.293 Y102.658 E0.01196
G1 X75.289 Y102.276 E0.01196
G1 X75.320 Y101.894 E0.01204
G1 X75.430 Y101.337 E0.01778
G1 X75.547 Y100.972 E0.01204
G1 X75.696 Y100.620 E0.01196
G1 X75.877 Y100.282 E0.01203
G1 X76.196 Y99.824 E0.01750
G1 X76.455 Y99.529 E0.01232
G1 X76.732 Y99.267 E0.01197
G1 X77.032 Y99.031 E0.01196
G1 X77.355 Y98.823 E0.01204
G1 X77.864 Y98.572 E0.01778
G1 X78.225 Y98.443 E0.01204
G1 X78.594 Y98.347 E0.01196
G1 X78.971 Y98.286 E0.01196
G1 X79.351 Y98.260 E0.01196
G1 X79.733 Y98.269 E0.01196
G1 X80.112 Y98.313 E0.01196
G1 X80.488 Y98.391 E0.01204
G1 X81.026 Y98.570 E0.01778
G1 X81.374 Y98.732 E0.01204
G1 X81.703 Y98.924 E0.01196
G1 X82.014 Y99.146 E0.01196
G1 X82.303 Y99.394 E0.01196
G1 X82.568 Y99.669 E0.01196
G1 X82.807 Y99.966 E0.01196
G1 X83.018 Y100.284 E0.01196
G1 X83.199 Y100.623 E0.01204
G1 X83.409 Y101.150 E0.01778
G1 X83.509 Y101.520 E0.01204
G1 X83.564 Y101.837 E0.01008
M204 S1250
G1 X83.926 Y102.044 F9000.000
G1 X83.985 Y101.786
M204 S800
G1 F1200.000
G1 X84.029 Y102.148 E0.01141
G1 X84.036 Y102.511 E0.01138
G1 X84.014 Y102.873 E0.01138
G1 X83.927 Y103.417 E0.01729
G1 X83.835 Y103.766 E0.01131
G1 X83.641 Y104.282 E0.01729
G1 X83.482 Y104.606 E0.01131
G1 X83.191 Y105.074 E0.01729
G1 X82.971 Y105.360 E0.01131
G1 X82.593 Y105.762 E0.01729
G1 X82.320 Y105.998 E0.01131
G1 X81.870 Y106.317 E0.01729
G1 X81.557 Y106.495 E0.01131
G1 X81.053 Y106.719 E0.01729
G1 X80.710 Y106.832 E0.01131
G1 X80.174 Y106.951 E0.01722
G1 X79.628 Y107.005 E0.01719
G1 X79.266 Y107.005 E0.01134
G1 X78.719 Y106.951 E0.01726
G1 X78.362 Y106.879 E0.01141
G1 X78.013 Y106.779 E0.01138
