; generated by PrusaSlicer 2.2.0+win64 on 2020-09-27 at 19:47:16 UTC


;
;

;
;
; 

; external perimeters extrusion width = 0.45mm
; perimeters extrusion width = 0.45mm
; infill extrusion width = 0.45mm
; solid infill extrusion width = 0.45mm
; top infill extrusion width = 0.40mm
; first layer extrusion width = 0.42mm

M73 P0 R45
M201 X1250 Y1250 Z400 E5000 ; sets maximum accelerations, mm/sec^2
M203 X180 Y180 Z12 E80 ; sets maximum feedrates, mm/sec
M204 P1250 R1250 T1250 ; sets acceleration (P, T) and retract acceleration (R), mm/sec^2
M205 X8.00 Y8.00 Z2.00 E10.00 ; sets the jerk limits, mm/sec
M205 S0 T0 ; sets the minimum extruding and travel feed rate, mm/sec
M107
G90 ; use absolute coordinates
M83 ; extruder relative mode
M104 S170 ; set extruder temp for bed leveling
M140 S60 ; set bed temp
M109 R170 ; wait for bed leveling temp
M190 S60 ; wait for bed temp
G28 ; home all without mesh bed level
G29 ; mesh bed leveling 
M104 S215 ; set extruder temp
G92 E0.0
G1 Y-2.0 X179 F2400
G1 Z3 F720
M109 S215 ; wait for extruder temp

; intro line
G1 X170 F1000
G1 Z0.2 F720
G1 X110.0 E8.0 F900
M73 P0 R45
G1 X40.0 E10.0 F700
G92 E0.0

M221 S95 ; set flow
G21 ; set units to millimeters
G90 ; use absolute coordinates
M83 ; use relative distances for extrusion
M900 K0.2 ; Filament gcode LA 1.5
; ; Filament gcode LA 1.0
;BEFORE_LAYER_CHANGE
G92 E0.0
;0.2


G1 Z0.200 F9000.000
;AFTER_LAYER_CHANGE
;0.2
G1 E-3.20000 F4200.00000
G1 Z0.400 F9000.000
G1 X75.746 Y75.611
G1 Z0.200
G1 E3.20000 F2400.00000
M204 S800
G1 F1200.000
G1 X77.307 Y74.217 E0.06562
G1 X78.759 Y73.152 E0.05648
G1 X80.595 Y72.062 E0.06693
G1 X82.213 Y71.303 E0.05606
G1 X84.221 Y70.588 E0.06681
G1 X86.261 Y70.095 E0.06581
G1 X88.129 Y69.833 E0.05913
G1 X90.189 Y69.747 E0.06466
G1 X91.974 Y69.842 E0.05604
G1 X94.083 Y70.162 E0.06688
G1 X96.148 Y70.702 E0.06693
G1 X97.823 Y71.318 E0.05594
G1 X99.739 Y72.241 E0.06667
G1 X101.562 Y73.370 E0.06725
G1 X102.982 Y74.454 E0.05600
G1 X104.529 Y75.889 E0.06616
G1 X105.718 Y77.226 E0.05611
G1 X106.974 Y78.950 E0.06688
G1 X107.870 Y80.466 E0.05522
G1 X108.774 Y82.399 E0.06688
G1 X109.363 Y84.058 E0.05521
G1 X109.879 Y86.120 E0.06663
G1 X110.177 Y88.231 E0.06687
G1 X110.254 Y90.029 E0.05643
G1 X110.139 Y92.159 E0.06688
G1 X109.799 Y94.267 E0.06693
G1 X109.347 Y95.993 E0.05594
G1 X108.618 Y97.975 E0.06623
G1 X107.845 Y99.581 E0.05587
G1 X106.742 Y101.399 E0.06667
G1 X105.681 Y102.819 E0.05560
G1 X104.251 Y104.392 E0.06663
G1 X102.693 Y105.783 E0.06549
G1 X101.237 Y106.851 E0.05661
G1 X99.394 Y107.944 E0.06718
G1 X97.774 Y108.703 E0.05611
G1 X95.775 Y109.413 E0.06650
G1 X93.688 Y109.915 E0.06731
G1 X91.867 Y110.167 E0.05763
G1 X89.786 Y110.253 E0.06530
G1 X88.026 Y110.158 E0.05527
G1 X85.917 Y109.838 E0.06688
G1 X83.852 Y109.298 E0.06693
G1 X82.185 Y108.686 E0.05566
G1 X80.261 Y107.759 E0.06695
G1 X78.438 Y106.630 E0.06725
G1 X77.018 Y105.546 E0.05600
G1 X75.471 Y104.111 E0.06616
G1 X74.282 Y102.774 E0.05611
G1 X73.026 Y101.050 E0.06688
G1 X72.130 Y99.534 E0.05522
G1 X71.226 Y97.601 E0.06688
G1 X70.637 Y95.942 E0.05522
G1 X70.121 Y93.880 E0.06663
G1 X69.823 Y91.769 E0.06687
G1 X69.746 Y89.971 E0.05643
G1 X69.861 Y87.845 E0.06676
G1 X70.190 Y85.786 E0.06536
G1 X70.652 Y84.011 E0.05751
G1 X71.377 Y82.036 E0.06597
G1 X72.155 Y80.419 E0.05626
G1 X73.256 Y78.605 E0.06655
G1 X74.319 Y77.181 E0.05573
G1 X75.705 Y75.655 E0.06462
M204 S1250
G1 X75.984 Y75.909 F9000.000
M204 S800
G1 F1200.000
G1 X77.587 Y74.475 E0.06742
G1 X78.980 Y73.457 E0.05410
G1 X80.784 Y72.389 E0.06573
G1 X82.368 Y71.647 E0.05485
G1 X84.346 Y70.944 E0.06581
G1 X86.384 Y70.455 E0.06573
G1 X88.112 Y70.213 E0.05469
G1 X90.191 Y70.124 E0.06525
G1 X91.934 Y70.217 E0.05473
G1 X94.009 Y70.531 E0.06581
G1 X96.037 Y71.062 E0.06573
G1 X97.674 Y71.664 E0.05469
G1 X99.549 Y72.567 E0.06525
G1 X101.042 Y73.472 E0.05473
G1 X102.723 Y74.729 E0.06581
G1 X104.261 Y76.154 E0.06573
G1 X105.423 Y77.461 E0.05485
G1 X106.657 Y79.154 E0.06569
G1 X107.536 Y80.641 E0.05414
G1 X108.425 Y82.542 E0.06581
G1 X109.108 Y84.524 E0.06573
G1 X109.511 Y86.202 E0.05410
G1 X109.802 Y88.278 E0.06573
G1 X109.877 Y90.025 E0.05485
G1 X109.764 Y92.117 E0.06569
G1 X109.441 Y94.140 E0.06422
G1 X108.988 Y95.878 E0.05632
G1 X108.271 Y97.828 E0.06513
G1 X107.512 Y99.404 E0.05485
G1 X106.425 Y101.195 E0.06569
G1 X105.391 Y102.578 E0.05414
G1 X103.979 Y104.131 E0.06581
G1 X102.413 Y105.525 E0.06573
G1 X101.020 Y106.543 E0.05410
G1 X99.216 Y107.611 E0.06573
G1 X97.632 Y108.353 E0.05485
G1 X95.654 Y109.056 E0.06581
G1 X93.616 Y109.545 E0.06573
G1 X91.883 Y109.788 E0.05485
G1 X89.790 Y109.876 E0.06569
G1 X88.066 Y109.783 E0.05414
G1 X85.991 Y109.469 E0.06581
G1 X83.963 Y108.938 E0.06573
G1 X82.321 Y108.334 E0.05485
G1 X80.451 Y107.433 E0.06509
G1 X78.958 Y106.528 E0.05473
G1 X77.277 Y105.271 E0.06581
G1 X75.739 Y103.846 E0.06573
G1 X74.577 Y102.539 E0.05485
G1 X73.343 Y100.846 E0.06569
G1 X72.464 Y99.359 E0.05414
G1 X71.575 Y97.458 E0.06581
G1 X70.892 Y95.476 E0.06573
G1 X70.489 Y93.798 E0.05410
G1 X70.198 Y91.722 E0.06573
G1 X70.123 Y89.975 E0.05485
G1 X70.236 Y87.883 E0.06569
G1 X70.559 Y85.860 E0.06422
G1 X71.012 Y84.122 E0.05632
G1 X71.729 Y82.172 E0.06514
G1 X72.488 Y80.596 E0.05485
G1 X73.575 Y78.805 E0.06569
G1 X74.609 Y77.422 E0.05414
G1 X75.944 Y75.954 E0.06222
M204 S1250
G1 E-2.24000 F4200.00000
G1 F7200.000
G1 X77.168 Y74.853 E-0.91200
G1 E-0.04800 F4200.00000
G1 Z0.400 F9000.000
G1 X90.523 Y91.273
G1 Z0.200
G1 E3.20000 F2400.00000
M204 S800
G1 F1200.000
G1 X95.813 Y91.273 E0.16587
G1 X95.074 Y92.784 E0.05273
G1 X94.724 Y93.345 E0.02075
G1 X94.309 Y93.865 E0.02085
G1 X93.837 Y94.333 E0.02085
G1 X93.320 Y94.741 E0.02067
G1 X92.942 Y94.984 E0.01408
G1 X92.547 Y95.197 E0.01408
G1 X91.943 Y95.452 E0.02056
G1 X90.523 Y95.885 E0.04654
G1 X90.523 Y91.333 E0.14273
M204 S1250
G1 X90.900 Y91.650 F9000.000
M204 S800
G1 F1200.000
G1 X95.209 Y91.650 E0.13511
G1 X94.744 Y92.601 E0.03318
G1 X94.415 Y93.127 E0.01945
G1 X94.028 Y93.612 E0.01949
G1 X93.587 Y94.050 E0.01949
G1 X93.100 Y94.434 E0.01942
G1 X92.750 Y94.659 E0.01306
G1 X92.384 Y94.857 E0.01306
G1 X91.814 Y95.097 E0.01938
G1 X90.900 Y95.376 E0.02996
G1 X90.900 Y91.710 E0.11494
M204 S1250
G1 X90.865 Y91.251 F9000.000
G1 E-2.24000 F4200.00000
G1 F7200.000
G1 X92.545 Y91.687 E-0.91200
G1 E-0.04800 F4200.00000
G1 Z0.400 F9000.000
G1 X91.273 Y89.477
G1 Z0.200
G1 E3.20000 F2400.00000
M204 S800
G1 F1200.000
G1 X91.273 Y84.187 E0.16587
G1 X92.784 Y84.926 E0.05273
G1 X93.345 Y85.276 E0.02075
G1 X93.865 Y85.691 E0.02085
G1 X94.329 Y86.159 E0.02067
G1 X94.614 Y86.506 E0.01408
G1 X94.871 Y86.874 E0.01408
G1 X95.195 Y87.448 E0.02067
G1 X95.452 Y88.057 E0.02074
G1 X95.885 Y89.477 E0.04654
G1 X91.333 Y89.477 E0.14273
M204 S1250
G1 X91.650 Y89.100 F9000.000
M204 S800
G1 F1200.000
G1 X91.650 Y84.791 E0.13511
G1 X92.601 Y85.256 E0.03318
G1 X93.127 Y85.585 E0.01945
G1 X93.612 Y85.972 E0.01949
G1 X94.049 Y86.412 E0.01942
G1 X94.313 Y86.734 E0.01306
G1 X94.552 Y87.075 E0.01306
G1 X94.856 Y87.615 E0.01942
G1 X95.097 Y88.186 E0.01945
G1 X95.376 Y89.100 E0.02996
G1 X91.710 Y89.100 E0.11494
M204 S1250
G1 X91.251 Y89.135 F9000.000
G1 E-2.24000 F4200.00000
G1 F7200.000
G1 X91.687 Y87.455 E-0.91200
G1 E-0.04800 F4200.00000
G1 Z0.400 F9000.000
G1 X96.124 Y91.273
G1 Z0.200
G1 E3.20000 F2400.00000
M204 S800
G1 F1200.000
G1 X106.285 Y91.273 E0.31859
G1 X105.961 Y93.246 E0.06271
G1 X105.797 Y93.967 E0.02317
G1 X105.602 Y94.675 E0.02303
G1 X105.375 Y95.374 E0.02303
G1 X105.117 Y96.061 E0.02303
G1 X104.829 Y96.737 E0.02303
G1 X104.510 Y97.398 E0.02303
G1 X104.162 Y98.045 E0.02303
G1 X103.785 Y98.675 E0.02303
G1 X103.380 Y99.288 E0.02303
G1 X102.954 Y99.873 E0.02270
G1 X102.252 Y100.731 E0.03476
G1 X101.753 Y101.275 E0.02314
G1 X101.233 Y101.794 E0.02303
G1 X100.690 Y102.288 E0.02303
G1 X100.125 Y102.758 E0.02303
G1 X99.540 Y103.201 E0.02303
G1 X98.935 Y103.618 E0.02303
G1 X98.312 Y104.007 E0.02303
G1 X97.669 Y104.369 E0.02313
G1 X96.686 Y104.852 E0.03433
G1 X96.007 Y105.139 E0.02313
G1 X95.318 Y105.394 E0.02303
G1 X94.619 Y105.619 E0.02303
G1 X93.910 Y105.811 E0.02303
G1 X93.193 Y105.971 E0.02303
G1 X92.466 Y106.100 E0.02317
G1 X90.523 Y106.323 E0.06133
G1 X90.523 Y96.242 E0.31610
G1 X91.562 Y96.013 E0.03336
G1 X91.952 Y95.898 E0.01275
G1 X92.335 Y95.757 E0.01279
G1 X92.708 Y95.591 E0.01279
G1 X93.069 Y95.402 E0.01279
G1 X93.417 Y95.189 E0.01279
G1 X93.750 Y94.953 E0.01279
G1 X94.063 Y94.699 E0.01264
G1 X94.513 Y94.270 E0.01949
G1 X94.780 Y93.968 E0.01264
G1 X95.030 Y93.646 E0.01279
G1 X95.259 Y93.308 E0.01279
G1 X95.465 Y92.955 E0.01279
G1 X95.647 Y92.590 E0.01279
G1 X95.804 Y92.215 E0.01276
G1 X96.105 Y91.330 E0.02932
M204 S1250
G1 X96.394 Y91.650 F9000.000
M204 S800
G1 F1200.000
G1 X105.841 Y91.650 E0.29619
G1 X105.590 Y93.174 E0.04843
G1 X105.431 Y93.875 E0.02254
G1 X105.241 Y94.567 E0.02249
G1 X105.019 Y95.249 E0.02249
G1 X104.767 Y95.921 E0.02249
G1 X104.485 Y96.581 E0.02249
G1 X104.174 Y97.227 E0.02249
G1 X103.834 Y97.859 E0.02249
G1 X103.465 Y98.474 E0.02249
G1 X103.070 Y99.073 E0.02249
G1 X102.655 Y99.643 E0.02210
G1 X101.967 Y100.484 E0.03409
G1 X101.481 Y101.014 E0.02253
G1 X100.973 Y101.521 E0.02249
G1 X100.442 Y102.004 E0.02249
G1 X99.891 Y102.462 E0.02249
G1 X99.319 Y102.895 E0.02249
G1 X98.728 Y103.302 E0.02249
G1 X98.119 Y103.682 E0.02249
G1 X97.493 Y104.035 E0.02253
G1 X96.530 Y104.508 E0.03366
G1 X95.868 Y104.788 E0.02253
G1 X95.195 Y105.038 E0.02249
G1 X94.512 Y105.257 E0.02249
G1 X93.820 Y105.445 E0.02249
G1 X93.119 Y105.601 E0.02249
G1 X92.411 Y105.726 E0.02254
G1 X90.900 Y105.900 E0.04771
G1 X90.900 Y96.545 E0.29333
G1 X91.656 Y96.378 E0.02427
G1 X92.070 Y96.256 E0.01356
G1 X92.477 Y96.107 E0.01357
G1 X92.872 Y95.931 E0.01357
G1 X93.255 Y95.730 E0.01357
G1 X93.624 Y95.504 E0.01357
G1 X93.978 Y95.254 E0.01357
G1 X94.313 Y94.982 E0.01352
G1 X94.784 Y94.531 E0.02046
G1 X95.071 Y94.209 E0.01352
G1 X95.336 Y93.867 E0.01357
G1 X95.578 Y93.508 E0.01357
G1 X95.797 Y93.135 E0.01357
G1 X95.990 Y92.747 E0.01357
G1 X96.157 Y92.349 E0.01356
G1 X96.375 Y91.707 E0.02126
M204 S1250
G1 X96.441 Y91.253 F9000.000
G1 E-2.24000 F4200.00000
G1 F7200.000
G1 X98.021 Y91.697 E-0.91200
G1 E-0.04800 F4200.00000
G1 Z0.400 F9000.000
G1 X96.375 Y89.477
G1 Z0.200
G1 E3.20000 F2400.00000
M204 S800
G1 F1200.000
G1 X96.242 Y89.477 E0.00419
G1 X96.013 Y88.438 E0.03336
G1 X95.898 Y88.048 E0.01275
G1 X95.757 Y87.665 E0.01279
G1 X95.591 Y87.292 E0.01279
G1 X95.402 Y86.931 E0.01279
G1 X95.189 Y86.583 E0.01279
G1 X94.953 Y86.250 E0.01279
G1 X94.699 Y85.937 E0.01264
G1 X94.270 Y85.487 E0.01949
G1 X93.968 Y85.220 E0.01264
G1 X93.646 Y84.970 E0.01279
G1 X93.308 Y84.741 E0.01279
G1 X92.955 Y84.535 E0.01279
G1 X92.590 Y84.353 E0.01279
G1 X92.215 Y84.196 E0.01276
G1 X91.273 Y83.876 E0.03120
G1 X91.273 Y73.715 E0.31859
G1 X93.246 Y74.039 E0.06271
G1 X93.967 Y74.203 E0.02317
G1 X94.675 Y74.398 E0.02303
G1 X95.374 Y74.625 E0.02303
G1 X96.061 Y74.883 E0.02303
G1 X96.737 Y75.171 E0.02303
G1 X97.398 Y75.490 E0.02303
G1 X98.045 Y75.838 E0.02303
G1 X98.675 Y76.215 E0.02303
G1 X99.288 Y76.620 E0.02303
G1 X99.873 Y77.046 E0.02270
G1 X100.731 Y77.748 E0.03476
G1 X101.275 Y78.247 E0.02314
G1 X101.794 Y78.767 E0.02303
G1 X102.288 Y79.310 E0.02303
G1 X102.758 Y79.875 E0.02303
G1 X103.201 Y80.460 E0.02303
G1 X103.618 Y81.065 E0.02303
G1 X104.007 Y81.688 E0.02303
G1 X104.369 Y82.331 E0.02313
G1 X104.852 Y83.314 E0.03433
G1 X105.139 Y83.993 E0.02313
G1 X105.394 Y84.682 E0.02303
G1 X105.619 Y85.381 E0.02303
G1 X105.811 Y86.090 E0.02303
G1 X105.971 Y86.807 E0.02303
G1 X106.100 Y87.534 E0.02317
G1 X106.323 Y89.477 E0.06133
G1 X96.435 Y89.477 E0.31003
M204 S1250
G1 X96.545 Y89.100 F9000.000
M204 S800
G1 F1200.000
G1 X96.378 Y88.344 E0.02427
G1 X96.256 Y87.930 E0.01356
G1 X96.107 Y87.523 E0.01357
G1 X95.931 Y87.128 E0.01357
G1 X95.730 Y86.745 E0.01357
G1 X95.504 Y86.376 E0.01357
G1 X95.254 Y86.022 E0.01357
G1 X94.982 Y85.687 E0.01352
G1 X94.531 Y85.216 E0.02046
G1 X94.209 Y84.929 E0.01352
G1 X93.867 Y84.664 E0.01357
G1 X93.508 Y84.422 E0.01357
G1 X93.135 Y84.203 E0.01357
G1 X92.747 Y84.010 E0.01357
G1 X92.349 Y83.843 E0.01356
G1 X91.650 Y83.606 E0.02314
G1 X91.650 Y74.159 E0.29619
G1 X93.174 Y74.410 E0.04843
G1 X93.875 Y74.569 E0.02254
G1 X94.567 Y74.759 E0.02249
G1 X95.249 Y74.981 E0.02249
G1 X95.921 Y75.233 E0.02249
G1 X96.581 Y75.515 E0.02249
G1 X97.227 Y75.826 E0.02249
G1 X97.859 Y76.166 E0.02249
G1 X98.474 Y76.535 E0.02249
G1 X99.073 Y76.930 E0.02249
G1 X99.643 Y77.345 E0.02210
G1 X100.484 Y78.033 E0.03409
G1 X101.014 Y78.519 E0.02253
G1 X101.521 Y79.027 E0.02249
G1 X102.004 Y79.558 E0.02249
G1 X102.462 Y80.109 E0.02249
G1 X102.895 Y80.681 E0.02249
G1 X103.302 Y81.272 E0.02249
G1 X103.682 Y81.881 E0.02249
G1 X104.035 Y82.507 E0.02253
G1 X104.508 Y83.470 E0.03366
G1 X104.788 Y84.132 E0.02253
G1 X105.038 Y84.805 E0.02249
G1 X105.257 Y85.488 E0.02249
G1 X105.445 Y86.180 E0.02249
G1 X105.601 Y86.881 E0.02249
G1 X105.726 Y87.589 E0.02254
G1 X105.900 Y89.100 E0.04771
G1 X96.605 Y89.100 E0.29145
M204 S1250
G1 X96.153 Y89.179 F9000.000
G1 E-2.24000 F4200.00000
G1 F7200.000
G1 X96.378 Y88.344 E-0.43732
G1 X96.256 Y87.930 E-0.23959
G1 X96.110 Y87.531 E-0.23509
G1 E-0.04800 F4200.00000
G1 Z0.400 F9000.000
G1 X89.477 Y88.727
G1 Z0.200
G1 E3.20000 F2400.00000
M204 S800
G1 F1200.000
G1 X84.187 Y88.727 E0.16587
G1 X84.923 Y87.221 E0.05256
G1 X85.155 Y86.834 E0.01415
G1 X85.546 Y86.303 E0.02067
G1 X86.000 Y85.817 E0.02085
G1 X86.506 Y85.386 E0.02085
G1 X87.058 Y85.015 E0.02085
G1 X87.649 Y84.711 E0.02085
G1 X88.260 Y84.480 E0.02049
G1 X89.477 Y84.125 E0.03975
G1 X89.477 Y88.667 E0.14243
M204 S1250
G1 X89.100 Y88.350 F9000.000
M204 S800
G1 F1200.000
G1 X84.791 Y88.350 E0.13511
G1 X85.255 Y87.401 E0.03312
G1 X85.469 Y87.043 E0.01308
G1 X85.837 Y86.545 E0.01942
G1 X86.261 Y86.090 E0.01949
G1 X86.734 Y85.687 E0.01949
G1 X87.250 Y85.341 E0.01949
G1 X87.802 Y85.056 E0.01949
G1 X88.380 Y84.838 E0.01936
G1 X89.100 Y84.628 E0.02353
G1 X89.100 Y88.290 E0.11483
M204 S1250
G1 X89.127 Y88.749 F9000.000
G1 E-2.24000 F4200.00000
G1 F7200.000
G1 X87.455 Y88.313 E-0.91200
G1 E-0.04800 F4200.00000
G1 Z0.400 F9000.000
G1 X88.727 Y90.523
G1 Z0.200
G1 E3.20000 F2400.00000
M204 S800
G1 F1200.000
G1 X88.727 Y95.813 E0.16587
G1 X87.216 Y95.074 E0.05273
G1 X86.655 Y94.724 E0.02075
G1 X86.135 Y94.309 E0.02085
G1 X85.667 Y93.837 E0.02085
G1 X85.259 Y93.320 E0.02067
G1 X85.016 Y92.942 E0.01408
G1 X84.803 Y92.547 E0.01408
G1 X84.548 Y91.943 E0.02056
G1 X84.115 Y90.523 E0.04654
G1 X88.667 Y90.523 E0.14273
M204 S1250
G1 X88.350 Y90.900 F9000.000
M204 S800
G1 F1200.000
G1 X88.350 Y95.209 E0.13511
G1 X87.399 Y94.744 E0.03318
G1 X86.873 Y94.415 E0.01945
G1 X86.388 Y94.028 E0.01949
G1 X85.950 Y93.587 E0.01949
G1 X85.566 Y93.100 E0.01942
G1 X85.341 Y92.750 E0.01306
G1 X85.143 Y92.384 E0.01306
G1 X84.903 Y91.814 E0.01938
G1 X84.624 Y90.900 E0.02996
G1 X88.290 Y90.900 E0.11494
M204 S1250
G1 X88.749 Y90.865 F9000.000
G1 E-2.24000 F4200.00000
G1 F7200.000
G1 X88.313 Y92.545 E-0.91200
G1 E-0.04800 F4200.00000
G1 Z0.400 F9000.000
G1 X73.677 Y90.523
G1 Z0.200
G1 E3.20000 F2400.00000
M204 S800
G1 F1200.000
G1 X83.758 Y90.523 E0.31610
G1 X83.987 Y91.562 E0.03336
G1 X84.102 Y91.952 E0.01275
G1 X84.243 Y92.335 E0.01279
G1 X84.409 Y92.708 E0.01279
G1 X84.598 Y93.069 E0.01279
G1 X84.811 Y93.417 E0.01279
G1 X85.047 Y93.750 E0.01279
G1 X85.304 Y94.067 E0.01279
G1 X85.578 Y94.363 E0.01264
G1 X86.036 Y94.783 E0.01949
G1 X86.354 Y95.030 E0.01264
G1 X86.692 Y95.259 E0.01279
G1 X87.045 Y95.465 E0.01279
G1 X87.410 Y95.647 E0.01279
G1 X87.785 Y95.804 E0.01276
G1 X88.727 Y96.124 E0.03120
G1 X88.727 Y106.285 E0.31859
G1 X86.754 Y105.961 E0.06271
G1 X86.033 Y105.797 E0.02317
G1 X85.325 Y105.602 E0.02303
G1 X84.626 Y105.375 E0.02303
G1 X83.939 Y105.117 E0.02303
G1 X83.263 Y104.829 E0.02303
G1 X82.602 Y104.510 E0.02303
G1 X81.955 Y104.162 E0.02303
G1 X81.325 Y103.785 E0.02303
G1 X80.712 Y103.380 E0.02303
G1 X80.127 Y102.954 E0.02270
G1 X79.269 Y102.252 E0.03476
G1 X78.725 Y101.753 E0.02314
G1 X78.206 Y101.233 E0.02303
G1 X77.712 Y100.690 E0.02303
G1 X77.242 Y100.125 E0.02303
