; generated by PrusaSlicer 2.2.0+win64 on 2020-12-18 at 15:02:54 UTC


;
;

;
;
; 

; external perimeters extrusion width = 0.45mm
; perimeters extrusion width = 0.45mm
; infill extrusion width = 0.45mm
; solid infill extrusion width = 0.45mm
; top infill extrusion width = 0.40mm
; first layer extrusion width = 0.42mm

M73 P0 R10
M201 X1250 Y1250 Z400 E5000 ; sets maximum accelerations, mm/sec^2
M203 X180 Y180 Z12 E80 ; sets maximum feedrates, mm/sec
M204 P1250 R1250 T1250 ; sets acceleration (P, T) and retract acceleration (R), mm/sec^2
M205 X8.00 Y8.00 Z2.00 E10.00 ; sets the jerk limits, mm/sec
M205 S0 T0 ; sets the minimum extruding and travel feed rate, mm/sec
M107
G90 ; use absolute coordinates
M83 ; extruder relative mode
M104 S170 ; set extruder temp for bed leveling
M140 S60 ; set bed temp
M109 R170 ; wait for bed leveling temp
M190 S60 ; wait for bed temp
G28 ; home all without mesh bed level
G29 ; mesh bed leveling 
M104 S215 ; set extruder temp
G92 E0.0
G1 Y-2.0 X179 F2400
G1 Z3 F720
M109 S215 ; wait for extruder temp

; intro line
G1 X170 F1000
G1 Z0.2 F720
G1 X110.0 E8.0 F900
M73 P1 R10
G1 X40.0 E10.0 F700
G92 E0.0

M221 S95 ; set flow
G21 ; set units to millimeters
G90 ; use absolute coordinates
M83 ; use relative distances for extrusion
M900 K0.2 ; Filament gcode LA 1.5
; ; Filament gcode LA 1.0
;BEFORE_LAYER_CHANGE
G92 E0.0
;0.2


G1 Z0.200 F9000.000
;AFTER_LAYER_CHANGE
;0.2
G1 E-3.20000 F4200.00000
G1 Z0.400 F9000.000
G1 X174.678 Y76.903
G1 Z0.200
G1 E3.20000 F2400.00000
M204 S800
G1 F1200.000
G1 X175.193 Y77.669 E0.02896
G1 X175.377 Y78.574 E0.02896
G1 X175.368 Y101.622 E0.72266
G1 X175.148 Y102.431 E0.02626
G1 X174.662 Y103.112 E0.02626
G1 X173.970 Y103.583 E0.02626
G1 X173.153 Y103.785 E0.02637
G1 X20.768 Y103.779 E4.77793
G1 X20.112 Y103.618 E0.02119
G1 X19.530 Y103.281 E0.02107
G1 X8.254 Y94.064 E0.45664
G1 X7.345 Y93.222 E0.03884
G1 X6.306 Y91.928 E0.05205
G1 X5.420 Y90.301 E0.05810
G1 X4.901 Y88.742 E0.05150
G1 X4.649 Y87.132 E0.05109
G1 X4.694 Y85.229 E0.05969
G1 X5.118 Y83.326 E0.06112
G1 X5.894 Y81.567 E0.06029
G1 X6.407 Y80.751 E0.03025
G1 X7.143 Y79.823 E0.03713
G1 X8.603 Y78.489 E0.06199
G1 X10.247 Y77.499 E0.06017
G1 X12.062 Y76.842 E0.06052
G1 X13.940 Y76.552 E0.05957
G1 X173.004 Y76.210 E4.98735
G1 X173.909 Y76.391 E0.02896
G1 X174.628 Y76.870 E0.02707
M204 S1250
G1 E-2.24000 F4200.00000
G1 F7200.000
G1 X175.193 Y77.669 E-0.54266
G1 X175.326 Y78.322 E-0.36934
G1 E-0.04800 F4200.00000
G1 Z0.400 F9000.000
G1 X172.650 Y78.922
G1 Z0.200
G1 E3.20000 F2400.00000
M204 S800
G1 F1200.000
G1 X172.688 Y79.585 E0.02084
G1 X172.688 Y100.413 E0.65303
G1 X172.640 Y101.053 E0.02013
G1 X171.992 Y101.102 E0.02037
G1 X22.008 Y101.102 E4.70265
G1 X21.360 Y101.053 E0.02037
G1 X21.311 Y100.405 E0.02037
G1 X21.311 Y86.407 E0.43891
G1 X21.274 Y85.702 E0.02211
G1 X21.207 Y85.228 E0.01503
G1 X21.047 Y84.534 E0.02231
G1 X20.815 Y83.861 E0.02231
G1 X20.621 Y83.425 E0.01498
G1 X20.397 Y83.005 E0.01492
G1 X20.144 Y82.600 E0.01498
G1 X19.716 Y82.034 E0.02225
G1 X19.395 Y81.678 E0.01503
G1 X18.875 Y81.192 E0.02231
G1 X18.305 Y80.763 E0.02237
G1 X17.693 Y80.396 E0.02237
G1 X17.046 Y80.096 E0.02237
G1 X16.371 Y79.864 E0.02237
G1 X15.675 Y79.704 E0.02237
G1 X14.967 Y79.618 E0.02237
G1 X14.254 Y79.606 E0.02237
G1 X13.543 Y79.669 E0.02237
G1 X12.843 Y79.806 E0.02237
G1 X12.161 Y80.016 E0.02237
G1 X11.506 Y80.295 E0.02231
G1 X11.085 Y80.520 E0.01497
G1 X10.680 Y80.774 E0.01497
G1 X10.112 Y81.203 E0.02231
G1 X9.591 Y81.690 E0.02237
G1 X9.124 Y82.230 E0.02237
G1 X8.716 Y82.815 E0.02237
G1 X8.372 Y83.440 E0.02237
G1 X8.095 Y84.095 E0.02232
G1 X7.946 Y84.558 E0.01523
G1 X7.789 Y85.246 E0.02211
G1 X7.704 Y85.954 E0.02237
G1 X7.693 Y86.667 E0.02237
G1 X7.757 Y87.378 E0.02237
G1 X7.895 Y88.078 E0.02237
G1 X8.106 Y88.760 E0.02237
G1 X8.386 Y89.416 E0.02237
G1 X8.733 Y90.039 E0.02237
G1 X9.144 Y90.622 E0.02237
G1 X9.614 Y91.159 E0.02237
G1 X10.138 Y91.644 E0.02237
G1 X10.687 Y92.056 E0.02151
G1 X10.765 Y92.136 E0.00353
G1 X10.600 Y92.423 E0.01038
G1 X10.507 Y92.390 E0.00308
G1 X9.965 Y91.990 E0.02111
G1 X9.442 Y91.520 E0.02207
G1 X9.122 Y91.182 E0.01459
G1 X8.823 Y90.823 E0.01465
G1 X8.548 Y90.445 E0.01464
G1 X8.299 Y90.050 E0.01464
G1 X8.076 Y89.640 E0.01464
G1 X7.881 Y89.215 E0.01465
G1 X7.713 Y88.780 E0.01465
G1 X7.573 Y88.334 E0.01465
G1 X7.463 Y87.880 E0.01465
G1 X7.383 Y87.421 E0.01459
G1 X7.318 Y86.721 E0.02207
G1 X7.313 Y86.255 E0.01459
G1 X7.339 Y85.789 E0.01465
G1 X7.394 Y85.327 E0.01459
G1 X7.535 Y84.637 E0.02207
G1 X7.664 Y84.190 E0.01459
G1 X7.823 Y83.751 E0.01464
G1 X8.009 Y83.324 E0.01459
G1 X8.343 Y82.704 E0.02207
G1 X8.595 Y82.315 E0.01454
G1 X9.024 Y81.757 E0.02207
G1 X9.336 Y81.412 E0.01459
G1 X9.671 Y81.089 E0.01459
G1 X10.215 Y80.642 E0.02207
G1 X10.597 Y80.377 E0.01459
G1 X10.996 Y80.137 E0.01459
G1 X11.627 Y79.824 E0.02207
G1 X12.058 Y79.652 E0.01455
G1 X12.503 Y79.508 E0.01469
G1 X12.954 Y79.393 E0.01459
G1 X13.646 Y79.276 E0.02202
G1 X14.347 Y79.227 E0.02202
G1 X14.812 Y79.232 E0.01459
G1 X15.278 Y79.267 E0.01465
G1 X15.741 Y79.333 E0.01464
G1 X16.198 Y79.428 E0.01464
G1 X16.646 Y79.553 E0.01459
G1 X17.307 Y79.796 E0.02207
G1 X17.729 Y79.991 E0.01459
G1 X18.138 Y80.214 E0.01459
G1 X18.724 Y80.597 E0.02197
G1 X19.094 Y80.885 E0.01469
G1 X19.442 Y81.194 E0.01459
G1 X19.929 Y81.702 E0.02207
G1 X20.221 Y82.062 E0.01454
G1 X20.619 Y82.641 E0.02202
G1 X20.956 Y83.253 E0.02191
G1 X21.148 Y83.679 E0.01464
G1 X21.382 Y84.341 E0.02202
G1 X21.552 Y85.022 E0.02202
G1 X21.627 Y85.482 E0.01459
G1 X21.673 Y85.946 E0.01465
G1 X21.688 Y86.417 E0.01478
G1 X21.688 Y100.725 E0.44859
G1 X172.311 Y100.725 E4.72268
G1 X172.311 Y80.992 E0.61869
G1 X172.297 Y79.991 E0.03140
G1 X172.257 Y79.232 E0.02383
G1 X167.543 Y79.232 E0.14780
G1 X167.410 Y79.207 E0.00426
G1 X167.410 Y78.880 E0.01023
G1 X167.544 Y78.855 E0.00427
G1 X171.993 Y78.855 E0.13952
G1 X172.590 Y78.916 E0.01880
M204 S1250
G1 X172.462 Y79.275 F9000.000
M106 S255
;BEFORE_LAYER_CHANGE
G92 E0.0
;0.4


G1 Z0.400 F9000.000
;AFTER_LAYER_CHANGE
;0.4
G1 E-3.20000 F4200.00000
G1 Z0.600 F9000.000
G1 X173.909 Y76.391
G1 Z0.400
G1 E3.20000 F2400.00000
G1 X174.678 Y76.903 E0.02896
G1 X175.193 Y77.669 E0.02896
G1 X175.377 Y78.574 E0.02896
G1 X175.368 Y101.622 E0.72266
G1 X175.148 Y102.431 E0.02626
G1 X174.662 Y103.112 E0.02626
G1 X173.970 Y103.583 E0.02626
G1 X173.153 Y103.785 E0.02637
G1 X20.768 Y103.779 E4.77793
G1 X20.112 Y103.618 E0.02119
G1 X19.530 Y103.281 E0.02107
G1 X8.254 Y94.064 E0.45664
G1 X7.345 Y93.222 E0.03884
G1 X6.306 Y91.928 E0.05205
G1 X5.420 Y90.301 E0.05810
G1 X4.901 Y88.742 E0.05150
G1 X4.649 Y87.132 E0.05109
G1 X4.694 Y85.229 E0.05969
G1 X5.118 Y83.326 E0.06112
G1 X5.894 Y81.567 E0.06029
G1 X6.407 Y80.751 E0.03025
G1 X7.143 Y79.823 E0.03713
G1 X8.603 Y78.489 E0.06199
G1 X10.247 Y77.499 E0.06017
G1 X12.062 Y76.842 E0.06052
G1 X13.940 Y76.552 E0.05957
G1 X173.004 Y76.210 E4.98735
G1 X173.850 Y76.379 E0.02707
G1 E-2.24000 F4200.00000
G1 F7200.000
G1 X174.678 Y76.903 E-0.54266
G1 X175.049 Y77.456 E-0.36934
G1 E-0.04800 F4200.00000
G1 Z0.600 F9000.000
G1 X172.775 Y78.812
G1 Z0.400
G1 E3.20000 F2400.00000
M204 S800
G1 F1800.000
G1 X172.775 Y101.188 E0.75741
M73 P11 R9
G1 X21.225 Y101.188 E5.12979
G1 X21.225 Y86.409 E0.50025
G1 X21.208 Y85.942 E0.01583
G1 X21.123 Y85.246 E0.02371
G1 X21.025 Y84.785 E0.01597
G1 X20.895 Y84.332 E0.01597
G1 X20.643 Y83.676 E0.02378
G1 X20.324 Y83.050 E0.02378
G1 X20.073 Y82.650 E0.01597
G1 X19.797 Y82.270 E0.01590
G1 X19.494 Y81.909 E0.01597
G1 X18.997 Y81.412 E0.02378
G1 X18.449 Y80.969 E0.02385
G1 X17.858 Y80.586 E0.02385
G1 X17.219 Y80.262 E0.02424
G1 X16.794 Y80.091 E0.01550
G1 X16.345 Y79.946 E0.01597
G1 X15.661 Y79.789 E0.02378
G1 X14.961 Y79.704 E0.02385
G1 X14.257 Y79.692 E0.02385
G1 X13.555 Y79.755 E0.02385
G1 X12.852 Y79.893 E0.02424
G1 X12.412 Y80.020 E0.01550
G1 X11.969 Y80.182 E0.01597
G1 X11.333 Y80.480 E0.02378
G1 X10.730 Y80.844 E0.02385
G1 X10.168 Y81.269 E0.02385
G1 X9.654 Y81.750 E0.02385
G1 X9.192 Y82.283 E0.02385
G1 X8.789 Y82.861 E0.02385
G1 X8.449 Y83.477 E0.02385
G1 X8.176 Y84.125 E0.02379
G1 X8.027 Y84.589 E0.01650
G1 X7.874 Y85.260 E0.02331
G1 X7.790 Y85.960 E0.02384
G1 X7.779 Y86.664 E0.02385
G1 X7.842 Y87.366 E0.02385
G1 X7.978 Y88.057 E0.02385
G1 X8.191 Y88.741 E0.02424
G1 X8.364 Y89.165 E0.01550
G1 X8.571 Y89.589 E0.01597
G1 X8.935 Y90.190 E0.02378
G1 X9.359 Y90.750 E0.02378
G1 X9.676 Y91.099 E0.01597
G1 X10.016 Y91.426 E0.01597
G1 X10.564 Y91.866 E0.02378
G1 X10.966 Y92.126 E0.01622
G1 X10.691 Y92.607 E0.01875
G1 X10.096 Y92.204 E0.02431
G1 X9.551 Y91.745 E0.02412
G1 X9.218 Y91.415 E0.01588
G1 X8.763 Y90.886 E0.02363
G1 X8.477 Y90.493 E0.01643
G1 X8.225 Y90.094 E0.01600
G1 X7.999 Y89.678 E0.01600
G1 X7.801 Y89.251 E0.01594
G1 X7.560 Y88.596 E0.02363
G1 X7.430 Y88.128 E0.01643
G1 X7.333 Y87.665 E0.01600
G1 X7.267 Y87.197 E0.01600
G1 X7.232 Y86.726 E0.01600
G1 X7.227 Y86.253 E0.01600
G1 X7.252 Y85.781 E0.01600
G1 X7.309 Y85.312 E0.01600
G1 X7.395 Y84.847 E0.01600
G1 X7.512 Y84.391 E0.01594
G1 X7.738 Y83.730 E0.02363
G1 X7.932 Y83.285 E0.01643
G1 X8.149 Y82.865 E0.01600
G1 X8.392 Y82.460 E0.01600
G1 X8.662 Y82.072 E0.01600
G1 X8.956 Y81.702 E0.01600
G1 X9.273 Y81.353 E0.01594
G1 X9.782 Y80.876 E0.02363
G1 X10.162 Y80.573 E0.01643
G1 X10.550 Y80.304 E0.01600
G1 X10.955 Y80.060 E0.01600
G1 X11.374 Y79.844 E0.01594
G1 X12.018 Y79.575 E0.02363
G1 X12.479 Y79.425 E0.01643
G1 X12.937 Y79.308 E0.01600
G1 X13.402 Y79.222 E0.01600
G1 X13.871 Y79.165 E0.01600
G1 X14.342 Y79.140 E0.01594
G1 X15.039 Y79.159 E0.02363
G1 X15.522 Y79.210 E0.01643
G1 X15.988 Y79.292 E0.01600
G1 X16.447 Y79.404 E0.01600
G1 X16.898 Y79.545 E0.01600
G1 X17.339 Y79.715 E0.01600
G1 X17.768 Y79.914 E0.01600
G1 X18.182 Y80.139 E0.01594
G1 X18.766 Y80.521 E0.02363
G1 X19.150 Y80.818 E0.01643
G1 X19.502 Y81.131 E0.01593
G1 X19.995 Y81.646 E0.02412
G1 X20.290 Y82.010 E0.01588
G1 X20.692 Y82.596 E0.02406
G1 X21.029 Y83.205 E0.02357
G1 X21.228 Y83.646 E0.01637
G1 X21.466 Y84.316 E0.02405
G1 X21.637 Y85.006 E0.02406
G1 X21.713 Y85.470 E0.01594
G1 X21.759 Y85.941 E0.01600
G1 X21.775 Y86.417 E0.01612
G1 X21.775 Y100.638 E0.48138
G1 X172.225 Y100.638 E5.09255
G1 X172.225 Y79.275 E0.72312
G1 X167.251 Y79.275 E0.16835
G1 X167.251 Y78.812 E0.01568
G1 X172.715 Y78.812 E0.18494
M204 S1250
G1 X172.585 Y79.164 F9000.000
G1 E-2.24000 F4200.00000
G1 F7200.000
G1 X172.719 Y80.458 E-0.91200
G1 E-0.04800 F4200.00000
G1 Z0.600 F9000.000
G1 X167.455 Y79.043
G1 Z0.400
G1 E3.20000 F2400.00000
G1 X172.428 Y79.043 E0.02319
G1 X172.500 Y79.087 E0.00039
G1 X172.500 Y100.842 E0.10145
G1 X172.488 Y100.901 E0.00084
G1 X172.428 Y100.913 E0.00084
G1 X21.571 Y100.913 E1.79279
G1 X21.512 Y100.901 E0.00072
G1 X21.500 Y100.842 E0.00072
G1 X21.500 Y86.406 E0.17156
G1 X21.482 Y85.923 E0.00574
G1 X21.436 Y85.506 E0.00498
G1 X21.366 Y85.061 E0.00535
G1 X21.288 Y84.722 E0.00414
G1 X21.153 Y84.248 E0.00548
G1 X20.969 Y83.750 E0.00591
G1 X20.779 Y83.330 E0.00513
G1 X20.561 Y82.919 E0.00518
G1 X20.069 Y82.175 E0.00992
G1 X19.696 Y81.727 E0.00648
G1 X19.182 Y81.212 E0.00810
G1 X18.607 Y80.745 E0.00825
G1 X17.991 Y80.347 E0.00815
G1 X17.335 Y80.014 E0.00819
G1 X16.890 Y79.835 E0.00534
G1 X16.415 Y79.681 E0.00555
G1 X15.931 Y79.565 E0.00555
G1 X15.483 Y79.487 E0.00505
G1 X15.021 Y79.434 E0.00517
G1 X14.251 Y79.419 E0.00857
G1 X13.520 Y79.483 E0.00816
G1 X12.785 Y79.628 E0.00834
G1 X12.114 Y79.835 E0.00781
G1 X11.208 Y80.237 E0.01103
G1 X10.574 Y80.620 E0.00824
G1 X9.962 Y81.084 E0.00854
G1 X9.469 Y81.546 E0.00752
G1 X9.169 Y81.883 E0.00502
G1 X8.975 Y82.118 E0.00339
G1 X8.625 Y82.611 E0.00673
G1 X8.204 Y83.354 E0.00950
G1 X7.921 Y84.033 E0.00819
G1 X7.776 Y84.470 E0.00511
G1 X7.668 Y84.907 E0.00502
G1 X7.604 Y85.217 E0.00352
G1 X7.529 Y85.805 E0.00660
G1 X7.505 Y86.671 E0.00963
G1 X7.573 Y87.408 E0.00824
G1 X7.714 Y88.128 E0.00816
G1 X7.826 Y88.510 E0.00443
G1 X8.057 Y89.145 E0.00752
G1 X8.333 Y89.722 E0.00712
G1 X8.710 Y90.347 E0.00812
G1 X8.981 Y90.713 E0.00507
G1 X9.420 Y91.227 E0.00752
G1 X9.839 Y91.632 E0.00649
G1 X10.267 Y91.984 E0.00616
G1 X10.656 Y92.259 E0.00530
;BEFORE_LAYER_CHANGE
G92 E0.0
;0.6


G1 Z0.600 F9000.000
;AFTER_LAYER_CHANGE
;0.6
G1 E-3.20000 F4200.00000
G1 Z0.800 F9000.000
G1 X174.678 Y76.903
G1 Z0.600
G1 E3.20000 F2400.00000
G1 X175.193 Y77.669 E0.02896
G1 X175.377 Y78.574 E0.02896
G1 X175.368 Y101.622 E0.72266
G1 X175.148 Y102.431 E0.02626
G1 X174.662 Y103.112 E0.02626
G1 X173.970 Y103.583 E0.02626
G1 X173.153 Y103.785 E0.02637
G1 X20.768 Y103.779 E4.77793
G1 X20.112 Y103.618 E0.02119
G1 X19.530 Y103.281 E0.02107
G1 X8.254 Y94.064 E0.45664
G1 X7.345 Y93.222 E0.03884
G1 X6.306 Y91.928 E0.05205
G1 X5.420 Y90.301 E0.05810
G1 X4.901 Y88.742 E0.05150
G1 X4.649 Y87.132 E0.05109
G1 X4.694 Y85.229 E0.05969
G1 X5.118 Y83.326 E0.06112
G1 X5.894 Y81.567 E0.06029
G1 X6.407 Y80.751 E0.03025
G1 X7.143 Y79.823 E0.03713
G1 X8.603 Y78.489 E0.06199
G1 X10.247 Y77.499 E0.06017
G1 X12.062 Y76.842 E0.06052
G1 X13.940 Y76.552 E0.05957
G1 X173.004 Y76.210 E4.98735
G1 X173.909 Y76.391 E0.02896
G1 X174.628 Y76.870 E0.02707
G1 E-2.24000 F4200.00000
G1 F7200.000
G1 X175.193 Y77.669 E-0.54266
G1 X175.326 Y78.322 E-0.36934
G1 E-0.04800 F4200.00000
G1 Z0.800 F9000.000
G1 X172.775 Y78.812
G1 Z0.600
G1 E3.20000 F2400.00000
M204 S800
G1 F1800.000
G1 X172.775 Y101.188 E0.75741
G1 X21.225 Y101.188 E5.12979
G1 X21.225 Y86.409 E0.50025
G1 X21.208 Y85.942 E0.01583
G1 X21.123 Y85.246 E0.02371
G1 X21.025 Y84.785 E0.01597
G1 X20.895 Y84.332 E0.01597
G1 X20.643 Y83.676 E0.02378
G1 X20.324 Y83.050 E0.02378
G1 X20.073 Y82.650 E0.01597
G1 X19.797 Y82.270 E0.01590
G1 X19.494 Y81.909 E0.01597
G1 X18.997 Y81.412 E0.02378
G1 X18.449 Y80.969 E0.02385
G1 X17.858 Y80.586 E0.02385
G1 X17.232 Y80.268 E0.02378
G1 X16.794 Y80.091 E0.01597
G1 X16.345 Y79.946 E0.01597
G1 X15.661 Y79.789 E0.02378
G1 X14.961 Y79.704 E0.02385
G1 X14.257 Y79.692 E0.02385
G1 X13.555 Y79.755 E0.02385
G1 X12.843 Y79.895 E0.02455
G1 X12.412 Y80.020 E0.01519
G1 X11.969 Y80.182 E0.01596
G1 X11.333 Y80.480 E0.02378
G1 X10.730 Y80.844 E0.02385
G1 X10.168 Y81.269 E0.02385
G1 X9.654 Y81.750 E0.02385
G1 X9.192 Y82.283 E0.02385
G1 X8.789 Y82.861 E0.02385
G1 X8.450 Y83.476 E0.02378
G1 X8.258 Y83.909 E0.01603
G1 X8.031 Y84.574 E0.02378
G1 X7.874 Y85.260 E0.02385
G1 X7.790 Y85.960 E0.02385
G1 X7.779 Y86.664 E0.02385
G1 X7.842 Y87.366 E0.02385
G1 X7.978 Y88.057 E0.02385
G1 X8.186 Y88.730 E0.02385
G1 X8.462 Y89.376 E0.02378
G1 X8.685 Y89.792 E0.01597
G1 X8.936 Y90.191 E0.01597
G1 X9.359 Y90.750 E0.02371
G1 X9.676 Y91.099 E0.01597
G1 X10.016 Y91.426 E0.01597
G1 X10.564 Y91.866 E0.02378
G1 X10.966 Y92.126 E0.01622
G1 X10.691 Y92.607 E0.01875
G1 X10.096 Y92.204 E0.02431
G1 X9.569 Y91.761 E0.02330
G1 X9.216 Y91.414 E0.01676
G1 X8.903 Y91.060 E0.01599
G1 X8.613 Y90.687 E0.01600
G1 X8.348 Y90.297 E0.01594
G1 X8.009 Y89.698 E0.02330
G1 X7.800 Y89.249 E0.01676
G1 X7.630 Y88.808 E0.01599
G1 X7.489 Y88.357 E0.01600
G1 X7.378 Y87.898 E0.01600
G1 X7.297 Y87.432 E0.01600
G1 X7.246 Y86.964 E0.01594
G1 X7.227 Y86.251 E0.02412
G1 X7.252 Y85.781 E0.01594
G1 X7.309 Y85.312 E0.01600
G1 X7.395 Y84.847 E0.01600
G1 X7.512 Y84.391 E0.01594
G1 X7.735 Y83.739 E0.02330
G1 X7.932 Y83.285 E0.01676
G1 X8.149 Y82.865 E0.01599
G1 X8.392 Y82.460 E0.01600
G1 X8.662 Y82.072 E0.01600
G1 X8.956 Y81.702 E0.01600
G1 X9.273 Y81.353 E0.01594
G1 X9.793 Y80.866 E0.02412
G1 X10.162 Y80.573 E0.01594
G1 X10.549 Y80.305 E0.01594
G1 X11.144 Y79.959 E0.02330
G1 X11.590 Y79.745 E0.01676
G1 X12.029 Y79.571 E0.01599
G1 X12.477 Y79.425 E0.01594
G1 X13.147 Y79.266 E0.02330
G1 X13.636 Y79.190 E0.01676
G1 X14.107 Y79.149 E0.01599
G1 X14.580 Y79.139 E0.01600
G1 X15.052 Y79.159 E0.01600
G1 X15.522 Y79.210 E0.01600
G1 X15.988 Y79.292 E0.01600
G1 X16.447 Y79.404 E0.01600
G1 X16.898 Y79.545 E0.01600
G1 X17.339 Y79.715 E0.01600
G1 X17.766 Y79.913 E0.01594
G1 X18.387 Y80.264 E0.02412
G1 X18.776 Y80.528 E0.01594
G1 X19.150 Y80.818 E0.01600
G1 X19.502 Y81.131 E0.01594
G1 X19.995 Y81.646 E0.02412
G1 X20.290 Y82.010 E0.01588
G1 X20.692 Y82.596 E0.02406
G1 X21.025 Y83.197 E0.02324
