; generated by PrusaSlicer 2.2.0+win64 on 2020-12-06 at 16:25:04 UTC


;
;

;
;
; 

; external perimeters extrusion width = 0.45mm
; perimeters extrusion width = 0.45mm
; infill extrusion width = 0.45mm
; solid infill extrusion width = 0.45mm
; top infill extrusion width = 0.40mm
; first layer extrusion width = 0.42mm

M73 P0 R8
M201 X1250 Y1250 Z400 E5000 ; sets maximum accelerations, mm/sec^2
M203 X180 Y180 Z12 E80 ; sets maximum feedrates, mm/sec
M204 P1250 R1250 T1250 ; sets acceleration (P, T) and retract acceleration (R), mm/sec^2
M205 X8.00 Y8.00 Z2.00 E10.00 ; sets the jerk limits, mm/sec
M205 S0 T0 ; sets the minimum extruding and travel feed rate, mm/sec
M107
G90 ; use absolute coordinates
M83 ; extruder relative mode
M104 S170 ; set extruder temp for bed leveling
M140 S60 ; set bed temp
M109 R170 ; wait for bed leveling temp
M190 S60 ; wait for bed temp
G28 ; home all without mesh bed level
G29 ; mesh bed leveling 
M104 S215 ; set extruder temp
G92 E0.0
G1 Y-2.0 X179 F2400
G1 Z3 F720
M109 S215 ; wait for extruder temp

; intro line
G1 X170 F1000
G1 Z0.2 F720
G1 X110.0 E8.0 F900
M73 P2 R8
G1 X40.0 E10.0 F700
G92 E0.0

M221 S95 ; set flow
G21 ; set units to millimeters
G90 ; use absolute coordinates
M83 ; use relative distances for extrusion
M900 K0.2 ; Filament gcode LA 1.5
; ; Filament gcode LA 1.0
;BEFORE_LAYER_CHANGE
G92 E0.0
;0.2


G1 Z0.200 F9000.000
;AFTER_LAYER_CHANGE
;0.2
G1 E-3.20000 F4200.00000
G1 Z0.400 F9000.000
G1 X19.606 Y76.550
G1 Z0.200
G1 E3.20000 F2400.00000
M204 S800
G1 F1200.000
G1 X20.250 Y76.387 E0.02083
G1 X173.511 Y76.373 E4.80539
G1 X174.413 Y76.552 E0.02884
G1 X175.182 Y77.063 E0.02896
G1 X175.697 Y77.826 E0.02884
G1 X175.884 Y78.726 E0.02884
G1 X175.874 Y99.963 E0.66587
G1 X175.665 Y100.747 E0.02543
G1 X175.204 Y101.414 E0.02543
G1 X174.546 Y101.888 E0.02543
G1 X173.766 Y102.113 E0.02543
G1 X13.501 Y103.614 E5.02523
G1 X11.852 Y103.389 E0.05217
G1 X10.072 Y102.809 E0.05871
G1 X8.619 Y102.028 E0.05173
G1 X7.187 Y100.894 E0.05727
G1 X6.087 Y99.651 E0.05205
G1 X5.217 Y98.254 E0.05160
G1 X4.529 Y96.528 E0.05827
G1 X4.198 Y94.906 E0.05190
G1 X4.132 Y93.935 E0.03052
G1 X4.183 Y92.729 E0.03786
G1 X4.578 Y90.808 E0.06148
G1 X5.346 Y89.003 E0.06151
G1 X5.990 Y87.981 E0.03788
G1 X6.599 Y87.217 E0.03062
G1 X7.752 Y86.106 E0.05023
G1 X19.029 Y76.888 E0.45667
G1 X19.554 Y76.581 E0.01907
M204 S1250
G1 E-2.24000 F4200.00000
G1 F7200.000
G1 X20.250 Y76.387 E-0.40024
G1 X21.173 Y76.387 E-0.51176
G1 E-0.04800 F4200.00000
G1 Z0.400 F9000.000
G1 X20.867 Y79.110
G1 Z0.200
G1 E3.20000 F2400.00000
M204 S800
G1 F1200.000
G1 X21.515 Y79.061 E0.02037
G1 X172.497 Y79.061 E4.73394
G1 X173.147 Y79.116 E0.02046
G1 X173.195 Y79.758 E0.02018
G1 X173.195 Y99.236 E0.61073
G1 X173.179 Y99.358 E0.00385
G1 X172.834 Y99.358 E0.01082
G1 X172.818 Y99.236 E0.00385
G1 X172.818 Y79.439 E0.62074
G1 X21.195 Y79.439 E4.75403
G1 X21.195 Y93.744 E0.44854
G1 X21.161 Y94.450 E0.02215
G1 X21.059 Y95.143 E0.02196
G1 X20.889 Y95.822 E0.02196
G1 X20.655 Y96.484 E0.02202
G1 X20.464 Y96.909 E0.01459
G1 X20.246 Y97.320 E0.01459
G1 X19.868 Y97.911 E0.02202
G1 X19.434 Y98.463 E0.02202
G1 X19.117 Y98.805 E0.01459
G1 X18.780 Y99.125 E0.01459
G1 X18.234 Y99.564 E0.02197
G1 X17.846 Y99.827 E0.01469
G1 X17.443 Y100.063 E0.01465
G1 X17.026 Y100.273 E0.01465
G1 X16.596 Y100.456 E0.01465
G1 X16.156 Y100.609 E0.01459
G1 X15.478 Y100.786 E0.02197
G1 X15.017 Y100.867 E0.01469
G1 X14.553 Y100.917 E0.01464
G1 X14.086 Y100.938 E0.01465
G1 X13.621 Y100.928 E0.01459
G1 X12.920 Y100.855 E0.02207
G1 X12.463 Y100.770 E0.01459
G1 X12.010 Y100.656 E0.01464
G1 X11.566 Y100.511 E0.01464
G1 X11.132 Y100.338 E0.01465
G1 X10.710 Y100.137 E0.01465
G1 X10.304 Y99.911 E0.01459
G1 X9.719 Y99.519 E0.02207
G1 X9.354 Y99.230 E0.01459
G1 X9.008 Y98.916 E0.01464
G1 X8.684 Y98.581 E0.01464
G1 X8.381 Y98.224 E0.01465
G1 X8.104 Y97.851 E0.01459
G1 X7.731 Y97.254 E0.02207
G1 X7.517 Y96.840 E0.01459
G1 X7.330 Y96.412 E0.01464
G1 X7.171 Y95.973 E0.01464
G1 X7.042 Y95.526 E0.01459
G1 X6.902 Y94.836 E0.02207
G1 X6.846 Y94.375 E0.01459
G1 X6.821 Y93.908 E0.01465
G1 X6.825 Y93.441 E0.01465
G1 X6.860 Y92.975 E0.01464
G1 X6.926 Y92.513 E0.01464
G1 X7.021 Y92.056 E0.01465
G1 X7.146 Y91.607 E0.01459
G1 X7.388 Y90.946 E0.02207
G1 X7.584 Y90.524 E0.01459
G1 X7.806 Y90.113 E0.01465
G1 X8.056 Y89.718 E0.01464
G1 X8.329 Y89.342 E0.01459
G1 X8.788 Y88.808 E0.02207
G1 X9.117 Y88.482 E0.01454
G1 X9.656 Y88.028 E0.02207
G1 X10.016 Y87.773 E0.01384
G1 X10.107 Y87.740 E0.00303
G1 X10.272 Y88.027 E0.01038
G1 X10.194 Y88.108 E0.00353
G1 X9.645 Y88.519 E0.02151
G1 X9.121 Y89.004 E0.02237
G1 X8.652 Y89.541 E0.02237
G1 X8.241 Y90.124 E0.02237
G1 X7.894 Y90.746 E0.02232
G1 X7.699 Y91.182 E0.01497
G1 X7.534 Y91.630 E0.01497
G1 X7.348 Y92.317 E0.02231
G1 X7.234 Y93.021 E0.02237
G1 X7.196 Y93.734 E0.02237
G1 X7.231 Y94.446 E0.02237
G1 X7.341 Y95.151 E0.02237
G1 X7.524 Y95.839 E0.02231
G1 X7.687 Y96.290 E0.01503
G1 X7.986 Y96.936 E0.02231
G1 X8.353 Y97.548 E0.02237
G1 X8.781 Y98.119 E0.02237
G1 X9.266 Y98.641 E0.02237
G1 X9.808 Y99.113 E0.02251
G1 X10.189 Y99.390 E0.01478
G1 X10.593 Y99.644 E0.01497
G1 X11.227 Y99.968 E0.02231
G1 X11.893 Y100.225 E0.02237
G1 X12.582 Y100.411 E0.02237
G1 X13.286 Y100.523 E0.02237
G1 X13.999 Y100.561 E0.02237
G1 X14.711 Y100.525 E0.02237
G1 X15.416 Y100.414 E0.02237
G1 X16.106 Y100.230 E0.02237
G1 X16.772 Y99.975 E0.02237
G1 X17.408 Y99.652 E0.02237
G1 X18.007 Y99.264 E0.02237
G1 X18.561 Y98.815 E0.02237
G1 X19.066 Y98.310 E0.02237
G1 X19.514 Y97.758 E0.02231
G1 X19.782 Y97.362 E0.01497
G1 X20.020 Y96.950 E0.01492
G1 X20.228 Y96.522 E0.01492
G1 X20.407 Y96.081 E0.01492
G1 X20.554 Y95.627 E0.01497
G1 X20.714 Y94.936 E0.02225
G1 X20.781 Y94.461 E0.01503
G1 X20.818 Y93.756 E0.02211
G1 X20.818 Y79.758 E0.43891
G1 X20.863 Y79.170 E0.01849
M204 S1250
G1 X21.223 Y79.293 F9000.000
M106 S255
;BEFORE_LAYER_CHANGE
G92 E0.0
;0.45


G1 Z0.450 F9000.000
;AFTER_LAYER_CHANGE
;0.45
G1 E-3.20000 F4200.00000
G1 Z0.650 F9000.000
G1 X19.606 Y76.550
G1 Z0.450
G1 E3.20000 F2400.00000
G1 X20.250 Y76.387 E0.02530
G1 X173.511 Y76.373 E5.83581
G1 X174.413 Y76.552 E0.03502
G1 X175.182 Y77.063 E0.03516
G1 X175.697 Y77.826 E0.03502
G1 X175.884 Y78.726 E0.03502
G1 X175.874 Y99.963 E0.80865
G1 X175.665 Y100.747 E0.03089
G1 X175.204 Y101.414 E0.03089
G1 X174.546 Y101.888 E0.03089
G1 X173.766 Y102.113 E0.03089
G1 X13.501 Y103.614 E6.10280
G1 X11.852 Y103.389 E0.06335
G1 X10.072 Y102.809 E0.07129
G1 X8.619 Y102.028 E0.06282
G1 X7.187 Y100.894 E0.06955
G1 X6.087 Y99.651 E0.06322
G1 X5.217 Y98.254 E0.06267
G1 X4.529 Y96.528 E0.07076
G1 X4.198 Y94.906 E0.06302
G1 X4.132 Y93.935 E0.03706
G1 X4.183 Y92.729 E0.04598
G1 X4.578 Y90.808 E0.07466
G1 X5.346 Y89.003 E0.07469
G1 X5.990 Y87.981 E0.04600
G1 X6.599 Y87.217 E0.03718
G1 X7.752 Y86.106 E0.06100
G1 X19.029 Y76.888 E0.55459
G1 X19.554 Y76.581 E0.02316
G1 E-2.24000 F4200.00000
G1 F7200.000
G1 X20.250 Y76.387 E-0.40024
G1 X21.173 Y76.387 E-0.51176
G1 E-0.04800 F4200.00000
G1 Z0.650 F9000.000
G1 X20.732 Y78.975
G1 Z0.450
G1 E3.20000 F2400.00000
M204 S800
G1 X173.282 Y78.975 E6.28441
M73 P15 R7
G1 X173.282 Y99.525 E0.84657
G1 X172.732 Y99.525 E0.02266
G1 X172.732 Y79.525 E0.82391
G1 X21.282 Y79.525 E6.23910
G1 X21.282 Y93.746 E0.58586
G1 X21.266 Y94.223 E0.01962
G1 X21.220 Y94.693 E0.01947
G1 X21.144 Y95.158 E0.01940
G1 X20.973 Y95.847 E0.02928
G1 X20.735 Y96.515 E0.02920
G1 X20.434 Y97.157 E0.02920
G1 X20.072 Y97.767 E0.02920
G1 X19.651 Y98.339 E0.02928
G1 X19.344 Y98.694 E0.01932
G1 X18.836 Y99.191 E0.02928
G1 X18.282 Y99.636 E0.02928
G1 X17.892 Y99.900 E0.01940
G1 X17.485 Y100.140 E0.01947
G1 X17.062 Y100.352 E0.01947
G1 X16.627 Y100.537 E0.01947
G1 X16.182 Y100.692 E0.01940
G1 X15.508 Y100.868 E0.02871
G1 X15.029 Y100.953 E0.02005
G1 X14.559 Y101.004 E0.01947
G1 X14.089 Y101.024 E0.01940
G1 X13.392 Y100.999 E0.02871
G1 X12.909 Y100.942 E0.02005
G1 X12.446 Y100.855 E0.01940
G1 X11.773 Y100.673 E0.02871
G1 X11.315 Y100.509 E0.02005
G1 X10.884 Y100.320 E0.01939
G1 X10.256 Y99.983 E0.02936
G1 X9.861 Y99.728 E0.01940
G1 X9.481 Y99.446 E0.01947
G1 X9.121 Y99.140 E0.01947
G1 X8.781 Y98.811 E0.01947
G1 X8.465 Y98.462 E0.01940
G1 X8.030 Y97.898 E0.02936
G1 X7.774 Y97.502 E0.01940
G1 X7.545 Y97.091 E0.01940
G1 X7.249 Y96.443 E0.02936
G1 X7.089 Y96.000 E0.01940
G1 X6.957 Y95.546 E0.01947
G1 X6.856 Y95.086 E0.01940
G1 X6.761 Y94.396 E0.02871
G1 X6.734 Y93.910 E0.02005
G1 X6.739 Y93.437 E0.01947
G1 X6.774 Y92.966 E0.01948
G1 X6.838 Y92.515 E0.01875
G1 X6.997 Y91.804 E0.03000
G1 X7.138 Y91.355 E0.01939
G1 X7.308 Y90.914 E0.01947
G1 X7.506 Y90.485 E0.01947
G1 X7.732 Y90.070 E0.01947
G1 X7.984 Y89.670 E0.01947
G1 X8.262 Y89.287 E0.01947
G1 X8.564 Y88.923 E0.01947
G1 X8.889 Y88.580 E0.01947
G1 X9.235 Y88.259 E0.01947
G1 X9.602 Y87.960 E0.01947
G1 X10.198 Y87.556 E0.02966
G1 X10.473 Y88.037 E0.02282
G1 X10.071 Y88.297 E0.01975
G1 X9.512 Y88.747 E0.02955
G1 X9.183 Y89.064 E0.01882
G1 X8.866 Y89.414 E0.01943
G1 X8.443 Y89.972 E0.02886
G1 X8.192 Y90.371 E0.01943
G1 X7.970 Y90.787 E0.01943
G1 X7.693 Y91.433 E0.02894
G1 X7.486 Y92.106 E0.02902
G1 X7.349 Y92.797 E0.02902
G1 X7.286 Y93.499 E0.02902
G1 X7.297 Y94.203 E0.02902
G1 X7.381 Y94.903 E0.02902
G1 X7.538 Y95.590 E0.02902
G1 X7.765 Y96.254 E0.02894
G1 X7.957 Y96.688 E0.01951
G1 X8.296 Y97.303 E0.02894
G1 X8.699 Y97.881 E0.02902
G1 X9.161 Y98.413 E0.02902
G1 X9.675 Y98.894 E0.02902
G1 X10.237 Y99.319 E0.02902
G1 X10.840 Y99.683 E0.02902
G1 X11.478 Y99.982 E0.02902
G1 X12.144 Y100.212 E0.02902
G1 X12.830 Y100.372 E0.02903
G1 X13.542 Y100.459 E0.02955
G1 X13.999 Y100.475 E0.01882
G1 X14.470 Y100.459 E0.01943
G1 X15.168 Y100.374 E0.02894
G1 X15.854 Y100.217 E0.02902
G1 X16.521 Y99.988 E0.02902
G1 X17.159 Y99.691 E0.02902
G1 X17.763 Y99.328 E0.02902
G1 X18.326 Y98.905 E0.02902
G1 X18.842 Y98.425 E0.02902
G1 X19.303 Y97.895 E0.02894
G1 X19.581 Y97.513 E0.01943
G1 X19.830 Y97.115 E0.01936
G1 X20.058 Y96.685 E0.02004
G1 X20.325 Y96.054 E0.02824
G1 X20.472 Y95.603 E0.01951
G1 X20.629 Y94.921 E0.02886
G1 X20.695 Y94.452 E0.01951
G1 X20.732 Y93.756 E0.02870
G1 X20.732 Y79.035 E0.60644
M204 S1250
G1 X21.078 Y79.175 F9000.000
G1 E-2.24000 F4200.00000
G1 F7200.000
G1 X22.378 Y79.034 E-0.91200
G1 E-0.04800 F4200.00000
G1 Z0.650 F9000.000
G1 X10.167 Y87.902
G1 Z0.450
G1 E3.20000 F2400.00000
G1 X9.914 Y88.073 E0.00508
G1 X9.334 Y88.540 E0.01156
G1 X8.989 Y88.872 E0.00750
G1 X8.658 Y89.237 E0.00768
G1 X8.219 Y89.813 E0.01126
G1 X8.215 Y89.818 E0.00011
G1 X8.212 Y89.824 E0.00011
G1 X7.969 Y90.209 E0.00728
G1 X7.956 Y90.231 E0.00041
G1 X7.954 Y90.236 E0.00008
G1 X7.752 Y90.609 E0.00683
G1 X7.724 Y90.666 E0.00102
G1 X7.438 Y91.335 E0.01145
G1 X7.223 Y92.036 E0.01144
G1 X7.080 Y92.755 E0.01115
G1 X7.012 Y93.485 E0.01138
G1 X7.024 Y94.218 E0.01157
G1 X7.112 Y94.946 E0.01138
G1 X7.274 Y95.661 E0.01136
G1 X7.509 Y96.351 E0.01132
G1 X7.511 Y96.357 E0.00011
G1 X7.713 Y96.805 E0.00776
G1 X8.062 Y97.444 E0.01109
G1 X8.484 Y98.044 E0.01117
G1 X8.966 Y98.606 E0.01112
G1 X9.502 Y99.106 E0.01100
G1 X10.080 Y99.544 E0.01089
G1 X10.710 Y99.920 E0.01100
G1 X11.379 Y100.237 E0.01111
G1 X12.065 Y100.472 E0.01088
G1 X12.787 Y100.641 E0.01121
G1 X13.518 Y100.731 E0.01114
G1 X13.524 Y100.731 E0.00010
G1 X13.996 Y100.748 E0.00732
G1 X14.488 Y100.733 E0.00764
G1 X14.495 Y100.732 E0.00010
G1 X15.211 Y100.644 E0.01164
G1 X15.925 Y100.479 E0.01134
G1 X16.527 Y100.278 E0.00966
G1 X16.945 Y100.099 E0.00692
G1 X17.352 Y99.897 E0.00692
G1 X17.913 Y99.557 E0.00997
G1 X18.498 Y99.115 E0.01137
G1 X19.035 Y98.616 E0.01110
G1 X19.514 Y98.067 E0.01115
G1 X19.518 Y98.062 E0.00010
G1 X19.806 Y97.668 E0.00760
G1 X20.063 Y97.252 E0.00764
G1 X20.301 Y96.804 E0.00765
G1 X20.578 Y96.151 E0.01070
G1 X20.734 Y95.679 E0.00748
G1 X20.898 Y94.974 E0.01090
G1 X20.967 Y94.475 E0.00758
G1 X21.006 Y93.765 E0.01069
G1 X21.007 Y79.327 E0.21722
G1 X21.020 Y79.263 E0.00098
G1 X21.084 Y79.250 E0.00098
G1 X172.930 Y79.250 E2.28450
G1 X172.994 Y79.263 E0.00098
G1 X173.007 Y79.327 E0.00098
G1 X173.007 Y99.327 E0.30090
;BEFORE_LAYER_CHANGE
G92 E0.0
;0.7


G1 Z0.700 F9000.000
;AFTER_LAYER_CHANGE
;0.7
G1 E-3.20000 F4200.00000
G1 Z0.900 F9000.000
G1 X174.546 Y101.888
G1 Z0.700
G1 E3.20000 F2400.00000
G1 X173.766 Y102.113 E0.03089
G1 X13.501 Y103.614 E6.10280
G1 X11.852 Y103.389 E0.06335
G1 X10.072 Y102.809 E0.07129
G1 X8.619 Y102.028 E0.06282
G1 X7.187 Y100.894 E0.06955
G1 X6.087 Y99.651 E0.06322
G1 X5.217 Y98.254 E0.06267
G1 X4.529 Y96.528 E0.07076
G1 X4.198 Y94.906 E0.06302
G1 X4.132 Y93.935 E0.03706
G1 X4.183 Y92.729 E0.04598
G1 X4.578 Y90.808 E0.07466
G1 X5.346 Y89.003 E0.07469
G1 X5.990 Y87.981 E0.04600
G1 X6.599 Y87.217 E0.03718
G1 X7.752 Y86.106 E0.06100
G1 X19.029 Y76.888 E0.55459
G1 X19.606 Y76.550 E0.02544
G1 X20.250 Y76.387 E0.02530
G1 X173.511 Y76.373 E5.83581
G1 X174.413 Y76.552 E0.03502
G1 X175.182 Y77.063 E0.03516
G1 X175.697 Y77.826 E0.03502
G1 X175.884 Y78.726 E0.03502
G1 X175.874 Y99.963 E0.80865
G1 X175.665 Y100.747 E0.03089
G1 X175.204 Y101.414 E0.03089
G1 X174.594 Y101.853 E0.02860
G1 E-2.24000 F4200.00000
G1 F7200.000
G1 X173.766 Y102.113 E-0.48095
G1 X172.989 Y102.120 E-0.43105
G1 E-0.04800 F4200.00000
G1 Z0.900 F9000.000
G1 X173.282 Y99.525
G1 Z0.700
G1 E3.20000 F2400.00000
M204 S800
G1 X172.732 Y99.525 E0.02266
G1 X172.732 Y79.525 E0.82391
G1 X21.282 Y79.525 E6.23910
G1 X21.282 Y93.746 E0.58586
G1 X21.266 Y94.223 E0.01962
G1 X21.220 Y94.693 E0.01947
G1 X21.144 Y95.158 E0.01940
G1 X20.973 Y95.847 E0.02928
G1 X20.735 Y96.515 E0.02920
G1 X20.434 Y97.157 E0.02920
G1 X20.072 Y97.767 E0.02920
G1 X19.651 Y98.339 E0.02928
G1 X19.344 Y98.694 E0.01932
G1 X18.836 Y99.191 E0.02928
G1 X18.282 Y99.636 E0.02928
G1 X17.892 Y99.900 E0.01940
G1 X17.485 Y100.140 E0.01947
G1 X17.062 Y100.352 E0.01947
G1 X16.627 Y100.537 E0.01947
G1 X16.182 Y100.692 E0.01940
G1 X15.493 Y100.871 E0.02936
G1 X15.029 Y100.953 E0.01940
G1 X14.559 Y101.004 E0.01947
G1 X14.087 Y101.024 E0.01947
G1 X13.616 Y101.014 E0.01940
G1 X12.907 Y100.941 E0.02936
G1 X12.444 Y100.855 E0.01940
G1 X11.988 Y100.739 E0.01940
G1 X11.314 Y100.508 E0.02936
G1 X10.884 Y100.320 E0.01933
G1 X10.280 Y99.997 E0.02821
G1 X9.860 Y99.728 E0.02055
G1 X9.481 Y99.446 E0.01946
G1 X9.121 Y99.140 E0.01947
G1 X8.781 Y98.811 E0.01947
G1 X8.465 Y98.462 E0.01940
G1 X8.030 Y97.898 E0.02936
G1 X7.774 Y97.502 E0.01940
G1 X7.545 Y97.091 E0.01940
G1 X7.249 Y96.443 E0.02936
G1 X7.089 Y96.000 E0.01940
G1 X6.958 Y95.548 E0.01940
G1 X6.816 Y94.849 E0.02936
G1 X6.759 Y94.382 E0.01940
G1 X6.734 Y93.910 E0.01947
G1 X6.739 Y93.437 E0.01947
G1 X6.774 Y92.966 E0.01947
G1 X6.840 Y92.500 E0.01940
G1 X6.997 Y91.804 E0.02936
G1 X7.138 Y91.355 E0.01940
G1 X7.308 Y90.914 E0.01947
G1 X7.506 Y90.485 E0.01947
G1 X7.732 Y90.070 E0.01947
G1 X7.984 Y89.670 E0.01947
G1 X8.262 Y89.287 E0.01947
G1 X8.564 Y88.923 E0.01947
G1 X8.889 Y88.580 E0.01947
G1 X9.235 Y88.259 E0.01947
G1 X9.602 Y87.960 E0.01947
G1 X10.198 Y87.556 E0.02966
G1 X10.473 Y88.037 E0.02282
G1 X10.071 Y88.297 E0.01975
G1 X9.504 Y88.755 E0.03002
G1 X9.183 Y89.064 E0.01835
G1 X8.866 Y89.414 E0.01943
G1 X8.443 Y89.972 E0.02886
G1 X8.192 Y90.371 E0.01943
G1 X7.970 Y90.787 E0.01943
G1 X7.693 Y91.433 E0.02894
G1 X7.486 Y92.106 E0.02902
G1 X7.349 Y92.797 E0.02902
G1 X7.286 Y93.499 E0.02902
G1 X7.297 Y94.203 E0.02902
G1 X7.381 Y94.903 E0.02902
G1 X7.538 Y95.590 E0.02902
G1 X7.765 Y96.254 E0.02894
G1 X7.957 Y96.688 E0.01951
G1 X8.296 Y97.303 E0.02894
G1 X8.699 Y97.881 E0.02902
G1 X9.161 Y98.413 E0.02902
G1 X9.675 Y98.894 E0.02902
G1 X10.237 Y99.319 E0.02902
G1 X10.840 Y99.683 E0.02902
G1 X11.478 Y99.982 E0.02902
G1 X12.144 Y100.212 E0.02902
G1 X12.831 Y100.372 E0.02903
G1 X13.554 Y100.460 E0.03002
G1 X13.999 Y100.475 E0.01835
G1 X14.470 Y100.459 E0.01943
G1 X15.168 Y100.374 E0.02894
G1 X15.854 Y100.217 E0.02902
G1 X16.521 Y99.988 E0.02902
G1 X17.159 Y99.691 E0.02902
G1 X17.763 Y99.328 E0.02902
G1 X18.326 Y98.905 E0.02902
G1 X18.842 Y98.425 E0.02902
G1 X19.303 Y97.895 E0.02894
G1 X19.581 Y97.513 E0.01943
G1 X19.830 Y97.115 E0.01937
G1 X20.063 Y96.674 E0.02051
G1 X20.325 Y96.054 E0.02777
G1 X20.472 Y95.603 E0.01951
