; generated by PrusaSlicer 2.2.0+win64 on 2020-12-06 at 16:42:39 UTC


;
;

;
;
; 

; external perimeters extrusion width = 0.45mm
; perimeters extrusion width = 0.45mm
; infill extrusion width = 0.45mm
; solid infill extrusion width = 0.45mm
; top infill extrusion width = 0.40mm
; first layer extrusion width = 0.42mm

M73 P0 R20
M201 X1250 Y1250 Z400 E5000 ; sets maximum accelerations, mm/sec^2
M203 X180 Y180 Z12 E80 ; sets maximum feedrates, mm/sec
M204 P1250 R1250 T1250 ; sets acceleration (P, T) and retract acceleration (R), mm/sec^2
M205 X8.00 Y8.00 Z2.00 E10.00 ; sets the jerk limits, mm/sec
M205 S0 T0 ; sets the minimum extruding and travel feed rate, mm/sec
M107
G90 ; use absolute coordinates
M83 ; extruder relative mode
M104 S170 ; set extruder temp for bed leveling
M140 S60 ; set bed temp
M109 R170 ; wait for bed leveling temp
M190 S60 ; wait for bed temp
G28 ; home all without mesh bed level
G29 ; mesh bed leveling 
M104 S215 ; set extruder temp
G92 E0.0
G1 Y-2.0 X179 F2400
G1 Z3 F720
M109 S215 ; wait for extruder temp

; intro line
G1 X170 F1000
G1 Z0.2 F720
G1 X110.0 E8.0 F900
M73 P0 R19
G1 X40.0 E10.0 F700
G92 E0.0

M221 S95 ; set flow
G21 ; set units to millimeters
G90 ; use absolute coordinates
M83 ; use relative distances for extrusion
M900 K0.2 ; Filament gcode LA 1.5
; ; Filament gcode LA 1.0
;BEFORE_LAYER_CHANGE
G92 E0.0
;0.2


G1 Z0.200 F9000.000
;AFTER_LAYER_CHANGE
;0.2
G1 E-3.20000 F4200.00000
G1 Z0.400 F9000.000
G1 X19.793 Y48.085
G1 Z0.200
G1 E3.20000 F2400.00000
M204 S800
G1 F1200.000
G1 X20.706 Y47.902 E0.02919
G1 X173.712 Y47.902 E4.79741
G1 X174.614 Y48.081 E0.02884
G1 X175.383 Y48.592 E0.02896
G1 X175.900 Y49.358 E0.02896
G1 X176.085 Y50.263 E0.02896
G1 X176.085 Y71.290 E0.65931
G1 X175.682 Y129.776 E1.83380
G1 X175.568 Y130.449 E0.02142
G1 X175.270 Y131.060 E0.02130
G1 X174.808 Y131.563 E0.02142
G1 X174.222 Y131.914 E0.02142
G1 X173.309 Y132.098 E0.02919
G1 X20.119 Y132.091 E4.80317
G1 X19.445 Y131.937 E0.02166
G1 X18.848 Y131.599 E0.02154
G1 X7.319 Y122.170 E0.46698
G1 X6.438 Y121.300 E0.03880
G1 X5.810 Y120.521 E0.03137
G1 X5.148 Y119.475 E0.03883
G1 X4.706 Y118.562 E0.03181
G1 X4.137 Y116.738 E0.05989
G1 X3.929 Y114.811 E0.06076
G1 X3.930 Y86.086 E0.90065
G1 X4.339 Y64.893 E0.66463
G1 X4.542 Y63.249 E0.05193
G1 X4.980 Y61.760 E0.04866
G1 X5.531 Y60.562 E0.04135
G1 X6.375 Y59.263 E0.04857
G1 X7.252 Y58.267 E0.04159
G1 X19.210 Y48.434 E0.48543
G1 X19.742 Y48.116 E0.01942
M204 S1250
G1 E-2.24000 F4200.00000
G1 F7200.000
G1 X20.706 Y47.902 E-0.54736
G1 X21.364 Y47.902 E-0.36464
G1 E-0.04800 F4200.00000
G1 Z0.400 F9000.000
G1 X21.068 Y50.639
G1 Z0.200
G1 E3.20000 F2400.00000
M204 S800
G1 F1200.000
G1 X21.716 Y50.590 E0.02037
G1 X172.698 Y50.590 E4.73394
G1 X173.349 Y50.645 E0.02046
G1 X173.397 Y51.287 E0.02018
G1 X173.397 Y70.765 E0.61073
G1 X173.381 Y70.887 E0.00385
G1 X173.036 Y70.887 E0.01082
G1 X173.020 Y70.765 E0.00385
G1 X173.020 Y50.967 E0.62074
G1 X21.397 Y50.967 E4.75403
G1 X21.397 Y65.273 E0.44854
G1 X21.362 Y65.978 E0.02215
G1 X21.260 Y66.672 E0.02196
G1 X21.091 Y67.351 E0.02196
G1 X20.856 Y68.013 E0.02202
G1 X20.666 Y68.438 E0.01459
G1 X20.448 Y68.849 E0.01459
G1 X20.069 Y69.440 E0.02202
G1 X19.635 Y69.992 E0.02202
G1 X19.319 Y70.334 E0.01459
G1 X18.981 Y70.654 E0.01459
G1 X18.435 Y71.093 E0.02197
G1 X18.048 Y71.356 E0.01469
G1 X17.645 Y71.592 E0.01465
G1 X17.227 Y71.802 E0.01465
G1 X16.797 Y71.985 E0.01465
G1 X16.358 Y72.138 E0.01459
G1 X15.680 Y72.315 E0.02197
G1 X15.218 Y72.396 E0.01469
G1 X14.754 Y72.446 E0.01464
G1 X14.287 Y72.467 E0.01465
G1 X13.822 Y72.456 E0.01459
G1 X13.122 Y72.384 E0.02207
G1 X12.664 Y72.299 E0.01459
G1 X12.212 Y72.184 E0.01464
G1 X11.768 Y72.040 E0.01464
G1 X11.334 Y71.867 E0.01465
G1 X10.912 Y71.666 E0.01465
G1 X10.505 Y71.440 E0.01459
G1 X9.920 Y71.048 E0.02207
G1 X9.556 Y70.759 E0.01459
G1 X9.210 Y70.445 E0.01464
G1 X8.885 Y70.109 E0.01464
G1 X8.583 Y69.753 E0.01465
G1 X8.305 Y69.380 E0.01459
G1 X7.932 Y68.783 E0.02207
G1 X7.718 Y68.369 E0.01459
G1 X7.531 Y67.941 E0.01464
G1 X7.372 Y67.502 E0.01464
G1 X7.243 Y67.055 E0.01459
G1 X7.103 Y66.365 E0.02207
G1 X7.048 Y65.904 E0.01459
G1 X7.022 Y65.437 E0.01465
G1 X7.027 Y64.970 E0.01465
G1 X7.062 Y64.504 E0.01464
G1 X7.127 Y64.042 E0.01464
G1 X7.223 Y63.584 E0.01465
G1 X7.347 Y63.136 E0.01459
G1 X7.590 Y62.475 E0.02207
G1 X7.785 Y62.053 E0.01459
G1 X8.008 Y61.642 E0.01465
G1 X8.257 Y61.247 E0.01464
G1 X8.531 Y60.871 E0.01459
G1 X8.989 Y60.337 E0.02207
G1 X9.319 Y60.010 E0.01454
G1 X9.857 Y59.557 E0.02207
G1 X10.217 Y59.302 E0.01384
G1 X10.308 Y59.269 E0.00303
G1 X10.474 Y59.556 E0.01038
G1 X10.395 Y59.636 E0.00353
G1 X9.846 Y60.048 E0.02151
G1 X9.323 Y60.533 E0.02237
G1 X8.853 Y61.070 E0.02237
G1 X8.442 Y61.653 E0.02237
G1 X8.095 Y62.275 E0.02232
G1 X7.900 Y62.711 E0.01497
G1 X7.736 Y63.159 E0.01497
G1 X7.549 Y63.846 E0.02231
G1 X7.436 Y64.550 E0.02237
G1 X7.397 Y65.263 E0.02237
G1 X7.433 Y65.975 E0.02237
G1 X7.543 Y66.680 E0.02237
G1 X7.725 Y67.368 E0.02231
G1 X7.888 Y67.819 E0.01503
G1 X8.188 Y68.465 E0.02231
G1 X8.554 Y69.077 E0.02237
G1 X8.982 Y69.647 E0.02237
G1 X9.468 Y70.170 E0.02237
G1 X10.009 Y70.642 E0.02251
G1 X10.390 Y70.919 E0.01478
G1 X10.795 Y71.173 E0.01497
G1 X11.428 Y71.497 E0.02231
G1 X12.094 Y71.754 E0.02237
G1 X12.783 Y71.940 E0.02237
G1 X13.488 Y72.052 E0.02237
G1 X14.200 Y72.090 E0.02237
G1 X14.913 Y72.054 E0.02237
G1 X15.618 Y71.943 E0.02237
G1 X16.307 Y71.759 E0.02237
G1 X16.973 Y71.504 E0.02237
G1 X17.609 Y71.181 E0.02237
G1 X18.208 Y70.792 E0.02237
G1 X18.763 Y70.344 E0.02237
G1 X19.268 Y69.839 E0.02237
G1 X19.716 Y69.287 E0.02231
G1 X19.983 Y68.891 E0.01497
G1 X20.221 Y68.479 E0.01492
G1 X20.430 Y68.051 E0.01492
G1 X20.608 Y67.610 E0.01492
G1 X20.756 Y67.156 E0.01497
G1 X20.916 Y66.464 E0.02225
G1 X20.982 Y65.990 E0.01503
G1 X21.020 Y65.285 E0.02211
G1 X21.020 Y51.287 E0.43891
G1 X21.064 Y50.699 E0.01849
M204 S1250
G1 X21.424 Y50.822 F9000.000
G1 E-2.24000 F4200.00000
G1 F7200.000
G1 X21.716 Y50.590 E-0.36642
G1 X22.701 Y50.590 E-0.54558
G1 E-0.04800 F4200.00000
G1 Z0.400 F9000.000
G1 X20.994 Y100.587
G1 Z0.200
G1 E3.20000 F2400.00000
M204 S800
G1 F1200.000
G1 X172.617 Y100.587 E4.75403
M73 P6 R18
G1 X172.617 Y80.789 E0.62074
G1 X172.633 Y80.667 E0.00385
G1 X172.978 Y80.667 E0.01082
G1 X172.994 Y80.789 E0.00385
G1 X172.994 Y100.267 E0.61073
G1 X172.945 Y100.915 E0.02037
G1 X172.298 Y100.964 E0.02037
G1 X21.313 Y100.964 E4.73400
G1 X20.666 Y100.915 E0.02037
G1 X20.617 Y100.267 E0.02037
G1 X20.617 Y86.269 E0.43891
G1 X20.579 Y85.564 E0.02212
G1 X20.511 Y85.083 E0.01523
G1 X20.352 Y84.396 E0.02211
G1 X20.121 Y83.723 E0.02231
G1 X19.926 Y83.287 E0.01498
G1 X19.699 Y82.860 E0.01518
G1 X19.314 Y82.269 E0.02211
G1 X18.866 Y81.716 E0.02231
G1 X18.533 Y81.371 E0.01503
G1 X17.995 Y80.905 E0.02232
G1 X17.410 Y80.496 E0.02237
G1 X16.786 Y80.151 E0.02237
G1 X16.129 Y79.872 E0.02237
G1 X15.447 Y79.664 E0.02237
G1 X14.746 Y79.529 E0.02237
G1 X14.035 Y79.468 E0.02237
G1 X13.322 Y79.481 E0.02237
G1 X12.614 Y79.569 E0.02237
G1 X11.919 Y79.730 E0.02237
G1 X11.244 Y79.963 E0.02237
G1 X10.598 Y80.266 E0.02237
G1 X9.987 Y80.634 E0.02237
G1 X9.418 Y81.065 E0.02237
G1 X8.897 Y81.552 E0.02237
G1 X8.430 Y82.092 E0.02237
G1 X8.022 Y82.677 E0.02237
G1 X7.677 Y83.302 E0.02237
G1 X7.400 Y83.957 E0.02232
G1 X7.253 Y84.414 E0.01503
G1 X7.095 Y85.107 E0.02231
G1 X7.010 Y85.816 E0.02237
G1 X6.999 Y86.529 E0.02237
G1 X7.063 Y87.240 E0.02237
G1 X7.201 Y87.940 E0.02237
G1 X7.411 Y88.622 E0.02237
G1 X7.692 Y89.278 E0.02237
G1 X8.039 Y89.901 E0.02237
G1 X8.450 Y90.484 E0.02237
G1 X8.920 Y91.021 E0.02237
G1 X9.443 Y91.506 E0.02237
G1 X9.992 Y91.918 E0.02151
G1 X10.071 Y91.998 E0.00353
G1 X9.905 Y92.285 E0.01038
G1 X9.814 Y92.252 E0.00303
G1 X9.453 Y91.996 E0.01389
G1 X9.092 Y91.702 E0.01459
G1 X8.585 Y91.216 E0.02202
G1 X8.129 Y90.685 E0.02196
G1 X7.726 Y90.111 E0.02196
G1 X7.382 Y89.501 E0.02196
G1 X7.099 Y88.861 E0.02196
G1 X6.878 Y88.194 E0.02202
G1 X6.768 Y87.742 E0.01459
G1 X6.688 Y87.283 E0.01459
G1 X6.624 Y86.583 E0.02207
G1 X6.619 Y86.117 E0.01459
G1 X6.645 Y85.651 E0.01465
G1 X6.700 Y85.187 E0.01465
G1 X6.785 Y84.731 E0.01455
G1 X6.901 Y84.275 E0.01475
G1 X7.045 Y83.832 E0.01459
G1 X7.316 Y83.185 E0.02201
G1 X7.648 Y82.566 E0.02202
G1 X7.901 Y82.176 E0.01459
G1 X8.180 Y81.801 E0.01465
G1 X8.482 Y81.445 E0.01465
G1 X8.806 Y81.110 E0.01459
G1 X9.335 Y80.646 E0.02207
G1 X9.709 Y80.369 E0.01459
G1 X10.101 Y80.115 E0.01465
G1 X10.509 Y79.888 E0.01465
G1 X10.931 Y79.687 E0.01465
G1 X11.365 Y79.514 E0.01465
G1 X11.807 Y79.370 E0.01459
G1 X12.490 Y79.208 E0.02201
G1 X13.186 Y79.114 E0.02202
G1 X13.651 Y79.089 E0.01459
G1 X14.115 Y79.094 E0.01455
G1 X14.584 Y79.129 E0.01475
G1 X15.046 Y79.195 E0.01464
G1 X15.502 Y79.290 E0.01459
G1 X16.175 Y79.489 E0.02202
G1 X16.826 Y79.753 E0.02202
G1 X17.242 Y79.962 E0.01459
G1 X17.645 Y80.198 E0.01465
G1 X18.031 Y80.460 E0.01464
G1 X18.398 Y80.746 E0.01459
G1 X18.917 Y81.222 E0.02207
G1 X19.232 Y81.562 E0.01454
G1 X19.665 Y82.113 E0.02197
G1 X19.924 Y82.503 E0.01469
G1 X20.157 Y82.908 E0.01464
G1 X20.361 Y83.326 E0.01459
G1 X20.617 Y83.980 E0.02202
G1 X20.808 Y84.653 E0.02192
G1 X20.899 Y85.112 E0.01469
G1 X20.959 Y85.576 E0.01465
G1 X20.990 Y86.042 E0.01465
G1 X20.994 Y100.527 E0.45416
M204 S1250
G1 X20.994 Y100.987 F9000.000
G1 E-2.24000 F4200.00000
G1 F7200.000
G1 X22.640 Y100.527 E-0.91200
G1 E-0.04800 F4200.00000
G1 Z0.400 F9000.000
G1 X20.994 Y129.033
G1 Z0.200
G1 E3.20000 F2400.00000
M204 S800
G1 F1200.000
G1 X172.617 Y129.033 E4.75403
G1 X172.617 Y109.235 E0.62074
G1 X172.633 Y109.113 E0.00385
G1 X172.978 Y109.113 E0.01082
G1 X172.994 Y109.235 E0.00385
G1 X172.994 Y128.713 E0.61073
G1 X172.945 Y129.361 E0.02037
G1 X172.298 Y129.410 E0.02037
G1 X21.313 Y129.410 E4.73400
G1 X20.666 Y129.361 E0.02037
G1 X20.617 Y128.713 E0.02037
G1 X20.617 Y114.715 E0.43891
G1 X20.579 Y114.010 E0.02212
G1 X20.511 Y113.529 E0.01523
G1 X20.352 Y112.842 E0.02211
G1 X20.121 Y112.169 E0.02231
G1 X19.926 Y111.733 E0.01498
G1 X19.699 Y111.306 E0.01518
G1 X19.314 Y110.715 E0.02211
G1 X18.866 Y110.162 E0.02231
G1 X18.533 Y109.817 E0.01503
G1 X17.995 Y109.351 E0.02232
G1 X17.410 Y108.942 E0.02237
G1 X16.786 Y108.597 E0.02237
G1 X16.129 Y108.318 E0.02237
G1 X15.447 Y108.110 E0.02237
G1 X14.746 Y107.975 E0.02237
G1 X14.035 Y107.914 E0.02237
G1 X13.322 Y107.927 E0.02237
G1 X12.614 Y108.015 E0.02237
G1 X11.919 Y108.176 E0.02237
G1 X11.244 Y108.409 E0.02237
G1 X10.598 Y108.712 E0.02237
G1 X9.987 Y109.080 E0.02237
G1 X9.418 Y109.511 E0.02237
G1 X8.897 Y109.998 E0.02237
G1 X8.430 Y110.538 E0.02237
G1 X8.022 Y111.123 E0.02237
G1 X7.677 Y111.748 E0.02237
G1 X7.400 Y112.403 E0.02232
G1 X7.253 Y112.860 E0.01503
G1 X7.095 Y113.553 E0.02231
G1 X7.010 Y114.262 E0.02237
G1 X6.999 Y114.975 E0.02237
G1 X7.063 Y115.686 E0.02237
G1 X7.201 Y116.386 E0.02237
G1 X7.411 Y117.068 E0.02237
G1 X7.692 Y117.724 E0.02237
G1 X8.039 Y118.347 E0.02237
G1 X8.450 Y118.930 E0.02237
G1 X8.920 Y119.467 E0.02237
G1 X9.443 Y119.952 E0.02237
G1 X9.992 Y120.364 E0.02151
G1 X10.071 Y120.444 E0.00353
G1 X9.905 Y120.731 E0.01038
G1 X9.814 Y120.698 E0.00303
G1 X9.453 Y120.442 E0.01389
G1 X9.092 Y120.148 E0.01459
G1 X8.585 Y119.662 E0.02202
G1 X8.129 Y119.131 E0.02196
G1 X7.726 Y118.557 E0.02196
G1 X7.382 Y117.947 E0.02196
G1 X7.099 Y117.307 E0.02196
G1 X6.878 Y116.640 E0.02202
G1 X6.768 Y116.188 E0.01459
G1 X6.688 Y115.729 E0.01459
G1 X6.624 Y115.029 E0.02207
G1 X6.619 Y114.563 E0.01459
G1 X6.645 Y114.097 E0.01465
G1 X6.700 Y113.633 E0.01465
G1 X6.785 Y113.177 E0.01455
G1 X6.901 Y112.721 E0.01475
G1 X7.045 Y112.278 E0.01459
G1 X7.316 Y111.631 E0.02201
G1 X7.648 Y111.012 E0.02202
G1 X7.901 Y110.622 E0.01459
G1 X8.180 Y110.247 E0.01465
G1 X8.482 Y109.891 E0.01465
G1 X8.806 Y109.556 E0.01459
G1 X9.335 Y109.092 E0.02207
G1 X9.709 Y108.815 E0.01459
G1 X10.101 Y108.561 E0.01465
G1 X10.509 Y108.334 E0.01465
G1 X10.931 Y108.133 E0.01465
G1 X11.365 Y107.960 E0.01465
G1 X11.807 Y107.816 E0.01459
G1 X12.490 Y107.654 E0.02201
G1 X13.186 Y107.560 E0.02202
G1 X13.651 Y107.535 E0.01459
G1 X14.115 Y107.540 E0.01455
G1 X14.584 Y107.575 E0.01475
G1 X15.046 Y107.641 E0.01464
G1 X15.502 Y107.736 E0.01459
G1 X16.175 Y107.935 E0.02202
G1 X16.826 Y108.199 E0.02202
G1 X17.242 Y108.408 E0.01459
G1 X17.645 Y108.644 E0.01465
G1 X18.031 Y108.906 E0.01464
G1 X18.398 Y109.192 E0.01459
G1 X18.917 Y109.668 E0.02207
G1 X19.232 Y110.008 E0.01454
G1 X19.665 Y110.559 E0.02197
G1 X19.924 Y110.949 E0.01469
G1 X20.157 Y111.354 E0.01464
G1 X20.361 Y111.772 E0.01459
G1 X20.617 Y112.426 E0.02202
G1 X20.808 Y113.099 E0.02192
G1 X20.899 Y113.558 E0.01469
G1 X20.959 Y114.022 E0.01465
G1 X20.990 Y114.488 E0.01465
G1 X20.994 Y128.973 E0.45416
M204 S1250
G1 X20.994 Y129.433 F9000.000
M106 S255
;BEFORE_LAYER_CHANGE
G92 E0.0
;0.45


G1 Z0.450 F9000.000
;AFTER_LAYER_CHANGE
;0.45
G1 E-3.20000 F4200.00000
G1 Z0.650 F9000.000
G1 X19.445 Y131.937
G1 Z0.450
G1 E3.20000 F2400.00000
G1 X18.848 Y131.599 E0.02616
G1 X7.319 Y122.170 E0.56712
G1 X6.438 Y121.300 E0.04711
G1 X5.810 Y120.521 E0.03810
G1 X5.148 Y119.475 E0.04716
G1 X4.706 Y118.562 E0.03863
G1 X4.137 Y116.738 E0.07274
G1 X3.929 Y114.811 E0.07379
G1 X3.930 Y86.086 E1.09378
G1 X4.339 Y64.893 E0.80715
G1 X4.542 Y63.249 E0.06307
G1 X4.980 Y61.760 E0.05910
G1 X5.531 Y60.562 E0.05021
G1 X6.375 Y59.263 E0.05899
G1 X7.252 Y58.267 E0.05051
G1 X19.210 Y48.434 E0.58952
G1 X19.793 Y48.085 E0.02587
G1 X20.706 Y47.902 E0.03545
G1 X173.712 Y47.902 E5.82611
G1 X174.614 Y48.081 E0.03502
G1 X175.383 Y48.592 E0.03516
G1 X175.900 Y49.358 E0.03516
G1 X176.085 Y50.263 E0.03516
G1 X176.085 Y71.290 E0.80069
G1 X175.682 Y129.776 E2.22703
G1 X175.568 Y130.449 E0.02602
G1 X175.270 Y131.060 E0.02587
G1 X174.808 Y131.563 E0.02602
G1 X174.222 Y131.914 E0.02602
G1 X173.309 Y132.098 E0.03545
G1 X20.119 Y132.091 E5.83312
G1 X19.504 Y131.950 E0.02402
G1 E-2.24000 F4200.00000
G1 F7200.000
G1 X18.848 Y131.599 E-0.41268
G1 X18.150 Y131.028 E-0.49932
G1 E-0.04800 F4200.00000
G1 Z0.650 F9000.000
G1 X172.933 Y51.054
G1 Z0.450
G1 E3.20000 F2400.00000
M204 S800
G1 X21.483 Y51.054 E6.23910
G1 X21.483 Y65.275 E0.58586
G1 X21.468 Y65.751 E0.01962
G1 X21.422 Y66.222 E0.01947
G1 X21.346 Y66.687 E0.01940
G1 X21.174 Y67.376 E0.02928
G1 X20.937 Y68.044 E0.02920
G1 X20.636 Y68.686 E0.02920
G1 X20.274 Y69.296 E0.02920
G1 X19.853 Y69.868 E0.02928
G1 X19.545 Y70.223 E0.01932
G1 X19.037 Y70.720 E0.02928
G1 X18.483 Y71.165 E0.02928
G1 X18.094 Y71.429 E0.01940
G1 X17.686 Y71.669 E0.01947
G1 X17.264 Y71.881 E0.01947
G1 X16.829 Y72.066 E0.01947
G1 X16.384 Y72.221 E0.01940
G1 X15.710 Y72.397 E0.02871
G1 X15.230 Y72.482 E0.02005
G1 X14.761 Y72.533 E0.01947
G1 X14.290 Y72.553 E0.01940
G1 X13.594 Y72.528 E0.02871
G1 X13.110 Y72.470 E0.02005
G1 X12.647 Y72.384 E0.01940
G1 X11.975 Y72.202 E0.02871
G1 X11.517 Y72.038 E0.02005
G1 X11.085 Y71.849 E0.01939
G1 X10.458 Y71.512 E0.02936
G1 X10.062 Y71.257 E0.01940
G1 X9.683 Y70.975 E0.01947
G1 X9.322 Y70.669 E0.01947
G1 X8.983 Y70.340 E0.01947
G1 X8.666 Y69.991 E0.01940
G1 X8.232 Y69.427 E0.02936
G1 X7.976 Y69.031 E0.01940
G1 X7.746 Y68.620 E0.01940
G1 X7.450 Y67.972 E0.02936
G1 X7.290 Y67.529 E0.01940
G1 X7.159 Y67.075 E0.01947
G1 X7.057 Y66.615 E0.01940
G1 X6.962 Y65.925 E0.02871
G1 X6.935 Y65.439 E0.02005
G1 X6.940 Y64.966 E0.01947
G1 X6.976 Y64.495 E0.01948
G1 X7.039 Y64.044 E0.01875
G1 X7.199 Y63.333 E0.03000
G1 X7.339 Y62.884 E0.01939
G1 X7.509 Y62.443 E0.01947
G1 X7.707 Y62.014 E0.01947
G1 X7.933 Y61.598 E0.01947
G1 X8.185 Y61.199 E0.01947
G1 X8.463 Y60.816 E0.01947
G1 X8.765 Y60.452 E0.01947
G1 X9.090 Y60.109 E0.01947
G1 X9.437 Y59.788 E0.01947
G1 X9.803 Y59.489 E0.01947
G1 X10.399 Y59.085 E0.02966
G1 X10.675 Y59.566 E0.02282
G1 X10.272 Y59.826 E0.01975
G1 X9.714 Y60.276 E0.02955
G1 X9.385 Y60.593 E0.01882
G1 X9.068 Y60.943 E0.01943
G1 X8.645 Y61.501 E0.02886
G1 X8.394 Y61.900 E0.01943
G1 X8.171 Y62.316 E0.01943
G1 X7.895 Y62.962 E0.02894
G1 X7.687 Y63.635 E0.02902
G1 X7.551 Y64.326 E0.02902
G1 X7.488 Y65.028 E0.02902
G1 X7.498 Y65.732 E0.02902
G1 X7.583 Y66.432 E0.02902
G1 X7.740 Y67.119 E0.02902
G1 X7.967 Y67.783 E0.02894
