; generated by PrusaSlicer 2.3.0+win64 on 2021-06-05 at 10:50:53 UTC


;
;

;
;
; 

; external perimeters extrusion width = 0.45mm
; perimeters extrusion width = 0.45mm
; infill extrusion width = 0.45mm
; solid infill extrusion width = 0.45mm
; top infill extrusion width = 0.40mm
; first layer extrusion width = 0.42mm

M73 P0 R7
M201 X1250 Y1250 Z400 E5000 ; sets maximum accelerations, mm/sec^2
M203 X180 Y180 Z12 E80 ; sets maximum feedrates, mm/sec
M204 P1250 R1250 T1250 ; sets acceleration (P, T) and retract acceleration (R), mm/sec^2
M205 X8.00 Y8.00 Z2.00 E10.00 ; sets the jerk limits, mm/sec
M205 S0 T0 ; sets the minimum extruding and travel feed rate, mm/sec
M107
;TYPE:Custom
G90 ; use absolute coordinates
M83 ; extruder relative mode
M104 S170 ; set extruder temp for bed leveling
M140 S60 ; set bed temp
M109 R170 ; wait for bed leveling temp
M190 S60 ; wait for bed temp
G28 ; home all without mesh bed level
G29 ; mesh bed leveling 
M104 S215 ; set extruder temp
G92 E0.0
G1 Y-2.0 X179 F2400
M73 P1 R7
G1 Z3 F720
M109 S215 ; wait for extruder temp

; intro line
G1 X170 F1000
G1 Z0.2 F720
G1 X110.0 E8.0 F900
M73 P2 R7
G1 X40.0 E10.0 F700
G92 E0.0

M221 S95 ; set flow
G21 ; set units to millimeters
G90 ; use absolute coordinates
M83 ; use relative distances for extrusion
M900 K0.2 ; Filament gcode LA 1.5
; ; Filament gcode LA 1.0
;LAYER_CHANGE
;Z:0.2
;HEIGHT:0.2
;BEFORE_LAYER_CHANGE
G92 E0.0
;0.2


M73 P3 R7
G1 E-3.20000 F4200.000
G1 Z0.200 F9000.000
;AFTER_LAYER_CHANGE
;0.2
G1 Z0.400
G1 X76.652 Y85.079
G1 Z0.200
G1 E3.20000 F2400.000
M204 S800
;TYPE:Skirt
;WIDTH:0.42
G1 F1200.000
G1 X77.637 Y84.312 E0.03913
G1 X78.895 Y83.680 E0.04415
G1 X80.055 Y83.358 E0.03774
G1 X81.213 Y83.247 E0.03650
G1 X98.726 Y83.246 E0.54910
G1 X99.904 Y83.350 E0.03708
G1 X101.050 Y83.660 E0.03721
G1 X102.121 Y84.163 E0.03710
G1 X103.067 Y84.829 E0.03628
G1 X103.901 Y85.666 E0.03705
M73 P4 R7
G1 X104.499 Y86.502 E0.03222
G1 X105.012 Y87.539 E0.03628
G1 X105.352 Y88.713 E0.03833
G1 X105.475 Y89.865 E0.03632
G1 X105.394 Y91.052 E0.03732
G1 X105.110 Y92.192 E0.03684
G1 X104.623 Y93.286 E0.03753
G1 X103.958 Y94.266 E0.03716
G1 X103.123 Y95.123 E0.03751
G1 X102.158 Y95.815 E0.03724
G1 X101.117 Y96.315 E0.03618
G1 X99.934 Y96.645 E0.03852
G1 X98.774 Y96.754 E0.03651
G1 X81.270 Y96.754 E0.54885
G1 X80.350 Y96.690 E0.02890
G1 X79.500 Y96.516 E0.02721
G1 X78.653 Y96.223 E0.02809
G1 X77.857 Y95.824 E0.02792
G1 X77.118 Y95.321 E0.02804
G1 X76.451 Y94.724 E0.02806
G1 X75.866 Y94.041 E0.02821
G1 X75.382 Y93.296 E0.02785
G1 X74.990 Y92.465 E0.02881
G1 X74.614 Y91.100 E0.04438
G1 X74.525 Y89.850 E0.03930
G1 X74.707 Y88.438 E0.04464
G1 X75.108 Y87.252 E0.03924
G1 X75.722 Y86.160 E0.03930
G1 X76.613 Y85.124 E0.04283
M204 S1250
G1 X76.894 Y85.375 F9000.000
M204 S800
G1 F1200.000
G1 X78.005 Y84.527 E0.04381
G1 X79.082 Y84.013 E0.03743
G1 X80.138 Y83.726 E0.03429
G1 X81.226 Y83.623 E0.03425
G1 X98.726 Y83.623 E0.54871
G1 X99.842 Y83.722 E0.03514
G1 X100.928 Y84.017 E0.03527
G1 X101.938 Y84.493 E0.03500
G1 X102.854 Y85.143 E0.03522
G1 X103.645 Y85.946 E0.03534
G1 X104.282 Y86.878 E0.03539
G1 X104.745 Y87.905 E0.03534
G1 X105.014 Y88.965 E0.03427
G1 X105.098 Y90.088 E0.03533
G1 X105.014 Y91.036 E0.02981
G1 X104.749 Y92.084 E0.03392
G1 X104.271 Y93.142 E0.03640
G1 X103.659 Y94.037 E0.03400
G1 X102.863 Y94.850 E0.03568
G1 X101.952 Y95.498 E0.03505
G1 X100.926 Y95.984 E0.03559
M73 P5 R7
G1 X99.850 Y96.277 E0.03496
G1 X98.763 Y96.377 E0.03423
G1 X81.270 Y96.377 E0.54848
G1 X80.399 Y96.316 E0.02739
G1 X79.591 Y96.150 E0.02585
G1 X78.761 Y95.859 E0.02759
G1 X78.004 Y95.472 E0.02666
G1 X77.173 Y94.880 E0.03199
G1 X76.536 Y94.264 E0.02778
G1 X76.017 Y93.605 E0.02629
G1 X75.581 Y92.865 E0.02692
G1 X75.261 Y92.113 E0.02564
G1 X74.972 Y90.951 E0.03754
G1 X74.912 Y89.633 E0.04136
G1 X75.088 Y88.468 E0.03694
G1 X75.475 Y87.357 E0.03689
G1 X76.141 Y86.221 E0.04129
G1 X76.854 Y85.419 E0.03365
M204 S1250
; printing object StrainRelief1.stl id:0 copy 0
G1 E-2.24000 F4200.000
;WIPE_START
G1 F7200.000
G1 X78.005 Y84.527 E-0.80692
G1 X78.176 Y84.445 E-0.10508
;WIPE_END
G1 E-0.04800 F4200.000
G1 Z0.400 F9000.000
G1 X82.602 Y86.787
G1 Z0.200
G1 E3.20000 F2400.000
M204 S800
;TYPE:Perimeter
G1 F1200.000
G1 X97.391 Y86.791 E0.46370
G1 X97.427 Y86.973 E0.00583
G1 X97.012 Y87.181 E0.01454
G1 X96.729 Y87.374 E0.01073
G1 X96.468 Y87.594 E0.01073
G1 X96.231 Y87.841 E0.01073
G1 X96.020 Y88.111 E0.01073
G1 X95.839 Y88.401 E0.01073
G1 X95.689 Y88.709 E0.01073
G1 X95.571 Y89.030 E0.01073
G1 X95.488 Y89.362 E0.01073
G1 X95.438 Y89.708 E0.01097
G1 X95.431 Y90.214 E0.01585
G1 X95.503 Y90.714 E0.01585
G1 X95.598 Y91.051 E0.01097
G1 X95.723 Y91.369 E0.01073
G1 X95.882 Y91.673 E0.01073
G1 X96.070 Y91.958 E0.01073
G1 X96.288 Y92.223 E0.01073
G1 X96.531 Y92.463 E0.01073
G1 X96.798 Y92.677 E0.01073
G1 X97.086 Y92.862 E0.01073
G1 X97.437 Y93.039 E0.01231
G1 X97.395 Y93.213 E0.00560
G1 X82.596 Y93.213 E0.46401
G1 X82.559 Y93.033 E0.00575
G1 X82.770 Y92.940 E0.00724
G1 X83.196 Y92.682 E0.01561
G1 X83.469 Y92.463 E0.01097
G1 X83.712 Y92.223 E0.01073
G1 X83.930 Y91.958 E0.01073
G1 X84.118 Y91.673 E0.01073
G1 X84.277 Y91.369 E0.01073
G1 X84.405 Y91.044 E0.01097
G1 X84.527 Y90.561 E0.01561
G1 X84.568 Y90.214 E0.01097
G1 X84.572 Y89.872 E0.01073
G1 X84.541 Y89.531 E0.01073
G1 X84.475 Y89.195 E0.01073
G1 X84.374 Y88.868 E0.01073
G1 X84.240 Y88.553 E0.01073
G1 X84.074 Y88.254 E0.01073
G1 X83.874 Y87.967 E0.01097
G1 X83.538 Y87.599 E0.01561
G1 X83.271 Y87.374 E0.01097
G1 X82.988 Y87.181 E0.01073
G1 X82.566 Y86.970 E0.01479
M73 P6 R7
G1 X82.590 Y86.846 E0.00395
M204 S1250
G1 E-2.24000 F4200.000
;WIPE_START
G1 F7200.000
G1 X84.236 Y86.840 E-0.91200
;WIPE_END
G1 E-0.04800 F4200.000
G1 Z0.400 F9000.000
G1 X95.858 Y89.435
G1 Z0.200
G1 E3.20000 F2400.000
M204 S800
;TYPE:External perimeter
G1 F1200.000
G1 X95.932 Y89.141 E0.00950
G1 X96.036 Y88.857 E0.00950
G1 X96.169 Y88.584 E0.00950
G1 X96.330 Y88.327 E0.00950
G1 X96.516 Y88.088 E0.00950
G1 X96.726 Y87.870 E0.00950
G1 X96.958 Y87.675 E0.00950
G1 X97.208 Y87.504 E0.00950
G1 X97.475 Y87.361 E0.00950
G1 X97.756 Y87.246 E0.00950
G1 X98.046 Y87.160 E0.00950
G1 X98.344 Y87.105 E0.00950
G1 X98.648 Y87.082 E0.00955
G1 X99.097 Y87.105 E0.01411
G1 X99.398 Y87.160 E0.00959
G1 X99.689 Y87.246 E0.00950
G1 X99.969 Y87.361 E0.00950
G1 X100.236 Y87.504 E0.00950
G1 X100.487 Y87.675 E0.00950
G1 X100.720 Y87.872 E0.00959
G1 X101.023 Y88.203 E0.01407
G1 X101.198 Y88.454 E0.00959
G1 X101.345 Y88.719 E0.00950
G1 X101.464 Y88.998 E0.00950
G1 X101.553 Y89.287 E0.00950
G1 X101.612 Y89.585 E0.00950
G1 X101.639 Y89.886 E0.00950
G1 X101.635 Y90.189 E0.00950
G1 X101.599 Y90.493 E0.00959
G1 X101.490 Y90.928 E0.01407
G1 X101.377 Y91.213 E0.00959
G1 X101.237 Y91.481 E0.00950
G1 X101.070 Y91.734 E0.00950
G1 X100.878 Y91.968 E0.00950
G1 X100.662 Y92.181 E0.00950
G1 X100.426 Y92.370 E0.00950
G1 X100.171 Y92.534 E0.00950
G1 X99.900 Y92.671 E0.00950
G1 X99.617 Y92.779 E0.00950
G1 X99.322 Y92.857 E0.00959
G1 X98.876 Y92.915 E0.01407
G1 X98.571 Y92.915 E0.00959
G1 X98.267 Y92.883 E0.00959
G1 X97.830 Y92.780 E0.01407
G1 X97.544 Y92.671 E0.00959
G1 X97.274 Y92.534 E0.00950
G1 X97.019 Y92.370 E0.00950
G1 X96.782 Y92.181 E0.00950
G1 X96.566 Y91.968 E0.00950
G1 X96.374 Y91.734 E0.00950
G1 X96.207 Y91.481 E0.00950
G1 X96.067 Y91.213 E0.00950
G1 X95.955 Y90.931 E0.00950
G1 X95.873 Y90.636 E0.00959
G1 X95.809 Y90.189 E0.01416
G1 X95.815 Y89.738 E0.01416
G1 X95.850 Y89.495 E0.00771
M204 S1250
G1 X95.628 Y89.238 F9000.000
G1 E-2.24000 F4200.000
;WIPE_START
G1 F7200.000
G1 X95.932 Y89.141 E-0.20103
G1 X96.036 Y88.857 E-0.16793
G1 X96.169 Y88.584 E-0.16792
G1 X96.330 Y88.327 E-0.16793
G1 X96.516 Y88.088 E-0.16793
G1 X96.565 Y88.037 E-0.03927
;WIPE_END
G1 E-0.04800 F4200.000
G1 Z0.400 F9000.000
G1 X84.195 Y89.886
G1 Z0.200
G1 E3.20000 F2400.000
M204 S800
G1 F1200.000
G1 X84.191 Y90.189 E0.00950
G1 X84.155 Y90.493 E0.00959
G1 X84.046 Y90.928 E0.01407
G1 X83.933 Y91.213 E0.00959
G1 X83.793 Y91.481 E0.00950
G1 X83.626 Y91.734 E0.00950
G1 X83.434 Y91.968 E0.00950
G1 X83.218 Y92.181 E0.00950
G1 X82.979 Y92.372 E0.00959
G1 X82.595 Y92.605 E0.01407
G1 X82.316 Y92.728 E0.00959
G1 X82.027 Y92.821 E0.00950
G1 X81.731 Y92.884 E0.00950
G1 X81.429 Y92.915 E0.00950
G1 X81.126 Y92.915 E0.00950
G1 X80.822 Y92.883 E0.00959
G1 X80.386 Y92.780 E0.01407
G1 X80.100 Y92.671 E0.00959
G1 X79.829 Y92.534 E0.00950
G1 X79.574 Y92.370 E0.00950
G1 X79.338 Y92.181 E0.00950
G1 X79.122 Y91.968 E0.00950
G1 X78.930 Y91.734 E0.00950
G1 X78.763 Y91.481 E0.00950
G1 X78.623 Y91.213 E0.00950
G1 X78.511 Y90.931 E0.00950
G1 X78.429 Y90.636 E0.00959
G1 X78.365 Y90.192 E0.01407
G1 X78.361 Y89.886 E0.00959
G1 X78.388 Y89.585 E0.00950
G1 X78.447 Y89.287 E0.00950
G1 X78.536 Y88.998 E0.00950
G1 X78.655 Y88.719 E0.00950
G1 X78.803 Y88.451 E0.00959
G1 X79.070 Y88.090 E0.01407
G1 X79.282 Y87.870 E0.00959
G1 X79.513 Y87.675 E0.00950
G1 X79.764 Y87.504 E0.00950
G1 X80.031 Y87.361 E0.00950
G1 X80.311 Y87.246 E0.00950
G1 X80.602 Y87.160 E0.00950
G1 X80.900 Y87.105 E0.00950
G1 X81.203 Y87.082 E0.00955
G1 X81.653 Y87.105 E0.01411
G1 X81.954 Y87.160 E0.00959
G1 X82.244 Y87.246 E0.00950
G1 X82.525 Y87.361 E0.00950
G1 X82.792 Y87.504 E0.00950
G1 X83.042 Y87.675 E0.00950
G1 X83.276 Y87.872 E0.00959
G1 X83.579 Y88.203 E0.01407
G1 X83.754 Y88.454 E0.00959
G1 X83.901 Y88.719 E0.00950
G1 X84.019 Y88.998 E0.00950
G1 X84.109 Y89.287 E0.00950
G1 X84.167 Y89.585 E0.00950
G1 X84.189 Y89.827 E0.00762
M204 S1250
G1 X84.463 Y90.028 F9000.000
G1 E-2.24000 F4200.000
;WIPE_START
G1 F7200.000
G1 X84.191 Y90.189 E-0.20103
G1 X84.155 Y90.493 E-0.16944
G1 X84.046 Y90.928 E-0.24874
G1 X83.933 Y91.213 E-0.16945
G1 X83.830 Y91.410 E-0.12334
;WIPE_END
G1 E-0.04800 F4200.000
G1 Z0.400 F9000.000
G1 X84.190 Y86.411
G1 Z0.200
G1 E3.20000 F2400.000
M204 S800
G1 F1200.000
G1 X98.881 Y86.414 E0.46062
G1 X99.197 Y86.442 E0.00996
G1 X99.510 Y86.498 E0.00996
G1 X99.816 Y86.581 E0.00996
G1 X100.114 Y86.691 E0.00996
G1 X100.401 Y86.827 E0.00996
G1 X100.675 Y86.988 E0.00996
G1 X100.934 Y87.172 E0.00996
G1 X101.175 Y87.379 E0.00996
G1 X101.397 Y87.606 E0.00996
G1 X101.598 Y87.852 E0.00996
G1 X101.777 Y88.114 E0.00996
G1 X101.931 Y88.392 E0.00996
G1 X102.061 Y88.681 E0.00996
G1 X102.164 Y88.982 E0.00996
G1 X102.241 Y89.290 E0.00996
G1 X102.290 Y89.604 E0.00996
G1 X102.311 Y89.921 E0.00996
G1 X102.304 Y90.238 E0.00996
G1 X102.269 Y90.554 E0.00996
G1 X102.206 Y90.865 E0.00996
G1 X102.116 Y91.170 E0.00996
G1 X101.999 Y91.465 E0.00996
G1 X101.857 Y91.749 E0.00996
G1 X101.690 Y92.019 E0.00996
G1 X101.502 Y92.272 E0.00988
G1 X101.173 Y92.623 E0.01508
G1 X100.934 Y92.828 E0.00988
G1 X100.675 Y93.012 E0.00996
M73 P7 R7
G1 X100.401 Y93.173 E0.00996
G1 X100.114 Y93.309 E0.00996
G1 X99.816 Y93.419 E0.00996
G1 X99.512 Y93.502 E0.00988
G1 X99.037 Y93.576 E0.01507
G1 X98.715 Y93.590 E0.01010
G1 X81.287 Y93.590 E0.54645
G1 X80.803 Y93.558 E0.01522
G1 X80.334 Y93.463 E0.01500
G1 X80.033 Y93.367 E0.00988
G1 X79.743 Y93.245 E0.00988
G1 X79.323 Y93.011 E0.01507
G1 X79.066 Y92.828 E0.00988
G1 X78.827 Y92.623 E0.00988
G1 X78.498 Y92.272 E0.01508
G1 X78.310 Y92.019 E0.00988
G1 X78.144 Y91.751 E0.00988
G1 X77.938 Y91.316 E0.01507
G1 X77.836 Y91.018 E0.00988
G1 X77.759 Y90.710 E0.00996
G1 X77.710 Y90.396 E0.00996
G1 X77.689 Y90.079 E0.00996
G1 X77.696 Y89.762 E0.00996
G1 X77.731 Y89.446 E0.00996
G1 X77.793 Y89.137 E0.00988
G1 X77.940 Y88.679 E0.01507
G1 X78.069 Y88.392 E0.00988
G1 X78.223 Y88.114 E0.00996
G1 X78.402 Y87.852 E0.00996
G1 X78.603 Y87.606 E0.00996
G1 X78.823 Y87.381 E0.00988
G1 X79.194 Y87.077 E0.01500
G1 X79.601 Y86.826 E0.01500
G1 X79.886 Y86.691 E0.00988
G1 X80.184 Y86.581 E0.00996
G1 X80.488 Y86.498 E0.00988
G1 X80.963 Y86.424 E0.01507
G1 X81.285 Y86.410 E0.01010
G1 X84.130 Y86.411 E0.08921
M204 S1250
G1 X84.390 Y86.757 F9000.000
G1 X83.412 Y87.215
M204 S800
;TYPE:Gap fill
;WIDTH:0.123156
G1 F1200.000
G1 X83.136 Y86.976 E0.00244
M204 S1250
G1 X82.399 Y86.841 F9000.000
M204 S800
;WIDTH:0.467825
G1 F1200.000
G1 X82.052 Y86.792 E0.01239
M204 S1250
M204 S800
;WIDTH:0.428598
G1 X81.868 Y86.774 E0.00592
M204 S1250
M204 S800
;WIDTH:0.394087
G1 X81.704 Y86.759 E0.00481
M204 S1250
M204 S800
;WIDTH:0.364245
G1 X81.292 Y86.748 E0.01101
M204 S1250
M204 S800
;WIDTH:0.341707
G1 X81.208 Y86.748 E0.00208
M204 S1250
M204 S800
;WIDTH:0.333706
G1 X80.864 Y86.775 E0.00835
G1 X80.532 Y86.833 E0.00816
G1 X80.208 Y86.928 E0.00817
G1 X79.895 Y87.056 E0.00816
G1 X79.598 Y87.217 E0.00816
G1 X79.318 Y87.405 E0.00816
G1 X79.050 Y87.628 E0.00843
G1 X78.821 Y87.868 E0.00802
G1 X78.527 Y88.263 E0.01190
G1 X78.369 Y88.542 E0.00776
G1 X78.255 Y88.800 E0.00681
G1 X78.125 Y89.198 E0.01014
G1 X78.063 Y89.498 E0.00740
G1 X78.032 Y89.784 E0.00696
G1 X78.026 Y90.072 E0.00696
G1 X78.047 Y90.359 E0.00696
G1 X78.100 Y90.696 E0.00825
G1 X78.192 Y91.030 E0.00838
G1 X78.318 Y91.344 E0.00816
G1 X78.471 Y91.644 E0.00816
G1 X78.657 Y91.926 E0.00817
G1 X78.872 Y92.186 E0.00816
G1 X79.110 Y92.426 E0.00816
G1 X79.373 Y92.637 E0.00817
G1 X79.891 Y92.942 E0.01452
G1 X80.150 Y93.051 E0.00681
G1 X80.419 Y93.135 E0.00681
G1 X80.776 Y93.213 E0.00882
G1 X81.117 Y93.247 E0.00828
G1 X81.455 Y93.252 E0.00818
G1 X81.956 Y93.217 E0.01215
M204 S1250
M204 S800
;WIDTH:0.444974
G1 X82.392 Y93.158 E0.01472
M204 S1250
G1 X83.095 Y93.024 F9000.000
M204 S800
;WIDTH:0.130265
G1 F1200.000
G1 X83.296 Y92.868 E0.00185
M204 S1250
G1 E-2.24000 F4200.000
;WIPE_START
G1 F7200.000
G1 X83.095 Y93.024 E-0.14115
;WIPE_END
G1 E-0.81885 F4200.000
G1 Z0.400 F9000.000
G1 X96.705 Y92.868
G1 Z0.200
G1 E3.20000 F2400.000
M204 S800
;WIDTH:0.12609
G1 F1200.000
G1 X96.900 Y93.024 E0.00173
M204 S1250
G1 X97.601 Y93.163 F9000.000
M204 S800
;WIDTH:0.468869
G1 F1200.000
G1 X97.898 Y93.198 E0.01061
M204 S1250
M204 S800
;WIDTH:0.42405
G1 X98.196 Y93.233 E0.00949
M204 S1250
M204 S800
;WIDTH:0.379231
G1 X98.545 Y93.252 E0.00979
M204 S1250
M204 S800
;WIDTH:0.341481
G1 X98.889 Y93.249 E0.00852
M204 S1250
M204 S800
;WIDTH:0.333094
G1 X99.395 Y93.182 E0.01233
G1 X99.714 Y93.099 E0.00795
G1 X99.984 Y92.999 E0.00695
G1 X100.244 Y92.875 E0.00694
G1 X100.492 Y92.729 E0.00694
G1 X100.726 Y92.562 E0.00694
G1 X100.940 Y92.379 E0.00680
G1 X101.243 Y92.055 E0.01070
G1 X101.563 Y91.585 E0.01373
G1 X101.693 Y91.328 E0.00694
G1 X101.811 Y91.022 E0.00792
G1 X101.926 Y90.563 E0.01142
G1 X101.969 Y90.216 E0.00843
G1 X101.973 Y89.881 E0.00808
G1 X101.943 Y89.545 E0.00815
G1 X101.875 Y89.199 E0.00851
G1 X101.775 Y88.876 E0.00815
G1 X101.642 Y88.565 E0.00815
G1 X101.486 Y88.283 E0.00778
G1 X101.278 Y87.987 E0.00873
G1 X100.959 Y87.637 E0.01142
G1 X100.726 Y87.437 E0.00740
G1 X100.492 Y87.271 E0.00694
G1 X100.243 Y87.125 E0.00694
G1 X99.983 Y87.002 E0.00694
G1 X99.714 Y86.902 E0.00694
G1 X99.436 Y86.826 E0.00694
G1 X99.127 Y86.771 E0.00758
G1 X98.653 Y86.748 E0.01145
G1 X97.949 Y86.793 E0.01702
M204 S1250
M204 S800
;WIDTH:0.466892
G1 X97.593 Y86.844 E0.01265
M204 S1250
G1 X96.876 Y86.979 F9000.000
M204 S800
;WIDTH:0.138924
G1 F1200.000
G1 X96.631 Y87.185 E0.00255
M204 S1250
G1 X95.940 Y86.903 F9000.000
M204 S800
;TYPE:Solid infill
;WIDTH:0.425661
G1 F1200.000
G1 X96.356 Y87.319 E0.01871
G1 X96.083 Y87.587 E0.01218
G1 X95.569 Y87.073 E0.02314
G1 X95.027 Y87.073 E0.01723
G1 X95.839 Y87.884 E0.03652
G1 X95.624 Y88.211 E0.01244
G1 X94.486 Y87.073 E0.05124
G1 X93.944 Y87.073 E0.01723
G1 X95.442 Y88.570 E0.06740
G1 X95.296 Y88.966 E0.01341
G1 X93.403 Y87.072 E0.08520
G1 X92.862 Y87.072 E0.01723
G1 X95.196 Y89.406 E0.10505
M73 P8 R7
G1 X95.155 Y89.686 E0.00900
G1 X95.153 Y89.905 E0.00695
G1 X92.320 Y87.072 E0.12748
G1 X91.779 Y87.072 E0.01723
G1 X95.184 Y90.477 E0.15324
G1 X95.226 Y90.773 E0.00951
G1 X95.344 Y91.178 E0.01344
G1 X91.237 Y87.072 E0.18482
G1 X90.696 Y87.072 E0.01723
G1 X96.409 Y92.785 E0.25715
G1 X96.294 Y92.930 E0.00590
G1 X96.013 Y92.930 E0.00893
G1 X90.155 Y87.072 E0.26367
G1 X89.613 Y87.072 E0.01723
G1 X95.472 Y92.930 E0.26367
G1 X94.930 Y92.930 E0.01723
G1 X89.072 Y87.072 E0.26368
G1 X88.530 Y87.071 E0.01723
G1 X94.389 Y92.930 E0.26368
G1 X93.848 Y92.930 E0.01723
G1 X87.989 Y87.071 E0.26369
