; generated by PrusaSlicer 2.3.0+win64 on 2021-06-05 at 10:03:52 UTC


;
;

;
;
; 

; external perimeters extrusion width = 0.45mm
; perimeters extrusion width = 0.45mm
; infill extrusion width = 0.45mm
; solid infill extrusion width = 0.45mm
; top infill extrusion width = 0.40mm
; first layer extrusion width = 0.42mm

M73 P0 R5
M201 X1250 Y1250 Z400 E5000 ; sets maximum accelerations, mm/sec^2
M203 X180 Y180 Z12 E80 ; sets maximum feedrates, mm/sec
M204 P1250 R1250 T1250 ; sets acceleration (P, T) and retract acceleration (R), mm/sec^2
M205 X8.00 Y8.00 Z2.00 E10.00 ; sets the jerk limits, mm/sec
M205 S0 T0 ; sets the minimum extruding and travel feed rate, mm/sec
M107
;TYPE:Custom
G90 ; use absolute coordinates
M83 ; extruder relative mode
M104 S170 ; set extruder temp for bed leveling
M140 S60 ; set bed temp
M109 R170 ; wait for bed leveling temp
M190 S60 ; wait for bed temp
G28 ; home all without mesh bed level
G29 ; mesh bed leveling 
M104 S215 ; set extruder temp
G92 E0.0
G1 Y-2.0 X179 F2400
M73 P1 R5
G1 Z3 F720
M109 S215 ; wait for extruder temp

; intro line
G1 X170 F1000
G1 Z0.2 F720
G1 X110.0 E8.0 F900
M73 P3 R5
G1 X40.0 E10.0 F700
G92 E0.0

M221 S95 ; set flow
G21 ; set units to millimeters
G90 ; use absolute coordinates
M83 ; use relative distances for extrusion
M900 K0.2 ; Filament gcode LA 1.5
; ; Filament gcode LA 1.0
;LAYER_CHANGE
;Z:0.2
;HEIGHT:0.2
;BEFORE_LAYER_CHANGE
G92 E0.0
;0.2


M73 P4 R5
G1 E-3.20000 F4200.000
G1 Z0.200 F9000.000
;AFTER_LAYER_CHANGE
;0.2
G1 Z0.400
G1 X76.651 Y85.080
M73 P5 R5
G1 Z0.200
G1 E3.20000 F2400.000
M204 S800
;TYPE:Skirt
;WIDTH:0.42
G1 F1200.000
G1 X77.645 Y84.306 E0.03951
G1 X78.895 Y83.680 E0.04382
G1 X80.064 Y83.356 E0.03804
G1 X81.217 Y83.247 E0.03631
G1 X98.726 Y83.246 E0.54899
G1 X99.912 Y83.351 E0.03732
G1 X101.056 Y83.662 E0.03718
G1 X102.132 Y84.170 E0.03731
G1 X103.077 Y84.838 E0.03628
G1 X103.931 Y85.700 E0.03804
G1 X104.588 Y86.652 E0.03628
G1 X105.025 Y87.573 E0.03197
G1 X105.352 Y88.713 E0.03717
G1 X105.475 Y89.863 E0.03628
G1 X105.394 Y91.051 E0.03731
G1 X105.108 Y92.201 E0.03718
G1 X104.623 Y93.286 E0.03727
G1 X103.951 Y94.275 E0.03748
G1 X103.127 Y95.120 E0.03700
G1 X102.157 Y95.816 E0.03743
G1 X101.110 Y96.318 E0.03641
G1 X99.931 Y96.645 E0.03836
G1 X98.771 Y96.754 E0.03654
G1 X81.270 Y96.754 E0.54874
M73 P6 R5
G1 X80.347 Y96.690 E0.02901
G1 X79.497 Y96.515 E0.02719
G1 X78.651 Y96.222 E0.02809
G1 X77.854 Y95.822 E0.02796
G1 X77.110 Y95.315 E0.02822
G1 X76.449 Y94.722 E0.02784
G1 X75.864 Y94.038 E0.02822
G1 X75.380 Y93.291 E0.02793
G1 X74.990 Y92.465 E0.02864
G1 X74.615 Y91.103 E0.04429
G1 X74.525 Y89.850 E0.03938
G1 X74.669 Y88.607 E0.03923
G1 X75.107 Y87.255 E0.04457
G1 X75.721 Y86.161 E0.03933
G1 X76.612 Y85.125 E0.04283
M204 S1250
G1 X76.893 Y85.376 F9000.000
M204 S800
G1 F1200.000
G1 X78.007 Y84.526 E0.04392
G1 X79.082 Y84.013 E0.03736
G1 X80.143 Y83.725 E0.03447
G1 X81.229 Y83.623 E0.03419
G1 X98.726 Y83.623 E0.54860
G1 X99.846 Y83.723 E0.03525
G1 X100.930 Y84.017 E0.03523
G1 X101.949 Y84.499 E0.03534
G1 X102.861 Y85.149 E0.03510
G1 X103.652 Y85.955 E0.03542
G1 X104.284 Y86.880 E0.03510
G1 X104.747 Y87.909 E0.03538
G1 X105.014 Y88.963 E0.03411
G1 X105.098 Y89.912 E0.02985
G1 X105.015 Y91.033 E0.03527
G1 X104.746 Y92.093 E0.03427
G1 X104.273 Y93.139 E0.03602
M73 P7 R5
G1 X103.651 Y94.046 E0.03446
G1 X102.867 Y94.847 E0.03516
G1 X101.955 Y95.497 E0.03510
G1 X100.922 Y95.985 E0.03582
G1 X99.852 Y96.276 E0.03479
G1 X98.760 Y96.377 E0.03439
G1 X81.270 Y96.377 E0.54836
G1 X80.395 Y96.316 E0.02750
G1 X79.589 Y96.149 E0.02580
G1 X78.759 Y95.858 E0.02760
G1 X78.006 Y95.473 E0.02652
G1 X77.171 Y94.878 E0.03213
G1 X76.536 Y94.264 E0.02771
G1 X76.015 Y93.602 E0.02641
G1 X75.581 Y92.867 E0.02676
G1 X75.261 Y92.113 E0.02569
G1 X74.973 Y90.954 E0.03744
G1 X74.912 Y89.635 E0.04141
G1 X75.087 Y88.471 E0.03689
G1 X75.475 Y87.357 E0.03699
G1 X76.140 Y86.223 E0.04122
G1 X76.853 Y85.420 E0.03368
M204 S1250
; printing object StrainRelief1.stl id:0 copy 0
G1 E-2.24000 F4200.000
;WIPE_START
G1 F7200.000
G1 X78.007 Y84.526 E-0.80891
G1 X78.175 Y84.446 E-0.10309
;WIPE_END
G1 E-0.04800 F4200.000
G1 Z0.400 F9000.000
G1 X82.758 Y86.787
G1 Z0.200
G1 E3.20000 F2400.000
M204 S800
;TYPE:Perimeter
G1 F1200.000
G1 X97.243 Y86.790 E0.45417
G1 X97.285 Y86.964 E0.00559
G1 X97.041 Y87.088 E0.00858
M73 P8 R5
G1 X96.739 Y87.284 E0.01128
G1 X96.350 Y87.617 E0.01606
G1 X96.109 Y87.884 E0.01128
G1 X95.902 Y88.169 E0.01103
G1 X95.726 Y88.474 E0.01103
G1 X95.580 Y88.803 E0.01130
G1 X95.433 Y89.304 E0.01637
G1 X95.378 Y89.649 E0.01096
G1 X95.360 Y90.000 E0.01103
G1 X95.378 Y90.351 E0.01103
G1 X95.435 Y90.707 E0.01130
G1 X95.584 Y91.208 E0.01637
G1 X95.726 Y91.527 E0.01096
G1 X95.902 Y91.831 E0.01103
G1 X96.109 Y92.116 E0.01103
G1 X96.345 Y92.378 E0.01103
G1 X96.606 Y92.613 E0.01103
G1 X96.891 Y92.820 E0.01103
G1 X97.281 Y93.034 E0.01394
G1 X97.243 Y93.213 E0.00574
G1 X82.757 Y93.213 E0.45418
G1 X82.719 Y93.034 E0.00574
G1 X83.109 Y92.820 E0.01395
G1 X83.394 Y92.613 E0.01103
G1 X83.655 Y92.378 E0.01103
G1 X83.891 Y92.116 E0.01103
G1 X84.102 Y91.825 E0.01128
G1 X84.347 Y91.375 E0.01606
G1 X84.476 Y91.039 E0.01128
G1 X84.567 Y90.699 E0.01103
G1 X84.622 Y90.351 E0.01103
G1 X84.640 Y90.000 E0.01103
G1 X84.622 Y89.649 E0.01103
G1 X84.567 Y89.301 E0.01103
G1 X84.476 Y88.961 E0.01103
G1 X84.347 Y88.625 E0.01128
G1 X84.102 Y88.175 E0.01606
G1 X83.891 Y87.884 E0.01128
G1 X83.655 Y87.622 E0.01103
G1 X83.394 Y87.387 E0.01103
G1 X83.109 Y87.180 E0.01103
G1 X82.720 Y86.967 E0.01392
G1 X82.746 Y86.846 E0.00386
M204 S1250
G1 E-2.24000 F4200.000
;WIPE_START
G1 F7200.000
G1 X84.391 Y86.840 E-0.91200
;WIPE_END
G1 E-0.04800 F4200.000
G1 Z0.400 F9000.000
G1 X95.801 Y89.386
G1 Z0.200
G1 E3.20000 F2400.000
M204 S800
;TYPE:External perimeter
G1 F1200.000
G1 X95.934 Y88.933 E0.01481
G1 X96.063 Y88.645 E0.00989
G1 X96.219 Y88.374 E0.00980
G1 X96.403 Y88.122 E0.00980
G1 X96.614 Y87.887 E0.00988
G1 X96.965 Y87.587 E0.01451
G1 X97.230 Y87.415 E0.00988
G1 X97.508 Y87.273 E0.00980
G1 X97.800 Y87.161 E0.00980
G1 X98.102 Y87.081 E0.00980
G1 X98.410 Y87.032 E0.00979
G1 X98.715 Y87.015 E0.00958
G1 X99.186 Y87.051 E0.01481
G1 X99.495 Y87.117 E0.00989
G1 X99.792 Y87.214 E0.00980
G1 X100.077 Y87.341 E0.00980
G1 X100.348 Y87.497 E0.00980
G1 X100.601 Y87.680 E0.00980
G1 X100.833 Y87.889 E0.00980
G1 X101.042 Y88.122 E0.00980
G1 X101.225 Y88.374 E0.00980
G1 X101.382 Y88.645 E0.00979
G1 X101.506 Y88.924 E0.00958
G1 X101.641 Y89.376 E0.01481
G1 X101.691 Y89.688 E0.00989
G1 X101.707 Y90.000 E0.00980
G1 X101.691 Y90.312 E0.00979
G1 X101.643 Y90.614 E0.00958
G1 X101.510 Y91.067 E0.01481
G1 X101.382 Y91.355 E0.00989
G1 X101.225 Y91.626 E0.00980
G1 X101.042 Y91.878 E0.00980
G1 X100.833 Y92.111 E0.00980
G1 X100.601 Y92.320 E0.00980
G1 X100.348 Y92.503 E0.00980
G1 X100.077 Y92.659 E0.00979
G1 X99.798 Y92.784 E0.00958
G1 X99.346 Y92.919 E0.01481
G1 X99.034 Y92.968 E0.00989
G1 X98.722 Y92.985 E0.00980
G1 X98.410 Y92.968 E0.00979
G1 X98.109 Y92.921 E0.00958
G1 X97.655 Y92.788 E0.01481
G1 X97.367 Y92.659 E0.00989
G1 X97.097 Y92.503 E0.00980
G1 X96.844 Y92.320 E0.00980
G1 X96.612 Y92.111 E0.00980
G1 X96.403 Y91.878 E0.00980
G1 X96.219 Y91.626 E0.00980
G1 X96.063 Y91.355 E0.00979
G1 X95.938 Y91.076 E0.00958
G1 X95.803 Y90.624 E0.01481
G1 X95.754 Y90.312 E0.00989
G1 X95.737 Y90.000 E0.00980
G1 X95.754 Y89.688 E0.00979
G1 X95.792 Y89.446 E0.00769
M204 S1250
G1 X95.508 Y89.114 F9000.000
G1 E-2.24000 F4200.000
;WIPE_START
G1 F7200.000
G1 X95.934 Y88.933 E-0.29483
G1 X96.063 Y88.645 E-0.17479
G1 X96.219 Y88.374 E-0.17313
G1 X96.403 Y88.122 E-0.17313
G1 X96.519 Y87.993 E-0.09612
;WIPE_END
G1 E-0.04800 F4200.000
G1 Z0.400 F9000.000
G1 X84.263 Y90.000
M73 P9 R5
G1 Z0.200
G1 E3.20000 F2400.000
M204 S800
G1 F1200.000
G1 X84.246 Y90.312 E0.00980
G1 X84.197 Y90.621 E0.00980
G1 X84.116 Y90.922 E0.00980
G1 X84.004 Y91.217 E0.00988
G1 X83.783 Y91.623 E0.01451
G1 X83.597 Y91.878 E0.00988
G1 X83.388 Y92.111 E0.00980
G1 X83.156 Y92.320 E0.00980
G1 X82.903 Y92.503 E0.00980
G1 X82.633 Y92.659 E0.00979
G1 X82.354 Y92.784 E0.00958
G1 X81.901 Y92.919 E0.01481
G1 X81.590 Y92.968 E0.00989
G1 X81.278 Y92.985 E0.00980
G1 X80.966 Y92.968 E0.00979
G1 X80.664 Y92.921 E0.00958
G1 X80.211 Y92.788 E0.01481
G1 X79.923 Y92.659 E0.00989
G1 X79.652 Y92.503 E0.00980
G1 X79.399 Y92.320 E0.00980
G1 X79.167 Y92.111 E0.00980
G1 X78.958 Y91.878 E0.00980
G1 X78.775 Y91.626 E0.00980
G1 X78.618 Y91.355 E0.00979
G1 X78.494 Y91.076 E0.00958
G1 X78.359 Y90.624 E0.01481
G1 X78.309 Y90.312 E0.00989
G1 X78.293 Y90.000 E0.00980
G1 X78.309 Y89.688 E0.00979
G1 X78.357 Y89.386 E0.00958
G1 X78.490 Y88.933 E0.01481
G1 X78.618 Y88.645 E0.00989
G1 X78.775 Y88.374 E0.00980
G1 X78.958 Y88.122 E0.00980
G1 X79.167 Y87.889 E0.00980
G1 X79.399 Y87.680 E0.00980
G1 X79.654 Y87.495 E0.00988
G1 X80.061 Y87.274 E0.01451
G1 X80.355 Y87.161 E0.00988
G1 X80.657 Y87.081 E0.00980
G1 X80.966 Y87.032 E0.00979
G1 X81.271 Y87.015 E0.00958
G1 X81.742 Y87.051 E0.01481
G1 X82.050 Y87.117 E0.00989
G1 X82.347 Y87.214 E0.00980
G1 X82.633 Y87.341 E0.00980
G1 X82.903 Y87.497 E0.00980
G1 X83.156 Y87.680 E0.00980
G1 X83.388 Y87.889 E0.00980
G1 X83.597 Y88.122 E0.00980
G1 X83.783 Y88.377 E0.00988
G1 X84.004 Y88.783 E0.01451
G1 X84.116 Y89.078 E0.00988
G1 X84.197 Y89.379 E0.00980
G1 X84.246 Y89.688 E0.00980
G1 X84.259 Y89.940 E0.00791
M204 S1250
G1 X84.533 Y90.156 F9000.000
G1 E-2.24000 F4200.000
;WIPE_START
G1 F7200.000
G1 X84.246 Y90.312 E-0.20623
G1 X84.197 Y90.621 E-0.17313
G1 X84.116 Y90.922 E-0.17313
G1 X84.004 Y91.217 E-0.17466
G1 X83.844 Y91.510 E-0.18485
;WIPE_END
G1 E-0.04800 F4200.000
G1 Z0.400 F9000.000
G1 X84.260 Y86.411
G1 Z0.200
G1 E3.20000 F2400.000
M204 S800
G1 F1200.000
G1 X98.880 Y86.414 E0.45841
G1 X99.197 Y86.442 E0.00998
G1 X99.510 Y86.498 E0.00996
G1 X99.816 Y86.581 E0.00996
G1 X100.114 Y86.691 E0.00996
G1 X100.401 Y86.827 E0.00996
G1 X100.675 Y86.988 E0.00996
G1 X100.934 Y87.172 E0.00996
G1 X101.175 Y87.379 E0.00996
G1 X101.397 Y87.606 E0.00996
G1 X101.598 Y87.852 E0.00996
G1 X101.777 Y88.114 E0.00996
G1 X101.931 Y88.392 E0.00996
G1 X102.061 Y88.681 E0.00996
G1 X102.164 Y88.982 E0.00996
G1 X102.241 Y89.290 E0.00996
G1 X102.290 Y89.604 E0.00996
G1 X102.311 Y89.921 E0.00996
G1 X102.304 Y90.238 E0.00996
G1 X102.269 Y90.554 E0.00996
G1 X102.206 Y90.865 E0.00996
G1 X102.116 Y91.170 E0.00996
G1 X101.999 Y91.465 E0.00996
G1 X101.857 Y91.749 E0.00996
G1 X101.690 Y92.019 E0.00996
G1 X101.500 Y92.273 E0.00996
G1 X101.288 Y92.510 E0.00996
G1 X101.058 Y92.725 E0.00988
G1 X100.674 Y93.013 E0.01506
G1 X100.401 Y93.173 E0.00990
G1 X100.114 Y93.309 E0.00996
G1 X99.816 Y93.419 E0.00996
G1 X99.512 Y93.502 E0.00988
G1 X99.037 Y93.576 E0.01507
G1 X98.715 Y93.590 E0.01010
G1 X81.287 Y93.590 E0.54645
M73 P10 R5
G1 X80.803 Y93.558 E0.01522
G1 X80.334 Y93.463 E0.01500
G1 X80.033 Y93.367 E0.00988
G1 X79.743 Y93.245 E0.00988
G1 X79.323 Y93.011 E0.01507
G1 X79.066 Y92.828 E0.00988
G1 X78.827 Y92.623 E0.00988
G1 X78.498 Y92.272 E0.01508
G1 X78.310 Y92.019 E0.00988
G1 X78.144 Y91.751 E0.00988
G1 X77.938 Y91.316 E0.01507
G1 X77.836 Y91.018 E0.00988
G1 X77.759 Y90.710 E0.00996
G1 X77.710 Y90.396 E0.00996
G1 X77.689 Y90.079 E0.00996
G1 X77.696 Y89.762 E0.00996
G1 X77.731 Y89.446 E0.00996
G1 X77.793 Y89.137 E0.00988
G1 X77.940 Y88.679 E0.01507
G1 X78.069 Y88.392 E0.00988
G1 X78.223 Y88.114 E0.00996
G1 X78.401 Y87.854 E0.00988
G1 X78.713 Y87.489 E0.01506
G1 X78.943 Y87.273 E0.00990
G1 X79.194 Y87.077 E0.00996
G1 X79.458 Y86.906 E0.00988
G1 X79.887 Y86.691 E0.01506
G1 X80.184 Y86.581 E0.00990
G1 X80.488 Y86.498 E0.00988
G1 X80.963 Y86.424 E0.01507
G1 X81.285 Y86.410 E0.01010
G1 X84.200 Y86.411 E0.09141
M204 S1250
G1 X84.461 Y86.757 F9000.000
G1 X83.503 Y87.206
M204 S800
;TYPE:Gap fill
;WIDTH:0.118655
G1 F1200.000
G1 X83.248 Y86.976 E0.00216
M204 S1250
G1 X82.555 Y86.835 F9000.000
M204 S800
;WIDTH:0.450901
G1 F1200.000
G1 X82.354 Y86.803 E0.00692
M204 S1250
M204 S800
;WIDTH:0.419069
G1 X82.152 Y86.771 E0.00638
M204 S1250
M204 S800
;WIDTH:0.387236
G1 X81.966 Y86.751 E0.00538
M204 S1250
M204 S800
;WIDTH:0.347051
G1 X81.797 Y86.733 E0.00430
M204 S1250
M204 S800
;WIDTH:0.311577
G1 X81.291 Y86.713 E0.01130
M204 S1250
M204 S800
;WIDTH:0.271919
G1 X80.940 Y86.732 E0.00670
G1 X80.551 Y86.795 E0.00750
G1 X80.268 Y86.872 E0.00559
G1 X79.942 Y86.999 E0.00665
G1 X79.500 Y87.237 E0.00956
G1 X79.215 Y87.443 E0.00670
G1 X78.950 Y87.680 E0.00677
G1 X78.730 Y87.929 E0.00633
M204 S1250
M204 S800
;WIDTH:0.263983
G1 X78.482 Y88.274 E0.00780
G1 X78.347 Y88.513 E0.00505
G1 X78.223 Y88.788 E0.00553
G1 X78.065 Y89.313 E0.01009
G1 X78.000 Y89.782 E0.00870
G1 X78.009 Y90.338 E0.01021
G1 X78.066 Y90.698 E0.00670
G1 X78.219 Y91.202 E0.00968
G1 X78.354 Y91.496 E0.00596
G1 X78.519 Y91.785 E0.00610
G1 X78.731 Y92.077 E0.00664
G1 X78.960 Y92.326 E0.00622
G1 X79.214 Y92.558 E0.00632
G1 X79.493 Y92.760 E0.00632
G1 X79.792 Y92.929 E0.00632
G1 X80.100 Y93.068 E0.00621
G1 X80.592 Y93.211 E0.00942
G1 X80.929 Y93.266 E0.00628
G1 X81.297 Y93.287 E0.00678
G1 X81.987 Y93.249 E0.01270
M204 S1250
M204 S800
;WIDTH:0.38293
G1 X82.555 Y93.166 E0.01622
M204 S1250
G1 X83.248 Y93.024 F9000.000
M204 S800
;WIDTH:0.118712
G1 F1200.000
G1 X83.503 Y92.794 E0.00217
M204 S1250
G1 E-2.24000 F4200.000
;WIPE_START
G1 F7200.000
G1 X83.248 Y93.024 E-0.19049
;WIPE_END
G1 E-0.76951 F4200.000
G1 Z0.400 F9000.000
G1 X96.497 Y92.794
G1 Z0.200
G1 E3.20000 F2400.000
M204 S800
;WIDTH:0.118712
G1 F1200.000
G1 X96.624 Y92.909 E0.00108
M204 S1250
M204 S800
;WIDTH:0.144104
G1 X96.752 Y93.024 E0.00145
M204 S1250
G1 X97.445 Y93.167 F9000.000
M204 S800
;WIDTH:0.453404
G1 F1200.000
G1 X97.638 Y93.195 E0.00666
M204 S1250
M204 S800
;WIDTH:0.41737
G1 X97.831 Y93.222 E0.00607
M204 S1250
M204 S800
;WIDTH:0.381336
G1 X98.025 Y93.250 E0.00549
M204 S1250
M204 S800
;WIDTH:0.345301
G1 X98.208 Y93.265 E0.00462
M204 S1250
M204 S800
;WIDTH:0.315363
G1 X98.371 Y93.278 E0.00372
M204 S1250
M204 S800
;WIDTH:0.289739
G1 X98.709 Y93.287 E0.00692
M204 S1250
M204 S800
;WIDTH:0.271414
G1 X99.060 Y93.268 E0.00668
G1 X99.420 Y93.211 E0.00693
G1 X99.996 Y93.028 E0.01149
G1 X100.259 Y92.905 E0.00552
G1 X100.507 Y92.760 E0.00546
G1 X100.794 Y92.549 E0.00676
G1 X101.072 Y92.298 E0.00711
G1 X101.273 Y92.073 E0.00573
G1 X101.475 Y91.795 E0.00654
G1 X101.647 Y91.497 E0.00653
G1 X101.795 Y91.164 E0.00693
G1 X101.935 Y90.687 E0.00945
G1 X101.989 Y90.349 E0.00650
G1 X102.008 Y89.994 E0.00675
G1 X101.990 Y89.651 E0.00654
G1 X101.937 Y89.317 E0.00642
G1 X101.870 Y89.069 E0.00488
G1 X101.787 Y88.812 E0.00513
G1 X101.648 Y88.502 E0.00644
M73 P11 R5
G1 X101.481 Y88.215 E0.00631
G1 X101.272 Y87.928 E0.00676
G1 X101.041 Y87.673 E0.00653
G1 X100.747 Y87.412 E0.00748
G1 X100.510 Y87.242 E0.00552
G1 X100.219 Y87.075 E0.00638
G1 X99.905 Y86.935 E0.00654
G1 X99.567 Y86.825 E0.00676
G1 X99.222 Y86.752 E0.00670
G1 X98.867 Y86.720 E0.00677
G1 X98.384 Y86.723 E0.00918
G1 X98.024 Y86.752 E0.00686
M204 S1250
M204 S800
;WIDTH:0.3855
G1 X97.449 Y86.840 E0.01656
M204 S1250
G1 X96.752 Y86.979 F9000.000
M204 S800
;WIDTH:0.143733
G1 F1200.000
G1 X96.607 Y87.103 E0.00160
M204 S1250
M204 S800
;WIDTH:0.114216
G1 X96.476 Y87.230 E0.00108
M204 S1250
G1 X96.365 Y87.455 F9000.000
M204 S800
;TYPE:Solid infill
;WIDTH:0.425303
G1 F1200.000
G1 X95.984 Y87.073 E0.01716
G1 X95.443 Y87.073 E0.01720
G1 X95.978 Y87.608 E0.02404
G1 X95.740 Y87.911 E0.01225
G1 X94.902 Y87.073 E0.03769
G1 X94.361 Y87.073 E0.01720
G1 X95.532 Y88.244 E0.05267
G1 X95.356 Y88.609 E0.01288
G1 X93.820 Y87.073 E0.06908
G1 X93.279 Y87.072 E0.01720
G1 X95.222 Y89.016 E0.08738
G1 X95.156 Y89.241 E0.00748
G1 X95.122 Y89.456 E0.00691
G1 X92.738 Y87.072 E0.10720
G1 X92.197 Y87.072 E0.01720
G1 X95.079 Y89.954 E0.12957
G1 X95.097 Y90.381 E0.01360
G1 X95.121 Y90.537 E0.00501
G1 X91.657 Y87.072 E0.15579
G1 X91.116 Y87.072 E0.01720
G1 X95.305 Y91.261 E0.18837
G1 X95.474 Y91.655 E0.01364
G1 X95.665 Y91.985 E0.01212
G1 X95.889 Y92.294 E0.01213
G1 X96.237 Y92.661 E0.01606
G1 X96.202 Y92.699 E0.00164
G1 X90.575 Y87.072 E0.25303
G1 X90.034 Y87.072 E0.01720
G1 X95.892 Y92.930 E0.26342
G1 X95.352 Y92.930 E0.01719
