; generated by PrusaSlicer 2.3.0+win64 on 2021-08-28 at 13:48:33 UTC


;
;

;
;
; 

; external perimeters extrusion width = 0.45mm
; perimeters extrusion width = 0.45mm
; infill extrusion width = 0.45mm
; solid infill extrusion width = 0.45mm
; top infill extrusion width = 0.40mm
; first layer extrusion width = 0.42mm

M73 P0 R57
M201 X1250 Y1250 Z400 E5000 ; sets maximum accelerations, mm/sec^2
M203 X180 Y180 Z12 E80 ; sets maximum feedrates, mm/sec
M204 P1250 R1250 T1250 ; sets acceleration (P, T) and retract acceleration (R), mm/sec^2
M205 X8.00 Y8.00 Z2.00 E10.00 ; sets the jerk limits, mm/sec
M205 S0 T0 ; sets the minimum extruding and travel feed rate, mm/sec
M107
;TYPE:Custom
G90 ; use absolute coordinates
M83 ; extruder relative mode
M104 S170 ; set extruder temp for bed leveling
M140 S60 ; set bed temp
M109 R170 ; wait for bed leveling temp
M190 S60 ; wait for bed temp
G28 ; home all without mesh bed level
G29 ; mesh bed leveling 
M104 S215 ; set extruder temp
G92 E0.0
G1 Y-2.0 X179 F2400
M73 P0 R56
G1 Z3 F720
M109 S215 ; wait for extruder temp

; intro line
G1 X170 F1000
G1 Z0.2 F720
G1 X110.0 E8.0 F900
G1 X40.0 E10.0 F700
G92 E0.0

M221 S95 ; set flow
G21 ; set units to millimeters
G90 ; use absolute coordinates
M83 ; use relative distances for extrusion
M900 K0.2 ; Filament gcode LA 1.5
; ; Filament gcode LA 1.0
;LAYER_CHANGE
;Z:0.2
;HEIGHT:0.2
;BEFORE_LAYER_CHANGE
G92 E0.0
;0.2


G1 E-3.20000 F4200.000
G1 Z0.200 F9000.000
;AFTER_LAYER_CHANGE
;0.2
G1 Z0.400
G1 X56.243 Y50.316
G1 Z0.200
G1 E3.20000 F2400.000
M204 S800
;TYPE:Skirt
;WIDTH:0.42
G1 F1200.000
G1 X56.961 Y50.194 E0.02284
G1 X125.814 Y49.623 E2.15890
G1 X126.446 Y49.709 E0.02000
G1 X127.036 Y49.963 E0.02012
G1 X127.536 Y50.365 E0.02012
G1 X127.911 Y50.886 E0.02012
G1 X154.671 Y103.109 E1.83988
G1 X156.631 Y107.626 E0.15437
G1 X157.377 Y112.992 E0.16989
G1 X156.658 Y118.286 E0.16750
G1 X154.560 Y123.086 E0.16426
G1 X151.506 Y126.695 E0.14823
G1 X151.114 Y127.055 E0.01669
G1 X146.968 Y129.493 E0.15082
G1 X142.241 Y130.376 E0.15078
G1 X37.527 Y130.371 E3.28323
G1 X33.126 Y129.500 E0.14066
G1 X32.416 Y129.212 E0.02402
G1 X28.530 Y126.757 E0.14411
G1 X25.399 Y123.003 E0.15327
G1 X25.132 Y122.534 E0.01692
G1 X23.267 Y118.018 E0.15320
G1 X22.640 Y113.019 E0.15795
G1 X22.648 Y112.389 E0.01977
G1 X23.351 Y107.729 E0.14775
G1 X23.503 Y107.200 E0.01728
G1 X24.217 Y105.648 E0.05356
G1 X54.928 Y51.397 E1.95466
M73 P1 R56
G1 X55.221 Y50.989 E0.01574
G1 X55.593 Y50.652 E0.01574
G1 X56.190 Y50.343 E0.02108
M204 S1250
; printing object Surprising Snicket (1).stl id:0 copy 0
G1 E-2.24000 F4200.000
;WIPE_START
G1 F7200.000
G1 X56.961 Y50.194 E-0.43548
G1 X57.821 Y50.187 E-0.47652
;WIPE_END
G1 E-0.04800 F4200.000
G1 Z0.400 F9000.000
G1 X87.939 Y113.043
G1 Z0.200
G1 E3.20000 F2400.000
M204 S800
;TYPE:External perimeter
G1 F1200.000
G1 X88.037 Y113.138 E0.00428
G1 X87.941 Y113.252 E0.00468
G1 X87.789 Y113.341 E0.00553
G1 X87.579 Y113.424 E0.00708
G1 X86.791 Y113.666 E0.02585
G1 X86.813 Y113.397 E0.00847
G1 X86.848 Y113.278 E0.00389
G1 X86.901 Y113.178 E0.00353
G1 X87.059 Y113.032 E0.00675
G1 X87.163 Y112.982 E0.00361
G1 X87.440 Y112.942 E0.00880
G1 X87.754 Y112.969 E0.00987
G1 X87.886 Y113.015 E0.00437
M204 S1250
G1 X87.931 Y113.179 F9000.000
G1 E-2.24000 F4200.000
;WIPE_START
G1 F7200.000
G1 X88.037 Y113.138 E-0.10798
G1 X87.941 Y113.252 E-0.08267
G1 X87.789 Y113.341 E-0.09768
G1 X87.579 Y113.424 E-0.12512
G1 X86.791 Y113.666 E-0.45685
G1 X86.797 Y113.591 E-0.04170
;WIPE_END
G1 E-0.04800 F4200.000
G1 Z0.400 F9000.000
G1 X88.015 Y114.599
G1 Z0.200
G1 E3.20000 F2400.000
M204 S800
G1 F1200.000
G1 X87.959 Y114.949 E0.01110
G1 X87.914 Y115.029 E0.00286
G1 X87.807 Y115.118 E0.00436
G1 X87.681 Y115.159 E0.00416
G1 X87.442 Y115.172 E0.00752
G1 X87.229 Y115.132 E0.00678
G1 X87.018 Y115.014 E0.00758
G1 X87.164 Y114.897 E0.00588
G1 X87.427 Y114.776 E0.00908
G1 X87.958 Y114.617 E0.01737
M204 S1250
G1 X87.840 Y114.907 F9000.000
G1 E-2.24000 F4200.000
;WIPE_START
G1 F7200.000
G1 X87.959 Y114.949 E-0.18417
G1 X87.914 Y115.029 E-0.05058
G1 X87.807 Y115.118 E-0.07715
G1 X87.681 Y115.159 E-0.07344
G1 X87.442 Y115.172 E-0.13287
G1 X87.229 Y115.132 E-0.11986
G1 X87.018 Y115.014 E-0.13403
G1 X87.164 Y114.897 E-0.10394
G1 X87.223 Y114.870 E-0.03596
;WIPE_END
G1 E-0.04800 F4200.000
G1 Z0.400 F9000.000
G1 X81.957 Y115.101
G1 Z0.200
G1 E3.20000 F2400.000
M204 S800
G1 F1200.000
G1 X81.323 Y115.148 E0.01993
G1 X80.767 Y115.104 E0.01748
G1 X81.411 Y113.787 E0.04596
G1 X81.912 Y114.917 E0.03876
G1 X81.943 Y115.042 E0.00404
M204 S1250
G1 X81.580 Y114.966 F9000.000
G1 E-2.24000 F4200.000
;WIPE_START
G1 F7200.000
G1 X81.323 Y115.148 E-0.34818
G1 X80.767 Y115.104 E-0.30898
G1 X80.969 Y114.691 E-0.25483
;WIPE_END
G1 E-0.04800 F4200.000
G1 Z0.400 F9000.000
G1 X64.193 Y114.978
G1 Z0.200
G1 E3.20000 F2400.000
M204 S800
G1 F1200.000
G1 X64.141 Y115.107 E0.00434
G1 X64.008 Y115.153 E0.00443
G1 X63.883 Y115.153 E0.00390
G1 X63.769 Y115.114 E0.00379
G1 X63.707 Y115.057 E0.00262
G1 X63.649 Y114.925 E0.00453
G1 X63.613 Y114.539 E0.01217
G1 X64.218 Y114.543 E0.01897
G1 X64.201 Y114.919 E0.01178
M204 S1250
G1 X64.077 Y115.054 F9000.000
G1 E-2.24000 F4200.000
;WIPE_START
G1 F7200.000
G1 X64.141 Y115.107 E-0.10929
G1 X64.008 Y115.153 E-0.07836
G1 X63.883 Y115.153 E-0.06889
G1 X63.769 Y115.114 E-0.06702
G1 X63.707 Y115.057 E-0.04637
G1 X63.649 Y114.925 E-0.08008
G1 X63.613 Y114.539 E-0.21512
G1 X64.059 Y114.542 E-0.24687
;WIPE_END
G1 E-0.04800 F4200.000
G1 Z0.400 F9000.000
G1 X57.076 Y114.599
G1 Z0.200
G1 E3.20000 F2400.000
M204 S800
G1 F1200.000
G1 X57.018 Y114.949 E0.01113
G1 X56.978 Y115.021 E0.00258
G1 X56.852 Y115.123 E0.00509
G1 X56.741 Y115.159 E0.00363
G1 X56.501 Y115.172 E0.00755
G1 X56.289 Y115.132 E0.00675
G1 X56.050 Y114.999 E0.00859
G1 X56.333 Y114.837 E0.01021
G1 X56.482 Y114.777 E0.00503
G1 X57.018 Y114.616 E0.01757
M204 S1250
G1 X56.896 Y114.905 F9000.000
G1 X57.001 Y113.252
M204 S800
G1 F1200.000
G1 X56.848 Y113.341 E0.00556
G1 X56.639 Y113.424 E0.00706
G1 X55.849 Y113.666 E0.02590
G1 X55.873 Y113.397 E0.00849
G1 X55.908 Y113.278 E0.00388
G1 X55.961 Y113.179 E0.00353
G1 X56.031 Y113.097 E0.00337
G1 X56.222 Y112.982 E0.00700
G1 X56.500 Y112.942 E0.00882
G1 X56.813 Y112.969 E0.00984
G1 X56.999 Y113.043 E0.00628
G1 X57.097 Y113.138 E0.00427
G1 X57.040 Y113.206 E0.00279
M204 S1250
G1 X56.827 Y113.223 F9000.000
G1 E-2.24000 F4200.000
;WIPE_START
G1 F7200.000
G1 X56.848 Y113.341 E-0.13000
G1 X56.639 Y113.424 E-0.12473
G1 X55.849 Y113.666 E-0.45777
G1 X55.873 Y113.397 E-0.15004
G1 X55.898 Y113.311 E-0.04946
;WIPE_END
G1 E-0.04800 F4200.000
G1 Z0.400 F9000.000
G1 X91.464 Y116.096
G1 Z0.200
G1 E3.20000 F2400.000
M204 S800
G1 F1200.000
G1 X91.551 Y115.614 E0.01535
G1 X91.666 Y115.422 E0.00700
G1 X91.780 Y115.304 E0.00514
G1 X91.947 Y115.197 E0.00623
G1 X92.112 Y115.142 E0.00544
G1 X92.444 Y115.127 E0.01042
G1 X92.758 Y115.220 E0.01029
G1 X93.063 Y115.396 E0.01104
G1 X93.448 Y115.700 E0.01537
G1 X93.448 Y112.062 E0.11404
G1 X93.441 Y111.945 E0.00368
G1 X93.317 Y111.507 E0.01430
G1 X95.553 Y111.488 E0.07011
G1 X95.436 Y111.896 E0.01329
G1 X95.422 Y112.064 E0.00531
G1 X95.422 Y117.213 E0.16143
G1 X93.985 Y117.213 E0.04507
G1 X93.038 Y116.665 E0.03428
G1 X92.594 Y116.444 E0.01557
G1 X92.033 Y116.233 E0.01879
G1 X91.522 Y116.110 E0.01647
M204 S1250
G1 X91.074 Y116.009 F9000.000
G1 E-2.24000 F4200.000
;WIPE_START
G1 F7200.000
G1 X91.551 Y115.614 E-0.27529
G1 X91.666 Y115.422 E-0.12376
G1 X91.780 Y115.304 E-0.09077
G1 X91.947 Y115.197 E-0.11011
G1 X92.112 Y115.142 E-0.09623
G1 X92.444 Y115.127 E-0.18417
G1 X92.499 Y115.143 E-0.03167
;WIPE_END
G1 E-0.04800 F4200.000
G1 Z0.400 F9000.000
G1 X92.074 Y113.731
G1 Z0.200
G1 E3.20000 F2400.000
M204 S800
G1 F1200.000
G1 X92.074 Y112.871 E0.02696
G1 X92.774 Y112.871 E0.02195
G1 X92.774 Y113.731 E0.02696
G1 X92.134 Y113.731 E0.02007
M204 S1250
G1 X91.691 Y113.848 F9000.000
G1 E-2.24000 F4200.000
;WIPE_START
G1 F7200.000
G1 X92.074 Y112.871 E-0.47774
G1 X92.774 Y112.871 E-0.38792
G1 X92.774 Y112.955 E-0.04634
;WIPE_END
G1 E-0.04800 F4200.000
G1 Z0.400 F9000.000
G1 X92.774 Y117.202
G1 Z0.200
G1 E3.20000 F2400.000
M204 S800
G1 F1200.000
G1 X92.774 Y118.502 E0.04075
G1 X92.034 Y118.233 E0.02467
G1 X91.464 Y118.096 E0.01839
G1 X91.552 Y117.607 E0.01556
G1 X91.737 Y117.338 E0.01025
G1 X91.994 Y117.175 E0.00955
G1 X92.255 Y117.122 E0.00832
G1 X92.445 Y117.129 E0.00597
G1 X92.715 Y117.189 E0.00870
M204 S1250
G1 X93.173 Y117.223 F9000.000
G1 E-2.24000 F4200.000
;WIPE_START
G1 F7200.000
G1 X92.774 Y118.502 E-0.72817
G1 X92.462 Y118.389 E-0.18384
;WIPE_END
G1 E-0.04800 F4200.000
G1 Z0.400 F9000.000
G1 X99.253 Y115.474
G1 Z0.200
G1 E3.20000 F2400.000
M204 S800
;TYPE:Perimeter
G1 F1200.000
G1 X99.226 Y115.220 E0.00799
G1 X99.461 Y115.242 E0.00740
G1 X99.925 Y115.244 E0.01457
G1 X100.545 Y115.192 E0.01949
G1 X100.955 Y115.107 E0.01315
G1 X100.848 Y115.467 E0.01178
G1 X99.313 Y115.473 E0.04813
M204 S1250
G1 E-2.24000 F4200.000
;WIPE_START
G1 F7200.000
G1 X99.226 Y115.220 E-0.14830
G1 X99.461 Y115.242 E-0.13071
G1 X99.925 Y115.244 E-0.25745
G1 X100.545 Y115.192 E-0.34450
G1 X100.600 Y115.181 E-0.03105
;WIPE_END
G1 E-0.04800 F4200.000
G1 Z0.400 F9000.000
G1 X109.006 Y114.253
G1 Z0.200
G1 E3.20000 F2400.000
M204 S800
G1 F1200.000
G1 X108.971 Y114.199 E0.00203
G1 X108.900 Y113.990 E0.00692
G1 X108.864 Y113.598 E0.01233
G1 X108.866 Y112.050 E0.04856
G1 X109.432 Y111.370 E0.02774
G1 X109.431 Y113.856 E0.07795
G1 X109.416 Y114.043 E0.00589
G1 X109.393 Y114.166 E0.00391
G1 X109.341 Y114.292 E0.00427
G1 X109.163 Y114.314 E0.00562
G1 X109.058 Y114.283 E0.00342
M204 S1250
G1 E-2.24000 F4200.000
;WIPE_START
G1 F7200.000
G1 X108.971 Y114.199 E-0.06719
G1 X108.900 Y113.990 E-0.12235
G1 X108.864 Y113.598 E-0.21801
G1 X108.865 Y112.688 E-0.50445
;WIPE_END
G1 E-0.04800 F4200.000
G1 Z0.400 F9000.000
G1 X112.283 Y114.194
G1 Z0.200
G1 E3.20000 F2400.000
M204 S800
G1 F1200.000
G1 X112.226 Y114.059 E0.00462
G1 X112.192 Y113.771 E0.00908
G1 X112.195 Y112.024 E0.05479
G1 X112.759 Y111.481 E0.02454
G1 X112.759 Y113.773 E0.07188
G1 X112.742 Y114.033 E0.00816
G1 X112.704 Y114.199 E0.00533
G1 X112.658 Y114.295 E0.00335
G1 X112.519 Y114.312 E0.00439
G1 X112.401 Y114.295 E0.00376
G1 X112.319 Y114.243 E0.00303
M204 S1250
G1 E-2.24000 F4200.000
;WIPE_START
G1 F7200.000
G1 X112.226 Y114.059 E-0.11423
G1 X112.192 Y113.771 E-0.16047
G1 X112.194 Y112.621 E-0.63730
;WIPE_END
G1 E-0.04800 F4200.000
G1 Z0.400 F9000.000
G1 X79.320 Y111.246
G1 Z0.200
G1 E3.20000 F2400.000
M204 S800
G1 F1200.000
G1 X81.573 Y111.227 E0.07065
G1 X81.984 Y111.989 E0.02714
G1 X83.285 Y114.685 E0.09386
G1 X83.323 Y114.741 E0.00214
G1 X83.700 Y114.788 E0.01191
G1 X83.765 Y114.487 E0.00964
G1 X85.370 Y114.487 E0.05033
G1 X85.563 Y114.039 E0.01530
G1 X85.694 Y113.896 E0.00607
G1 X85.400 Y113.588 E0.01334
G1 X85.275 Y113.184 E0.01328
G1 X85.318 Y112.759 E0.01339
G1 X85.519 Y112.386 E0.01327
G1 X85.786 Y112.152 E0.01115
G1 X86.159 Y111.970 E0.01301
G1 X86.497 Y111.879 E0.01097
G1 X86.868 Y111.822 E0.01179
G1 X87.294 Y111.795 E0.01338
G1 X87.879 Y111.812 E0.01835
G1 X88.295 Y111.876 E0.01318
G1 X88.672 Y111.991 E0.01235
G1 X89.022 Y112.162 E0.01222
G1 X89.391 Y112.471 E0.01510
G1 X89.605 Y112.806 E0.01248
G1 X89.719 Y113.183 E0.01234
G1 X89.723 Y113.642 E0.01440
G1 X89.618 Y113.975 E0.01094
G1 X89.440 Y114.248 E0.01019
G1 X89.235 Y114.440 E0.00883
G1 X89.371 Y114.550 E0.00548
G1 X89.544 Y114.839 E0.01054
G1 X89.604 Y115.196 E0.01136
G1 X89.508 Y115.560 E0.01181
G1 X89.324 Y115.810 E0.00975
G1 X89.106 Y115.986 E0.00877
G1 X88.848 Y116.121 E0.00912
G1 X88.466 Y116.235 E0.01251
G1 X87.901 Y116.308 E0.01786
G1 X87.348 Y116.307 E0.01733
G1 X86.824 Y116.244 E0.01655
G1 X86.354 Y116.111 E0.01532
G1 X86.032 Y115.950 E0.01130
G1 X85.824 Y115.798 E0.00805
G1 X85.638 Y115.607 E0.00838
G1 X85.488 Y115.687 E0.00534
G1 X85.832 Y117.313 E0.05212
G1 X83.157 Y117.313 E0.08388
G1 X83.387 Y116.245 E0.03425
G1 X78.239 Y116.245 E0.16141
G1 X78.239 Y115.942 E0.00950
G1 X77.726 Y116.163 E0.01750
G1 X77.294 Y116.269 E0.01397
G1 X76.822 Y116.317 E0.01485
G1 X76.156 Y116.288 E0.02093
G1 X75.672 Y116.187 E0.01550
G1 X75.233 Y116.010 E0.01482
G1 X74.847 Y115.750 E0.01462
G1 X74.532 Y115.402 E0.01469
G1 X74.331 Y115.031 E0.01325
G1 X74.161 Y115.074 E0.00552
G1 X74.157 Y117.590 E0.07890
G1 X71.145 Y117.590 E0.09445
G1 X71.145 Y116.127 E0.04586
G1 X71.788 Y116.097 E0.02017
G1 X71.793 Y113.353 E0.08603
G1 X71.433 Y113.346 E0.01130
G1 X71.424 Y114.842 E0.04690
G1 X71.309 Y115.314 E0.01524
G1 X71.130 Y115.641 E0.01167
G1 X70.888 Y115.909 E0.01133
G1 X70.588 Y116.104 E0.01122
G1 X70.257 Y116.235 E0.01116
G1 X69.794 Y116.315 E0.01472
G1 X69.216 Y116.311 E0.01815
G1 X68.917 Y116.271 E0.00945
G1 X68.689 Y116.203 E0.00744
G1 X68.680 Y116.245 E0.00134
G1 X65.991 Y116.245 E0.08430
G1 X65.991 Y115.596 E0.02037
G1 X65.617 Y115.946 E0.01606
G1 X65.277 Y116.126 E0.01206
G1 X64.807 Y116.258 E0.01532
G1 X64.266 Y116.317 E0.01705
G1 X63.617 Y116.314 E0.02037
G1 X63.057 Y116.253 E0.01765
G1 X62.637 Y116.149 E0.01356
G1 X62.249 Y115.968 E0.01344
G1 X62.045 Y115.775 E0.00879
G1 X62.045 Y116.245 E0.01473
G1 X61.042 Y116.245 E0.03145
G1 X61.042 Y116.989 E0.02333
G1 X59.410 Y116.989 E0.05116
G1 X59.139 Y116.345 E0.02191
G1 X59.057 Y116.250 E0.00395
G1 X58.890 Y116.171 E0.00578
G1 X58.766 Y116.146 E0.00396
G1 X58.091 Y116.112 E0.02121
G1 X58.091 Y116.025 E0.00273
G1 X57.907 Y116.122 E0.00652
G1 X57.525 Y116.235 E0.01248
G1 X56.960 Y116.308 E0.01786
G1 X56.407 Y116.307 E0.01733
G1 X55.884 Y116.244 E0.01652
G1 X55.413 Y116.111 E0.01537
G1 X55.070 Y115.939 E0.01201
G1 X54.712 Y115.631 E0.01484
G1 X54.508 Y115.286 E0.01257
G1 X54.420 Y114.898 E0.01247
G1 X54.450 Y114.441 E0.01434
G1 X54.622 Y114.039 E0.01372
G1 X54.754 Y113.895 E0.00612
G1 X54.459 Y113.590 E0.01331
G1 X54.334 Y113.182 E0.01337
G1 X54.378 Y112.759 E0.01335
G1 X54.577 Y112.387 E0.01321
G1 X54.838 Y112.158 E0.01088
G1 X55.132 Y112.002 E0.01044
G1 X55.550 Y111.880 E0.01368
G1 X55.927 Y111.822 E0.01196
G1 X56.358 Y111.795 E0.01353
G1 X56.938 Y111.812 E0.01820
G1 X57.354 Y111.876 E0.01318
G1 X57.731 Y111.991 E0.01235
G1 X58.060 Y112.152 E0.01148
G1 X58.272 Y112.303 E0.00817
G1 X58.465 Y112.492 E0.00846
G1 X58.714 Y112.886 E0.01462
G1 X58.906 Y112.441 E0.01518
G1 X59.215 Y112.114 E0.01410
G1 X59.594 Y111.914 E0.01344
G1 X59.998 Y111.822 E0.01299
G1 X60.413 Y111.793 E0.01306
G1 X61.079 Y111.835 E0.02092
G1 X61.365 Y111.877 E0.00906
G1 X62.133 Y112.083 E0.02493
G1 X62.418 Y111.938 E0.01004
G1 X62.739 Y111.846 E0.01047
G1 X63.157 Y111.799 E0.01319
G1 X63.676 Y111.819 E0.01627
G1 X64.220 Y111.959 E0.01764
G1 X64.262 Y111.854 E0.00355
G1 X74.812 Y111.854 E0.33078
G1 X74.812 Y112.397 E0.01702
G1 X75.126 Y112.174 E0.01209
G1 X75.554 Y111.974 E0.01480
G1 X76.039 Y111.849 E0.01570
G1 X76.566 Y111.797 E0.01660
G1 X77.036 Y111.800 E0.01474
G1 X77.428 Y111.839 E0.01234
G1 X77.860 Y111.927 E0.01384
G1 X78.174 Y112.039 E0.01046
G1 X78.511 Y112.248 E0.01241
G1 X78.737 Y112.502 E0.01068
G1 X78.894 Y112.903 E0.01350
G1 X78.833 Y113.394 E0.01551
G1 X79.092 Y113.394 E0.00812
G1 X79.086 Y113.941 E0.01714
G1 X79.258 Y113.985 E0.00556
G1 X80.107 Y112.402 E0.05632
G1 X79.354 Y111.295 E0.04197
M204 S1250
G1 E-2.24000 F4200.000
;WIPE_START
G1 F7200.000
G1 X80.999 Y111.245 E-0.91200
;WIPE_END
G1 E-0.04800 F4200.000
G1 Z0.400 F9000.000
G1 X85.734 Y113.392
G1 Z0.200
G1 E3.20000 F2400.000
M204 S800
;TYPE:External perimeter
G1 F1200.000
G1 X85.658 Y113.145 E0.00810
G1 X85.685 Y112.871 E0.00864
G1 X85.818 Y112.625 E0.00878
G1 X85.997 Y112.469 E0.00744
G1 X86.292 Y112.324 E0.01030
G1 X86.575 Y112.248 E0.00918
G1 X86.909 Y112.197 E0.01059
G1 X87.301 Y112.173 E0.01231
G1 X87.845 Y112.188 E0.01708
G1 X88.211 Y112.245 E0.01160
G1 X88.533 Y112.343 E0.01056
G1 X88.815 Y112.480 E0.00984
G1 X89.105 Y112.723 E0.01183
G1 X89.260 Y112.965 E0.00903
G1 X89.343 Y113.240 E0.00900
G1 X89.345 Y113.586 E0.01083
G1 X89.274 Y113.813 E0.00746
G1 X89.149 Y114.004 E0.00715
G1 X88.935 Y114.205 E0.00920
G1 X88.729 Y114.331 E0.00759
G1 X88.556 Y114.403 E0.00586
