; generated by PrusaSlicer 2.3.0+win64 on 2021-04-22 at 10:23:05 UTC


;
;

;
;
; 

; external perimeters extrusion width = 0.45mm
; perimeters extrusion width = 0.45mm
; infill extrusion width = 0.45mm
; solid infill extrusion width = 0.45mm
; top infill extrusion width = 0.40mm
; first layer extrusion width = 0.42mm

M73 P0 R8
M201 X1250 Y1250 Z400 E5000 ; sets maximum accelerations, mm/sec^2
M203 X180 Y180 Z12 E80 ; sets maximum feedrates, mm/sec
M204 P1250 R1250 T1250 ; sets acceleration (P, T) and retract acceleration (R), mm/sec^2
M205 X8.00 Y8.00 Z2.00 E10.00 ; sets the jerk limits, mm/sec
M205 S0 T0 ; sets the minimum extruding and travel feed rate, mm/sec
M107
;TYPE:Custom
G90 ; use absolute coordinates
M83 ; extruder relative mode
M104 S170 ; set extruder temp for bed leveling
M140 S60 ; set bed temp
M109 R170 ; wait for bed leveling temp
M190 S60 ; wait for bed temp
G28 ; home all without mesh bed level
G29 ; mesh bed leveling 
M104 S215 ; set extruder temp
G92 E0.0
G1 Y-2.0 X179 F2400
G1 Z3 F720
M109 S215 ; wait for extruder temp

; intro line
G1 X170 F1000
M73 P1 R8
G1 Z0.2 F720
G1 X110.0 E8.0 F900
G1 X40.0 E10.0 F700
G92 E0.0

M221 S95 ; set flow
G21 ; set units to millimeters
G90 ; use absolute coordinates
M83 ; use relative distances for extrusion
M900 K0.2 ; Filament gcode LA 1.5
; ; Filament gcode LA 1.0
;LAYER_CHANGE
;Z:0.2
;HEIGHT:0.2
;BEFORE_LAYER_CHANGE
G92 E0.0
;0.2


M73 P3 R8
G1 E-3.20000 F4200.000
G1 Z0.200 F9000.000
;AFTER_LAYER_CHANGE
;0.2
G1 Z0.400
G1 X78.928 Y80.423
G1 Z0.200
G1 E3.20000 F2400.000
M204 S800
;TYPE:Skirt
;WIDTH:0.42
G1 F1200.000
G1 X79.821 Y80.247 E0.02854
G1 X100.104 Y80.246 E0.63595
G1 X101.098 Y80.433 E0.03170
G1 X101.957 Y80.966 E0.03170
G1 X102.566 Y81.773 E0.03170
G1 X102.842 Y82.745 E0.03170
G1 X102.849 Y97.164 E0.45208
G1 X102.759 Y97.717 E0.01758
G1 X102.557 Y98.245 E0.01771
G1 X102.251 Y98.720 E0.01771
G1 X101.858 Y99.120 E0.01758
G1 X101.072 Y99.577 E0.02854
G1 X100.179 Y99.753 E0.02854
G1 X79.859 Y99.754 E0.63711
M73 P4 R8
G1 X79.270 Y99.681 E0.01860
G1 X78.710 Y99.484 E0.01860
G1 X78.206 Y99.172 E0.01860
G1 X77.780 Y98.758 E0.01860
G1 X77.329 Y97.987 E0.02803
G1 X77.148 Y97.111 E0.02803
G1 X77.146 Y82.943 E0.44425
G1 X77.222 Y82.358 E0.01848
G1 X77.420 Y81.803 E0.01848
G1 X77.731 Y81.303 E0.01848
G1 X78.142 Y80.880 E0.01848
G1 X78.877 Y80.453 E0.02665
M204 S1250
G1 X79.062 Y80.779 F9000.000
M204 S800
G1 F1200.000
G1 X79.842 Y80.624 E0.02493
G1 X100.104 Y80.623 E0.63530
G1 X100.967 Y80.787 E0.02755
G1 X101.712 Y81.253 E0.02755
G1 X102.236 Y81.958 E0.02755
G1 X102.469 Y82.805 E0.02755
G1 X102.474 Y97.129 E0.44914
G1 X102.394 Y97.621 E0.01562
G1 X102.216 Y98.082 E0.01550
G1 X101.947 Y98.497 E0.01550
G1 X101.597 Y98.846 E0.01550
G1 X100.922 Y99.231 E0.02437
G1 X100.158 Y99.376 E0.02437
G1 X79.866 Y99.377 E0.63626
G1 X79.349 Y99.312 E0.01633
G1 X78.862 Y99.138 E0.01621
G1 X78.421 Y98.861 E0.01633
G1 X78.054 Y98.497 E0.01621
G1 X77.673 Y97.832 E0.02402
G1 X77.524 Y97.081 E0.02402
G1 X77.523 Y82.950 E0.44305
M73 P5 R8
G1 X77.589 Y82.442 E0.01609
G1 X77.765 Y81.955 E0.01621
G1 X78.039 Y81.521 E0.01609
G1 X78.403 Y81.154 E0.01621
G1 X79.010 Y80.808 E0.02190
M204 S1250
; printing object SwitchBox.stl id:0 copy 0
G1 E-2.24000 F4200.000
;WIPE_START
G1 F7200.000
G1 X79.842 Y80.624 E-0.47234
G1 X80.635 Y80.624 E-0.43966
;WIPE_END
G1 E-0.04800 F4200.000
G1 Z0.400 F9000.000
G1 X80.017 Y83.117
G1 Z0.200
G1 E3.20000 F2400.000
M204 S800
;TYPE:External perimeter
;WIDTH:0.24292
G1 F1200.000
G1 X80.100 Y83.100 E0.00141
G1 X99.900 Y83.100 E0.32928
G1 X99.983 Y83.117 E0.00141
G1 X100.000 Y83.200 E0.00141
G1 X100.000 Y96.800 E0.22617
G1 X99.983 Y96.883 E0.00141
G1 X99.900 Y96.900 E0.00141
G1 X80.100 Y96.900 E0.32928
G1 X80.017 Y96.883 E0.00141
G1 X80.000 Y96.800 E0.00141
G1 X80.000 Y83.200 E0.22617
;WIDTH:0.277236
G1 X80.005 Y83.176 E0.00048
M204 S1250
G1 E-2.24000 F4200.000
;WIPE_START
G1 F7200.000
G1 X80.100 Y83.100 E-0.06739
G1 X81.624 Y83.100 E-0.84461
;WIPE_END
G1 E-0.04800 F4200.000
G1 Z0.400 F9000.000
G1 X88.413 Y87.213
G1 Z0.200
G1 E3.20000 F2400.000
M204 S800
;TYPE:Perimeter
;WIDTH:0.42
G1 F1200.000
G1 X91.587 Y87.213 E0.09952
M73 P6 R8
G1 X91.587 Y92.787 E0.17477
G1 X88.413 Y92.787 E0.09952
G1 X88.413 Y87.273 E0.17289
M204 S1250
G1 X88.790 Y87.590 F9000.000
M204 S800
;TYPE:External perimeter
G1 F1200.000
G1 X91.210 Y87.590 E0.07588
G1 X91.210 Y92.410 E0.15113
G1 X88.790 Y92.410 E0.07588
G1 X88.790 Y87.650 E0.14925
M204 S1250
G1 X88.728 Y87.195 F9000.000
G1 E-2.24000 F4200.000
;WIPE_START
G1 F7200.000
G1 X90.435 Y87.609 E-0.91200
;WIPE_END
G1 E-0.04800 F4200.000
G1 Z0.400 F9000.000
G1 X93.113 Y87.213
G1 Z0.200
G1 E3.20000 F2400.000
M204 S800
;TYPE:Perimeter
G1 F1200.000
G1 X96.287 Y87.213 E0.09952
G1 X96.287 Y92.787 E0.17477
G1 X93.113 Y92.787 E0.09952
G1 X93.113 Y87.273 E0.17289
M204 S1250
G1 X93.490 Y87.590 F9000.000
M204 S800
;TYPE:External perimeter
G1 F1200.000
G1 X95.910 Y87.590 E0.07588
G1 X95.910 Y92.410 E0.15113
G1 X93.490 Y92.410 E0.07588
G1 X93.490 Y87.650 E0.14925
M204 S1250
G1 X93.428 Y87.195 F9000.000
G1 E-2.24000 F4200.000
;WIPE_START
G1 F7200.000
G1 X95.135 Y87.609 E-0.91200
;WIPE_END
G1 E-0.04800 F4200.000
G1 Z0.400 F9000.000
G1 X83.713 Y87.213
G1 Z0.200
G1 E3.20000 F2400.000
M204 S800
;TYPE:Perimeter
G1 F1200.000
G1 X86.887 Y87.213 E0.09952
G1 X86.887 Y92.787 E0.17477
G1 X83.713 Y92.787 E0.09952
G1 X83.713 Y87.273 E0.17289
M204 S1250
M73 P7 R8
G1 X84.090 Y87.590 F9000.000
M204 S800
;TYPE:External perimeter
G1 F1200.000
G1 X86.510 Y87.590 E0.07588
G1 X86.510 Y92.410 E0.15113
G1 X84.090 Y92.410 E0.07588
G1 X84.090 Y87.650 E0.14925
M204 S1250
G1 X84.028 Y87.195 F9000.000
G1 E-2.24000 F4200.000
;WIPE_START
G1 F7200.000
G1 X85.735 Y87.609 E-0.91200
;WIPE_END
G1 E-0.04800 F4200.000
G1 Z0.400 F9000.000
G1 X82.187 Y85.287
G1 Z0.200
G1 E3.20000 F2400.000
M204 S800
;TYPE:Perimeter
G1 F1200.000
G1 X97.813 Y85.287 E0.48994
G1 X97.813 Y94.713 E0.29554
G1 X82.187 Y94.713 E0.48994
G1 X82.187 Y85.347 E0.29366
M204 S1250
G1 X81.810 Y84.910 F9000.000
M204 S800
;TYPE:External perimeter
G1 F1200.000
G1 X98.190 Y84.910 E0.51358
G1 X98.190 Y95.090 E0.31919
M73 P8 R7
G1 X81.810 Y95.090 E0.51358
G1 X81.810 Y84.970 E0.31731
M204 S1250
G1 X82.203 Y84.984 F9000.000
G1 E-2.24000 F4200.000
;WIPE_START
G1 F7200.000
G1 X83.456 Y84.964 E-0.91200
;WIPE_END
G1 E-0.04800 F4200.000
G1 Z0.400 F9000.000
G1 X97.700 Y86.167
G1 Z0.200
G1 E3.20000 F2400.000
M204 S800
;TYPE:Solid infill
;WIDTH:0.422215
G1 F1200.000
G1 X97.103 Y85.570 E0.02664
G1 X96.566 Y85.570 E0.01692
G1 X97.530 Y86.534 E0.04300
G1 X97.530 Y87.070 E0.01692
G1 X96.030 Y85.570 E0.06692
G1 X95.493 Y85.570 E0.01692
G1 X97.530 Y87.607 E0.09085
G1 X97.530 Y88.143 E0.01692
G1 X94.957 Y85.570 E0.11477
G1 X94.421 Y85.570 E0.01692
G1 X95.781 Y86.930 E0.06067
G1 X95.244 Y86.930 E0.01692
G1 X93.884 Y85.570 E0.06067
G1 X93.348 Y85.570 E0.01692
G1 X94.708 Y86.930 E0.06067
G1 X94.172 Y86.930 E0.01692
G1 X92.811 Y85.570 E0.06067
G1 X92.275 Y85.570 E0.01692
G1 X93.635 Y86.930 E0.06067
G1 X93.099 Y86.930 E0.01692
G1 X91.738 Y85.570 E0.06067
G1 X91.202 Y85.570 E0.01692
G1 X92.830 Y87.198 E0.07261
G1 X92.830 Y87.734 E0.01692
G1 X90.666 Y85.570 E0.09654
G1 X90.129 Y85.570 E0.01692
G1 X91.490 Y86.930 E0.06067
G1 X91.870 Y86.930 E0.01200
G1 X91.870 Y87.310 E0.01200
G1 X92.830 Y88.271 E0.04283
G1 X92.830 Y88.807 E0.01692
G1 X91.870 Y87.847 E0.04283
G1 X91.870 Y88.383 E0.01692
G1 X92.830 Y89.344 E0.04283
G1 X92.830 Y89.880 E0.01692
G1 X91.870 Y88.920 E0.04283
G1 X91.870 Y89.456 E0.01692
G1 X92.830 Y90.416 E0.04283
G1 X92.830 Y90.953 E0.01692
G1 X91.870 Y89.993 E0.04283
M73 P9 R7
G1 X91.870 Y90.529 E0.01692
G1 X92.830 Y91.489 E0.04283
G1 X92.830 Y92.026 E0.01692
G1 X91.700 Y90.896 E0.05040
M204 S1250
G1 E-2.24000 F4200.000
;WIPE_START
G1 F7200.000
G1 X92.830 Y92.026 E-0.88554
G1 X92.830 Y91.978 E-0.02646
;WIPE_END
G1 E-0.04800 F4200.000
G1 Z0.400 F9000.000
G1 X96.400 Y87.550
G1 Z0.200
G1 E3.20000 F2400.000
M204 S800
G1 F1200.000
G1 X97.530 Y88.679 E0.05040
G1 X97.530 Y89.216 E0.01692
G1 X96.570 Y88.256 E0.04283
G1 X96.570 Y88.792 E0.01692
G1 X97.530 Y89.752 E0.04283
G1 X97.530 Y90.289 E0.01692
G1 X96.570 Y89.328 E0.04283
G1 X96.570 Y89.865 E0.01692
G1 X97.530 Y90.825 E0.04283
G1 X97.530 Y91.362 E0.01692
G1 X96.570 Y90.401 E0.04283
G1 X96.570 Y90.938 E0.01692
G1 X97.530 Y91.898 E0.04283
G1 X97.530 Y92.434 E0.01692
G1 X96.570 Y91.474 E0.04283
G1 X96.570 Y92.010 E0.01692
G1 X97.530 Y92.971 E0.04283
G1 X97.530 Y93.507 E0.01692
G1 X96.570 Y92.547 E0.04283
G1 X96.570 Y93.070 E0.01649
G1 X96.556 Y93.070 E0.00042
G1 X97.530 Y94.044 E0.04343
G1 X97.530 Y94.430 E0.01219
G1 X97.380 Y94.430 E0.00473
G1 X96.020 Y93.070 E0.06067
G1 X95.484 Y93.070 E0.01692
G1 X96.844 Y94.430 E0.06067
G1 X96.307 Y94.430 E0.01692
G1 X94.947 Y93.070 E0.06067
G1 X94.411 Y93.070 E0.01692
G1 X95.771 Y94.430 E0.06067
G1 X95.235 Y94.430 E0.01692
G1 X93.705 Y92.900 E0.06824
M204 S1250
G1 E-2.24000 F4200.000
;WIPE_START
G1 F7200.000
G1 X94.868 Y94.064 E-0.91200
;WIPE_END
G1 E-0.04800 F4200.000
G1 Z0.400 F9000.000
G1 X94.868 Y94.600
G1 Z0.200
G1 E3.20000 F2400.000
M204 S800
G1 F1200.000
G1 X93.338 Y93.070 E0.06824
G1 X92.830 Y93.070 E0.01602
G1 X92.830 Y92.562 E0.01602
G1 X91.870 Y91.602 E0.04283
G1 X91.870 Y92.138 E0.01692
G1 X94.162 Y94.430 E0.10223
G1 X93.625 Y94.430 E0.01692
G1 X91.870 Y92.675 E0.07830
G1 X91.870 Y93.070 E0.01247
G1 X91.729 Y93.070 E0.00445
G1 X93.089 Y94.430 E0.06067
G1 X92.553 Y94.430 E0.01692
G1 X91.192 Y93.070 E0.06067
G1 X90.656 Y93.070 E0.01692
G1 X92.016 Y94.430 E0.06067
G1 X91.480 Y94.430 E0.01692
G1 X90.120 Y93.070 E0.06067
G1 X89.583 Y93.070 E0.01692
G1 X90.943 Y94.430 E0.06067
G1 X90.407 Y94.430 E0.01692
G1 X88.877 Y92.900 E0.06824
M204 S1250
G1 E-2.24000 F4200.000
;WIPE_START
G1 F7200.000
G1 X90.041 Y94.064 E-0.91200
;WIPE_END
G1 E-0.04800 F4200.000
G1 Z0.400 F9000.000
G1 X91.123 Y87.100
G1 Z0.200
G1 E3.20000 F2400.000
M204 S800
G1 F1200.000
G1 X89.593 Y85.570 E0.06824
M73 P10 R7
G1 X89.056 Y85.570 E0.01692
G1 X90.417 Y86.930 E0.06067
G1 X89.880 Y86.930 E0.01692
G1 X88.520 Y85.570 E0.06067
G1 X87.984 Y85.570 E0.01692
G1 X89.344 Y86.930 E0.06067
G1 X88.807 Y86.930 E0.01692
G1 X87.447 Y85.570 E0.06067
G1 X86.911 Y85.570 E0.01692
G1 X88.271 Y86.930 E0.06067
G1 X88.130 Y86.930 E0.00445
G1 X88.130 Y87.326 E0.01247
G1 X86.374 Y85.570 E0.07831
G1 X85.838 Y85.570 E0.01692
G1 X88.130 Y87.862 E0.10223
G1 X88.130 Y88.398 E0.01692
G1 X87.170 Y87.438 E0.04283
G1 X87.170 Y86.930 E0.01602
G1 X86.662 Y86.930 E0.01602
G1 X85.302 Y85.570 E0.06067
G1 X84.765 Y85.570 E0.01692
G1 X86.125 Y86.930 E0.06067
G1 X85.589 Y86.930 E0.01692
G1 X84.229 Y85.570 E0.06067
G1 X83.692 Y85.570 E0.01692
G1 X85.053 Y86.930 E0.06067
G1 X84.516 Y86.930 E0.01692
G1 X83.156 Y85.570 E0.06067
G1 X82.620 Y85.570 E0.01692
G1 X83.980 Y86.930 E0.06067
G1 X83.443 Y86.930 E0.01692
G1 X82.470 Y85.957 E0.04342
G1 X82.470 Y86.493 E0.01692
G1 X83.430 Y87.453 E0.04283
G1 X83.430 Y87.990 E0.01692
G1 X82.470 Y87.029 E0.04283
G1 X82.470 Y87.566 E0.01692
G1 X83.430 Y88.526 E0.04283
G1 X83.430 Y89.062 E0.01692
G1 X82.470 Y88.102 E0.04283
G1 X82.470 Y88.639 E0.01692
G1 X83.430 Y89.599 E0.04283
G1 X83.430 Y90.135 E0.01692
G1 X82.470 Y89.175 E0.04283
G1 X82.470 Y89.711 E0.01692
G1 X83.430 Y90.672 E0.04283
G1 X83.430 Y91.208 E0.01692
G1 X82.470 Y90.248 E0.04283
G1 X82.470 Y90.784 E0.01692
G1 X83.430 Y91.744 E0.04283
G1 X83.430 Y92.281 E0.01692
G1 X82.300 Y91.151 E0.05040
M204 S1250
G1 E-2.24000 F4200.000
;WIPE_START
G1 F7200.000
G1 X83.430 Y92.281 E-0.88554
G1 X83.430 Y92.233 E-0.02646
;WIPE_END
G1 E-0.04800 F4200.000
G1 Z0.400 F9000.000
G1 X87.000 Y87.805
G1 Z0.200
G1 E3.20000 F2400.000
M204 S800
G1 F1200.000
G1 X88.130 Y88.935 E0.05040
G1 X88.130 Y89.471 E0.01692
G1 X87.170 Y88.511 E0.04283
G1 X87.170 Y89.047 E0.01692
G1 X88.130 Y90.008 E0.04283
G1 X88.130 Y90.544 E0.01692
G1 X87.170 Y89.584 E0.04283
G1 X87.170 Y90.120 E0.01692
G1 X88.130 Y91.080 E0.04283
G1 X88.130 Y91.617 E0.01692
G1 X87.170 Y90.657 E0.04283
G1 X87.170 Y91.193 E0.01692
G1 X88.300 Y92.323 E0.05040
M204 S1250
G1 E-2.24000 F4200.000
;WIPE_START
G1 F7200.000
G1 X87.170 Y91.193 E-0.88554
G1 X87.170 Y91.145 E-0.02646
;WIPE_END
G1 E-0.04800 F4200.000
G1 Z0.400 F9000.000
G1 X87.000 Y91.560
G1 Z0.200
G1 E3.20000 F2400.000
M204 S800
G1 F1200.000
G1 X88.130 Y92.690 E0.05040
G1 X88.130 Y93.070 E0.01199
G1 X88.510 Y93.070 E0.01199
G1 X89.871 Y94.430 E0.06067
M73 P11 R7
G1 X89.334 Y94.430 E0.01692
G1 X87.170 Y92.266 E0.09654
G1 X87.170 Y92.802 E0.01692
G1 X88.798 Y94.430 E0.07261
G1 X88.261 Y94.430 E0.01692
G1 X86.901 Y93.070 E0.06067
G1 X86.365 Y93.070 E0.01692
G1 X87.725 Y94.430 E0.06067
G1 X87.189 Y94.430 E0.01692
G1 X85.828 Y93.070 E0.06067
G1 X85.292 Y93.070 E0.01692
G1 X86.652 Y94.430 E0.06067
G1 X86.116 Y94.430 E0.01692
G1 X84.756 Y93.070 E0.06067
G1 X84.219 Y93.070 E0.01692
G1 X85.579 Y94.430 E0.06067
G1 X85.043 Y94.430 E0.01692
G1 X82.470 Y91.857 E0.11477
G1 X82.470 Y92.393 E0.01692
G1 X84.507 Y94.430 E0.09084
G1 X83.970 Y94.430 E0.01692
G1 X82.470 Y92.930 E0.06692
G1 X82.470 Y93.466 E0.01692
G1 X83.434 Y94.430 E0.04299
G1 X82.897 Y94.430 E0.01692
G1 X82.300 Y93.833 E0.02664
M204 S1250
; stop printing object SwitchBox.stl id:0 copy 0
M106 S84.15
;LAYER_CHANGE
;Z:0.4
;HEIGHT:0.2
;BEFORE_LAYER_CHANGE
G92 E0.0
;0.4


G1 E-2.24000 F4200.000
;WIPE_START
G1 F7200.000
G1 X82.897 Y94.430 E-0.46803
G1 X83.434 Y94.430 E-0.29726
G1 X83.247 Y94.243 E-0.14671
;WIPE_END
G1 E-0.04800 F4200.000
G1 Z0.400 F9000.000
;AFTER_LAYER_CHANGE
;0.4
G1 Z0.600
G1 X77.329 Y97.987
G1 Z0.400
G1 E3.20000 F2400.000
;TYPE:Skirt
;WIDTH:0.42
G1 X77.148 Y97.111 E0.02803
G1 X77.146 Y82.943 E0.44425
G1 X77.222 Y82.358 E0.01848
G1 X77.420 Y81.803 E0.01848
G1 X77.731 Y81.303 E0.01848
G1 X78.142 Y80.880 E0.01848
G1 X78.928 Y80.423 E0.02854
G1 X79.821 Y80.247 E0.02854
G1 X100.104 Y80.246 E0.63595
G1 X101.098 Y80.433 E0.03170
G1 X101.957 Y80.966 E0.03170
G1 X102.566 Y81.773 E0.03170
G1 X102.842 Y82.745 E0.03170
G1 X102.849 Y97.164 E0.45208
G1 X102.759 Y97.717 E0.01758
G1 X102.557 Y98.245 E0.01771
G1 X102.251 Y98.720 E0.01771
G1 X101.858 Y99.120 E0.01758
G1 X101.072 Y99.577 E0.02854
G1 X100.179 Y99.753 E0.02854
G1 X79.859 Y99.754 E0.63711
G1 X79.270 Y99.681 E0.01860
G1 X78.710 Y99.484 E0.01860
G1 X78.206 Y99.172 E0.01860
G1 X77.780 Y98.758 E0.01860
G1 X77.359 Y98.039 E0.02615
G1 X77.685 Y97.852 F9000.000
G1 F2400.000
G1 X77.524 Y97.081 E0.02470
G1 X77.523 Y82.950 E0.44305
M73 P12 R7
G1 X77.589 Y82.442 E0.01609
G1 X77.765 Y81.955 E0.01621
G1 X78.039 Y81.521 E0.01609
G1 X78.403 Y81.154 E0.01621
G1 X79.078 Y80.769 E0.02437
G1 X79.842 Y80.624 E0.02437
G1 X100.104 Y80.623 E0.63530
G1 X100.967 Y80.787 E0.02755
G1 X101.712 Y81.253 E0.02755
G1 X102.236 Y81.958 E0.02755
G1 X102.469 Y82.805 E0.02755
G1 X102.474 Y97.129 E0.44914
G1 X102.394 Y97.621 E0.01562
G1 X102.216 Y98.082 E0.01550
G1 X101.947 Y98.497 E0.01550
G1 X101.597 Y98.846 E0.01550
G1 X100.922 Y99.231 E0.02437
G1 X100.158 Y99.376 E0.02437
G1 X79.866 Y99.377 E0.63626
G1 X79.349 Y99.312 E0.01633
G1 X78.862 Y99.138 E0.01621
G1 X78.421 Y98.861 E0.01633
G1 X78.054 Y98.497 E0.01621
G1 X77.715 Y97.904 E0.02142
; printing object SwitchBox.stl id:0 copy 0
G1 E-2.24000 F4200.000
;WIPE_START
G1 F7200.000
G1 X77.524 Y97.081 E-0.46829
G1 X77.524 Y96.280 E-0.44371
;WIPE_END
G1 E-0.04800 F4200.000
G1 Z0.600 F9000.000
G1 X88.568 Y92.632
G1 Z0.400
G1 E3.20000 F2400.000
M204 S800
;TYPE:Perimeter
;WIDTH:0.45
G1 F1500.000
G1 X88.568 Y87.368 E0.17819
G1 X91.432 Y87.368 E0.09695
G1 X91.432 Y92.632 E0.17819
G1 X88.628 Y92.632 E0.09492
M204 S1250
G1 X88.975 Y92.225 F9000.000
M204 S800
;TYPE:External perimeter
G1 F1500.000
G1 X88.975 Y87.775 E0.15063
G1 X91.025 Y87.775 E0.06939
G1 X91.025 Y92.225 E0.15063
G1 X89.035 Y92.225 E0.06736
M204 S1250
G1 X88.603 Y92.373 F9000.000
G1 E-2.24000 F4200.000
;WIPE_START
G1 F7200.000
G1 X89.013 Y90.579 E-0.91200
;WIPE_END
G1 E-0.04800 F4200.000
G1 Z0.600 F9000.000
G1 X93.268 Y87.368
G1 Z0.400
G1 E3.20000 F2400.000
M204 S800
;TYPE:Perimeter
G1 F1500.000
G1 X96.132 Y87.368 E0.09695
G1 X96.132 Y92.632 E0.17819
