; generated by PrusaSlicer 2.3.0+win64 on 2021-06-05 at 14:18:02 UTC


;
;

;
;
; 

; external perimeters extrusion width = 0.45mm
; perimeters extrusion width = 0.45mm
; infill extrusion width = 0.45mm
; solid infill extrusion width = 0.45mm
; top infill extrusion width = 0.40mm
; first layer extrusion width = 0.42mm

M73 P0 R26
M201 X1250 Y1250 Z400 E5000 ; sets maximum accelerations, mm/sec^2
M203 X180 Y180 Z12 E80 ; sets maximum feedrates, mm/sec
M204 P1250 R1250 T1250 ; sets acceleration (P, T) and retract acceleration (R), mm/sec^2
M205 X8.00 Y8.00 Z2.00 E10.00 ; sets the jerk limits, mm/sec
M205 S0 T0 ; sets the minimum extruding and travel feed rate, mm/sec
M107
;TYPE:Custom
G90 ; use absolute coordinates
M83 ; extruder relative mode
M104 S170 ; set extruder temp for bed leveling
M140 S60 ; set bed temp
M109 R170 ; wait for bed leveling temp
M190 S60 ; wait for bed temp
G28 ; home all without mesh bed level
G29 ; mesh bed leveling 
M104 S215 ; set extruder temp
G92 E0.0
G1 Y-2.0 X179 F2400
M73 P0 R25
G1 Z3 F720
M109 S215 ; wait for extruder temp

; intro line
G1 X170 F1000
G1 Z0.2 F720
G1 X110.0 E8.0 F900
G1 X40.0 E10.0 F700
G92 E0.0

M221 S95 ; set flow
G21 ; set units to millimeters
G90 ; use absolute coordinates
M83 ; use relative distances for extrusion
M900 K0.2 ; Filament gcode LA 1.5
; ; Filament gcode LA 1.0
;LAYER_CHANGE
;Z:0.2
;HEIGHT:0.2
;BEFORE_LAYER_CHANGE
G92 E0.0
;0.2


M73 P1 R25
G1 E-3.20000 F4200.000
G1 Z0.200 F9000.000
;AFTER_LAYER_CHANGE
;0.2
G1 Z0.400
G1 X68.543 Y67.500
G1 Z0.200
G1 E3.20000 F2400.000
M204 S800
;TYPE:Skirt
;WIDTH:0.42
G1 F1200.000
G1 X69.701 Y66.771 E0.04291
G1 X70.842 Y66.343 E0.03821
G1 X72.182 Y66.132 E0.04253
G1 X107.504 Y66.123 E1.10749
G1 X108.635 Y66.225 E0.03561
G1 X109.737 Y66.529 E0.03583
G1 X110.754 Y67.016 E0.03539
G1 X111.709 Y67.710 E0.03699
G1 X112.602 Y68.676 E0.04125
G1 X113.201 Y69.644 E0.03571
G1 X113.628 Y70.737 E0.03678
G1 X113.843 Y71.841 E0.03527
G1 X113.873 Y107.715 E1.12481
G1 X113.738 Y108.823 E0.03499
G1 X113.421 Y109.869 E0.03429
G1 X113.001 Y110.725 E0.02989
G1 X112.370 Y111.618 E0.03428
G1 X111.354 Y112.581 E0.04390
G1 X110.174 Y113.289 E0.04315
G1 X109.013 Y113.695 E0.03856
G1 X107.637 Y113.876 E0.04351
G1 X72.323 Y113.875 E1.10723
G1 X71.233 Y113.750 E0.03440
G1 X70.187 Y113.443 E0.03420
G1 X69.337 Y113.037 E0.02955
G1 X68.420 Y112.401 E0.03499
G1 X67.458 Y111.405 E0.04342
G1 X66.735 Y110.225 E0.04339
G1 X66.278 Y108.895 E0.04410
G1 X66.125 Y107.657 E0.03909
G1 X66.131 Y72.197 E1.11184
G1 X66.244 Y71.265 E0.02942
G1 X66.547 Y70.214 E0.03428
G1 X67.023 Y69.234 E0.03417
G1 X67.573 Y68.452 E0.02999
G1 X68.500 Y67.542 E0.04073
M204 S1250
; printing object SwitchCradleWithSupport.stl id:0 copy 0
G1 E-2.24000 F4200.000
;WIPE_START
G1 F7200.000
G1 X69.701 Y66.771 E-0.79097
G1 X69.906 Y66.694 E-0.12103
;WIPE_END
G1 E-0.04800 F4200.000
G1 Z0.400 F9000.000
G1 X86.628 Y82.101
G1 Z0.200
G1 E3.20000 F2400.000
M204 S800
;TYPE:External perimeter
;WIDTH:0.24292
G1 F1200.000
G1 X93.372 Y82.101 E0.11216
M204 S1250
G1 E-2.24000 F4200.000
;WIPE_START
G1 F7200.000
G1 X91.727 Y82.101 E-0.91200
;WIPE_END
G1 E-0.04800 F4200.000
G1 Z0.400 F9000.000
G1 X106.538 Y105.422
G1 Z0.200
G1 E3.20000 F2400.000
M204 S800
;TYPE:Perimeter
;WIDTH:0.42
G1 F1200.000
G1 X107.007 Y105.264 E0.01551
G1 X107.476 Y105.211 E0.01480
G1 X107.839 Y105.236 E0.01140
G1 X108.309 Y105.358 E0.01524
G1 X108.751 Y105.582 E0.01553
G1 X109.134 Y105.895 E0.01553
G1 X109.441 Y106.284 E0.01553
G1 X109.653 Y106.720 E0.01520
G1 X109.747 Y107.059 E0.01103
G1 X109.789 Y107.531 E0.01486
G1 X109.758 Y107.881 E0.01103
G1 X109.628 Y108.348 E0.01520
G1 X109.396 Y108.786 E0.01553
G1 X109.082 Y109.155 E0.01520
G1 X108.810 Y109.378 E0.01103
G1 X108.386 Y109.613 E0.01520
G1 X107.917 Y109.752 E0.01536
G1 X107.503 Y109.790 E0.01303
G1 X107.084 Y109.752 E0.01318
G1 X106.615 Y109.613 E0.01535
G1 X106.201 Y109.385 E0.01480
G1 X105.919 Y109.156 E0.01140
G1 X105.604 Y108.786 E0.01524
G1 X105.372 Y108.349 E0.01551
G1 X105.245 Y107.894 E0.01480
G1 X105.211 Y107.532 E0.01141
G1 X105.254 Y107.048 E0.01523
G1 X105.404 Y106.576 E0.01553
G1 X105.646 Y106.157 E0.01520
G1 X105.867 Y105.897 E0.01069
G1 X106.123 Y105.671 E0.01069
G1 X106.487 Y105.452 E0.01331
M204 S1250
G1 X106.681 Y105.776 F9000.000
M204 S800
;TYPE:External perimeter
G1 F1200.000
G1 X107.089 Y105.634 E0.01353
G1 X107.484 Y105.590 E0.01247
G1 X107.778 Y105.610 E0.00924
G1 X108.175 Y105.712 E0.01285
G1 X108.544 Y105.899 E0.01296
G1 X108.864 Y106.161 E0.01296
G1 X109.120 Y106.486 E0.01296
G1 X109.298 Y106.854 E0.01284
G1 X109.374 Y107.127 E0.00889
G1 X109.411 Y107.531 E0.01272
G1 X109.385 Y107.813 E0.00889
G1 X109.276 Y108.208 E0.01284
G1 X109.082 Y108.573 E0.01296
G1 X108.817 Y108.885 E0.01284
G1 X108.598 Y109.065 E0.00889
G1 X108.240 Y109.263 E0.01284
G1 X107.845 Y109.380 E0.01290
G1 X107.502 Y109.411 E0.01079
G1 X107.155 Y109.380 E0.01093
G1 X106.761 Y109.263 E0.01289
G1 X106.412 Y109.071 E0.01247
G1 X106.184 Y108.886 E0.00924
G1 X105.918 Y108.573 E0.01285
G1 X105.725 Y108.208 E0.01295
G1 X105.617 Y107.825 E0.01247
G1 X105.589 Y107.531 E0.00926
G1 X105.626 Y107.123 E0.01284
G1 X105.751 Y106.729 E0.01296
G1 X105.956 Y106.375 E0.01284
G1 X106.137 Y106.162 E0.00877
G1 X106.347 Y105.977 E0.00877
G1 X106.630 Y105.807 E0.01036
M204 S1250
G1 X106.719 Y105.377 F9000.000
G1 E-2.24000 F4200.000
;WIPE_START
G1 F7200.000
G1 X107.089 Y105.634 E-0.27182
G1 X107.484 Y105.590 E-0.22043
G1 X107.778 Y105.610 E-0.16336
G1 X108.175 Y105.712 E-0.22720
G1 X108.222 Y105.736 E-0.02919
;WIPE_END
G1 E-0.04800 F4200.000
G1 Z0.400 F9000.000
G1 X107.503 Y74.790
G1 Z0.200
G1 E3.20000 F2400.000
M204 S800
;TYPE:Perimeter
G1 F1200.000
G1 X107.084 Y74.752 E0.01318
G1 X106.615 Y74.613 E0.01535
G1 X106.201 Y74.385 E0.01480
G1 X105.919 Y74.156 E0.01140
G1 X105.604 Y73.786 E0.01524
G1 X105.372 Y73.349 E0.01551
G1 X105.245 Y72.894 E0.01480
G1 X105.211 Y72.532 E0.01141
G1 X105.254 Y72.048 E0.01523
G1 X105.404 Y71.576 E0.01553
G1 X105.646 Y71.157 E0.01520
G1 X105.874 Y70.889 E0.01103
G1 X106.241 Y70.588 E0.01486
G1 X106.548 Y70.418 E0.01103
G1 X107.007 Y70.264 E0.01517
G1 X107.476 Y70.211 E0.01480
G1 X107.839 Y70.236 E0.01140
G1 X108.309 Y70.358 E0.01524
G1 X108.751 Y70.582 E0.01553
G1 X109.134 Y70.895 E0.01553
G1 X109.441 Y71.284 E0.01553
G1 X109.653 Y71.720 E0.01520
G1 X109.747 Y72.059 E0.01103
G1 X109.789 Y72.531 E0.01486
G1 X109.758 Y72.881 E0.01103
G1 X109.628 Y73.348 E0.01520
G1 X109.396 Y73.786 E0.01553
G1 X109.082 Y74.155 E0.01520
G1 X108.810 Y74.378 E0.01103
G1 X108.386 Y74.613 E0.01520
G1 X107.917 Y74.752 E0.01536
G1 X107.562 Y74.785 E0.01115
M204 S1250
G1 X107.845 Y74.380 F9000.000
M204 S800
;TYPE:External perimeter
G1 F1200.000
G1 X107.502 Y74.411 E0.01079
G1 X107.155 Y74.380 E0.01093
G1 X106.761 Y74.263 E0.01289
G1 X106.412 Y74.071 E0.01247
G1 X106.184 Y73.886 E0.00924
G1 X105.918 Y73.573 E0.01285
G1 X105.725 Y73.208 E0.01295
G1 X105.617 Y72.825 E0.01247
G1 X105.589 Y72.531 E0.00926
G1 X105.626 Y72.123 E0.01284
G1 X105.751 Y71.729 E0.01296
G1 X105.956 Y71.375 E0.01284
G1 X106.139 Y71.159 E0.00889
G1 X106.453 Y70.902 E0.01272
G1 X106.701 Y70.765 E0.00888
G1 X107.089 Y70.634 E0.01283
G1 X107.484 Y70.590 E0.01247
G1 X107.778 Y70.610 E0.00924
G1 X108.175 Y70.712 E0.01285
G1 X108.544 Y70.899 E0.01296
G1 X108.864 Y71.161 E0.01296
G1 X109.120 Y71.486 E0.01296
G1 X109.298 Y71.854 E0.01284
G1 X109.374 Y72.127 E0.00889
G1 X109.411 Y72.531 E0.01272
G1 X109.385 Y72.813 E0.00889
G1 X109.276 Y73.208 E0.01284
G1 X109.082 Y73.573 E0.01296
G1 X108.817 Y73.885 E0.01284
G1 X108.598 Y74.065 E0.00889
G1 X108.240 Y74.263 E0.01284
G1 X107.903 Y74.363 E0.01102
M204 S1250
G1 X107.733 Y74.706 F9000.000
G1 E-2.24000 F4200.000
;WIPE_START
G1 F7200.000
G1 X107.502 Y74.411 E-0.22345
G1 X107.155 Y74.380 E-0.19319
G1 X106.761 Y74.263 E-0.22791
G1 X106.412 Y74.071 E-0.22044
G1 X106.347 Y74.018 E-0.04702
;WIPE_END
G1 E-0.04800 F4200.000
G1 Z0.400 F9000.000
G1 X74.790 Y72.542
M73 P2 R25
G1 Z0.200
G1 E3.20000 F2400.000
M204 S800
;TYPE:Perimeter
G1 F1200.000
G1 X74.728 Y73.033 E0.01553
G1 X74.561 Y73.500 E0.01553
G1 X74.304 Y73.910 E0.01520
G1 X74.067 Y74.170 E0.01103
G1 X73.690 Y74.457 E0.01486
G1 X73.376 Y74.616 E0.01103
G1 X72.917 Y74.752 E0.01503
G1 X72.503 Y74.790 E0.01303
G1 X72.084 Y74.752 E0.01318
G1 X71.615 Y74.613 E0.01535
G1 X71.201 Y74.385 E0.01480
G1 X70.919 Y74.156 E0.01140
G1 X70.604 Y73.786 E0.01524
G1 X70.372 Y73.349 E0.01551
G1 X70.245 Y72.894 E0.01480
G1 X70.211 Y72.532 E0.01141
G1 X70.254 Y72.048 E0.01523
G1 X70.404 Y71.576 E0.01553
G1 X70.646 Y71.157 E0.01520
G1 X70.874 Y70.889 E0.01103
G1 X71.241 Y70.588 E0.01486
G1 X71.548 Y70.418 E0.01103
G1 X72.007 Y70.264 E0.01517
G1 X72.476 Y70.211 E0.01480
G1 X72.839 Y70.236 E0.01140
G1 X73.309 Y70.358 E0.01524
G1 X73.751 Y70.582 E0.01553
G1 X74.126 Y70.889 E0.01519
G1 X74.354 Y71.157 E0.01103
G1 X74.596 Y71.576 E0.01520
G1 X74.746 Y72.049 E0.01553
G1 X74.785 Y72.482 E0.01365
M204 S1250
G1 X74.409 Y72.516 F9000.000
M204 S800
;TYPE:External perimeter
G1 F1200.000
G1 X74.359 Y72.945 E0.01354
G1 X74.220 Y73.334 E0.01296
G1 X74.003 Y73.681 E0.01284
G1 X73.812 Y73.890 E0.00889
G1 X73.489 Y74.136 E0.01272
G1 X73.236 Y74.264 E0.00889
G1 X72.845 Y74.380 E0.01278
G1 X72.502 Y74.411 E0.01079
G1 X72.155 Y74.380 E0.01093
G1 X71.761 Y74.263 E0.01289
G1 X71.412 Y74.071 E0.01247
G1 X71.184 Y73.886 E0.00924
G1 X70.918 Y73.573 E0.01285
G1 X70.725 Y73.208 E0.01295
G1 X70.617 Y72.825 E0.01247
G1 X70.589 Y72.531 E0.00926
G1 X70.626 Y72.123 E0.01284
G1 X70.751 Y71.729 E0.01296
G1 X70.956 Y71.375 E0.01284
G1 X71.139 Y71.159 E0.00888
G1 X71.453 Y70.902 E0.01272
G1 X71.701 Y70.765 E0.00889
G1 X72.089 Y70.634 E0.01283
G1 X72.484 Y70.590 E0.01247
G1 X72.778 Y70.610 E0.00924
G1 X73.175 Y70.712 E0.01285
G1 X73.544 Y70.899 E0.01296
G1 X73.861 Y71.159 E0.01284
G1 X74.044 Y71.375 E0.00889
G1 X74.249 Y71.729 E0.01284
G1 X74.374 Y72.123 E0.01296
G1 X74.404 Y72.456 E0.01048
M204 S1250
G1 X74.754 Y72.720 F9000.000
G1 E-2.24000 F4200.000
;WIPE_START
G1 F7200.000
G1 X74.359 Y72.945 E-0.27195
G1 X74.220 Y73.334 E-0.22904
G1 X74.003 Y73.681 E-0.22692
G1 X73.812 Y73.890 E-0.15704
G1 X73.773 Y73.920 E-0.02704
;WIPE_END
G1 E-0.04800 F4200.000
G1 Z0.400 F9000.000
G1 X72.007 Y105.264
G1 Z0.200
G1 E3.20000 F2400.000
M204 S800
;TYPE:Perimeter
G1 F1200.000
G1 X72.476 Y105.211 E0.01480
G1 X72.839 Y105.236 E0.01140
G1 X73.309 Y105.358 E0.01524
G1 X73.751 Y105.582 E0.01553
G1 X74.134 Y105.895 E0.01553
G1 X74.441 Y106.284 E0.01553
G1 X74.653 Y106.720 E0.01520
G1 X74.747 Y107.059 E0.01103
G1 X74.790 Y107.542 E0.01520
G1 X74.728 Y108.033 E0.01553
G1 X74.561 Y108.500 E0.01553
G1 X74.304 Y108.910 E0.01520
G1 X74.074 Y109.162 E0.01069
G1 X73.810 Y109.378 E0.01069
G1 X73.386 Y109.613 E0.01520
G1 X72.917 Y109.752 E0.01536
G1 X72.503 Y109.790 E0.01303
G1 X72.084 Y109.752 E0.01318
G1 X71.615 Y109.613 E0.01535
G1 X71.201 Y109.385 E0.01480
G1 X70.919 Y109.156 E0.01140
G1 X70.604 Y108.786 E0.01524
G1 X70.372 Y108.349 E0.01551
G1 X70.245 Y107.894 E0.01480
G1 X70.211 Y107.532 E0.01141
G1 X70.254 Y107.048 E0.01523
G1 X70.404 Y106.576 E0.01553
G1 X70.646 Y106.157 E0.01520
G1 X70.874 Y105.889 E0.01103
G1 X71.241 Y105.588 E0.01486
G1 X71.548 Y105.418 E0.01103
G1 X71.950 Y105.283 E0.01329
M204 S1250
G1 X72.071 Y105.640 F9000.000
M204 S800
;TYPE:External perimeter
G1 F1200.000
G1 X72.484 Y105.590 E0.01307
G1 X72.778 Y105.610 E0.00924
G1 X73.175 Y105.712 E0.01285
G1 X73.544 Y105.899 E0.01296
G1 X73.864 Y106.161 E0.01296
G1 X74.120 Y106.486 E0.01296
G1 X74.298 Y106.854 E0.01284
G1 X74.374 Y107.127 E0.00889
G1 X74.411 Y107.535 E0.01284
G1 X74.359 Y107.945 E0.01296
G1 X74.220 Y108.334 E0.01296
G1 X74.003 Y108.681 E0.01284
G1 X73.814 Y108.888 E0.00877
G1 X73.598 Y109.065 E0.00877
G1 X73.240 Y109.263 E0.01284
G1 X72.845 Y109.380 E0.01290
G1 X72.502 Y109.411 E0.01079
G1 X72.155 Y109.380 E0.01093
G1 X71.761 Y109.263 E0.01289
G1 X71.412 Y109.071 E0.01247
G1 X71.184 Y108.886 E0.00924
G1 X70.918 Y108.573 E0.01285
G1 X70.725 Y108.208 E0.01295
G1 X70.617 Y107.825 E0.01247
G1 X70.589 Y107.531 E0.00926
G1 X70.626 Y107.123 E0.01284
G1 X70.751 Y106.729 E0.01296
G1 X70.956 Y106.375 E0.01284
G1 X71.139 Y106.159 E0.00889
G1 X71.453 Y105.902 E0.01272
G1 X71.701 Y105.765 E0.00889
G1 X72.014 Y105.659 E0.01034
M204 S1250
G1 X72.192 Y105.259 F9000.000
G1 E-2.24000 F4200.000
;WIPE_START
G1 F7200.000
G1 X72.484 Y105.590 E-0.26360
G1 X72.778 Y105.610 E-0.16336
G1 X73.175 Y105.712 E-0.22720
G1 X73.544 Y105.899 E-0.22904
G1 X73.584 Y105.932 E-0.02879
;WIPE_END
G1 E-0.04800 F4200.000
G1 Z0.400 F9000.000
G1 X106.713 Y75.729
G1 Z0.200
G1 E3.20000 F2400.000
M204 S800
;TYPE:Perimeter
G1 F1200.000
G1 X106.713 Y104.252 E0.89431
G1 X107.932 Y104.318 E0.03827
G1 X108.349 Y104.403 E0.01333
G1 X108.754 Y104.544 E0.01345
G1 X109.137 Y104.737 E0.01345
G1 X109.496 Y104.984 E0.01366
G1 X109.707 Y105.167 E0.00877
G1 X109.902 Y105.368 E0.00877
G1 X110.168 Y105.713 E0.01366
G1 X110.382 Y106.084 E0.01345
G1 X110.546 Y106.481 E0.01345
G1 X110.656 Y106.902 E0.01366
G1 X110.696 Y107.179 E0.00877
G1 X110.712 Y107.458 E0.00877
G1 X110.687 Y107.900 E0.01386
G1 X110.641 Y108.175 E0.00877
G1 X110.570 Y108.446 E0.00877
G1 X110.411 Y108.858 E0.01386
G1 X110.282 Y109.107 E0.00877
G1 X110.132 Y109.342 E0.00877
G1 X109.854 Y109.686 E0.01386
G1 X109.655 Y109.883 E0.00877
G1 X109.434 Y110.065 E0.00897
G1 X109.198 Y110.227 E0.00897
G1 X108.949 Y110.368 E0.00897
G1 X108.688 Y110.485 E0.00897
G1 X108.424 Y110.577 E0.00877
G1 X107.993 Y110.675 E0.01386
G1 X107.715 Y110.706 E0.00877
G1 X107.429 Y110.712 E0.00897
G1 X107.143 Y110.693 E0.00897
G1 X106.860 Y110.648 E0.00897
G1 X106.583 Y110.579 E0.00897
G1 X106.320 Y110.488 E0.00870
G1 X105.925 Y110.299 E0.01372
G1 X105.561 Y110.061 E0.01365
G1 X105.345 Y109.883 E0.00877
G1 X105.142 Y109.682 E0.00897
G1 X104.957 Y109.463 E0.00897
G1 X104.793 Y109.229 E0.00897
G1 X104.649 Y108.981 E0.00897
G1 X104.529 Y108.722 E0.00897
G1 X104.432 Y108.452 E0.00897
G1 X104.360 Y108.175 E0.00897
G1 X104.312 Y107.893 E0.00897
G1 X104.290 Y107.608 E0.00897
G1 X104.293 Y107.322 E0.00897
G1 X104.321 Y107.045 E0.00873
G1 X104.613 Y105.713 E0.04273
G1 X95.173 Y105.713 E0.29598
G1 X95.173 Y103.294 E0.07586
G1 X95.155 Y102.876 E0.01313
G1 X95.100 Y102.440 E0.01377
G1 X94.953 Y101.814 E0.02017
G1 X94.729 Y101.211 E0.02017
G1 X94.531 Y100.812 E0.01396
G1 X94.187 Y100.269 E0.02017
G1 X93.773 Y99.768 E0.02036
G1 X93.304 Y99.328 E0.02017
G1 X92.955 Y99.062 E0.01377
G1 X92.584 Y98.826 E0.01377
G1 X92.008 Y98.540 E0.02017
G1 X91.400 Y98.328 E0.02018
G1 X90.914 Y98.214 E0.01567
G1 X89.086 Y98.214 E0.05730
G1 X88.600 Y98.328 E0.01567
G1 X87.992 Y98.540 E0.02018
G1 X87.411 Y98.829 E0.02036
G1 X86.870 Y99.189 E0.02036
G1 X86.383 Y99.610 E0.02020
G1 X86.063 Y99.953 E0.01469
G1 X85.690 Y100.447 E0.01943
G1 X85.368 Y101.004 E0.02015
G1 X85.189 Y101.406 E0.01380
G1 X85.039 Y101.843 E0.01449
G1 X84.900 Y102.441 E0.01924
G1 X84.845 Y102.876 E0.01375
G1 X84.827 Y103.294 E0.01313
G1 X84.827 Y105.713 E0.07586
G1 X75.388 Y105.713 E0.29598
G1 X75.680 Y107.045 E0.04273
G1 X75.707 Y107.322 E0.00873
G1 X75.711 Y107.601 E0.00877
G1 X75.666 Y108.041 E0.01386
G1 X75.608 Y108.315 E0.00877
G1 X75.523 Y108.588 E0.00897
G1 X75.414 Y108.853 E0.00897
G1 X75.285 Y109.101 E0.00877
G1 X75.039 Y109.468 E0.01386
G1 X74.858 Y109.682 E0.00877
G1 X74.655 Y109.883 E0.00897
G1 X74.434 Y110.065 E0.00897
G1 X74.198 Y110.227 E0.00897
G1 X73.949 Y110.368 E0.00897
G1 X73.694 Y110.482 E0.00877
G1 X73.273 Y110.618 E0.01386
G1 X72.999 Y110.674 E0.00877
G1 X72.715 Y110.706 E0.00897
G1 X72.429 Y110.712 E0.00897
G1 X72.143 Y110.693 E0.00897
G1 X71.860 Y110.648 E0.00897
G1 X71.589 Y110.581 E0.00877
G1 X71.175 Y110.426 E0.01386
G1 X70.925 Y110.300 E0.00877
G1 X70.689 Y110.153 E0.00870
G1 X70.346 Y109.882 E0.01372
G1 X70.043 Y109.569 E0.01365
G1 X69.722 Y109.112 E0.01752
G1 X69.527 Y108.715 E0.01386
G1 X69.361 Y108.182 E0.01752
G1 X69.297 Y107.744 E0.01387
G1 X69.288 Y107.466 E0.00872
G1 X69.304 Y107.179 E0.00902
G1 X69.345 Y106.896 E0.00897
G1 X69.410 Y106.624 E0.00877
G1 X69.558 Y106.214 E0.01366
