; generated by PrusaSlicer 2.3.0+win64 on 2021-06-05 at 19:34:56 UTC


;
;

;
;
; 

; external perimeters extrusion width = 0.45mm
; perimeters extrusion width = 0.45mm
; infill extrusion width = 0.45mm
; solid infill extrusion width = 0.45mm
; top infill extrusion width = 0.40mm
; first layer extrusion width = 0.42mm

M73 P0 R15
M201 X1250 Y1250 Z400 E5000 ; sets maximum accelerations, mm/sec^2
M203 X180 Y180 Z12 E80 ; sets maximum feedrates, mm/sec
M204 P1250 R1250 T1250 ; sets acceleration (P, T) and retract acceleration (R), mm/sec^2
M205 X8.00 Y8.00 Z2.00 E10.00 ; sets the jerk limits, mm/sec
M205 S0 T0 ; sets the minimum extruding and travel feed rate, mm/sec
M107
;TYPE:Custom
G90 ; use absolute coordinates
M83 ; extruder relative mode
M104 S170 ; set extruder temp for bed leveling
M140 S60 ; set bed temp
M109 R170 ; wait for bed leveling temp
M190 S60 ; wait for bed temp
G28 ; home all without mesh bed level
G29 ; mesh bed leveling 
M104 S215 ; set extruder temp
G92 E0.0
G1 Y-2.0 X179 F2400
G1 Z3 F720
M109 S215 ; wait for extruder temp

; intro line
G1 X170 F1000
G1 Z0.2 F720
G1 X110.0 E8.0 F900
M73 P1 R15
G1 X40.0 E10.0 F700
G92 E0.0

M221 S95 ; set flow
G21 ; set units to millimeters
G90 ; use absolute coordinates
M83 ; use relative distances for extrusion
M900 K0.2 ; Filament gcode LA 1.5
; ; Filament gcode LA 1.0
;LAYER_CHANGE
;Z:0.2
;HEIGHT:0.2
;BEFORE_LAYER_CHANGE
G92 E0.0
;0.2


G1 E-3.20000 F4200.000
G1 Z0.200 F9000.000
;AFTER_LAYER_CHANGE
;0.2
G1 Z0.400
G1 X60.313 Y82.570
G1 Z0.200
G1 E3.20000 F2400.000
M204 S800
;TYPE:Skirt
;WIDTH:0.42
G1 F1200.000
G1 X60.639 Y82.021 E0.02000
G1 X61.102 Y81.577 E0.02012
G1 X61.664 Y81.275 E0.02000
G1 X62.290 Y81.132 E0.02012
G1 X117.504 Y81.123 E1.73120
M73 P2 R15
G1 X118.180 Y81.222 E0.02142
G1 X118.800 Y81.510 E0.02142
G1 X119.312 Y81.962 E0.02142
G1 X119.675 Y82.541 E0.02142
G1 X119.875 Y83.400 E0.02767
G1 X119.837 Y86.422 E0.09476
G1 X116.165 Y97.481 E0.36536
G1 X115.833 Y98.013 E0.01965
G1 X115.374 Y98.439 E0.01965
G1 X114.820 Y98.731 E0.01965
G1 X114.208 Y98.868 E0.01965
G1 X65.996 Y98.877 E1.51165
G1 X65.456 Y98.814 E0.01704
G1 X64.931 Y98.623 E0.01752
G1 X64.465 Y98.315 E0.01752
G1 X64.084 Y97.907 E0.01752
G1 X63.810 Y97.424 E0.01740
G1 X60.241 Y86.726 E0.35360
G1 X60.132 Y86.194 E0.01704
G1 X60.126 Y83.382 E0.08817
G1 X60.299 Y82.628 E0.02426
M204 S1250
; printing object SwitchFaciarRetainer01.stl id:0 copy 0
G1 E-2.24000 F4200.000
;WIPE_START
G1 F7200.000
G1 X60.639 Y82.021 E-0.38534
G1 X61.102 Y81.577 E-0.35564
G1 X61.374 Y81.431 E-0.17102
;WIPE_END
G1 E-0.04800 F4200.000
G1 Z0.400 F9000.000
G1 X67.706 Y85.090
G1 Z0.200
G1 E3.20000 F2400.000
M204 S800
;TYPE:External perimeter
G1 F1200.000
G1 X112.294 Y85.090 E1.39804
G1 X108.888 Y94.282 E0.30736
G1 X108.516 Y95.191 E0.03080
G1 X108.199 Y95.811 E0.02184
G1 X71.801 Y95.811 E1.14124
M73 P3 R15
G1 X71.484 Y95.191 E0.02184
G1 X71.112 Y94.282 E0.03080
G1 X67.727 Y85.146 E0.30548
M204 S1250
G1 X67.658 Y84.693 F9000.000
G1 E-2.24000 F4200.000
;WIPE_START
G1 F7200.000
G1 X69.372 Y85.144 E-0.91200
;WIPE_END
G1 E-0.04800 F4200.000
G1 Z0.400 F9000.000
G1 X113.213 Y85.199
G1 Z0.200
G1 E3.20000 F2400.000
M204 S800
;TYPE:Perimeter
G1 F1200.000
G1 X113.213 Y95.713 E0.32965
G1 X109.493 Y95.715 E0.11664
G1 X108.652 Y95.754 E0.02640
G1 X108.859 Y95.349 E0.01429
G1 X109.240 Y94.419 E0.03150
G1 X112.836 Y84.713 E0.32454
G1 X67.164 Y84.713 E1.43202
G1 X70.760 Y94.419 E0.32454
G1 X71.141 Y95.349 E0.03150
G1 X71.348 Y95.754 E0.01429
G1 X70.507 Y95.715 E0.02640
G1 X66.787 Y95.713 E0.11664
G1 X66.787 Y85.199 E0.32965
M73 P3 R14
G1 X63.287 Y85.199 E0.10974
G1 X63.287 Y84.287 E0.02861
G1 X116.713 Y84.287 E1.67513
M73 P4 R14
G1 X116.713 Y85.199 E0.02861
G1 X113.273 Y85.199 E0.10786
M204 S1250
G1 X113.590 Y85.577 F9000.000
M204 S800
;TYPE:External perimeter
G1 F1200.000
G1 X113.590 Y96.090 E0.32965
G1 X109.497 Y96.092 E0.12832
G1 X108.989 Y96.105 E0.01596
G1 X107.991 Y96.189 E0.03139
G1 X72.009 Y96.189 E1.12820
G1 X71.011 Y96.105 E0.03139
G1 X70.503 Y96.092 E0.01596
G1 X66.410 Y96.090 E0.12832
G1 X66.410 Y85.577 E0.32965
G1 X62.910 Y85.577 E0.10974
G1 X62.910 Y83.910 E0.05225
G1 X117.090 Y83.910 E1.69878
G1 X117.090 Y85.577 E0.05225
G1 X113.650 Y85.577 E0.10786
M204 S1250
G1 X113.194 Y85.636 F9000.000
G1 X112.920 Y85.331
M204 S800
;TYPE:Gap fill
;WIDTH:0.178844
G1 F1200.000
G1 X112.977 Y85.011 E0.00368
G1 X113.349 Y84.476 E0.00737
M204 S1250
G1 X113.026 Y84.743 F9000.000
M204 S800
;WIDTH:0.57819
G1 F1200.000
G1 X116.524 Y84.743 E0.15571
M204 S1250
M73 P5 R14
G1 E-2.24000 F4200.000
;WIPE_START
G1 F7200.000
G1 X114.879 Y84.743 E-0.91200
;WIPE_END
G1 E-0.04800 F4200.000
G1 Z0.400 F9000.000
G1 X112.920 Y85.331
G1 Z0.200
G1 E3.20000 F2400.000
M204 S800
;WIDTH:0.277916
G1 F1200.000
G1 X112.862 Y85.652 E0.00636
M204 S1250
M204 S800
;WIDTH:0.371567
G1 X112.805 Y85.972 E0.00890
M204 S1250
M204 S800
;WIDTH:0.465218
G1 X112.776 Y86.133 E0.00572
M204 S1250
G1 X113.100 Y87.091 F9000.000
M204 S800
;TYPE:Solid infill
;WIDTH:0.429617
G1 F1200.000
G1 X112.484 Y86.476 E0.02799
G1 X112.337 Y86.875 E0.01368
G1 X112.930 Y87.469 E0.02699
G1 X112.930 Y88.015 E0.01758
G1 X112.189 Y87.274 E0.03372
G1 X112.041 Y87.673 E0.01368
G1 X112.930 Y88.562 E0.04044
G1 X112.930 Y89.109 E0.01758
G1 X111.893 Y88.072 E0.04716
G1 X111.745 Y88.471 E0.01368
G1 X112.930 Y89.656 E0.05389
G1 X112.930 Y90.203 E0.01758
G1 X111.597 Y88.870 E0.06061
G1 X111.449 Y89.269 E0.01368
G1 X112.930 Y90.750 E0.06733
G1 X112.930 Y91.297 E0.01758
G1 X111.302 Y89.668 E0.07406
G1 X111.154 Y90.067 E0.01368
G1 X112.930 Y91.844 E0.08078
G1 X112.930 Y92.390 E0.01758
G1 X111.006 Y90.466 E0.08750
G1 X110.858 Y90.865 E0.01368
G1 X112.930 Y92.937 E0.09423
G1 X112.930 Y93.484 E0.01758
G1 X110.710 Y91.264 E0.10095
G1 X110.562 Y91.663 E0.01368
G1 X112.930 Y94.031 E0.10767
G1 X112.930 Y94.578 E0.01758
G1 X110.414 Y92.062 E0.11440
G1 X110.267 Y92.461 E0.01368
G1 X112.930 Y95.125 E0.12112
G1 X112.930 Y95.431 E0.00983
G1 X112.689 Y95.431 E0.00775
G1 X110.119 Y92.860 E0.11689
G1 X109.971 Y93.259 E0.01368
G1 X112.143 Y95.431 E0.09875
G1 X111.596 Y95.431 E0.01758
G1 X109.823 Y93.658 E0.08062
G1 X109.675 Y94.057 E0.01368
G1 X111.049 Y95.432 E0.06249
G1 X110.503 Y95.432 E0.01758
G1 X109.527 Y94.456 E0.04436
G1 X109.370 Y94.846 E0.01352
G1 X109.956 Y95.432 E0.02664
G1 X109.413 Y95.436 E0.01747
G1 X109.081 Y95.104 E0.01507
M204 S1250
G1 E-2.24000 F4200.000
;WIPE_START
G1 F7200.000
G1 X109.413 Y95.436 E-0.25979
G1 X109.956 Y95.432 E-0.30104
G1 X109.508 Y94.984 E-0.35117
;WIPE_END
G1 E-0.04800 F4200.000
G1 Z0.400 F9000.000
G1 X68.041 Y87.406
G1 Z0.200
G1 E3.20000 F2400.000
M204 S800
;WIDTH:0.421657
G1 F1200.000
G1 X67.070 Y86.448 E0.04296
G1 X67.070 Y86.970 E0.01645
G1 X68.069 Y87.969 E0.04449
G1 X68.384 Y88.820 E0.02858
G1 X67.070 Y87.506 E0.05854
G1 X67.070 Y88.041 E0.01687
G1 X68.699 Y89.671 E0.07258
G1 X69.015 Y90.522 E0.02858
G1 X67.070 Y88.577 E0.08662
G1 X67.070 Y89.112 E0.01687
G1 X69.330 Y91.373 E0.10066
G1 X69.645 Y92.224 E0.02858
G1 X67.070 Y89.648 E0.11471
G1 X67.070 Y90.184 E0.01687
G1 X69.961 Y93.075 E0.12875
G1 X70.276 Y93.925 E0.02858
G1 X67.070 Y90.719 E0.14279
G1 X67.070 Y91.255 E0.01687
G1 X70.608 Y94.793 E0.15757
G1 X70.876 Y95.449 E0.02233
G1 X70.721 Y95.442 E0.00488
G1 X67.070 Y91.791 E0.16263
G1 X67.070 Y92.326 E0.01687
G1 X70.176 Y95.432 E0.13833
G1 X69.640 Y95.432 E0.01688
G1 X67.070 Y92.862 E0.11447
G1 X67.070 Y93.397 E0.01687
G1 X69.104 Y95.432 E0.09060
G1 X68.568 Y95.431 E0.01688
G1 X67.070 Y93.933 E0.06673
G1 X67.070 Y94.469 E0.01687
G1 X68.032 Y95.431 E0.04287
G1 X67.496 Y95.431 E0.01688
G1 X66.900 Y94.835 E0.02656
M204 S1250
G1 E-2.24000 F4200.000
;WIPE_START
G1 F7200.000
G1 X67.496 Y95.431 E-0.46731
G1 X68.032 Y95.431 E-0.29697
G1 X67.844 Y95.243 E-0.14772
;WIPE_END
G1 E-0.04800 F4200.000
G1 Z0.400 F9000.000
G1 X67.224 Y86.133
G1 Z0.200
G1 E3.20000 F2400.000
M204 S800
;TYPE:Gap fill
;WIDTH:0.465218
G1 F1200.000
G1 X67.195 Y85.972 E0.00572
M204 S1250
M204 S800
;WIDTH:0.418394
G1 X67.167 Y85.812 E0.00508
M204 S1250
M204 S800
;WIDTH:0.371569
G1 X67.138 Y85.652 E0.00445
M204 S1250
M204 S800
;WIDTH:0.324744
G1 X67.109 Y85.492 E0.00382
M204 S1250
M204 S800
;WIDTH:0.27792
G1 X67.080 Y85.331 E0.00318
M204 S1250
M204 S800
;WIDTH:0.231095
G1 X67.052 Y85.171 E0.00255
M204 S1250
M204 S800
;WIDTH:0.18427
G1 X67.023 Y85.011 E0.00191
G1 X66.651 Y84.476 E0.00766
M204 S1250
G1 X66.974 Y84.743 F9000.000
M204 S800
;WIDTH:0.57819
G1 F1200.000
G1 X63.476 Y84.743 E0.15571
M204 S1250
; stop printing object SwitchFaciarRetainer01.stl id:0 copy 0
M106 S84.15
;LAYER_CHANGE
;Z:0.4
;HEIGHT:0.2
;BEFORE_LAYER_CHANGE
G92 E0.0
;0.4


G1 E-2.24000 F4200.000
;WIPE_START
G1 F7200.000
G1 X65.121 Y84.743 E-0.91200
;WIPE_END
G1 E-0.04800 F4200.000
G1 Z0.400 F9000.000
;AFTER_LAYER_CHANGE
;0.4
G1 Z0.600
G1 X60.313 Y82.570
G1 Z0.400
G1 E3.20000 F2400.000
;TYPE:Skirt
;WIDTH:0.42
M73 P6 R14
G1 X60.639 Y82.021 E0.02000
G1 X61.102 Y81.577 E0.02012
G1 X61.664 Y81.275 E0.02000
G1 X62.290 Y81.132 E0.02012
G1 X117.504 Y81.123 E1.73120
G1 X118.180 Y81.222 E0.02142
G1 X118.800 Y81.510 E0.02142
G1 X119.312 Y81.962 E0.02142
G1 X119.675 Y82.541 E0.02142
G1 X119.875 Y83.400 E0.02767
G1 X119.837 Y86.422 E0.09476
G1 X116.165 Y97.481 E0.36536
G1 X115.833 Y98.013 E0.01965
G1 X115.374 Y98.439 E0.01965
G1 X114.820 Y98.731 E0.01965
G1 X114.208 Y98.868 E0.01965
G1 X65.996 Y98.877 E1.51165
G1 X65.456 Y98.814 E0.01704
G1 X64.931 Y98.623 E0.01752
G1 X64.465 Y98.315 E0.01752
G1 X64.084 Y97.907 E0.01752
G1 X63.810 Y97.424 E0.01740
G1 X60.241 Y86.726 E0.35360
G1 X60.132 Y86.194 E0.01704
G1 X60.126 Y83.382 E0.08817
G1 X60.299 Y82.628 E0.02426
; printing object SwitchFaciarRetainer01.stl id:0 copy 0
G1 E-2.24000 F4200.000
;WIPE_START
G1 F7200.000
G1 X60.639 Y82.021 E-0.38534
G1 X61.102 Y81.577 E-0.35564
G1 X61.374 Y81.431 E-0.17102
;WIPE_END
G1 E-0.04800 F4200.000
G1 Z0.600 F9000.000
G1 X67.972 Y85.275
G1 Z0.400
G1 E3.20000 F2400.000
M204 S800
;TYPE:External perimeter
;WIDTH:0.45
G1 F1800.000
G1 X112.028 Y85.275 E1.49127
G1 X108.157 Y95.725 E0.37722
G1 X71.843 Y95.725 E1.22916
G1 X67.992 Y85.331 E0.37519
M204 S1250
G1 X67.802 Y84.913 F9000.000
G1 E-2.24000 F4200.000
;WIPE_START
G1 F7200.000
G1 X69.638 Y85.329 E-0.91200
;WIPE_END
G1 E-0.04800 F4200.000
G1 Z0.600 F9000.000
G1 X113.368 Y85.354
G1 Z0.400
G1 E3.20000 F2400.000
M204 S800
;TYPE:Perimeter
G1 X113.368 Y95.868 E0.35587
G1 X108.538 Y95.868 E0.16350
G1 X112.613 Y84.868 E0.39707
M73 P7 R14
G1 X67.387 Y84.868 E1.53087
G1 X71.462 Y95.868 E0.39707
G1 X66.632 Y95.868 E0.16350
G1 X66.632 Y85.354 E0.35587
G1 X63.132 Y85.354 E0.11847
G1 X63.132 Y84.132 E0.04138
G1 X116.868 Y84.132 E1.81889
G1 X116.868 Y85.354 E0.04138
G1 X113.428 Y85.354 E0.11644
M204 S1250
G1 X113.775 Y85.762 F9000.000
M204 S800
;TYPE:External perimeter
G1 F1800.000
G1 X113.775 Y96.275 E0.35587
G1 X66.225 Y96.275 E1.60951
G1 X66.225 Y85.762 E0.35587
G1 X62.725 Y85.762 E0.11847
G1 X62.725 Y83.725 E0.06893
G1 X117.275 Y83.725 E1.84645
G1 X117.275 Y85.762 E0.06893
G1 X113.835 Y85.762 E0.11644
M204 S1250
G1 X113.381 Y85.831 F9000.000
G1 X113.246 Y85.523
M204 S1000
;TYPE:Solid infill
;WIDTH:0.457639
G1 F4800.000
G1 X112.373 Y86.396 E0.04257
G1 X112.028 Y87.327 E0.03426
G1 X113.063 Y86.292 E0.05047
G1 X113.063 Y86.879 E0.02022
G1 X111.682 Y88.259 E0.06731
G1 X111.337 Y89.191 E0.03426
G1 X113.063 Y87.465 E0.08414
G1 X113.063 Y88.052 E0.02022
G1 X110.992 Y90.122 E0.10098
G1 X110.647 Y91.054 E0.03426
G1 X113.063 Y88.638 E0.11781
M73 P8 R14
G1 X113.063 Y89.225 E0.02022
G1 X110.302 Y91.986 E0.13465
G1 X109.956 Y92.918 E0.03426
G1 X113.063 Y89.811 E0.15148
G1 X113.063 Y90.398 E0.02022
G1 X109.611 Y93.849 E0.16831
G1 X109.266 Y94.781 E0.03426
G1 X113.063 Y90.984 E0.18515
G1 X113.063 Y91.571 E0.02022
G1 X109.071 Y95.563 E0.19467
G1 X109.657 Y95.563 E0.02022
G1 X113.063 Y92.157 E0.16607
G1 X113.063 Y92.744 E0.02022
G1 X110.244 Y95.563 E0.13746
G1 X110.830 Y95.563 E0.02022
G1 X113.063 Y93.330 E0.10886
G1 X113.063 Y93.917 E0.02022
G1 X111.417 Y95.563 E0.08026
G1 X112.003 Y95.563 E0.02022
G1 X113.063 Y94.503 E0.05166
G1 X113.063 Y95.090 E0.02022
G1 X112.407 Y95.746 E0.03199
M204 S1250
G1 E-2.24000 F4200.000
;WIPE_START
G1 F7200.000
G1 X113.063 Y95.090 E-0.51406
G1 X113.063 Y94.503 E-0.32502
G1 X112.970 Y94.596 E-0.07292
;WIPE_END
G1 E-0.04800 F4200.000
G1 Z0.600 F9000.000
G1 X108.272 Y96.000
G1 Z0.400
G1 E3.20000 F2400.000
;TYPE:Gap fill
;WIDTH:0.185842
G1 X71.728 Y96.000 E0.43428
G1 X70.433 Y95.746 F9000.000
M204 S1000
;TYPE:Solid infill
;WIDTH:0.450032
G1 F4800.000
G1 X70.914 Y95.266 E0.02298
G1 X70.758 Y94.846 E0.01517
G1 X70.041 Y95.563 E0.03432
G1 X69.465 Y95.563 E0.01949
G1 X70.602 Y94.426 E0.05444
G1 X70.447 Y94.005 E0.01517
G1 X68.889 Y95.563 E0.07455
G1 X68.314 Y95.563 E0.01949
G1 X70.291 Y93.585 E0.09466
G1 X70.135 Y93.165 E0.01517
G1 X67.738 Y95.563 E0.11477
G1 X67.162 Y95.563 E0.01949
G1 X69.980 Y92.745 E0.13488
G1 X69.824 Y92.325 E0.01517
G1 X66.937 Y95.212 E0.13819
G1 X66.937 Y94.636 E0.01949
G1 X69.668 Y91.905 E0.13074
G1 X69.513 Y91.485 E0.01517
G1 X66.937 Y94.060 E0.12329
G1 X66.937 Y93.484 E0.01949
G1 X69.357 Y91.065 E0.11584
G1 X69.201 Y90.645 E0.01517
G1 X66.937 Y92.909 E0.10839
G1 X66.937 Y92.333 E0.01949
G1 X69.046 Y90.225 E0.10094
G1 X68.890 Y89.804 E0.01517
G1 X66.937 Y91.757 E0.09349
G1 X66.937 Y91.182 E0.01949
G1 X68.734 Y89.384 E0.08603
G1 X68.579 Y88.964 E0.01517
G1 X66.937 Y90.606 E0.07858
G1 X66.937 Y90.030 E0.01949
G1 X68.423 Y88.544 E0.07113
G1 X68.268 Y88.124 E0.01517
G1 X66.937 Y89.454 E0.06368
G1 X66.937 Y88.879 E0.01949
G1 X68.112 Y87.704 E0.05623
G1 X67.956 Y87.284 E0.01517
G1 X66.937 Y88.303 E0.04878
G1 X66.937 Y87.727 E0.01949
G1 X67.801 Y86.864 E0.04133
G1 X67.645 Y86.444 E0.01517
G1 X66.937 Y87.151 E0.03387
G1 X66.937 Y86.576 E0.01949
G1 X67.489 Y86.024 E0.02642
G1 X67.334 Y85.604 E0.01517
G1 X66.937 Y86.000 E0.01897
G1 X66.937 Y85.424 E0.01949
G1 X67.178 Y85.183 E0.01152
G1 X67.107 Y84.991 E0.00694
G1 X66.795 Y84.991 E0.01057
G1 X66.737 Y85.049 E0.00278
G1 X66.161 Y85.049 E0.01949
G1 X66.728 Y84.482 E0.02715
G1 X66.728 Y84.437 E0.00151
G1 X66.197 Y84.437 E0.01798
G1 X65.585 Y85.049 E0.02929
G1 X65.009 Y85.049 E0.01949
G1 X65.621 Y84.437 E0.02929
G1 X65.045 Y84.437 E0.01949
G1 X64.434 Y85.049 E0.02929
G1 X63.858 Y85.049 E0.01949
G1 X64.470 Y84.437 E0.02929
G1 X63.894 Y84.437 E0.01949
G1 X63.254 Y85.077 E0.03062
M204 S1250
G1 E-2.24000 F4200.000
;WIPE_START
G1 F7200.000
G1 X63.894 Y84.437 E-0.50132
G1 X64.470 Y84.437 E-0.31906
G1 X64.353 Y84.554 E-0.09162
;WIPE_END
G1 E-0.04800 F4200.000
G1 Z0.600 F9000.000
G1 X67.033 Y84.500
G1 Z0.400
G1 E3.20000 F2400.000
;TYPE:Gap fill
;WIDTH:0.371684
G1 X112.967 Y84.500 E1.25567
G1 X112.408 Y85.774 F9000.000
M204 S1000
;TYPE:Solid infill
;WIDTH:0.457639
G1 F4800.000
G1 X113.745 Y84.437 E0.06520
G1 X114.331 Y84.437 E0.02022
G1 X113.719 Y85.049 E0.02983
G1 X114.306 Y85.049 E0.02022
G1 X114.918 Y84.437 E0.02983
G1 X115.504 Y84.437 E0.02022
G1 X114.892 Y85.049 E0.02983
G1 X115.479 Y85.049 E0.02022
G1 X116.091 Y84.437 E0.02983
G1 X116.563 Y84.437 E0.01628
G1 X116.563 Y84.552 E0.00395
G1 X115.882 Y85.232 E0.03318
M204 S1250
; stop printing object SwitchFaciarRetainer01.stl id:0 copy 0
M106 S170.85
;LAYER_CHANGE
;Z:0.6
;HEIGHT:0.2
;BEFORE_LAYER_CHANGE
G92 E0.0
;0.6


G1 E-2.24000 F4200.000
;WIPE_START
G1 F7200.000
G1 X116.563 Y84.552 E-0.53327
G1 X116.563 Y84.437 E-0.06345
G1 X116.091 Y84.437 E-0.26157
G1 X116.022 Y84.506 E-0.05371
;WIPE_END
G1 E-0.04800 F4200.000
G1 Z0.600 F9000.000
;AFTER_LAYER_CHANGE
;0.6
G1 Z0.800
G1 X119.675 Y82.541
G1 Z0.600
G1 E3.20000 F2400.000
;TYPE:Skirt
;WIDTH:0.42
G1 X119.875 Y83.400 E0.02767
G1 X119.837 Y86.422 E0.09476
G1 X116.165 Y97.481 E0.36536
G1 X115.833 Y98.013 E0.01965
G1 X115.374 Y98.439 E0.01965
G1 X114.820 Y98.731 E0.01965
G1 X114.208 Y98.868 E0.01965
G1 X65.996 Y98.877 E1.51165
M73 P9 R14
G1 X65.456 Y98.814 E0.01704
G1 X64.931 Y98.623 E0.01752
G1 X64.465 Y98.315 E0.01752
G1 X64.084 Y97.907 E0.01752
G1 X63.810 Y97.424 E0.01740
G1 X60.241 Y86.726 E0.35360
G1 X60.132 Y86.194 E0.01704
G1 X60.126 Y83.382 E0.08817
