; generated by PrusaSlicer 2.3.0+win64 on 2021-04-21 at 20:02:29 UTC


;
;

;
;
; 

; external perimeters extrusion width = 0.45mm
; perimeters extrusion width = 0.45mm
; infill extrusion width = 0.45mm
; solid infill extrusion width = 0.45mm
; top infill extrusion width = 0.40mm
; first layer extrusion width = 0.42mm

M73 P0 R5
M201 X1250 Y1250 Z400 E5000 ; sets maximum accelerations, mm/sec^2
M203 X180 Y180 Z12 E80 ; sets maximum feedrates, mm/sec
M204 P1250 R1250 T1250 ; sets acceleration (P, T) and retract acceleration (R), mm/sec^2
M205 X8.00 Y8.00 Z2.00 E10.00 ; sets the jerk limits, mm/sec
M205 S0 T0 ; sets the minimum extruding and travel feed rate, mm/sec
M107
;TYPE:Custom
G90 ; use absolute coordinates
M83 ; extruder relative mode
M104 S170 ; set extruder temp for bed leveling
M140 S60 ; set bed temp
M109 R170 ; wait for bed leveling temp
M190 S60 ; wait for bed temp
G28 ; home all without mesh bed level
G29 ; mesh bed leveling 
M104 S215 ; set extruder temp
G92 E0.0
G1 Y-2.0 X179 F2400
M73 P1 R5
G1 Z3 F720
M109 S215 ; wait for extruder temp

; intro line
G1 X170 F1000
G1 Z0.2 F720
G1 X110.0 E8.0 F900
M73 P3 R5
G1 X40.0 E10.0 F700
G92 E0.0

M221 S95 ; set flow
G21 ; set units to millimeters
G90 ; use absolute coordinates
M83 ; use relative distances for extrusion
M900 K0.2 ; Filament gcode LA 1.5
; ; Filament gcode LA 1.0
;LAYER_CHANGE
;Z:0.2
;HEIGHT:0.2
;BEFORE_LAYER_CHANGE
G92 E0.0
;0.2


M73 P5 R5
G1 E-3.20000 F4200.000
G1 Z0.200 F9000.000
;AFTER_LAYER_CHANGE
;0.2
G1 Z0.400
G1 X80.486 Y82.302
G1 Z0.200
G1 E3.20000 F2400.000
M204 S800
;TYPE:Skirt
;WIDTH:0.42
G1 F1200.000
G1 X81.317 Y82.147 E0.02651
G1 X98.604 Y82.146 E0.54202
G1 X99.586 Y82.328 E0.03132
G1 X100.439 Y82.849 E0.03132
G1 X101.049 Y83.640 E0.03132
G1 X101.338 Y84.601 E0.03145
G1 X101.344 Y95.333 E0.33652
M73 P6 R5
G1 X101.235 Y95.900 E0.01809
G1 X101.011 Y96.432 E0.01809
G1 X100.680 Y96.905 E0.01809
G1 X100.259 Y97.299 E0.01809
G1 X99.514 Y97.698 E0.02651
G1 X98.683 Y97.853 E0.02651
G1 X81.330 Y97.853 E0.54407
G1 X80.718 Y97.768 E0.01937
G1 X80.141 Y97.549 E0.01937
G1 X79.626 Y97.207 E0.01937
G1 X79.201 Y96.759 E0.01937
G1 X78.809 Y96.033 E0.02587
G1 X78.649 Y95.228 E0.02574
G1 X78.648 Y84.793 E0.32716
G1 X78.739 Y84.191 E0.01912
G1 X78.960 Y83.623 E0.01912
G1 X79.301 Y83.117 E0.01912
G1 X79.741 Y82.701 E0.01899
G1 X80.433 Y82.330 E0.02462
M204 S1250
G1 X80.607 Y82.663 F9000.000
M204 S800
G1 F1200.000
G1 X81.342 Y82.524 E0.02345
G1 X98.604 Y82.523 E0.54124
G1 X99.460 Y82.684 E0.02731
G1 X100.201 Y83.143 E0.02731
G1 X100.726 Y83.837 E0.02731
M73 P7 R5
G1 X100.966 Y84.671 E0.02720
G1 X100.970 Y95.286 E0.33285
G1 X100.876 Y95.787 E0.01597
G1 X100.677 Y96.256 E0.01597
G1 X100.383 Y96.672 E0.01597
G1 X100.004 Y97.018 E0.01609
G1 X99.368 Y97.350 E0.02249
G1 X98.658 Y97.476 E0.02260
G1 X81.339 Y97.476 E0.54303
G1 X80.801 Y97.400 E0.01704
G1 X80.297 Y97.206 E0.01692
G1 X79.851 Y96.903 E0.01692
G1 X79.482 Y96.504 E0.01704
G1 X79.155 Y95.882 E0.02201
G1 X79.025 Y95.192 E0.02201
G1 X79.025 Y84.809 E0.32558
G1 X79.106 Y84.279 E0.01680
G1 X79.301 Y83.784 E0.01668
G1 X79.602 Y83.345 E0.01668
G1 X79.996 Y82.982 E0.01680
G1 X80.554 Y82.691 E0.01972
M204 S1250
; printing object SwitchBox.stl id:0 copy 0
G1 E-2.24000 F4200.000
;WIPE_START
G1 F7200.000
G1 X81.342 Y82.524 E-0.44644
G1 X82.182 Y82.524 E-0.46556
;WIPE_END
G1 E-0.04800 F4200.000
G1 Z0.400 F9000.000
G1 X88.413 Y87.213
G1 Z0.200
G1 E3.20000 F2400.000
M204 S800
;TYPE:Perimeter
G1 F1200.000
G1 X91.587 Y87.213 E0.09952
M73 P8 R5
G1 X91.587 Y92.787 E0.17477
G1 X88.413 Y92.787 E0.09952
G1 X88.413 Y87.273 E0.17289
M204 S1250
G1 X88.790 Y87.590 F9000.000
M204 S800
;TYPE:External perimeter
G1 F1200.000
G1 X91.210 Y87.590 E0.07588
G1 X91.210 Y92.410 E0.15113
G1 X88.790 Y92.410 E0.07588
G1 X88.790 Y87.650 E0.14925
M204 S1250
G1 X88.728 Y87.195 F9000.000
G1 E-2.24000 F4200.000
;WIPE_START
G1 F7200.000
G1 X90.435 Y87.609 E-0.91200
;WIPE_END
G1 E-0.04800 F4200.000
G1 Z0.400 F9000.000
G1 X93.113 Y87.213
G1 Z0.200
G1 E3.20000 F2400.000
M204 S800
;TYPE:Perimeter
G1 F1200.000
G1 X96.287 Y87.213 E0.09952
G1 X96.287 Y92.787 E0.17477
G1 X93.113 Y92.787 E0.09952
G1 X93.113 Y87.273 E0.17289
M204 S1250
G1 X93.490 Y87.590 F9000.000
M204 S800
;TYPE:External perimeter
G1 F1200.000
G1 X95.910 Y87.590 E0.07588
M73 P9 R5
G1 X95.910 Y92.410 E0.15113
G1 X93.490 Y92.410 E0.07588
G1 X93.490 Y87.650 E0.14925
M204 S1250
G1 X93.428 Y87.195 F9000.000
G1 E-2.24000 F4200.000
;WIPE_START
G1 F7200.000
G1 X95.135 Y87.609 E-0.91200
;WIPE_END
G1 E-0.04800 F4200.000
G1 Z0.400 F9000.000
G1 X83.713 Y87.213
G1 Z0.200
G1 E3.20000 F2400.000
M204 S800
;TYPE:Perimeter
G1 F1200.000
G1 X86.887 Y87.213 E0.09952
G1 X86.887 Y92.787 E0.17477
G1 X83.713 Y92.787 E0.09952
G1 X83.713 Y87.273 E0.17289
M204 S1250
G1 X84.090 Y87.590 F9000.000
M204 S800
;TYPE:External perimeter
G1 F1200.000
G1 X86.510 Y87.590 E0.07588
G1 X86.510 Y92.410 E0.15113
G1 X84.090 Y92.410 E0.07588
G1 X84.090 Y87.650 E0.14925
M204 S1250
G1 X84.028 Y87.195 F9000.000
G1 E-2.24000 F4200.000
;WIPE_START
G1 F7200.000
G1 X85.735 Y87.609 E-0.91200
;WIPE_END
G1 E-0.04800 F4200.000
G1 Z0.400 F9000.000
M73 P10 R5
G1 X82.187 Y85.687
G1 Z0.200
G1 E3.20000 F2400.000
M204 S800
;TYPE:Perimeter
G1 F1200.000
G1 X97.813 Y85.687 E0.48994
G1 X97.813 Y94.313 E0.27046
G1 X82.187 Y94.313 E0.48994
G1 X82.187 Y85.747 E0.26858
M204 S1250
M73 P10 R4
G1 X81.810 Y85.310 F9000.000
M204 S800
;TYPE:External perimeter
G1 F1200.000
G1 X98.190 Y85.310 E0.51358
M73 P11 R4
G1 X98.190 Y94.690 E0.29410
G1 X81.810 Y94.690 E0.51358
G1 X81.810 Y85.370 E0.29222
M204 S1250
G1 X82.204 Y85.379 F9000.000
G1 E-2.24000 F4200.000
;WIPE_START
G1 F7200.000
G1 X83.456 Y85.364 E-0.91200
;WIPE_END
G1 E-0.04800 F4200.000
G1 Z0.400 F9000.000
G1 X96.924 Y85.800
G1 Z0.200
G1 E3.20000 F2400.000
M204 S800
;TYPE:Solid infill
;WIDTH:0.4266
G1 F1200.000
G1 X97.530 Y86.407 E0.02737
G1 X97.530 Y86.949 E0.01731
G1 X96.551 Y85.970 E0.04419
G1 X96.008 Y85.970 E0.01731
G1 X97.530 Y87.492 E0.06867
M73 P12 R4
G1 X97.530 Y88.035 E0.01731
G1 X95.465 Y85.970 E0.09316
G1 X94.923 Y85.970 E0.01731
G1 X95.883 Y86.930 E0.04332
G1 X95.340 Y86.930 E0.01731
G1 X94.380 Y85.970 E0.04332
G1 X93.838 Y85.970 E0.01731
G1 X94.798 Y86.930 E0.04332
G1 X94.255 Y86.930 E0.01731
G1 X93.295 Y85.970 E0.04332
G1 X92.752 Y85.970 E0.01731
G1 X93.713 Y86.930 E0.04332
G1 X93.170 Y86.930 E0.01731
G1 X92.210 Y85.970 E0.04332
G1 X91.667 Y85.970 E0.01731
G1 X92.830 Y87.133 E0.05247
G1 X92.830 Y87.675 E0.01731
G1 X91.125 Y85.970 E0.07695
G1 X90.582 Y85.970 E0.01731
G1 X92.830 Y88.218 E0.10143
G1 X92.830 Y88.761 E0.01731
G1 X91.870 Y87.800 E0.04332
G1 X91.870 Y88.343 E0.01731
G1 X92.830 Y89.303 E0.04332
G1 X92.830 Y89.846 E0.01731
G1 X91.870 Y88.886 E0.04332
G1 X91.870 Y89.428 E0.01731
G1 X92.830 Y90.388 E0.04332
G1 X92.830 Y90.931 E0.01731
G1 X91.870 Y89.971 E0.04332
G1 X91.870 Y90.513 E0.01731
G1 X92.830 Y91.474 E0.04332
G1 X92.830 Y92.016 E0.01731
G1 X91.700 Y90.886 E0.05098
M204 S1250
G1 E-2.24000 F4200.000
;WIPE_START
G1 F7200.000
G1 X92.830 Y92.016 E-0.88554
G1 X92.830 Y91.969 E-0.02646
;WIPE_END
G1 E-0.04800 F4200.000
G1 Z0.400 F9000.000
G1 X97.700 Y88.747
G1 Z0.200
G1 E3.20000 F2400.000
M204 S800
G1 F1200.000
G1 X96.570 Y87.617 E0.05098
G1 X96.570 Y88.160 E0.01731
G1 X97.530 Y89.120 E0.04332
G1 X97.530 Y89.662 E0.01731
G1 X96.570 Y88.702 E0.04332
G1 X96.570 Y89.245 E0.01731
G1 X97.530 Y90.205 E0.04332
G1 X97.530 Y90.748 E0.01731
M73 P13 R4
G1 X96.570 Y89.787 E0.04332
G1 X96.570 Y90.330 E0.01731
G1 X97.530 Y91.290 E0.04332
G1 X97.530 Y91.833 E0.01731
G1 X96.570 Y90.873 E0.04332
G1 X96.570 Y91.415 E0.01731
G1 X97.530 Y92.375 E0.04332
G1 X97.530 Y92.918 E0.01731
G1 X96.570 Y91.958 E0.04332
G1 X96.570 Y92.500 E0.01731
G1 X97.530 Y93.461 E0.04332
G1 X97.530 Y94.003 E0.01731
G1 X96.570 Y93.043 E0.04332
G1 X96.570 Y93.070 E0.00086
G1 X96.054 Y93.070 E0.01645
G1 X97.014 Y94.030 E0.04332
G1 X96.472 Y94.030 E0.01731
G1 X95.512 Y93.070 E0.04332
G1 X94.969 Y93.070 E0.01731
G1 X95.929 Y94.030 E0.04332
G1 X95.387 Y94.030 E0.01731
G1 X94.426 Y93.070 E0.04332
G1 X93.884 Y93.070 E0.01731
G1 X94.844 Y94.030 E0.04332
G1 X94.301 Y94.030 E0.01731
G1 X93.341 Y93.070 E0.04332
G1 X92.830 Y93.070 E0.01630
G1 X92.830 Y92.559 E0.01630
G1 X91.870 Y91.599 E0.04332
G1 X91.870 Y92.141 E0.01731
G1 X93.759 Y94.030 E0.08522
G1 X93.216 Y94.030 E0.01731
G1 X91.870 Y92.684 E0.06074
G1 X91.870 Y93.070 E0.01232
G1 X91.713 Y93.070 E0.00500
G1 X92.674 Y94.030 E0.04332
G1 X92.131 Y94.030 E0.01731
G1 X91.171 Y93.070 E0.04332
G1 X90.628 Y93.070 E0.01731
G1 X91.588 Y94.030 E0.04332
G1 X91.046 Y94.030 E0.01731
G1 X90.085 Y93.070 E0.04332
G1 X89.543 Y93.070 E0.01731
G1 X90.503 Y94.030 E0.04332
G1 X89.961 Y94.030 E0.01731
G1 X88.831 Y92.900 E0.05098
M204 S1250
G1 E-2.24000 F4200.000
;WIPE_START
G1 F7200.000
G1 X89.961 Y94.030 E-0.88554
G1 X90.008 Y94.030 E-0.02646
;WIPE_END
G1 E-0.04800 F4200.000
G1 Z0.400 F9000.000
G1 X91.169 Y87.100
G1 Z0.200
G1 E3.20000 F2400.000
M204 S800
G1 F1200.000
G1 X90.039 Y85.970 E0.05098
M73 P14 R4
G1 X89.497 Y85.970 E0.01731
G1 X90.457 Y86.930 E0.04332
G1 X89.914 Y86.930 E0.01731
G1 X88.954 Y85.970 E0.04332
G1 X88.412 Y85.970 E0.01731
G1 X89.372 Y86.930 E0.04332
G1 X88.829 Y86.930 E0.01731
G1 X87.869 Y85.970 E0.04332
G1 X87.326 Y85.970 E0.01731
G1 X88.287 Y86.930 E0.04332
G1 X88.130 Y86.930 E0.00499
G1 X88.130 Y87.316 E0.01232
G1 X86.784 Y85.970 E0.06075
G1 X86.241 Y85.970 E0.01731
G1 X88.130 Y87.859 E0.08523
G1 X88.130 Y88.401 E0.01731
G1 X87.170 Y87.441 E0.04332
G1 X87.170 Y86.930 E0.01631
G1 X86.659 Y86.930 E0.01631
G1 X85.699 Y85.970 E0.04332
G1 X85.156 Y85.970 E0.01731
G1 X86.116 Y86.930 E0.04332
G1 X85.574 Y86.930 E0.01731
G1 X84.613 Y85.970 E0.04332
G1 X84.071 Y85.970 E0.01731
G1 X85.031 Y86.930 E0.04332
G1 X84.488 Y86.930 E0.01731
G1 X83.528 Y85.970 E0.04332
G1 X82.985 Y85.970 E0.01731
G1 X83.946 Y86.930 E0.04332
G1 X83.430 Y86.930 E0.01645
G1 X83.430 Y86.957 E0.00086
G1 X82.470 Y85.997 E0.04332
G1 X82.470 Y86.539 E0.01731
G1 X83.430 Y87.500 E0.04332
G1 X83.430 Y88.042 E0.01731
G1 X82.470 Y87.082 E0.04332
G1 X82.470 Y87.625 E0.01731
G1 X83.430 Y88.585 E0.04332
G1 X83.430 Y89.128 E0.01731
G1 X82.470 Y88.167 E0.04332
G1 X82.470 Y88.710 E0.01731
G1 X83.430 Y89.670 E0.04332
G1 X83.430 Y90.213 E0.01731
G1 X82.470 Y89.253 E0.04332
G1 X82.470 Y89.795 E0.01731
G1 X83.430 Y90.755 E0.04332
G1 X83.430 Y91.298 E0.01731
G1 X82.470 Y90.338 E0.04332
G1 X82.470 Y90.880 E0.01731
G1 X83.430 Y91.841 E0.04332
G1 X83.430 Y92.383 E0.01731
G1 X82.300 Y91.253 E0.05098
M204 S1250
G1 E-2.24000 F4200.000
;WIPE_START
G1 F7200.000
G1 X83.430 Y92.383 E-0.88554
M73 P15 R4
G1 X83.430 Y92.335 E-0.02646
;WIPE_END
G1 E-0.04800 F4200.000
G1 Z0.400 F9000.000
G1 X87.000 Y87.814
G1 Z0.200
G1 E3.20000 F2400.000
M204 S800
G1 F1200.000
G1 X88.130 Y88.944 E0.05098
G1 X88.130 Y89.487 E0.01731
G1 X87.170 Y88.526 E0.04332
G1 X87.170 Y89.069 E0.01731
G1 X88.130 Y90.029 E0.04332
G1 X88.130 Y90.572 E0.01731
G1 X87.170 Y89.612 E0.04332
G1 X87.170 Y90.154 E0.01731
G1 X88.130 Y91.115 E0.04332
G1 X88.130 Y91.657 E0.01731
G1 X87.170 Y90.697 E0.04332
G1 X87.170 Y91.239 E0.01731
G1 X88.300 Y92.369 E0.05098
M204 S1250
G1 E-2.24000 F4200.000
;WIPE_START
G1 F7200.000
G1 X87.170 Y91.239 E-0.88554
G1 X87.170 Y91.192 E-0.02646
;WIPE_END
G1 E-0.04800 F4200.000
G1 Z0.400 F9000.000
G1 X87.000 Y91.612
G1 Z0.200
G1 E3.20000 F2400.000
M204 S800
G1 F1200.000
G1 X89.418 Y94.030 E0.10908
G1 X88.875 Y94.030 E0.01731
G1 X87.170 Y92.325 E0.07695
G1 X87.170 Y92.867 E0.01731
G1 X88.333 Y94.030 E0.05246
G1 X87.790 Y94.030 E0.01731
G1 X86.830 Y93.070 E0.04332
G1 X86.287 Y93.070 E0.01731
G1 X87.247 Y94.030 E0.04332
G1 X86.705 Y94.030 E0.01731
G1 X85.745 Y93.070 E0.04332
G1 X85.202 Y93.070 E0.01731
G1 X86.162 Y94.030 E0.04332
G1 X85.620 Y94.030 E0.01731
G1 X84.659 Y93.070 E0.04332
G1 X84.117 Y93.070 E0.01731
G1 X85.077 Y94.030 E0.04332
G1 X84.534 Y94.030 E0.01731
G1 X82.470 Y91.966 E0.09315
G1 X82.470 Y92.508 E0.01731
G1 X83.992 Y94.030 E0.06867
G1 X83.449 Y94.030 E0.01731
G1 X82.470 Y93.051 E0.04419
G1 X82.470 Y93.593 E0.01731
G1 X83.076 Y94.200 E0.02736
M204 S1250
; stop printing object SwitchBox.stl id:0 copy 0
M106 S84.15
;LAYER_CHANGE
;Z:0.4
;HEIGHT:0.2
;BEFORE_LAYER_CHANGE
G92 E0.0
;0.4


G1 E-2.24000 F4200.000
;WIPE_START
M73 P16 R4
G1 F7200.000
G1 X82.470 Y93.593 E-0.47528
G1 X82.470 Y93.051 E-0.30069
G1 X82.643 Y93.224 E-0.13602
;WIPE_END
G1 E-0.04800 F4200.000
G1 Z0.400 F9000.000
;AFTER_LAYER_CHANGE
;0.4
G1 Z0.600
G1 X78.809 Y96.033
G1 Z0.400
G1 E3.20000 F2400.000
;TYPE:Skirt
;WIDTH:0.42
G1 X78.649 Y95.228 E0.02574
G1 X78.648 Y84.793 E0.32716
G1 X78.739 Y84.191 E0.01912
G1 X78.960 Y83.623 E0.01912
G1 X79.301 Y83.117 E0.01912
G1 X79.741 Y82.701 E0.01899
G1 X80.486 Y82.302 E0.02651
G1 X81.317 Y82.147 E0.02651
G1 X98.604 Y82.146 E0.54202
G1 X99.586 Y82.328 E0.03132
G1 X100.439 Y82.849 E0.03132
G1 X101.049 Y83.640 E0.03132
G1 X101.338 Y84.601 E0.03145
G1 X101.344 Y95.333 E0.33652
G1 X101.235 Y95.900 E0.01809
G1 X101.011 Y96.432 E0.01809
G1 X100.680 Y96.905 E0.01809
G1 X100.259 Y97.299 E0.01809
G1 X99.514 Y97.698 E0.02651
G1 X98.683 Y97.853 E0.02651
G1 X81.330 Y97.853 E0.54407
G1 X80.718 Y97.768 E0.01937
G1 X80.141 Y97.549 E0.01937
G1 X79.626 Y97.207 E0.01937
G1 X79.201 Y96.759 E0.01937
G1 X78.837 Y96.086 E0.02399
G1 X79.170 Y95.911 F9000.000
G1 F2400.000
G1 X79.025 Y95.192 E0.02298
G1 X79.025 Y84.809 E0.32558
G1 X79.106 Y84.279 E0.01680
G1 X79.301 Y83.784 E0.01668
G1 X79.602 Y83.345 E0.01668
G1 X79.996 Y82.982 E0.01680
G1 X80.632 Y82.650 E0.02249
G1 X81.342 Y82.524 E0.02260
G1 X98.604 Y82.523 E0.54124
M73 P17 R4
G1 X99.460 Y82.684 E0.02731
G1 X100.201 Y83.143 E0.02731
G1 X100.726 Y83.837 E0.02731
G1 X100.966 Y84.671 E0.02720
G1 X100.970 Y95.286 E0.33285
G1 X100.876 Y95.787 E0.01597
G1 X100.677 Y96.256 E0.01597
G1 X100.383 Y96.672 E0.01597
G1 X100.004 Y97.018 E0.01609
G1 X99.368 Y97.350 E0.02249
G1 X98.658 Y97.476 E0.02260
G1 X81.339 Y97.476 E0.54303
G1 X80.801 Y97.400 E0.01704
G1 X80.297 Y97.206 E0.01692
G1 X79.851 Y96.903 E0.01692
G1 X79.482 Y96.504 E0.01704
G1 X79.198 Y95.964 E0.01912
; printing object SwitchBox.stl id:0 copy 0
G1 E-2.24000 F4200.000
;WIPE_START
G1 F7200.000
G1 X79.025 Y95.192 E-0.43826
G1 X79.025 Y94.338 E-0.47374
;WIPE_END
G1 E-0.04800 F4200.000
G1 Z0.600 F9000.000
G1 X88.568 Y92.632
G1 Z0.400
G1 E3.20000 F2400.000
M204 S800
;TYPE:Perimeter
;WIDTH:0.45
G1 F1500.000
G1 X88.568 Y87.368 E0.17819
G1 X91.432 Y87.368 E0.09695
G1 X91.432 Y92.632 E0.17819
G1 X88.628 Y92.632 E0.09492
M204 S1250
G1 X88.975 Y92.225 F9000.000
M204 S800
;TYPE:External perimeter
G1 F1500.000
G1 X88.975 Y87.775 E0.15063
G1 X91.025 Y87.775 E0.06939
G1 X91.025 Y92.225 E0.15063
G1 X89.035 Y92.225 E0.06736
M204 S1250
G1 X88.603 Y92.373 F9000.000
G1 E-2.24000 F4200.000
;WIPE_START
G1 F7200.000
G1 X89.013 Y90.579 E-0.91200
;WIPE_END
G1 E-0.04800 F4200.000
G1 Z0.600 F9000.000
M73 P18 R4
G1 X93.268 Y87.368
G1 Z0.400
G1 E3.20000 F2400.000
M204 S800
;TYPE:Perimeter
G1 F1500.000
G1 X96.132 Y87.368 E0.09695
G1 X96.132 Y92.632 E0.17819
G1 X93.268 Y92.632 E0.09695
G1 X93.268 Y87.428 E0.17615
M204 S1250
G1 X93.675 Y87.775 F9000.000
M204 S800
;TYPE:External perimeter
G1 F1500.000
G1 X95.725 Y87.775 E0.06939
G1 X95.725 Y92.225 E0.15063
G1 X93.675 Y92.225 E0.06939
G1 X93.675 Y87.835 E0.14860
M204 S1250
G1 X93.618 Y87.379 F9000.000
G1 E-2.24000 F4200.000
;WIPE_START
G1 F7200.000
G1 X95.320 Y87.787 E-0.91200
;WIPE_END
G1 E-0.04800 F4200.000
G1 Z0.600 F9000.000
G1 X83.868 Y87.368
G1 Z0.400
G1 E3.20000 F2400.000
M204 S800
;TYPE:Perimeter
G1 F1500.000
G1 X86.732 Y87.368 E0.09695
G1 X86.732 Y92.632 E0.17819
G1 X83.868 Y92.632 E0.09695
G1 X83.868 Y87.428 E0.17615
M204 S1250
G1 X84.275 Y87.775 F9000.000
M204 S800
;TYPE:External perimeter
G1 F1500.000
G1 X86.325 Y87.775 E0.06939
G1 X86.325 Y92.225 E0.15063
M73 P19 R4
G1 X84.275 Y92.225 E0.06939
G1 X84.275 Y87.835 E0.14860
M204 S1250
G1 X84.218 Y87.379 F9000.000
G1 E-2.24000 F4200.000
;WIPE_START
G1 F7200.000
G1 X85.920 Y87.787 E-0.91200
;WIPE_END
G1 E-0.04800 F4200.000
G1 Z0.600 F9000.000
G1 X82.032 Y85.532
G1 Z0.400
