; generated by PrusaSlicer 2.3.0+win64 on 2021-06-05 at 15:36:20 UTC


;
;

;
;
; 

; external perimeters extrusion width = 0.45mm
; perimeters extrusion width = 0.45mm
; infill extrusion width = 0.45mm
; solid infill extrusion width = 0.45mm
; top infill extrusion width = 0.40mm
; first layer extrusion width = 0.42mm

M73 P0 R22
M201 X1250 Y1250 Z400 E5000 ; sets maximum accelerations, mm/sec^2
M203 X180 Y180 Z12 E80 ; sets maximum feedrates, mm/sec
M204 P1250 R1250 T1250 ; sets acceleration (P, T) and retract acceleration (R), mm/sec^2
M205 X8.00 Y8.00 Z2.00 E10.00 ; sets the jerk limits, mm/sec
M205 S0 T0 ; sets the minimum extruding and travel feed rate, mm/sec
M107
;TYPE:Custom
G90 ; use absolute coordinates
M83 ; extruder relative mode
M104 S170 ; set extruder temp for bed leveling
M140 S60 ; set bed temp
M109 R170 ; wait for bed leveling temp
M190 S60 ; wait for bed temp
G28 ; home all without mesh bed level
G29 ; mesh bed leveling 
M104 S215 ; set extruder temp
G92 E0.0
G1 Y-2.0 X179 F2400
G1 Z3 F720
M109 S215 ; wait for extruder temp

; intro line
G1 X170 F1000
G1 Z0.2 F720
G1 X110.0 E8.0 F900
G1 X40.0 E10.0 F700
G92 E0.0

M221 S95 ; set flow
G21 ; set units to millimeters
G90 ; use absolute coordinates
M83 ; use relative distances for extrusion
M900 K0.2 ; Filament gcode LA 1.5
; ; Filament gcode LA 1.0
;LAYER_CHANGE
;Z:0.2
;HEIGHT:0.2
;BEFORE_LAYER_CHANGE
G92 E0.0
;0.2


M73 P1 R21
G1 E-3.20000 F4200.000
G1 Z0.200 F9000.000
;AFTER_LAYER_CHANGE
;0.2
G1 Z0.400
G1 X64.048 Y62.822
G1 Z0.200
G1 E3.20000 F2400.000
M204 S800
;TYPE:Skirt
;WIDTH:0.42
G1 F1200.000
G1 X64.965 Y62.623 E0.02942
G1 X115.004 Y62.623 E1.56894
G1 X115.895 Y62.798 E0.02849
G1 X116.656 Y63.295 E0.02849
G1 X117.175 Y64.041 E0.02849
G1 X117.376 Y64.927 E0.02849
G1 X117.377 Y115.030 E1.57097
G1 X117.201 Y115.899 E0.02778
G1 X116.719 Y116.642 E0.02778
G1 X115.938 Y117.184 E0.02977
G1 X115.005 Y117.377 E0.02989
G1 X64.970 Y117.377 E1.56882
G1 X64.101 Y117.201 E0.02778
G1 X63.358 Y116.719 E0.02778
G1 X62.816 Y115.938 E0.02977
G1 X62.623 Y115.005 E0.02989
G1 X62.623 Y64.970 E1.56882
M73 P2 R21
G1 X62.799 Y64.101 E0.02778
G1 X63.281 Y63.358 E0.02778
G1 X63.998 Y62.856 E0.02743
M204 S1250
; printing object SwitchFaciaBacking01.stl id:0 copy 0
G1 E-2.24000 F4200.000
;WIPE_START
G1 F7200.000
G1 X64.965 Y62.623 E-0.55087
G1 X65.616 Y62.623 E-0.36113
;WIPE_END
G1 E-0.04800 F4200.000
G1 Z0.400 F9000.000
G1 X72.259 Y104.194
G1 Z0.200
G1 E3.20000 F2400.000
M204 S800
;TYPE:Perimeter
G1 F1200.000
G1 X72.627 Y104.133 E0.01169
G1 X72.994 Y104.112 E0.01153
G1 X73.549 Y104.156 E0.01745
G1 X73.922 Y104.240 E0.01199
G1 X74.283 Y104.364 E0.01196
G1 X74.768 Y104.609 E0.01704
G1 X75.081 Y104.826 E0.01196
G1 X75.362 Y105.072 E0.01170
G1 X75.615 Y105.346 E0.01170
G1 X75.841 Y105.653 E0.01196
G1 X76.100 Y106.131 E0.01704
G1 X76.234 Y106.489 E0.01196
G1 X76.325 Y106.850 E0.01170
G1 X76.376 Y107.216 E0.01158
G1 X76.388 Y107.500 E0.00890
G1 X76.376 Y107.784 E0.00890
G1 X76.325 Y108.150 E0.01158
G1 X76.234 Y108.511 E0.01170
G1 X76.100 Y108.869 E0.01196
G1 X75.841 Y109.347 E0.01704
G1 X75.615 Y109.654 E0.01196
G1 X75.362 Y109.928 E0.01170
G1 X75.081 Y110.173 E0.01169
G1 X74.779 Y110.383 E0.01153
G1 X74.276 Y110.640 E0.01770
G1 X73.749 Y110.805 E0.01732
G1 X73.373 Y110.867 E0.01196
G1 X73.000 Y110.888 E0.01170
G1 X72.627 Y110.867 E0.01170
G1 X72.251 Y110.805 E0.01196
G1 X71.725 Y110.640 E0.01730
G1 X71.232 Y110.391 E0.01730
G1 X70.919 Y110.174 E0.01196
G1 X70.631 Y109.923 E0.01196
G1 X70.274 Y109.513 E0.01704
G1 X70.066 Y109.194 E0.01196
G1 X69.894 Y108.854 E0.01196
G1 X69.717 Y108.340 E0.01704
G1 X69.644 Y107.965 E0.01196
G1 X69.613 Y107.585 E0.01196
G1 X69.643 Y107.043 E0.01704
G1 X69.716 Y106.668 E0.01196
G1 X69.827 Y106.312 E0.01170
G1 X69.977 Y105.971 E0.01169
G1 X70.160 Y105.652 E0.01153
G1 X70.501 Y105.212 E0.01745
G1 X70.775 Y104.945 E0.01197
G1 X71.065 Y104.719 E0.01153
G1 X71.546 Y104.439 E0.01745
G1 X71.900 Y104.296 E0.01199
G1 X72.201 Y104.210 E0.00982
M204 S1250
G1 X72.304 Y104.573 F9000.000
M204 S800
;TYPE:External perimeter
G1 F1200.000
G1 X72.669 Y104.508 E0.01162
G1 X72.990 Y104.490 E0.01008
G1 X73.492 Y104.530 E0.01581
G1 X73.819 Y104.603 E0.01050
G1 X74.136 Y104.712 E0.01049
G1 X74.574 Y104.934 E0.01541
G1 X74.849 Y105.124 E0.01049
G1 X75.099 Y105.342 E0.01040
G1 X75.324 Y105.586 E0.01040
G1 X75.522 Y105.856 E0.01049
G1 X75.756 Y106.288 E0.01541
G1 X75.873 Y106.601 E0.01049
G1 X75.955 Y106.923 E0.01040
G1 X76.000 Y107.250 E0.01035
G1 X76.010 Y107.500 E0.00785
G1 X76.000 Y107.750 E0.00785
G1 X75.955 Y108.077 E0.01035
G1 X75.873 Y108.399 E0.01040
G1 X75.756 Y108.712 E0.01049
G1 X75.522 Y109.144 E0.01541
G1 X75.324 Y109.414 E0.01049
G1 X75.099 Y109.658 E0.01040
G1 X74.849 Y109.876 E0.01040
G1 X74.585 Y110.059 E0.01008
G1 X74.133 Y110.289 E0.01590
G1 X73.661 Y110.437 E0.01551
G1 X73.331 Y110.492 E0.01049
G1 X73.000 Y110.510 E0.01040
G1 X72.669 Y110.492 E0.01040
G1 X72.339 Y110.437 E0.01049
G1 X71.867 Y110.289 E0.01550
G1 X71.426 Y110.066 E0.01550
G1 X71.151 Y109.876 E0.01049
G1 X70.899 Y109.656 E0.01049
G1 X70.576 Y109.285 E0.01541
G1 X70.393 Y109.005 E0.01049
G1 X70.242 Y108.707 E0.01049
G1 X70.082 Y108.242 E0.01541
G1 X70.018 Y107.913 E0.01049
G1 X69.991 Y107.580 E0.01049
G1 X70.018 Y107.089 E0.01541
G1 X70.082 Y106.761 E0.01049
G1 X70.181 Y106.444 E0.01040
G1 X70.314 Y106.141 E0.01040
G1 X70.474 Y105.862 E0.01008
G1 X70.783 Y105.463 E0.01581
G1 X71.023 Y105.230 E0.01050
G1 X71.276 Y105.032 E0.01008
G1 X71.712 Y104.779 E0.01581
G1 X72.023 Y104.653 E0.01050
G1 X72.246 Y104.589 E0.00729
M204 S1250
G1 X72.411 Y104.219 F9000.000
G1 E-2.24000 F4200.000
;WIPE_START
G1 F7200.000
G1 X72.669 Y104.508 E-0.23845
G1 X72.990 Y104.490 E-0.17822
G1 X73.492 Y104.530 E-0.27939
G1 X73.819 Y104.603 E-0.18558
G1 X73.871 Y104.621 E-0.03036
;WIPE_END
G1 E-0.04800 F4200.000
G1 Z0.400 F9000.000
G1 X104.624 Y107.220
G1 Z0.200
G1 E3.20000 F2400.000
M204 S800
;TYPE:Perimeter
G1 F1200.000
G1 X104.676 Y106.842 E0.01196
G1 X104.824 Y106.319 E0.01704
G1 X104.977 Y105.971 E0.01195
G1 X105.160 Y105.652 E0.01153
G1 X105.506 Y105.205 E0.01770
G1 X105.912 Y104.831 E0.01732
G1 X106.226 Y104.614 E0.01196
G1 X106.554 Y104.436 E0.01170
G1 X106.900 Y104.296 E0.01170
G1 X107.259 Y104.194 E0.01170
G1 X107.627 Y104.133 E0.01169
G1 X107.994 Y104.112 E0.01153
G1 X108.549 Y104.156 E0.01745
G1 X108.922 Y104.240 E0.01199
G1 X109.283 Y104.364 E0.01196
G1 X109.768 Y104.609 E0.01704
G1 X110.081 Y104.826 E0.01196
G1 X110.369 Y105.077 E0.01196
G1 X110.726 Y105.487 E0.01704
G1 X110.934 Y105.806 E0.01196
G1 X111.103 Y106.139 E0.01170
G1 X111.234 Y106.489 E0.01170
G1 X111.325 Y106.850 E0.01170
G1 X111.376 Y107.216 E0.01158
G1 X111.376 Y107.784 E0.01779
G1 X111.325 Y108.150 E0.01158
G1 X111.234 Y108.511 E0.01170
G1 X111.103 Y108.861 E0.01170
G1 X110.934 Y109.194 E0.01169
G1 X110.733 Y109.502 E0.01153
G1 X110.369 Y109.923 E0.01745
G1 X110.081 Y110.173 E0.01197
G1 X109.779 Y110.383 E0.01153
G1 X109.276 Y110.640 E0.01770
G1 X108.749 Y110.805 E0.01732
G1 X108.373 Y110.867 E0.01196
G1 X108.000 Y110.888 E0.01170
G1 X107.627 Y110.867 E0.01170
G1 X107.251 Y110.805 E0.01196
G1 X106.732 Y110.642 E0.01704
G1 X106.387 Y110.480 E0.01196
G1 X106.063 Y110.280 E0.01196
G1 X105.643 Y109.934 E0.01704
G1 X105.385 Y109.654 E0.01196
G1 X105.159 Y109.347 E0.01196
G1 X104.896 Y108.861 E0.01730
G1 X104.717 Y108.340 E0.01730
G1 X104.644 Y107.965 E0.01196
G1 X104.613 Y107.593 E0.01170
G1 X104.622 Y107.280 E0.00982
M204 S1250
G1 X105.046 Y106.920 F9000.000
M204 S800
;TYPE:External perimeter
G1 F1200.000
G1 X105.180 Y106.447 E0.01541
G1 X105.314 Y106.141 E0.01049
G1 X105.474 Y105.862 E0.01008
G1 X105.785 Y105.461 E0.01590
G1 X106.149 Y105.126 E0.01551
G1 X106.424 Y104.935 E0.01049
G1 X106.715 Y104.778 E0.01040
G1 X107.023 Y104.653 E0.01040
G1 X107.342 Y104.562 E0.01040
G1 X107.669 Y104.508 E0.01040
G1 X107.990 Y104.490 E0.01008
G1 X108.492 Y104.530 E0.01581
G1 X108.819 Y104.603 E0.01050
G1 X109.136 Y104.712 E0.01049
G1 X109.574 Y104.934 E0.01541
G1 X109.849 Y105.124 E0.01049
G1 X110.101 Y105.344 E0.01049
G1 X110.424 Y105.715 E0.01541
G1 X110.607 Y105.995 E0.01049
G1 X110.757 Y106.291 E0.01040
G1 X110.873 Y106.601 E0.01040
G1 X110.955 Y106.923 E0.01040
G1 X111.000 Y107.250 E0.01035
G1 X111.010 Y107.500 E0.00785
G1 X111.000 Y107.750 E0.00785
G1 X110.955 Y108.077 E0.01035
G1 X110.873 Y108.399 E0.01040
G1 X110.757 Y108.709 E0.01040
G1 X110.607 Y109.005 E0.01040
G1 X110.432 Y109.275 E0.01008
G1 X110.102 Y109.656 E0.01581
G1 X109.849 Y109.876 E0.01050
G1 X109.585 Y110.059 E0.01008
G1 X109.133 Y110.289 E0.01590
G1 X108.661 Y110.437 E0.01551
G1 X108.331 Y110.492 E0.01049
G1 X108.000 Y110.510 E0.01040
G1 X107.669 Y110.492 E0.01040
G1 X107.339 Y110.437 E0.01049
G1 X106.870 Y110.290 E0.01541
G1 X106.567 Y110.148 E0.01049
G1 X106.282 Y109.972 E0.01049
G1 X105.903 Y109.660 E0.01541
G1 X105.676 Y109.414 E0.01049
G1 X105.478 Y109.144 E0.01049
G1 X105.243 Y108.709 E0.01550
G1 X105.082 Y108.242 E0.01550
G1 X105.018 Y107.913 E0.01049
G1 X104.991 Y107.583 E0.01040
G1 X105.000 Y107.251 E0.01040
G1 X105.038 Y106.979 E0.00861
M204 S1250
G1 X104.749 Y106.652 F9000.000
G1 E-2.24000 F4200.000
;WIPE_START
G1 F7200.000
G1 X105.180 Y106.447 E-0.30531
G1 X105.314 Y106.141 E-0.18534
G1 X105.474 Y105.862 E-0.17822
G1 X105.743 Y105.515 E-0.24313
;WIPE_END
G1 E-0.04800 F4200.000
G1 Z0.400 F9000.000
G1 X107.627 Y75.867
G1 Z0.200
G1 E3.20000 F2400.000
M204 S800
;TYPE:Perimeter
G1 F1200.000
G1 X107.251 Y75.805 E0.01196
G1 X106.725 Y75.640 E0.01730
G1 X106.232 Y75.391 E0.01730
G1 X105.919 Y75.174 E0.01196
G1 X105.638 Y74.928 E0.01170
G1 X105.385 Y74.654 E0.01170
G1 X105.159 Y74.347 E0.01196
G1 X104.896 Y73.861 E0.01730
G1 X104.717 Y73.340 E0.01730
G1 X104.644 Y72.965 E0.01196
G1 X104.613 Y72.593 E0.01170
G1 X104.624 Y72.220 E0.01170
G1 X104.676 Y71.842 E0.01196
G1 X104.824 Y71.319 E0.01704
G1 X104.977 Y70.971 E0.01195
G1 X105.160 Y70.652 E0.01153
G1 X105.506 Y70.205 E0.01770
G1 X105.912 Y69.831 E0.01732
G1 X106.226 Y69.614 E0.01196
G1 X106.554 Y69.436 E0.01170
G1 X106.900 Y69.296 E0.01170
G1 X107.259 Y69.194 E0.01170
G1 X107.627 Y69.133 E0.01169
G1 X107.994 Y69.112 E0.01153
G1 X108.549 Y69.156 E0.01745
G1 X108.922 Y69.240 E0.01199
G1 X109.283 Y69.364 E0.01196
G1 X109.768 Y69.609 E0.01704
G1 X110.081 Y69.826 E0.01196
G1 X110.369 Y70.077 E0.01196
G1 X110.726 Y70.487 E0.01704
G1 X110.934 Y70.806 E0.01196
G1 X111.103 Y71.139 E0.01170
G1 X111.234 Y71.489 E0.01170
G1 X111.325 Y71.850 E0.01170
G1 X111.376 Y72.216 E0.01158
G1 X111.376 Y72.784 E0.01779
G1 X111.325 Y73.150 E0.01158
G1 X111.234 Y73.511 E0.01170
G1 X111.103 Y73.861 E0.01170
G1 X110.934 Y74.194 E0.01169
G1 X110.733 Y74.502 E0.01153
G1 X110.369 Y74.923 E0.01745
G1 X110.081 Y75.173 E0.01197
G1 X109.779 Y75.383 E0.01153
G1 X109.283 Y75.636 E0.01745
G1 X108.922 Y75.760 E0.01197
G1 X108.563 Y75.841 E0.01153
G1 X108.009 Y75.889 E0.01745
G1 X107.687 Y75.871 E0.01010
M204 S1250
G1 X108.003 Y75.511 F9000.000
M204 S800
;TYPE:External perimeter
G1 F1200.000
G1 X107.669 Y75.492 E0.01050
G1 X107.339 Y75.437 E0.01049
G1 X106.867 Y75.289 E0.01550
G1 X106.426 Y75.066 E0.01550
G1 X106.151 Y74.876 E0.01049
G1 X105.901 Y74.658 E0.01040
G1 X105.676 Y74.414 E0.01040
G1 X105.478 Y74.144 E0.01049
G1 X105.243 Y73.709 E0.01550
G1 X105.082 Y73.242 E0.01550
G1 X105.018 Y72.913 E0.01049
G1 X104.991 Y72.583 E0.01040
G1 X105.000 Y72.251 E0.01040
G1 X105.046 Y71.920 E0.01049
G1 X105.180 Y71.447 E0.01541
G1 X105.314 Y71.141 E0.01049
G1 X105.474 Y70.862 E0.01008
G1 X105.785 Y70.461 E0.01590
G1 X106.149 Y70.126 E0.01551
G1 X106.424 Y69.935 E0.01049
G1 X106.715 Y69.778 E0.01040
G1 X107.023 Y69.653 E0.01040
G1 X107.342 Y69.562 E0.01040
G1 X107.669 Y69.508 E0.01040
G1 X107.990 Y69.490 E0.01008
G1 X108.492 Y69.530 E0.01581
G1 X108.819 Y69.603 E0.01050
G1 X109.136 Y69.712 E0.01049
G1 X109.574 Y69.934 E0.01541
G1 X109.849 Y70.124 E0.01049
G1 X110.101 Y70.344 E0.01049
G1 X110.424 Y70.715 E0.01541
G1 X110.607 Y70.995 E0.01049
G1 X110.757 Y71.291 E0.01040
G1 X110.873 Y71.601 E0.01040
G1 X110.955 Y71.923 E0.01040
G1 X111.000 Y72.250 E0.01035
G1 X111.010 Y72.500 E0.00785
G1 X111.000 Y72.750 E0.00785
G1 X110.955 Y73.077 E0.01035
G1 X110.873 Y73.399 E0.01040
G1 X110.757 Y73.709 E0.01040
G1 X110.607 Y74.005 E0.01040
G1 X110.432 Y74.275 E0.01008
G1 X110.102 Y74.656 E0.01581
G1 X109.849 Y74.876 E0.01050
G1 X109.585 Y75.059 E0.01008
G1 X109.136 Y75.288 E0.01581
G1 X108.819 Y75.397 E0.01050
G1 X108.506 Y75.467 E0.01008
G1 X108.063 Y75.505 E0.01393
M204 S1250
G1 X107.839 Y75.802 F9000.000
G1 E-2.24000 F4200.000
;WIPE_START
G1 F7200.000
G1 X107.669 Y75.492 E-0.21856
G1 X107.339 Y75.437 E-0.18541
G1 X106.867 Y75.289 E-0.27395
G1 X106.490 Y75.099 E-0.23408
;WIPE_END
G1 E-0.04800 F4200.000
G1 Z0.400 F9000.000
G1 X76.842 Y67.476
G1 Z0.200
G1 E3.20000 F2400.000
M204 S800
;TYPE:Perimeter
G1 F1200.000
G1 X104.158 Y67.476 E0.85646
G1 X104.158 Y77.644 E0.31881
G1 X112.213 Y77.644 E0.25257
G1 X112.213 Y102.356 E0.77485
M73 P3 R21
G1 X104.158 Y102.356 E0.25257
G1 X104.158 Y112.524 E0.31881
G1 X76.842 Y112.524 E0.85646
G1 X76.842 Y102.356 E0.31881
G1 X68.787 Y102.356 E0.25257
G1 X68.787 Y77.644 E0.77485
G1 X76.842 Y77.644 E0.25257
G1 X76.842 Y67.536 E0.31693
M204 S1250
G1 X77.219 Y67.853 F9000.000
M204 S800
;TYPE:External perimeter
G1 F1200.000
G1 X103.781 Y67.853 E0.83282
G1 X103.781 Y78.021 E0.31881
G1 X111.836 Y78.021 E0.25257
G1 X111.836 Y101.979 E0.75120
G1 X103.781 Y101.979 E0.25257
G1 X103.781 Y112.147 E0.31881
G1 X77.219 Y112.147 E0.83282
G1 X77.219 Y101.979 E0.31881
G1 X69.164 Y101.979 E0.25257
G1 X69.164 Y78.021 E0.75120
M73 P4 R21
G1 X77.219 Y78.021 E0.25257
G1 X77.219 Y67.913 E0.31693
M204 S1250
G1 X77.308 Y67.463 F9000.000
G1 E-2.24000 F4200.000
;WIPE_START
G1 F7200.000
G1 X78.865 Y67.909 E-0.91200
;WIPE_END
G1 E-0.04800 F4200.000
G1 Z0.400 F9000.000
G1 X75.357 Y70.066
G1 Z0.200
G1 E3.20000 F2400.000
M204 S800
;TYPE:Perimeter
G1 F1200.000
G1 X75.615 Y70.346 E0.01196
G1 X75.841 Y70.653 E0.01196
G1 X76.100 Y71.131 E0.01704
G1 X76.234 Y71.489 E0.01196
G1 X76.325 Y71.850 E0.01170
G1 X76.376 Y72.216 E0.01158
G1 X76.388 Y72.500 E0.00890
G1 X76.376 Y72.784 E0.00890
G1 X76.325 Y73.150 E0.01158
G1 X76.234 Y73.511 E0.01170
G1 X76.100 Y73.869 E0.01196
G1 X75.841 Y74.347 E0.01704
G1 X75.615 Y74.654 E0.01196
G1 X75.362 Y74.928 E0.01170
G1 X75.081 Y75.173 E0.01169
G1 X74.779 Y75.383 E0.01153
G1 X74.283 Y75.636 E0.01745
G1 X73.922 Y75.760 E0.01197
G1 X73.563 Y75.841 E0.01153
G1 X73.009 Y75.889 E0.01745
G1 X72.627 Y75.867 E0.01199
G1 X72.251 Y75.805 E0.01196
G1 X71.725 Y75.640 E0.01730
G1 X71.232 Y75.391 E0.01730
G1 X70.919 Y75.174 E0.01196
G1 X70.631 Y74.923 E0.01196
G1 X70.274 Y74.513 E0.01704
G1 X70.066 Y74.194 E0.01196
G1 X69.894 Y73.854 E0.01196
G1 X69.717 Y73.340 E0.01704
G1 X69.644 Y72.965 E0.01196
G1 X69.613 Y72.585 E0.01196
G1 X69.643 Y72.043 E0.01704
G1 X69.716 Y71.668 E0.01196
G1 X69.827 Y71.312 E0.01170
G1 X69.977 Y70.971 E0.01169
G1 X70.160 Y70.652 E0.01153
G1 X70.506 Y70.205 E0.01770
G1 X70.912 Y69.831 E0.01732
G1 X71.226 Y69.614 E0.01196
G1 X71.554 Y69.436 E0.01170
G1 X71.900 Y69.296 E0.01170
G1 X72.259 Y69.194 E0.01170
G1 X72.627 Y69.133 E0.01169
G1 X72.994 Y69.112 E0.01153
G1 X73.549 Y69.156 E0.01745
G1 X73.922 Y69.240 E0.01199
G1 X74.275 Y69.361 E0.01170
G1 X74.613 Y69.520 E0.01170
G1 X74.937 Y69.720 E0.01196
G1 X75.311 Y70.027 E0.01516
M204 S1250
G1 X75.071 Y70.318 F9000.000
M204 S800
;TYPE:External perimeter
G1 F1200.000
G1 X75.324 Y70.586 E0.01155
G1 X75.522 Y70.856 E0.01049
G1 X75.756 Y71.288 E0.01541
G1 X75.873 Y71.601 E0.01049
G1 X75.955 Y71.923 E0.01040
G1 X76.000 Y72.250 E0.01035
G1 X76.010 Y72.500 E0.00785
G1 X76.000 Y72.750 E0.00785
G1 X75.955 Y73.077 E0.01035
G1 X75.873 Y73.399 E0.01040
G1 X75.756 Y73.712 E0.01049
G1 X75.522 Y74.144 E0.01541
G1 X75.324 Y74.414 E0.01049
G1 X75.099 Y74.658 E0.01040
G1 X74.849 Y74.876 E0.01040
G1 X74.585 Y75.059 E0.01008
G1 X74.136 Y75.288 E0.01581
G1 X73.819 Y75.397 E0.01050
G1 X73.506 Y75.467 E0.01008
G1 X73.003 Y75.511 E0.01581
G1 X72.669 Y75.492 E0.01050
G1 X72.339 Y75.437 E0.01049
