; generated by PrusaSlicer 2.2.0+win64 on 2020-10-27 at 13:32:04 UTC


;
;

;
;
; 

; external perimeters extrusion width = 0.45mm
; perimeters extrusion width = 0.45mm
; infill extrusion width = 0.45mm
; solid infill extrusion width = 0.45mm
; top infill extrusion width = 0.40mm
; first layer extrusion width = 0.42mm

M73 P0 R7
M201 X1250 Y1250 Z400 E5000 ; sets maximum accelerations, mm/sec^2
M203 X180 Y180 Z12 E80 ; sets maximum feedrates, mm/sec
M204 P1250 R1250 T1250 ; sets acceleration (P, T) and retract acceleration (R), mm/sec^2
M205 X8.00 Y8.00 Z2.00 E10.00 ; sets the jerk limits, mm/sec
M205 S0 T0 ; sets the minimum extruding and travel feed rate, mm/sec
M107
G90 ; use absolute coordinates
M83 ; extruder relative mode
M104 S170 ; set extruder temp for bed leveling
M140 S60 ; set bed temp
M109 R170 ; wait for bed leveling temp
M190 S60 ; wait for bed temp
G28 ; home all without mesh bed level
G29 ; mesh bed leveling 
M104 S215 ; set extruder temp
G92 E0.0
G1 Y-2.0 X179 F2400
G1 Z3 F720
M109 S215 ; wait for extruder temp

; intro line
G1 X170 F1000
G1 Z0.2 F720
G1 X110.0 E8.0 F900
M73 P2 R7
G1 X40.0 E10.0 F700
G92 E0.0

M221 S95 ; set flow
G21 ; set units to millimeters
G90 ; use absolute coordinates
M83 ; use relative distances for extrusion
M900 K0.2 ; Filament gcode LA 1.5
; ; Filament gcode LA 1.0
;BEFORE_LAYER_CHANGE
G92 E0.0
;0.2


G1 Z0.200 F9000.000
;AFTER_LAYER_CHANGE
;0.2
G1 E-3.20000 F4200.00000
G1 Z0.400 F9000.000
G1 X63.886 Y61.424
G1 Z0.200
G1 E3.20000 F2400.00000
M204 S800
G1 F1200.000
G1 X65.341 Y60.015 E0.06353
G1 X66.807 Y58.916 E0.05744
G1 X72.346 Y55.521 E0.20370
G1 X74.123 Y54.641 E0.06215
G1 X76.045 Y53.924 E0.06435
G1 X77.727 Y53.515 E0.05428
G1 X79.489 Y53.277 E0.05572
G1 X81.476 Y53.203 E0.06237
G1 X83.448 Y53.343 E0.06197
G1 X85.778 Y53.819 E0.07455
G1 X109.659 Y59.859 E0.77238
G1 X112.206 Y61.197 E0.09019
G1 X114.533 Y63.157 E0.09541
G1 X116.747 Y65.782 E0.10766
G1 X118.224 Y68.051 E0.08490
G1 X118.971 Y69.857 E0.06127
G1 X119.124 Y70.938 E0.03423
G1 X122.276 Y121.367 E1.58425
G1 X122.027 Y122.815 E0.04608
G1 X121.129 Y124.508 E0.06008
G1 X119.539 Y126.146 E0.07157
G1 X118.987 Y126.536 E0.02119
G1 X118.456 Y126.732 E0.01775
G1 X117.898 Y126.797 E0.01763
G1 X64.202 Y126.406 E1.68363
G1 X63.572 Y126.305 E0.02000
G1 X62.995 Y126.042 E0.01989
G1 X62.508 Y125.635 E0.01989
G1 X62.145 Y125.111 E0.02000
G1 X61.901 Y124.310 E0.02626
G1 X57.724 Y87.970 E1.14693
G1 X57.966 Y86.490 E0.04701
G1 X63.082 Y62.884 E0.75733
G1 X63.295 Y62.356 E0.01787
G1 X63.854 Y61.475 E0.03271
M204 S1250
G1 E-2.24000 F4200.00000
G1 F7200.000
G1 X65.028 Y60.322 E-0.91200
G1 E-0.04800 F4200.00000
G1 Z0.400 F9000.000
G1 X91.203 Y87.904
G1 Z0.200
G1 E3.20000 F2400.00000
M204 S800
G1 F1200.000
G1 X92.235 Y87.814 E0.03248
G1 X92.884 Y88.514 E0.02993
G1 X93.176 Y90.275 E0.05598
G1 X93.453 Y92.252 E0.06259
G1 X93.759 Y94.735 E0.07843
G1 X93.843 Y102.300 E0.23722
G1 X93.628 Y105.228 E0.09207
G1 X93.098 Y108.558 E0.10571
G1 X92.373 Y111.683 E0.10058
G1 X91.545 Y114.050 E0.07862
G1 X91.090 Y114.694 E0.02473
G1 X90.229 Y114.964 E0.02828
G1 X89.504 Y114.507 E0.02687
G1 X89.051 Y113.826 E0.02567
G1 X88.751 Y112.600 E0.03956
G1 X88.779 Y110.241 E0.07397
G1 X88.984 Y108.325 E0.06043
G1 X89.396 Y106.443 E0.06038
G1 X89.945 Y104.789 E0.05464
G1 X90.480 Y103.741 E0.03692
G1 X90.545 Y103.278 E0.01466
G1 X90.355 Y102.396 E0.02826
G1 X90.056 Y101.233 E0.03765
G1 X89.957 Y100.118 E0.03511
G1 X90.340 Y95.866 E0.13388
G1 X90.497 Y92.324 E0.11116
G1 X90.554 Y89.321 E0.09417
G1 X90.694 Y88.504 E0.02600
G1 X91.164 Y87.950 E0.02277
M204 S1250
G1 X91.391 Y88.266 F9000.000
M204 S800
G1 F1200.000
G1 X92.084 Y88.205 E0.02183
G1 X92.530 Y88.687 E0.02059
G1 X92.803 Y90.332 E0.05229
G1 X93.079 Y92.301 E0.06235
G1 X93.382 Y94.760 E0.07767
G1 X93.466 Y102.288 E0.23606
G1 X93.253 Y105.185 E0.09107
G1 X92.728 Y108.486 E0.10480
G1 X92.011 Y111.578 E0.09953
G1 X91.206 Y113.876 E0.07633
G1 X90.856 Y114.373 E0.01908
G1 X90.283 Y114.552 E0.01882
G1 X89.773 Y114.231 E0.01888
G1 X89.401 Y113.672 E0.02106
G1 X89.129 Y112.557 E0.03599
G1 X89.156 Y110.264 E0.07192
G1 X89.357 Y108.385 E0.05923
G1 X89.760 Y106.543 E0.05912
G1 X90.294 Y104.935 E0.05312
G1 X90.845 Y103.856 E0.03801
G1 X90.928 Y103.263 E0.01875
G1 X90.722 Y102.310 E0.03059
G1 X90.429 Y101.169 E0.03691
G1 X90.335 Y100.118 E0.03309
G1 X90.716 Y95.891 E0.13309
G1 X90.874 Y92.336 E0.11158
G1 X90.930 Y89.357 E0.09342
G1 X91.049 Y88.669 E0.02187
G1 X91.352 Y88.312 E0.01469
M204 S1250
G1 X91.420 Y87.867 F9000.000
G1 E-2.24000 F4200.00000
G1 F7200.000
G1 X92.084 Y88.205 E-0.41020
G1 X92.530 Y88.687 E-0.36386
G1 X92.571 Y88.933 E-0.13794
G1 E-0.04800 F4200.00000
G1 Z0.400 F9000.000
G1 X89.665 Y88.230
G1 Z0.200
G1 E3.20000 F2400.00000
M204 S800
G1 F1200.000
G1 X89.963 Y89.208 E0.03207
G1 X89.703 Y92.821 E0.11356
G1 X89.127 Y98.188 E0.16924
G1 X89.187 Y99.907 E0.05393
G1 X89.034 Y100.989 E0.03427
G1 X88.612 Y101.927 E0.03227
G1 X87.640 Y102.074 E0.03081
G1 X87.086 Y101.501 E0.02499
G1 X86.645 Y100.566 E0.03242
G1 X86.349 Y99.528 E0.03386
G1 X86.256 Y98.054 E0.04629
G1 X86.252 Y96.964 E0.03418
G1 X85.947 Y94.941 E0.06415
G1 X84.720 Y89.682 E0.16930
G1 X84.545 Y88.765 E0.02929
G1 X85.011 Y87.884 E0.03126
G1 X86.140 Y87.729 E0.03570
G1 X87.368 Y87.767 E0.03853
G1 X88.582 Y87.906 E0.03832
G1 X89.608 Y88.213 E0.03357
M204 S1250
G1 X89.363 Y88.533 F9000.000
M204 S800
G1 F1200.000
G1 X89.582 Y89.251 E0.02353
G1 X89.328 Y92.787 E0.11116
G1 X88.749 Y98.174 E0.16987
G1 X88.809 Y99.887 E0.05373
G1 X88.668 Y100.883 E0.03154
G1 X88.352 Y101.585 E0.02415
G1 X87.776 Y101.672 E0.01827
G1 X87.401 Y101.284 E0.01693
G1 X86.999 Y100.433 E0.02950
G1 X86.723 Y99.463 E0.03162
G1 X86.633 Y98.042 E0.04467
G1 X86.629 Y96.935 E0.03470
G1 X86.317 Y94.870 E0.06549
G1 X85.089 Y89.604 E0.16953
G1 X84.940 Y88.824 E0.02489
G1 X85.254 Y88.231 E0.02104
G1 X86.159 Y88.107 E0.02865
G1 X87.341 Y88.144 E0.03705
G1 X88.506 Y88.277 E0.03678
G1 X89.306 Y88.516 E0.02617
M204 S1250
G1 X89.760 Y88.480 F9000.000
G1 E-2.24000 F4200.00000
G1 F7200.000
G1 X89.582 Y89.251 E-0.43516
G1 X89.520 Y90.109 E-0.47684
G1 E-0.04800 F4200.00000
G1 Z0.400 F9000.000
G1 X82.885 Y102.597
G1 Z0.200
G1 E3.20000 F2400.00000
M204 S800
G1 F1200.000
G1 X82.013 Y101.931 E0.03441
G1 X81.521 Y100.955 E0.03426
G1 X81.039 Y99.454 E0.04944
G1 X80.300 Y97.555 E0.06389
G1 X79.934 Y97.093 E0.01847
G1 X79.219 Y95.772 E0.04710
G1 X78.328 Y94.323 E0.05332
G1 X77.043 Y92.886 E0.06045
G1 X71.999 Y87.481 E0.23180
G1 X70.890 Y85.793 E0.06332
G1 X71.755 Y84.857 E0.03996
G1 X72.762 Y84.098 E0.03954
G1 X74.374 Y83.180 E0.05819
G1 X77.146 Y81.190 E0.10698
G1 X77.810 Y80.641 E0.02700
G1 X78.695 Y80.305 E0.02968
G1 X79.562 Y80.771 E0.03088
G1 X79.867 Y81.563 E0.02661
G1 X80.660 Y84.610 E0.09871
G1 X80.952 Y85.495 E0.02922
G1 X81.257 Y86.599 E0.03591
G1 X82.548 Y91.465 E0.15787
G1 X82.930 Y92.991 E0.04931
G1 X83.152 Y94.465 E0.04675
G1 X83.797 Y98.043 E0.11400
G1 X83.912 Y99.976 E0.06070
G1 X83.681 Y101.764 E0.05654
G1 X82.927 Y102.553 E0.03424
M204 S1250
G1 X82.846 Y102.092 F9000.000
M204 S800
G1 F1200.000
G1 X82.311 Y101.684 E0.02111
G1 X81.871 Y100.812 E0.03062
G1 X81.395 Y99.327 E0.04888
G1 X80.631 Y97.365 E0.06602
G1 X80.250 Y96.885 E0.01922
G1 X79.545 Y95.583 E0.04640
G1 X78.632 Y94.097 E0.05470
G1 X77.322 Y92.631 E0.06164
G1 X72.296 Y87.248 E0.23092
G1 X71.367 Y85.833 E0.05307
G1 X72.009 Y85.138 E0.02965
G1 X72.970 Y84.414 E0.03773
G1 X74.578 Y83.497 E0.05805
G1 X77.377 Y81.489 E0.10800
G1 X78.002 Y80.972 E0.02545
G1 X78.668 Y80.718 E0.02233
G1 X79.261 Y81.037 E0.02110
G1 X79.508 Y81.679 E0.02156
G1 X80.298 Y84.717 E0.09842
G1 X80.591 Y85.604 E0.02931
G1 X80.893 Y86.697 E0.03556
G1 X82.182 Y91.560 E0.15773
G1 X82.560 Y93.065 E0.04866
G1 X82.780 Y94.527 E0.04635
G1 X83.422 Y98.088 E0.11346
G1 X83.534 Y99.963 E0.05888
G1 X83.323 Y101.593 E0.05155
G1 X82.888 Y102.049 E0.01977
M204 S1250
G1 X82.641 Y102.436 F9000.000
G1 E-2.24000 F4200.00000
G1 F7200.000
G1 X82.311 Y101.684 E-0.37822
G1 X81.877 Y100.824 E-0.53378
G1 E-0.04800 F4200.00000
G1 Z0.400 F9000.000
G1 X84.300 Y85.186
G1 Z0.200
G1 E3.20000 F2400.00000
M204 S800
G1 F1200.000
G1 X87.243 Y83.380 E0.10826
G1 X89.630 Y82.481 E0.07996
G1 X90.507 Y82.218 E0.02871
G1 X91.248 Y81.706 E0.02825
G1 X91.456 Y80.827 E0.02834
G1 X91.279 Y77.287 E0.11115
G1 X91.260 Y76.534 E0.02361
G1 X91.035 Y75.805 E0.02392
G1 X90.411 Y75.368 E0.02387
G1 X89.650 Y75.114 E0.02515
G1 X87.160 Y74.649 E0.07944
G1 X84.600 Y74.257 E0.08121
G1 X83.245 Y73.828 E0.04456
G1 X83.183 Y73.761 E0.00286
G1 X83.176 Y73.698 E0.00200
G1 X83.308 Y73.388 E0.01055
G1 X83.748 Y72.878 E0.02110
G1 X84.863 Y72.021 E0.04410
G1 X86.630 Y71.122 E0.06218
G1 X87.314 Y70.921 E0.02236
G1 X88.081 Y70.618 E0.02584
G1 X88.896 Y70.338 E0.02704
G1 X89.773 Y70.077 E0.02869
G1 X91.656 Y69.572 E0.06113
G1 X93.243 Y69.276 E0.05060
G1 X94.523 Y69.503 E0.04076
G1 X95.879 Y70.050 E0.04585
G1 X96.365 Y70.285 E0.01692
G1 X96.694 Y70.474 E0.01192
G1 X97.157 Y70.903 E0.01976
G1 X97.928 Y71.354 E0.02801
G1 X100.009 Y73.068 E0.08456
G1 X100.110 Y73.260 E0.00679
G1 X100.349 Y73.613 E0.01337
G1 X100.792 Y74.190 E0.02281
G1 X100.875 Y74.530 E0.01098
G1 X100.790 Y74.703 E0.00604
G1 X100.175 Y75.087 E0.02273
G1 X98.834 Y75.561 E0.04461
G1 X95.791 Y75.850 E0.09584
G1 X92.883 Y75.917 E0.09120
G1 X92.317 Y76.713 E0.03062
G1 X92.338 Y77.913 E0.03765
G1 X92.747 Y80.953 E0.09615
G1 X93.033 Y82.045 E0.03540
G1 X93.414 Y82.622 E0.02168
G1 X93.784 Y82.878 E0.01411
G1 X94.172 Y83.186 E0.01553
G1 X94.850 Y83.652 E0.02581
G1 X95.804 Y84.544 E0.04093
G1 X96.751 Y85.571 E0.04381
G1 X97.313 Y86.335 E0.02975
G1 X97.577 Y86.949 E0.02093
G1 X97.590 Y87.164 E0.00677
G1 X97.542 Y87.238 E0.00278
G1 X97.165 Y87.451 E0.01358
G1 X96.831 Y87.537 E0.01080
G1 X95.635 Y87.243 E0.03863
G1 X94.801 Y87.818 E0.03175
G1 X94.213 Y88.643 E0.03178
G1 X94.421 Y89.357 E0.02331
G1 X94.730 Y90.908 E0.04958
G1 X95.075 Y94.163 E0.10263
G1 X95.330 Y98.089 E0.12336
G1 X95.378 Y101.624 E0.11082
G1 X94.954 Y107.837 E0.19528
G1 X95.675 Y109.033 E0.04378
G1 X96.835 Y108.173 E0.04530
G1 X98.190 Y105.909 E0.08272
G1 X99.142 Y103.716 E0.07496
G1 X99.316 Y103.209 E0.01681
G1 X99.927 Y101.664 E0.05209
G1 X100.355 Y99.973 E0.05468
G1 X100.545 Y99.389 E0.01927
G1 X100.939 Y97.768 E0.05230
G1 X101.441 Y95.164 E0.08314
G1 X101.637 Y93.356 E0.05704
G1 X101.633 Y92.647 E0.02221
G1 X102.114 Y89.873 E0.08829
G1 X102.365 Y86.686 E0.10024
G1 X102.766 Y82.844 E0.12110
G1 X103.269 Y78.902 E0.12461
G1 X103.726 Y75.838 E0.09714
G1 X104.005 Y74.558 E0.04109
G1 X104.317 Y73.354 E0.03900
G1 X104.711 Y72.193 E0.03844
G1 X104.999 Y71.143 E0.03413
G1 X104.889 Y69.820 E0.04161
G1 X103.810 Y69.432 E0.03597
G1 X102.644 Y69.065 E0.03831
G1 X101.655 Y68.824 E0.03194
G1 X100.754 Y68.540 E0.02962
G1 X99.015 Y67.905 E0.05803
G1 X97.516 Y67.094 E0.05345
G1 X96.097 Y66.197 E0.05264
G1 X95.316 Y65.522 E0.03235
G1 X94.975 Y65.357 E0.01190
G1 X94.970 Y65.309 E0.00151
G1 X95.050 Y65.051 E0.00849
G1 X95.249 Y64.858 E0.00868
G1 X95.707 Y64.557 E0.01718
G1 X96.100 Y64.391 E0.01335
G1 X96.996 Y64.123 E0.02934
G1 X98.913 Y63.501 E0.06318
G1 X101.751 Y62.883 E0.09108
G1 X104.611 Y62.437 E0.09075
G1 X106.473 Y62.338 E0.05846
G1 X108.491 Y62.806 E0.06499
G1 X110.432 Y63.823 E0.06868
G1 X112.331 Y65.433 E0.07808
G1 X114.216 Y67.683 E0.09202
G1 X115.410 Y69.504 E0.06828
G1 X115.929 Y70.756 E0.04251
G1 X115.958 Y71.065 E0.00972
G1 X115.915 Y71.252 E0.00602
G1 X115.813 Y71.396 E0.00551
G1 X115.603 Y71.546 E0.00811
G1 X115.118 Y71.697 E0.01594
G1 X113.827 Y71.492 E0.04097
G1 X111.397 Y70.880 E0.07856
G1 X108.569 Y70.320 E0.09041
G1 X107.144 Y70.090 E0.04523
G1 X106.273 Y71.582 E0.05418
G1 X105.672 Y74.330 E0.08821
G1 X105.260 Y76.586 E0.07190
G1 X104.941 Y78.704 E0.06716
G1 X104.553 Y83.589 E0.15365
G1 X103.860 Y94.936 E0.35644
G1 X102.967 Y100.062 E0.16315
G1 X102.418 Y102.236 E0.07029
G1 X101.990 Y103.585 E0.04440
G1 X101.540 Y104.842 E0.04184
G1 X100.951 Y106.280 E0.04874
G1 X100.104 Y107.951 E0.05874
G1 X99.240 Y109.248 E0.04887
G1 X97.894 Y111.377 E0.07897
G1 X97.611 Y111.983 E0.02097
G1 X96.928 Y113.228 E0.04451
G1 X96.863 Y113.963 E0.02315
G1 X97.015 Y114.625 E0.02130
G1 X97.574 Y115.117 E0.02335
G1 X99.092 Y115.360 E0.04818
G1 X108.372 Y116.520 E0.29323
G1 X111.382 Y117.074 E0.09599
G1 X113.185 Y117.593 E0.05881
G1 X114.264 Y117.857 E0.03483
G1 X115.856 Y118.418 E0.05293
G1 X117.168 Y119.028 E0.04536
G1 X117.315 Y119.070 E0.00478
G1 X117.814 Y119.521 E0.02109
G1 X118.133 Y119.714 E0.01170
G1 X118.482 Y120.095 E0.01621
G1 X119.073 Y121.082 E0.03607
G1 X119.105 Y121.373 E0.00916
G1 X119.041 Y121.736 E0.01156
G1 X118.488 Y122.753 E0.03631
G1 X117.587 Y123.631 E0.03944
G1 X65.381 Y123.251 E1.63693
G1 X65.803 Y122.489 E0.02731
G1 X67.162 Y120.886 E0.06590
G1 X68.864 Y119.463 E0.06954
G1 X70.646 Y118.213 E0.06827
G1 X71.398 Y117.862 E0.02602
G1 X72.292 Y117.595 E0.02924
G1 X74.011 Y116.977 E0.05729
G1 X74.922 Y116.754 E0.02940
G1 X79.575 Y116.299 E0.14658
G1 X82.021 Y115.804 E0.07826
G1 X82.733 Y115.102 E0.03134
G1 X82.963 Y114.155 E0.03056
G1 X82.963 Y112.581 E0.04936
G1 X82.841 Y111.038 E0.04853
G1 X82.546 Y109.314 E0.05483
G1 X81.682 Y105.852 E0.11188
G1 X80.373 Y101.864 E0.13163
G1 X78.834 Y98.331 E0.12082
G1 X77.711 Y96.225 E0.07484
G1 X77.044 Y95.104 E0.04087
G1 X76.656 Y94.669 E0.01829
G1 X76.329 Y94.067 E0.02148
G1 X75.388 Y93.071 E0.04297
G1 X72.119 Y89.093 E0.16145
G1 X71.459 Y88.241 E0.03379
G1 X70.855 Y87.282 E0.03554
G1 X70.012 Y86.166 E0.04382
G1 X69.117 Y86.051 E0.02832
G1 X68.586 Y86.363 E0.01931
G1 X67.704 Y86.786 E0.03065
G1 X66.831 Y87.287 E0.03158
G1 X66.154 Y87.552 E0.02279
G1 X65.368 Y87.827 E0.02609
G1 X63.906 Y88.128 E0.04680
G1 X62.890 Y88.316 E0.03242
G1 X61.909 Y88.359 E0.03079
G1 X61.208 Y88.258 E0.02220
G1 X61.008 Y88.097 E0.00805
G1 X60.920 Y87.904 E0.00664
G1 X61.052 Y87.199 E0.02249
G1 X61.948 Y84.824 E0.07960
G1 X63.539 Y82.191 E0.09646
G1 X65.406 Y79.913 E0.09234
G1 X66.316 Y79.115 E0.03797
G1 X67.314 Y78.443 E0.03771
G1 X67.772 Y78.200 E0.01626
G1 X68.208 Y78.088 E0.01411
G1 X70.787 Y78.037 E0.08090
G1 X73.397 Y78.136 E0.08189
G1 X74.944 Y78.522 E0.05000
G1 X76.843 Y79.381 E0.06534
G1 X77.542 Y79.815 E0.02581
G1 X78.684 Y79.851 E0.03580
G1 X78.980 Y78.746 E0.03586
G1 X78.912 Y77.759 E0.03103
G1 X78.398 Y75.167 E0.08285
G1 X78.098 Y72.862 E0.07289
G1 X77.889 Y70.901 E0.06181
G1 X77.781 Y64.519 E0.20016
G1 X72.592 Y64.790 E0.16291
G1 X70.248 Y64.759 E0.07352
G1 X68.251 Y64.611 E0.06278
G1 X67.042 Y64.369 E0.03868
G1 X66.204 Y64.170 E0.02699
G1 X66.326 Y63.902 E0.00923
G1 X66.235 Y63.611 E0.00955
G1 X66.370 Y63.395 E0.00799
G1 X67.330 Y62.477 E0.04166
G1 X68.489 Y61.602 E0.04553
G1 X69.346 Y61.230 E0.02929
G1 X70.208 Y60.975 E0.02817
G1 X71.354 Y60.023 E0.04672
G1 X72.435 Y59.171 E0.04317
G1 X73.833 Y58.314 E0.05141
G1 X75.382 Y57.545 E0.05422
G1 X76.865 Y56.980 E0.04976
G1 X78.313 Y56.625 E0.04675
G1 X79.867 Y56.419 E0.04915
G1 X81.457 Y56.368 E0.04988
G1 X83.006 Y56.478 E0.04868
G1 X85.027 Y56.894 E0.06471
G1 X86.711 Y57.460 E0.05570
G1 X87.652 Y57.829 E0.03170
G1 X88.142 Y58.109 E0.01769
G1 X90.261 Y59.155 E0.07409
G1 X91.716 Y60.275 E0.05759
G1 X92.187 Y60.820 E0.02257
G1 X92.231 Y61.261 E0.01389
G1 X92.161 Y61.540 E0.00904
G1 X91.711 Y61.764 E0.01577
G1 X90.550 Y62.027 E0.03733
G1 X88.723 Y62.198 E0.05753
G1 X85.631 Y62.591 E0.09775
G1 X84.095 Y62.889 E0.04903
G1 X82.982 Y63.181 E0.03608
G1 X81.723 Y63.460 E0.04044
G1 X80.721 Y63.580 E0.03163
G1 X79.953 Y64.401 E0.03523
G1 X79.758 Y65.735 E0.04228
G1 X79.760 Y67.714 E0.06205
G1 X80.011 Y71.761 E0.12716
G1 X80.757 Y75.924 E0.13259
G1 X81.339 Y78.143 E0.07192
G1 X81.613 Y79.368 E0.03938
G1 X82.512 Y82.417 E0.09965
G1 X82.823 Y83.403 E0.03244
G1 X83.177 Y84.367 E0.03220
G1 X84.251 Y85.150 E0.04169
M204 S1250
G1 X84.318 Y84.732 F9000.000
M204 S800
G1 F1200.000
G1 X87.077 Y83.040 E0.10147
G1 X89.509 Y82.124 E0.08150
G1 X90.342 Y81.874 E0.02726
M73 P16 R6
G1 X90.915 Y81.478 E0.02184
G1 X91.077 Y80.792 E0.02211
G1 X90.902 Y77.301 E0.10962
G1 X90.884 Y76.595 E0.02212
G1 X90.712 Y76.040 E0.01824
