; generated by PrusaSlicer 2.2.0+win64 on 2020-09-27 at 07:36:09 UTC


;
;

;
;
; 

; external perimeters extrusion width = 0.45mm
; perimeters extrusion width = 0.45mm
; infill extrusion width = 0.45mm
; solid infill extrusion width = 0.45mm
; top infill extrusion width = 0.40mm
; first layer extrusion width = 0.42mm

M73 P0 R94
M201 X1250 Y1250 Z400 E5000 ; sets maximum accelerations, mm/sec^2
M203 X180 Y180 Z12 E80 ; sets maximum feedrates, mm/sec
M204 P1250 R1250 T1250 ; sets acceleration (P, T) and retract acceleration (R), mm/sec^2
M205 X8.00 Y8.00 Z2.00 E10.00 ; sets the jerk limits, mm/sec
M205 S0 T0 ; sets the minimum extruding and travel feed rate, mm/sec
M107
G90 ; use absolute coordinates
M83 ; extruder relative mode
M104 S170 ; set extruder temp for bed leveling
M140 S60 ; set bed temp
M109 R170 ; wait for bed leveling temp
M190 S60 ; wait for bed temp
G28 ; home all without mesh bed level
G29 ; mesh bed leveling 
M104 S215 ; set extruder temp
G92 E0.0
G1 Y-2.0 X179 F2400
G1 Z3 F720
M109 S215 ; wait for extruder temp

; intro line
G1 X170 F1000
G1 Z0.2 F720
G1 X110.0 E8.0 F900
M73 P0 R93
G1 X40.0 E10.0 F700
G92 E0.0

M221 S95 ; set flow
G21 ; set units to millimeters
G90 ; use absolute coordinates
M83 ; use relative distances for extrusion
M900 K0.2 ; Filament gcode LA 1.5
; ; Filament gcode LA 1.0
;BEFORE_LAYER_CHANGE
G92 E0.0
;0.2


G1 Z0.200 F9000.000
;AFTER_LAYER_CHANGE
;0.2
G1 E-3.20000 F4200.00000
G1 Z0.400 F9000.000
G1 X25.279 Y47.662
G1 Z0.200
G1 E3.20000 F2400.00000
M204 S800
G1 F1200.000
G1 X25.452 Y47.099 E0.01846
G1 X25.755 Y46.599 E0.01835
G1 X26.171 Y46.187 E0.01835
G1 X26.679 Y45.889 E0.01846
G1 X52.868 Y34.821 E0.89146
G1 X78.308 Y24.754 E0.85783
G1 X78.991 Y24.651 E0.02166
G1 X101.004 Y24.651 E0.69019
G1 X101.863 Y24.813 E0.02743
G1 X127.146 Y34.827 E0.85265
G1 X153.346 Y45.900 E0.89183
G1 X154.023 Y46.354 E0.02555
G1 X154.506 Y47.010 E0.02555
G1 X154.692 Y47.521 E0.01704
G1 X154.756 Y48.065 E0.01716
G1 X154.721 Y132.481 E2.64681
G1 X154.550 Y133.040 E0.01835
G1 X154.247 Y133.541 E0.01835
G1 X153.832 Y133.953 E0.01835
G1 X153.325 Y134.252 E0.01846
G1 X102.177 Y155.251 E1.73358
G1 X101.505 Y155.349 E0.02130
G1 X78.091 Y155.314 E0.73413
G1 X77.597 Y155.171 E0.01612
G1 X26.697 Y134.261 E1.72535
G1 X25.989 Y133.800 E0.02649
G1 X25.488 Y133.120 E0.02649
G1 X25.306 Y132.611 E0.01692
G1 X25.244 Y132.079 E0.01680
G1 X25.279 Y47.722 E2.64496
M204 S1250
G1 E-2.24000 F4200.00000
G1 F7200.000
G1 X25.452 Y47.099 E-0.35827
G1 X25.755 Y46.599 E-0.32424
G1 X26.050 Y46.308 E-0.22949
G1 E-0.04800 F4200.00000
G1 Z0.400 F9000.000
G1 X79.637 Y86.012
G1 Z0.200
G1 E3.20000 F2400.00000
M204 S800
G1 F1200.000
G1 X79.713 Y86.012 E0.00236
G1 X79.713 Y86.268 E0.00802
G1 X79.654 Y86.070 E0.00648
M204 S1250
G1 E-2.24000 F4200.00000
G1 F7200.000
G1 X79.713 Y86.012 E-0.04546
G1 X79.713 Y86.268 E-0.14177
G1 X79.654 Y86.070 E-0.11455
G1 E-0.65822 F4200.00000
G1 Z0.400 F9000.000
G1 X71.415 Y120.002
G1 Z0.200
G1 E3.20000 F2400.00000
M204 S800
G1 F1200.000
G1 X71.863 Y120.118 E0.01452
G1 X72.176 Y120.267 E0.01087
G1 X72.547 Y120.543 E0.01450
G1 X72.780 Y120.800 E0.01087
G1 X73.024 Y121.205 E0.01484
G1 X73.167 Y121.645 E0.01450
G1 X73.210 Y122.000 E0.01121
G1 X73.174 Y122.463 E0.01455
G1 X73.084 Y122.786 E0.01051
G1 X72.945 Y123.091 E0.01051
G1 X72.670 Y123.476 E0.01484
G1 X72.322 Y123.781 E0.01450
G1 X72.023 Y123.955 E0.01085
G1 X71.709 Y124.077 E0.01056
G1 X71.254 Y124.157 E0.01450
G1 X70.907 Y124.150 E0.01087
G1 X70.455 Y124.052 E0.01450
G1 X70.137 Y123.915 E0.01087
G1 X69.746 Y123.647 E0.01486
G1 X69.427 Y123.296 E0.01486
G1 X69.248 Y122.999 E0.01087
G1 X69.090 Y122.564 E0.01450
G1 X69.036 Y122.222 E0.01087
G1 X69.054 Y121.760 E0.01450
G1 X69.134 Y121.422 E0.01087
G1 X69.326 Y121.001 E0.01450
G1 X69.527 Y120.719 E0.01087
G1 X69.864 Y120.402 E0.01450
G1 X70.157 Y120.217 E0.01087
G1 X70.599 Y120.046 E0.01486
G1 X71.065 Y119.982 E0.01476
G1 X71.355 Y119.999 E0.00909
M204 S1250
G1 X71.333 Y120.375 F9000.000
M204 S800
G1 F1200.000
G1 X71.733 Y120.474 E0.01292
G1 X71.980 Y120.592 E0.00857
G1 X72.292 Y120.824 E0.01220
G1 X72.476 Y121.026 E0.00857
G1 X72.679 Y121.363 E0.01232
G1 X72.797 Y121.727 E0.01199
G1 X72.831 Y122.009 E0.00890
G1 X72.801 Y122.397 E0.01222
G1 X72.729 Y122.656 E0.00844
G1 X72.617 Y122.902 E0.00844
G1 X72.389 Y123.221 E0.01232
G1 X72.101 Y123.474 E0.01199
G1 X71.859 Y123.615 E0.00877
G1 X71.608 Y123.712 E0.00846
G1 X71.224 Y123.779 E0.01220
G1 X70.951 Y123.774 E0.00857
G1 X70.571 Y123.692 E0.01220
G1 X70.320 Y123.583 E0.00857
G1 X69.996 Y123.361 E0.01233
G1 X69.731 Y123.070 E0.01233
G1 X69.590 Y122.836 E0.00857
G1 X69.457 Y122.470 E0.01220
G1 X69.415 Y122.200 E0.00857
G1 X69.430 Y121.811 E0.01220
G1 X69.493 Y121.545 E0.00857
G1 X69.654 Y121.191 E0.01220
G1 X69.813 Y120.968 E0.00857
G1 X70.096 Y120.701 E0.01220
G1 X70.327 Y120.556 E0.00857
G1 X70.694 Y120.414 E0.01233
G1 X71.081 Y120.361 E0.01224
G1 X71.273 Y120.372 E0.00606
M204 S1250
G1 X71.580 Y120.060 F9000.000
G1 E-2.24000 F4200.00000
G1 F7200.000
G1 X71.733 Y120.474 E-0.26105
G1 X71.980 Y120.592 E-0.15148
G1 X72.292 Y120.824 E-0.21567
G1 X72.476 Y121.026 E-0.15148
G1 X72.599 Y121.231 E-0.13233
G1 E-0.04800 F4200.00000
G1 Z0.400 F9000.000
G1 X51.816 Y125.284
G1 Z0.200
G1 E3.20000 F2400.00000
M204 S800
G1 F1200.000
G1 X80.525 Y125.284 E0.90014
G1 X81.074 Y125.326 E0.01726
G1 X81.634 Y125.456 E0.01804
G1 X82.169 Y125.670 E0.01804
G1 X82.664 Y125.962 E0.01804
G1 X83.103 Y126.319 E0.01774
G1 X83.379 Y126.609 E0.01256
G1 X83.711 Y127.061 E0.01758
G1 X83.904 Y127.410 E0.01250
G1 X84.112 Y127.930 E0.01757
G1 X84.210 Y128.309 E0.01226
G1 X84.268 Y128.688 E0.01203
G1 X84.287 Y129.053 E0.01145
G1 X84.283 Y134.199 E0.16137
G1 X84.247 Y134.652 E0.01424
G1 X84.175 Y135.107 E0.01443
G1 X84.006 Y135.755 E0.02101
G1 X83.847 Y136.187 E0.01443
G1 X83.657 Y136.599 E0.01425
G1 X83.435 Y136.996 E0.01425
G1 X83.182 Y137.374 E0.01425
G1 X82.901 Y137.731 E0.01425
G1 X82.592 Y138.064 E0.01425
G1 X82.259 Y138.373 E0.01425
G1 X81.904 Y138.653 E0.01417
G1 X81.524 Y138.907 E0.01433
G1 X81.127 Y139.129 E0.01425
G1 X80.715 Y139.319 E0.01425
G1 X80.288 Y139.476 E0.01425
G1 X79.851 Y139.600 E0.01425
G1 X79.287 Y139.700 E0.01796
G1 X79.287 Y141.799 E0.06578
G1 X78.497 Y142.252 E0.02856
G1 X51.483 Y126.521 E0.98019
G1 X51.801 Y125.342 E0.03827
M204 S1250
G1 X52.105 Y125.661 F9000.000
M204 S800
G1 F1200.000
G1 X80.511 Y125.661 E0.89063
G1 X81.017 Y125.700 E0.01591
G1 X81.521 Y125.817 E0.01624
G1 X82.002 Y126.009 E0.01624
G1 X82.448 Y126.272 E0.01624
G1 X82.846 Y126.596 E0.01609
G1 X83.089 Y126.852 E0.01106
G1 X83.393 Y127.265 E0.01607
G1 X83.563 Y127.572 E0.01100
G1 X83.753 Y128.048 E0.01607
G1 X83.841 Y128.385 E0.01092
G1 X83.893 Y128.726 E0.01083
G1 X83.910 Y129.062 E0.01055
G1 X83.906 Y134.184 E0.16060
G1 X83.873 Y134.608 E0.01332
G1 X83.806 Y135.029 E0.01338
G1 X83.646 Y135.642 E0.01984
G1 X83.498 Y136.042 E0.01338
G1 X83.321 Y136.428 E0.01332
G1 X83.113 Y136.799 E0.01332
G1 X82.877 Y137.152 E0.01332
G1 X82.614 Y137.486 E0.01332
G1 X82.326 Y137.798 E0.01332
G1 X82.014 Y138.086 E0.01332
G1 X81.682 Y138.347 E0.01324
G1 X81.327 Y138.585 E0.01340
G1 X80.956 Y138.792 E0.01332
G1 X80.570 Y138.970 E0.01332
G1 X80.172 Y139.117 E0.01332
G1 X79.763 Y139.233 E0.01332
G1 X79.344 Y139.316 E0.01339
G1 X78.910 Y139.358 E0.01368
G1 X78.910 Y141.580 E0.06967
G1 X78.499 Y141.817 E0.01488
G1 X51.922 Y126.340 E0.96429
G1 X52.090 Y125.719 E0.02016
M204 S1250
G1 X51.972 Y125.284 F9000.000
G1 E-2.24000 F4200.00000
G1 F7200.000
G1 X53.735 Y125.716 E-0.91200
G1 E-0.04800 F4200.00000
G1 Z0.400 F9000.000
G1 X32.695 Y122.325
G1 Z0.200
G1 E3.20000 F2400.00000
M204 S800
G1 F1200.000
G1 X32.589 Y122.775 E0.01450
G1 X32.445 Y123.091 E0.01087
G1 X32.170 Y123.476 E0.01484
G1 X31.822 Y123.781 E0.01450
G1 X31.523 Y123.955 E0.01085
G1 X31.209 Y124.077 E0.01056
G1 X30.754 Y124.157 E0.01450
G1 X30.407 Y124.150 E0.01087
G1 X29.944 Y124.050 E0.01486
G1 X29.516 Y123.845 E0.01486
G1 X29.238 Y123.638 E0.01087
G1 X28.927 Y123.296 E0.01450
G1 X28.748 Y122.999 E0.01087
G1 X28.590 Y122.564 E0.01450
G1 X28.536 Y122.222 E0.01087
G1 X28.554 Y121.760 E0.01450
G1 X28.634 Y121.422 E0.01087
G1 X28.826 Y121.001 E0.01450
G1 X29.027 Y120.719 E0.01087
G1 X29.364 Y120.402 E0.01450
G1 X29.657 Y120.217 E0.01087
G1 X30.099 Y120.046 E0.01486
G1 X30.565 Y119.982 E0.01476
G1 X30.915 Y120.002 E0.01097
G1 X31.363 Y120.118 E0.01452
G1 X31.676 Y120.267 E0.01087
G1 X32.056 Y120.550 E0.01486
G1 X32.361 Y120.913 E0.01486
G1 X32.523 Y121.207 E0.01051
G1 X32.637 Y121.522 E0.01051
G1 X32.709 Y121.979 E0.01450
G1 X32.698 Y122.265 E0.00899
M204 S1250
G1 X32.321 Y122.251 F9000.000
M204 S800
G1 F1200.000
G1 X32.230 Y122.653 E0.01292
G1 X32.117 Y122.902 E0.00857
G1 X31.889 Y123.221 E0.01232
G1 X31.601 Y123.474 E0.01199
G1 X31.359 Y123.615 E0.00877
G1 X31.108 Y123.712 E0.00846
G1 X30.724 Y123.779 E0.01220
G1 X30.451 Y123.774 E0.00857
G1 X30.067 Y123.691 E0.01233
G1 X29.712 Y123.521 E0.01233
G1 X29.493 Y123.358 E0.00857
G1 X29.231 Y123.070 E0.01220
G1 X29.090 Y122.836 E0.00857
G1 X28.957 Y122.470 E0.01220
G1 X28.915 Y122.200 E0.00857
G1 X28.930 Y121.811 E0.01220
G1 X28.993 Y121.545 E0.00857
G1 X29.154 Y121.191 E0.01220
G1 X29.313 Y120.968 E0.00857
G1 X29.596 Y120.701 E0.01220
G1 X29.827 Y120.556 E0.00857
G1 X30.194 Y120.414 E0.01233
G1 X30.581 Y120.361 E0.01224
G1 X30.856 Y120.377 E0.00866
G1 X31.233 Y120.474 E0.01221
G1 X31.480 Y120.592 E0.00857
G1 X31.795 Y120.826 E0.01233
G1 X32.048 Y121.128 E0.01233
G1 X32.178 Y121.363 E0.00844
G1 X32.270 Y121.616 E0.00844
G1 X32.331 Y122.001 E0.01220
G1 X32.323 Y122.191 E0.00596
M204 S1250
G1 X32.641 Y122.491 F9000.000
G1 E-2.24000 F4200.00000
G1 F7200.000
G1 X32.230 Y122.653 E-0.26113
G1 X32.117 Y122.902 E-0.15148
G1 X31.889 Y123.221 E-0.21781
G1 X31.601 Y123.474 E-0.21198
G1 X31.492 Y123.537 E-0.06960
G1 E-0.04800 F4200.00000
G1 Z0.400 F9000.000
G1 X30.628 Y60.161
G1 Z0.200
G1 E3.20000 F2400.00000
M204 S800
G1 F1200.000
G1 X30.250 Y60.128 E0.01191
G1 X29.804 Y59.995 E0.01460
G1 X29.497 Y59.833 E0.01087
G1 X29.128 Y59.536 E0.01484
G1 X28.844 Y59.171 E0.01450
G1 X28.682 Y58.853 E0.01121
G1 X28.558 Y58.406 E0.01455
G1 X28.531 Y58.061 E0.01085
G1 X28.582 Y57.613 E0.01414
G1 X28.690 Y57.272 E0.01121
G1 X28.914 Y56.865 E0.01455
G1 X29.137 Y56.600 E0.01087
G1 X29.497 Y56.309 E0.01450
G1 X29.794 Y56.153 E0.01051
G1 X30.110 Y56.045 E0.01049
G1 X30.557 Y55.983 E0.01413
G1 X30.914 Y56.002 E0.01121
G1 X31.363 Y56.118 E0.01455
G1 X31.676 Y56.267 E0.01087
G1 X32.056 Y56.550 E0.01486
G1 X32.361 Y56.913 E0.01486
G1 X32.523 Y57.207 E0.01051
G1 X32.637 Y57.522 E0.01051
G1 X32.709 Y57.979 E0.01450
G1 X32.695 Y58.325 E0.01087
G1 X32.589 Y58.775 E0.01450
G1 X32.445 Y59.091 E0.01087
G1 X32.176 Y59.467 E0.01450
G1 X31.924 Y59.705 E0.01087
G1 X31.523 Y59.958 E0.01486
G1 X31.066 Y60.114 E0.01513
G1 X30.688 Y60.155 E0.01194
M204 S1250
G1 X30.984 Y59.744 F9000.000
M204 S800
G1 F1200.000
G1 X30.624 Y59.782 E0.01135
G1 X30.321 Y59.756 E0.00955
G1 X29.947 Y59.644 E0.01224
G1 X29.705 Y59.517 E0.00857
G1 X29.399 Y59.270 E0.01232
G1 X29.164 Y58.968 E0.01199
G1 X29.036 Y58.715 E0.00890
G1 X28.931 Y58.340 E0.01222
G1 X28.910 Y58.068 E0.00856
G1 X28.953 Y57.692 E0.01186
G1 X29.038 Y57.421 E0.00890
G1 X29.226 Y57.080 E0.01222
G1 X29.402 Y56.870 E0.00857
G1 X29.705 Y56.626 E0.01220
G1 X29.943 Y56.501 E0.00844
G1 X30.198 Y56.413 E0.00843
G1 X30.573 Y56.361 E0.01186
G1 X30.856 Y56.376 E0.00890
G1 X31.233 Y56.474 E0.01222
G1 X31.480 Y56.592 E0.00857
G1 X31.795 Y56.826 E0.01233
G1 X32.048 Y57.128 E0.01233
G1 X32.178 Y57.363 E0.00844
G1 X32.270 Y57.616 E0.00844
G1 X32.331 Y58.001 E0.01220
G1 X32.320 Y58.274 E0.00857
G1 X32.230 Y58.653 E0.01220
G1 X32.117 Y58.902 E0.00857
G1 X31.891 Y59.218 E0.01220
G1 X31.692 Y59.406 E0.00857
G1 X31.359 Y59.615 E0.01233
G1 X31.041 Y59.724 E0.01055
M204 S1250
G1 X30.876 Y60.089 F9000.000
G1 E-2.24000 F4200.00000
G1 F7200.000
G1 X30.624 Y59.782 E-0.23313
G1 X30.321 Y59.756 E-0.16882
G1 X29.947 Y59.644 E-0.21629
G1 X29.705 Y59.517 E-0.15149
G1 X29.505 Y59.356 E-0.14228
G1 E-0.04800 F4200.00000
G1 Z0.400 F9000.000
G1 X56.369 Y47.166
G1 Z0.200
G1 E3.20000 F2400.00000
M204 S800
G1 F1200.000
G1 X56.066 Y46.545 E0.02169
G1 X55.838 Y45.892 E0.02169
G1 X55.727 Y45.434 E0.01477
G1 X55.653 Y44.969 E0.01477
G1 X55.612 Y44.284 E0.02151
G1 X55.631 Y43.807 E0.01495
G1 X55.726 Y43.122 E0.02169
G1 X55.901 Y42.456 E0.02161
G1 X56.068 Y42.006 E0.01503
G1 X56.369 Y41.390 E0.02151
G1 X56.617 Y40.989 E0.01477
G1 X56.895 Y40.609 E0.01477
G1 X57.351 Y40.100 E0.02143
G1 X57.701 Y39.780 E0.01485
G1 X58.072 Y39.491 E0.01477
G1 X58.652 Y39.125 E0.02151
G1 X59.073 Y38.914 E0.01477
G1 X59.510 Y38.737 E0.01477
G1 X60.174 Y38.541 E0.02169
G1 X60.856 Y38.426 E0.02169
G1 X61.333 Y38.393 E0.01501
G1 X62.017 Y38.413 E0.02145
G1 X62.490 Y38.474 E0.01495
G1 X63.156 Y38.628 E0.02143
G1 X63.610 Y38.781 E0.01503
G1 X64.233 Y39.063 E0.02143
G1 X64.643 Y39.299 E0.01485
G1 X65.031 Y39.567 E0.01477
G1 X65.559 Y40.013 E0.02169
G1 X66.030 Y40.517 E0.02161
G1 X66.317 Y40.893 E0.01485
G1 X66.573 Y41.289 E0.01477
G1 X66.888 Y41.904 E0.02169
G1 X67.129 Y42.550 E0.02161
G1 X67.249 Y43.008 E0.01485
G1 X67.332 Y43.472 E0.01477
G1 X67.387 Y44.156 E0.02151
G1 X67.377 Y44.633 E0.01495
G1 X67.295 Y45.320 E0.02169
G1 X67.134 Y45.989 E0.02161
G1 X66.978 Y46.437 E0.01485
G1 X66.788 Y46.868 E0.01477
G1 X66.448 Y47.470 E0.02169
G1 X66.039 Y48.028 E0.02169
G1 X65.724 Y48.379 E0.01477
G1 X65.383 Y48.704 E0.01477
G1 X64.838 Y49.129 E0.02169
G1 X64.248 Y49.485 E0.02161
G1 X63.815 Y49.692 E0.01503
G1 X63.172 Y49.923 E0.02143
G1 X62.707 Y50.041 E0.01503
G1 X62.031 Y50.142 E0.02143
G1 X61.553 Y50.166 E0.01503
G1 X60.870 Y50.132 E0.02143
G1 X60.401 Y50.062 E0.01485
G1 X59.942 Y49.956 E0.01477
G1 X59.293 Y49.736 E0.02151
G1 X58.858 Y49.540 E0.01495
G1 X58.264 Y49.197 E0.02151
G1 X57.877 Y48.919 E0.01495
G1 X57.361 Y48.466 E0.02151
G1 X57.036 Y48.117 E0.01495
G1 X56.620 Y47.572 E0.02151
G1 X56.401 Y47.217 E0.01307
M204 S1250
G1 X56.722 Y47.019 F9000.000
M204 S800
G1 F1200.000
G1 X56.414 Y46.399 E0.02170
G1 X56.200 Y45.785 E0.02041
G1 X56.097 Y45.360 E0.01372
G1 X56.028 Y44.928 E0.01372
G1 X55.990 Y44.280 E0.02034
G1 X56.007 Y43.841 E0.01378
G1 X56.097 Y43.196 E0.02040
G1 X56.261 Y42.569 E0.02032
G1 X56.415 Y42.155 E0.01386
G1 X56.700 Y41.572 E0.02034
G1 X56.930 Y41.200 E0.01372
G1 X57.188 Y40.847 E0.01372
G1 X57.620 Y40.366 E0.02026
G1 X57.944 Y40.069 E0.01380
G1 X58.289 Y39.800 E0.01372
G1 X58.838 Y39.454 E0.02034
G1 X59.229 Y39.258 E0.01372
G1 X59.634 Y39.093 E0.01372
G1 X60.259 Y38.909 E0.02041
G1 X60.900 Y38.801 E0.02041
G1 X61.341 Y38.770 E0.01384
G1 X61.987 Y38.789 E0.02028
G1 X62.423 Y38.846 E0.01378
G1 X63.053 Y38.991 E0.02026
G1 X63.472 Y39.133 E0.01386
G1 X64.060 Y39.399 E0.02026
G1 X64.441 Y39.619 E0.01380
G1 X64.802 Y39.867 E0.01372
G1 X65.299 Y40.287 E0.02040
G1 X65.741 Y40.760 E0.02032
G1 X66.008 Y41.110 E0.01380
G1 X66.246 Y41.478 E0.01372
G1 X66.543 Y42.057 E0.02040
G1 X66.769 Y42.664 E0.02033
G1 X66.881 Y43.090 E0.01380
G1 X66.958 Y43.520 E0.01372
G1 X67.009 Y44.167 E0.02034
G1 X67.000 Y44.607 E0.01378
G1 X66.924 Y45.253 E0.02040
G1 X66.771 Y45.883 E0.02033
G1 X66.626 Y46.298 E0.01380
G1 X66.450 Y46.699 E0.01372
G1 X66.130 Y47.265 E0.02040
G1 X65.746 Y47.791 E0.02041
G1 X65.454 Y48.116 E0.01372
G1 X65.137 Y48.418 E0.01372
G1 X64.623 Y48.818 E0.02040
G1 X64.069 Y49.153 E0.02032
G1 X63.670 Y49.343 E0.01386
G1 X63.062 Y49.562 E0.02026
G1 X62.633 Y49.671 E0.01386
G1 X61.994 Y49.766 E0.02026
G1 X61.552 Y49.788 E0.01386
G1 X60.907 Y49.756 E0.02026
G1 X60.472 Y49.691 E0.01380
G1 X60.046 Y49.593 E0.01372
G1 X59.431 Y49.385 E0.02034
G1 X59.031 Y49.204 E0.01378
G1 X58.469 Y48.880 E0.02034
G1 X58.112 Y48.623 E0.01378
G1 X57.624 Y48.195 E0.02034
G1 X57.325 Y47.874 E0.01378
G1 X56.931 Y47.358 E0.02034
G1 X56.753 Y47.070 E0.01060
M204 S1250
G1 X56.322 Y47.015 F9000.000
G1 E-2.24000 F4200.00000
G1 F7200.000
G1 X56.414 Y46.399 E-0.41659
G1 X56.200 Y45.785 E-0.36065
G1 X56.143 Y45.549 E-0.13477
G1 E-0.04800 F4200.00000
G1 Z0.400 F9000.000
G1 X60.665 Y50.991
G1 Z0.200
