; generated by PrusaSlicer 2.2.0+win64 on 2020-10-08 at 09:18:27 UTC


;
;

;
;
; 

; external perimeters extrusion width = 0.45mm
; perimeters extrusion width = 0.45mm
; infill extrusion width = 0.45mm
; solid infill extrusion width = 0.45mm
; top infill extrusion width = 0.40mm
; first layer extrusion width = 0.42mm

M73 P0 R87
M201 X1250 Y1250 Z400 E5000 ; sets maximum accelerations, mm/sec^2
M203 X180 Y180 Z12 E80 ; sets maximum feedrates, mm/sec
M204 P1250 R1250 T1250 ; sets acceleration (P, T) and retract acceleration (R), mm/sec^2
M205 X8.00 Y8.00 Z2.00 E10.00 ; sets the jerk limits, mm/sec
M205 S0 T0 ; sets the minimum extruding and travel feed rate, mm/sec
M107
G90 ; use absolute coordinates
M83 ; extruder relative mode
M104 S170 ; set extruder temp for bed leveling
M140 S60 ; set bed temp
M109 R170 ; wait for bed leveling temp
M190 S60 ; wait for bed temp
G28 ; home all without mesh bed level
G29 ; mesh bed leveling 
M104 S215 ; set extruder temp
G92 E0.0
G1 Y-2.0 X179 F2400
G1 Z3 F720
M109 S215 ; wait for extruder temp

; intro line
G1 X170 F1000
G1 Z0.2 F720
G1 X110.0 E8.0 F900
M73 P0 R87
G1 X40.0 E10.0 F700
G92 E0.0

M221 S95 ; set flow
G21 ; set units to millimeters
G90 ; use absolute coordinates
M83 ; use relative distances for extrusion
M900 K0.2 ; Filament gcode LA 1.5
; ; Filament gcode LA 1.0
;BEFORE_LAYER_CHANGE
G92 E0.0
;0.2


G1 Z0.200 F9000.000
;AFTER_LAYER_CHANGE
;0.2
G1 E-3.20000 F4200.00000
G1 Z0.400 F9000.000
G1 X80.091 Y155.314
G1 Z0.200
G1 E3.20000 F2400.00000
M204 S800
G1 F1200.000
G1 X79.408 Y155.083 E0.02260
G1 X26.646 Y127.712 E1.86367
G1 X25.774 Y127.157 E0.03239
G1 X25.113 Y126.582 E0.02746
G1 X24.538 Y125.922 E0.02744
G1 X23.985 Y125.055 E0.03226
G1 X23.451 Y123.684 E0.04614
G1 X23.298 Y122.902 E0.02496
G1 X23.244 Y122.096 E0.02534
G1 X23.244 Y52.068 E2.19569
G1 X23.340 Y50.969 E0.03456
G1 X23.750 Y49.583 E0.04532
G1 X24.101 Y48.879 E0.02468
G1 X24.563 Y48.188 E0.02605
G1 X25.105 Y47.569 E0.02580
G1 X25.698 Y47.044 E0.02483
G1 X26.935 Y46.287 E0.04549
G1 X54.881 Y34.816 E0.94716
G1 X80.254 Y24.771 E0.85562
G1 X80.987 Y24.651 E0.02331
G1 X103.004 Y24.651 E0.69031
G1 X103.863 Y24.813 E0.02743
G1 X129.125 Y34.819 E0.85193
G1 X155.534 Y45.994 E0.89910
G1 X155.978 Y46.313 E0.01716
G1 X156.340 Y46.728 E0.01728
G1 X156.595 Y47.212 E0.01716
G1 X156.733 Y47.742 E0.01716
G1 X156.721 Y54.481 E0.21129
G1 X156.529 Y55.086 E0.01989
G1 X116.029 Y140.942 E2.97644
G1 X115.770 Y141.368 E0.01562
G1 X105.334 Y154.485 E0.52557
G1 X104.893 Y154.898 E0.01894
G1 X104.366 Y155.185 E0.01882
G1 X103.511 Y155.349 E0.02731
G1 X80.151 Y155.314 E0.73244
M204 S1250
G1 E-2.24000 F4200.00000
G1 F7200.000
G1 X79.408 Y155.083 E-0.43116
G1 X78.637 Y154.684 E-0.48084
G1 E-0.04800 F4200.00000
G1 Z0.400 F9000.000
G1 X81.713 Y86.268
G1 Z0.200
G1 E3.20000 F2400.00000
M204 S800
G1 F1200.000
G1 X81.637 Y86.012 E0.00836
G1 X81.713 Y86.012 E0.00236
G1 X81.713 Y86.208 E0.00614
M204 S1250
G1 E-2.24000 F4200.00000
G1 F7200.000
G1 X81.637 Y86.012 E-0.11629
G1 X81.713 Y86.012 E-0.04180
G1 X81.713 Y86.208 E-0.10852
G1 E-0.69340 F4200.00000
G1 Z0.400 F9000.000
G1 X73.873 Y120.120
G1 Z0.200
G1 E3.20000 F2400.00000
M204 S800
G1 F1200.000
G1 X74.283 Y120.335 E0.01450
G1 X74.554 Y120.551 E0.01085
G1 X74.780 Y120.800 E0.01056
G1 X75.024 Y121.205 E0.01484
G1 X75.167 Y121.645 E0.01450
G1 X75.208 Y121.989 E0.01085
G1 X75.195 Y122.325 E0.01056
G1 X75.089 Y122.775 E0.01450
G1 X74.945 Y123.091 E0.01087
G1 X74.670 Y123.476 E0.01484
G1 X74.322 Y123.781 E0.01450
G1 X74.023 Y123.955 E0.01085
G1 X73.709 Y124.077 E0.01056
G1 X73.254 Y124.157 E0.01450
G1 X72.907 Y124.150 E0.01087
G1 X72.455 Y124.052 E0.01450
G1 X72.137 Y123.915 E0.01087
G1 X71.746 Y123.647 E0.01486
G1 X71.427 Y123.296 E0.01486
G1 X71.248 Y122.999 E0.01087
G1 X71.090 Y122.564 E0.01450
G1 X71.036 Y122.222 E0.01087
G1 X71.054 Y121.760 E0.01450
G1 X71.134 Y121.422 E0.01087
G1 X71.326 Y121.001 E0.01450
G1 X71.527 Y120.719 E0.01087
G1 X71.864 Y120.402 E0.01450
G1 X72.157 Y120.217 E0.01087
G1 X72.599 Y120.046 E0.01486
G1 X73.065 Y119.982 E0.01476
G1 X73.415 Y120.002 E0.01097
G1 X73.815 Y120.105 E0.01297
M204 S1250
G1 X73.721 Y120.471 F9000.000
M204 S800
G1 F1200.000
G1 X74.076 Y120.652 E0.01249
G1 X74.295 Y120.827 E0.00877
G1 X74.476 Y121.026 E0.00846
G1 X74.679 Y121.363 E0.01232
G1 X74.797 Y121.727 E0.01199
G1 X74.830 Y122.005 E0.00877
G1 X74.820 Y122.274 E0.00846
G1 X74.730 Y122.653 E0.01220
G1 X74.617 Y122.902 E0.00857
G1 X74.389 Y123.221 E0.01232
G1 X74.101 Y123.474 E0.01199
G1 X73.859 Y123.615 E0.00877
G1 X73.608 Y123.712 E0.00846
G1 X73.224 Y123.779 E0.01220
G1 X72.951 Y123.774 E0.00857
G1 X72.571 Y123.692 E0.01220
G1 X72.320 Y123.583 E0.00857
G1 X71.996 Y123.361 E0.01233
G1 X71.731 Y123.070 E0.01233
G1 X71.590 Y122.836 E0.00857
G1 X71.457 Y122.470 E0.01220
G1 X71.415 Y122.200 E0.00857
G1 X71.430 Y121.811 E0.01220
G1 X71.493 Y121.545 E0.00857
G1 X71.654 Y121.191 E0.01220
G1 X71.813 Y120.968 E0.00857
G1 X72.096 Y120.701 E0.01220
G1 X72.327 Y120.556 E0.00857
G1 X72.694 Y120.414 E0.01233
G1 X73.081 Y120.361 E0.01224
G1 X73.356 Y120.377 E0.00866
G1 X73.663 Y120.456 E0.00993
M204 S1250
G1 X74.032 Y120.221 F9000.000
G1 E-2.24000 F4200.00000
G1 F7200.000
G1 X74.076 Y120.652 E-0.25337
G1 X74.295 Y120.827 E-0.15500
G1 X74.476 Y121.026 E-0.14949
G1 X74.679 Y121.363 E-0.21781
G1 X74.755 Y121.597 E-0.13632
G1 E-0.04800 F4200.00000
G1 Z0.400 F9000.000
G1 X53.816 Y125.284
G1 Z0.200
G1 E3.20000 F2400.00000
M204 S800
G1 F1200.000
G1 X82.525 Y125.284 E0.90014
G1 X83.074 Y125.326 E0.01726
G1 X83.634 Y125.456 E0.01804
G1 X84.169 Y125.670 E0.01804
G1 X84.664 Y125.962 E0.01804
G1 X85.103 Y126.319 E0.01774
G1 X85.379 Y126.609 E0.01256
G1 X85.711 Y127.061 E0.01758
G1 X85.904 Y127.410 E0.01250
G1 X86.112 Y127.930 E0.01757
G1 X86.210 Y128.309 E0.01226
G1 X86.268 Y128.688 E0.01203
G1 X86.287 Y129.053 E0.01145
G1 X86.283 Y134.199 E0.16137
G1 X86.247 Y134.652 E0.01424
G1 X86.175 Y135.107 E0.01443
G1 X86.006 Y135.755 E0.02101
G1 X85.847 Y136.187 E0.01443
G1 X85.657 Y136.599 E0.01425
G1 X85.435 Y136.996 E0.01425
G1 X85.182 Y137.374 E0.01425
G1 X84.901 Y137.731 E0.01425
G1 X84.594 Y138.062 E0.01417
G1 X84.259 Y138.373 E0.01433
G1 X83.902 Y138.654 E0.01425
G1 X83.524 Y138.907 E0.01425
G1 X83.127 Y139.129 E0.01425
G1 X82.715 Y139.319 E0.01425
G1 X82.288 Y139.476 E0.01425
G1 X81.851 Y139.600 E0.01425
G1 X81.287 Y139.700 E0.01796
G1 X81.287 Y141.799 E0.06578
G1 X80.497 Y142.252 E0.02856
G1 X53.483 Y126.521 E0.98019
G1 X53.801 Y125.342 E0.03827
M204 S1250
G1 X54.105 Y125.661 F9000.000
M204 S800
G1 F1200.000
G1 X82.511 Y125.661 E0.89063
G1 X83.017 Y125.700 E0.01591
G1 X83.521 Y125.817 E0.01624
G1 X84.002 Y126.009 E0.01624
G1 X84.448 Y126.272 E0.01624
G1 X84.846 Y126.596 E0.01609
G1 X85.089 Y126.852 E0.01106
G1 X85.393 Y127.265 E0.01607
G1 X85.563 Y127.572 E0.01100
G1 X85.753 Y128.048 E0.01607
G1 X85.841 Y128.385 E0.01092
G1 X85.893 Y128.726 E0.01083
G1 X85.910 Y129.062 E0.01055
G1 X85.906 Y134.184 E0.16060
G1 X85.873 Y134.608 E0.01332
G1 X85.806 Y135.029 E0.01338
G1 X85.646 Y135.642 E0.01984
G1 X85.498 Y136.042 E0.01338
G1 X85.321 Y136.428 E0.01332
G1 X85.113 Y136.799 E0.01332
G1 X84.877 Y137.152 E0.01332
G1 X84.614 Y137.486 E0.01332
G1 X84.327 Y137.796 E0.01324
G1 X84.014 Y138.086 E0.01340
G1 X83.680 Y138.349 E0.01332
G1 X83.327 Y138.585 E0.01332
G1 X82.956 Y138.792 E0.01332
G1 X82.570 Y138.970 E0.01332
G1 X82.172 Y139.117 E0.01332
G1 X81.763 Y139.233 E0.01332
G1 X81.344 Y139.316 E0.01339
G1 X80.910 Y139.358 E0.01368
G1 X80.910 Y141.580 E0.06967
G1 X80.499 Y141.817 E0.01488
G1 X53.922 Y126.340 E0.96429
G1 X54.090 Y125.719 E0.02016
M204 S1250
G1 X53.972 Y125.284 F9000.000
G1 E-2.24000 F4200.00000
G1 F7200.000
G1 X55.735 Y125.716 E-0.91200
G1 E-0.04800 F4200.00000
G1 Z0.400 F9000.000
G1 X34.695 Y122.325
G1 Z0.200
G1 E3.20000 F2400.00000
M204 S800
G1 F1200.000
G1 X34.589 Y122.775 E0.01450
G1 X34.445 Y123.091 E0.01087
G1 X34.170 Y123.476 E0.01484
G1 X33.822 Y123.781 E0.01450
G1 X33.523 Y123.955 E0.01085
G1 X33.209 Y124.077 E0.01056
G1 X32.754 Y124.157 E0.01450
G1 X32.407 Y124.150 E0.01087
G1 X31.944 Y124.050 E0.01486
G1 X31.516 Y123.845 E0.01486
G1 X31.238 Y123.638 E0.01087
G1 X30.927 Y123.296 E0.01450
G1 X30.748 Y122.999 E0.01087
G1 X30.590 Y122.564 E0.01450
G1 X30.536 Y122.222 E0.01087
G1 X30.554 Y121.760 E0.01450
G1 X30.634 Y121.422 E0.01087
G1 X30.826 Y121.001 E0.01450
G1 X31.027 Y120.719 E0.01087
G1 X31.364 Y120.402 E0.01450
G1 X31.657 Y120.217 E0.01087
G1 X32.099 Y120.046 E0.01486
G1 X32.565 Y119.982 E0.01476
G1 X32.915 Y120.002 E0.01097
G1 X33.363 Y120.118 E0.01452
G1 X33.676 Y120.267 E0.01087
G1 X34.056 Y120.550 E0.01486
G1 X34.361 Y120.913 E0.01486
G1 X34.523 Y121.207 E0.01051
G1 X34.637 Y121.522 E0.01051
G1 X34.709 Y121.979 E0.01450
G1 X34.698 Y122.265 E0.00899
M204 S1250
G1 X34.321 Y122.251 F9000.000
M204 S800
G1 F1200.000
G1 X34.230 Y122.653 E0.01292
G1 X34.117 Y122.902 E0.00857
G1 X33.889 Y123.221 E0.01232
G1 X33.601 Y123.474 E0.01199
G1 X33.359 Y123.615 E0.00877
G1 X33.108 Y123.712 E0.00846
G1 X32.724 Y123.779 E0.01220
G1 X32.451 Y123.774 E0.00857
G1 X32.067 Y123.691 E0.01233
G1 X31.712 Y123.521 E0.01233
G1 X31.493 Y123.358 E0.00857
G1 X31.231 Y123.070 E0.01220
G1 X31.090 Y122.836 E0.00857
G1 X30.957 Y122.470 E0.01220
G1 X30.915 Y122.200 E0.00857
G1 X30.930 Y121.811 E0.01220
G1 X30.993 Y121.545 E0.00857
G1 X31.154 Y121.191 E0.01220
G1 X31.313 Y120.968 E0.00857
G1 X31.596 Y120.701 E0.01220
G1 X31.827 Y120.556 E0.00857
G1 X32.194 Y120.414 E0.01233
G1 X32.581 Y120.361 E0.01224
G1 X32.856 Y120.377 E0.00866
G1 X33.233 Y120.474 E0.01221
G1 X33.480 Y120.592 E0.00857
G1 X33.795 Y120.826 E0.01233
G1 X34.048 Y121.128 E0.01233
G1 X34.178 Y121.363 E0.00844
G1 X34.270 Y121.616 E0.00844
G1 X34.331 Y122.001 E0.01220
G1 X34.323 Y122.191 E0.00596
M204 S1250
G1 X34.641 Y122.491 F9000.000
G1 E-2.24000 F4200.00000
G1 F7200.000
G1 X34.230 Y122.653 E-0.26113
G1 X34.117 Y122.902 E-0.15148
G1 X33.889 Y123.221 E-0.21781
G1 X33.601 Y123.474 E-0.21198
G1 X33.492 Y123.537 E-0.06960
G1 E-0.04800 F4200.00000
G1 Z0.400 F9000.000
G1 X32.628 Y60.161
G1 Z0.200
G1 E3.20000 F2400.00000
M204 S800
G1 F1200.000
G1 X32.250 Y60.128 E0.01191
G1 X31.804 Y59.995 E0.01460
G1 X31.497 Y59.833 E0.01087
G1 X31.128 Y59.536 E0.01484
G1 X30.844 Y59.171 E0.01450
G1 X30.682 Y58.853 E0.01121
G1 X30.558 Y58.406 E0.01455
G1 X30.531 Y58.061 E0.01085
G1 X30.582 Y57.613 E0.01414
G1 X30.690 Y57.272 E0.01121
G1 X30.914 Y56.865 E0.01455
G1 X31.137 Y56.600 E0.01087
G1 X31.497 Y56.309 E0.01450
G1 X31.794 Y56.153 E0.01051
G1 X32.110 Y56.045 E0.01049
G1 X32.557 Y55.983 E0.01413
G1 X32.914 Y56.002 E0.01121
G1 X33.363 Y56.118 E0.01455
G1 X33.676 Y56.267 E0.01087
G1 X34.056 Y56.550 E0.01486
G1 X34.361 Y56.913 E0.01486
G1 X34.523 Y57.207 E0.01051
G1 X34.637 Y57.522 E0.01051
G1 X34.709 Y57.979 E0.01450
G1 X34.695 Y58.325 E0.01087
G1 X34.589 Y58.775 E0.01450
G1 X34.445 Y59.091 E0.01087
G1 X34.176 Y59.467 E0.01450
G1 X33.924 Y59.705 E0.01087
G1 X33.523 Y59.958 E0.01486
G1 X33.066 Y60.114 E0.01513
G1 X32.688 Y60.155 E0.01194
M204 S1250
G1 X32.984 Y59.744 F9000.000
M204 S800
G1 F1200.000
G1 X32.624 Y59.782 E0.01135
G1 X32.321 Y59.756 E0.00955
G1 X31.947 Y59.644 E0.01224
G1 X31.705 Y59.517 E0.00857
G1 X31.399 Y59.270 E0.01232
G1 X31.164 Y58.968 E0.01199
G1 X31.036 Y58.715 E0.00890
G1 X30.931 Y58.340 E0.01222
G1 X30.910 Y58.068 E0.00856
G1 X30.953 Y57.692 E0.01186
G1 X31.038 Y57.421 E0.00890
G1 X31.226 Y57.080 E0.01222
G1 X31.402 Y56.870 E0.00857
G1 X31.705 Y56.626 E0.01220
G1 X31.943 Y56.501 E0.00844
G1 X32.198 Y56.413 E0.00843
G1 X32.573 Y56.361 E0.01186
G1 X32.856 Y56.376 E0.00890
G1 X33.233 Y56.474 E0.01222
G1 X33.480 Y56.592 E0.00857
G1 X33.795 Y56.826 E0.01233
G1 X34.048 Y57.128 E0.01233
G1 X34.178 Y57.363 E0.00844
G1 X34.270 Y57.616 E0.00844
G1 X34.331 Y58.001 E0.01220
G1 X34.320 Y58.274 E0.00857
G1 X34.230 Y58.653 E0.01220
G1 X34.117 Y58.902 E0.00857
G1 X33.891 Y59.218 E0.01220
G1 X33.692 Y59.406 E0.00857
G1 X33.359 Y59.615 E0.01233
G1 X33.041 Y59.724 E0.01055
M204 S1250
G1 X32.876 Y60.089 F9000.000
G1 E-2.24000 F4200.00000
G1 F7200.000
G1 X32.624 Y59.782 E-0.23313
G1 X32.321 Y59.756 E-0.16882
G1 X31.947 Y59.644 E-0.21629
G1 X31.705 Y59.517 E-0.15149
G1 X31.505 Y59.356 E-0.14228
G1 E-0.04800 F4200.00000
G1 Z0.400 F9000.000
G1 X70.868 Y57.284
G1 Z0.200
G1 E3.20000 F2400.00000
M204 S800
G1 F1200.000
G1 X70.938 Y58.424 E0.03580
G1 X70.982 Y58.635 E0.00675
G1 X71.142 Y59.060 E0.01426
G1 X71.386 Y59.444 E0.01426
G1 X71.704 Y59.770 E0.01426
G1 X72.081 Y60.024 E0.01426
G1 X72.288 Y60.120 E0.00714
G1 X72.724 Y60.248 E0.01426
G1 X73.178 Y60.283 E0.01426
G1 X73.629 Y60.224 E0.01426
G1 X74.059 Y60.075 E0.01426
G1 X74.260 Y59.968 E0.00714
G1 X74.624 Y59.695 E0.01426
G1 X74.924 Y59.353 E0.01426
G1 X75.148 Y58.957 E0.01426
G1 X75.226 Y58.751 E0.00690
G1 X75.305 Y58.416 E0.01079
G1 X75.374 Y57.284 E0.03556
G1 X81.287 Y57.284 E0.18541
G1 X81.287 Y62.938 E0.17727
G1 X81.713 Y62.938 E0.01335
G1 X81.713 Y60.938 E0.06271
G1 X86.287 Y60.938 E0.14342
G1 X86.287 Y88.012 E0.84889
G1 X82.227 Y88.012 E0.12730
G1 X86.287 Y101.782 E0.45012
G1 X86.283 Y119.271 E0.54834
G1 X86.212 Y119.827 E0.01757
G1 X86.114 Y120.205 E0.01226
G1 X85.981 Y120.565 E0.01203
G1 X85.812 Y120.910 E0.01203
G1 X85.609 Y121.235 E0.01203
G1 X85.374 Y121.539 E0.01203
G1 X85.105 Y121.822 E0.01226
G1 X84.670 Y122.176 E0.01757
G1 X84.332 Y122.387 E0.01250
G1 X83.816 Y122.624 E0.01781
G1 X83.263 Y122.783 E0.01804
G1 X82.699 Y122.854 E0.01780
G1 X75.374 Y122.859 E0.22970
G1 X75.304 Y121.719 E0.03581
G1 X75.260 Y121.508 E0.00675
G1 X75.100 Y121.082 E0.01426
G1 X74.855 Y120.699 E0.01426
G1 X74.538 Y120.373 E0.01426
G1 X74.161 Y120.119 E0.01426
G1 X73.954 Y120.022 E0.00714
G1 X73.517 Y119.895 E0.01426
G1 X73.064 Y119.860 E0.01426
G1 X72.613 Y119.918 E0.01426
G1 X72.183 Y120.068 E0.01426
G1 X71.793 Y120.302 E0.01426
G1 X71.459 Y120.611 E0.01426
G1 X71.318 Y120.790 E0.00714
G1 X71.094 Y121.186 E0.01426
G1 X71.016 Y121.392 E0.00690
G1 X70.937 Y121.726 E0.01079
G1 X70.868 Y122.858 E0.03556
G1 X39.600 Y122.858 E0.98040
G1 X39.006 Y122.820 E0.01865
G1 X38.591 Y122.747 E0.01321
G1 X38.190 Y122.640 E0.01302
G1 X37.799 Y122.499 E0.01302
G1 X37.423 Y122.325 E0.01302
G1 X37.062 Y122.118 E0.01302
G1 X36.722 Y121.881 E0.01302
G1 X36.402 Y121.616 E0.01302
G1 X36.103 Y121.319 E0.01322
G1 X35.719 Y120.846 E0.01912
G1 X35.490 Y120.492 E0.01322
G1 X35.293 Y120.119 E0.01322
G1 X35.069 Y119.556 E0.01899
G1 X34.829 Y118.731 E0.02693
G1 X34.649 Y118.336 E0.01361
G1 X34.505 Y118.096 E0.00880
G1 X34.336 Y117.863 E0.00901
G1 X34.147 Y117.647 E0.00901
G1 X33.944 Y117.453 E0.00880
G1 X33.596 Y117.188 E0.01371
G1 X33.222 Y116.975 E0.01350
G1 X32.813 Y116.811 E0.01382
G1 X31.958 Y116.561 E0.02793
G1 X31.568 Y116.396 E0.01329
G1 X31.195 Y116.199 E0.01321
G1 X30.698 Y115.863 E0.01883
G1 X30.364 Y115.581 E0.01369
G1 X29.944 Y115.138 E0.01913
G1 X29.685 Y114.798 E0.01342
G1 X29.370 Y114.275 E0.01912
G1 X29.193 Y113.893 E0.01322
G1 X29.050 Y113.497 E0.01322
G1 X28.906 Y112.904 E0.01912
G1 X28.851 Y112.486 E0.01321
G1 X28.834 Y112.086 E0.01255
G1 X28.834 Y68.056 E1.38053
G1 X28.851 Y67.657 E0.01255
G1 X28.905 Y67.245 E0.01301
G1 X28.994 Y66.840 E0.01302
G1 X29.118 Y66.443 E0.01302
G1 X29.276 Y66.060 E0.01302
G1 X29.467 Y65.691 E0.01302
G1 X29.689 Y65.340 E0.01302
G1 X29.940 Y65.010 E0.01302
G1 X30.219 Y64.702 E0.01302
G1 X30.529 Y64.416 E0.01322
G1 X31.023 Y64.049 E0.01932
G1 X31.567 Y63.746 E0.01952
G1 X32.136 Y63.520 E0.01919
G1 X32.961 Y63.279 E0.02693
G1 X33.356 Y63.099 E0.01361
G1 X33.597 Y62.955 E0.00880
G1 X33.829 Y62.786 E0.00901
G1 X34.045 Y62.597 E0.00901
G1 X34.239 Y62.394 E0.00880
G1 X34.504 Y62.047 E0.01371
G1 X34.717 Y61.672 E0.01350
G1 X34.882 Y61.264 E0.01382
G1 X35.133 Y60.402 E0.02813
G1 X35.386 Y59.838 E0.01939
G1 X35.599 Y59.474 E0.01322
G1 X35.839 Y59.136 E0.01302
G1 X36.107 Y58.819 E0.01302
G1 X36.402 Y58.527 E0.01302
G1 X36.722 Y58.261 E0.01302
G1 X37.062 Y58.025 E0.01302
G1 X37.423 Y57.818 E0.01302
G1 X37.799 Y57.644 E0.01302
G1 X38.190 Y57.503 E0.01302
G1 X38.591 Y57.396 E0.01302
G1 X39.006 Y57.323 E0.01321
