; generated by PrusaSlicer 2.2.0+win64 on 2020-10-03 at 17:02:45 UTC


;
;

;
;
; 

; external perimeters extrusion width = 0.45mm
; perimeters extrusion width = 0.45mm
; infill extrusion width = 0.45mm
; solid infill extrusion width = 0.45mm
; top infill extrusion width = 0.40mm
; first layer extrusion width = 0.42mm

M73 P0 R6
M201 X1250 Y1250 Z400 E5000 ; sets maximum accelerations, mm/sec^2
M203 X180 Y180 Z12 E80 ; sets maximum feedrates, mm/sec
M204 P1250 R1250 T1250 ; sets acceleration (P, T) and retract acceleration (R), mm/sec^2
M205 X8.00 Y8.00 Z2.00 E10.00 ; sets the jerk limits, mm/sec
M205 S0 T0 ; sets the minimum extruding and travel feed rate, mm/sec
M107
G90 ; use absolute coordinates
M83 ; extruder relative mode
M104 S170 ; set extruder temp for bed leveling
M140 S60 ; set bed temp
M109 R170 ; wait for bed leveling temp
M190 S60 ; wait for bed temp
G28 ; home all without mesh bed level
G29 ; mesh bed leveling 
M104 S215 ; set extruder temp
G92 E0.0
G1 Y-2.0 X179 F2400
G1 Z3 F720
M109 S215 ; wait for extruder temp

; intro line
G1 X170 F1000
G1 Z0.2 F720
G1 X110.0 E8.0 F900
M73 P2 R6
G1 X40.0 E10.0 F700
G92 E0.0

M221 S95 ; set flow
G21 ; set units to millimeters
G90 ; use absolute coordinates
M83 ; use relative distances for extrusion
M900 K0.2 ; Filament gcode LA 1.5
; ; Filament gcode LA 1.0
;BEFORE_LAYER_CHANGE
G92 E0.0
;0.2


G1 Z0.200 F9000.000
;AFTER_LAYER_CHANGE
;0.2
G1 E-3.20000 F4200.00000
G1 Z0.400 F9000.000
G1 X85.290 Y75.355
G1 Z0.200
G1 E3.20000 F2400.00000
M204 S800
G1 F1200.000
G1 X85.479 Y74.530 E0.02655
G1 X85.824 Y73.729 E0.02733
G1 X86.312 Y73.000 E0.02751
G1 X86.905 Y72.392 E0.02664
G1 X87.516 Y71.947 E0.02369
G1 X88.300 Y71.561 E0.02740
G1 X89.120 Y71.328 E0.02673
G1 X90.000 Y71.246 E0.02771
G1 X90.894 Y71.331 E0.02815
G1 X91.762 Y71.585 E0.02837
G1 X92.572 Y72.002 E0.02857
G1 X93.317 Y72.595 E0.02983
G1 X93.964 Y73.376 E0.03181
G1 X94.393 Y74.185 E0.02872
G1 X94.666 Y75.089 E0.02960
G1 X94.754 Y76.000 E0.02871
G1 X94.710 Y104.644 E0.89812
G1 X94.521 Y105.470 E0.02656
G1 X94.176 Y106.271 E0.02733
G1 X93.682 Y107.008 E0.02784
G1 X93.095 Y107.608 E0.02632
G1 X92.484 Y108.053 E0.02369
G1 X91.705 Y108.437 E0.02725
G1 X90.888 Y108.670 E0.02662
G1 X90.008 Y108.754 E0.02771
G1 X89.112 Y108.670 E0.02824
G1 X88.242 Y108.417 E0.02841
G1 X87.431 Y108.000 E0.02857
G1 X86.687 Y107.409 E0.02981
G1 X86.039 Y106.628 E0.03183
G1 X85.608 Y105.819 E0.02872
G1 X85.335 Y104.914 E0.02966
G1 X85.246 Y104.000 E0.02878
G1 X85.290 Y75.415 E0.89625
M204 S1250
G1 X85.660 Y75.434 F9000.000
M204 S800
G1 F1200.000
G1 X85.835 Y74.655 E0.02502
G1 X86.152 Y73.915 E0.02525
G1 X86.603 Y73.241 E0.02544
G1 X87.148 Y72.680 E0.02452
G1 X87.706 Y72.273 E0.02166
G1 X88.430 Y71.915 E0.02533
G1 X89.184 Y71.700 E0.02458
G1 X89.998 Y71.623 E0.02565
G1 X90.821 Y71.701 E0.02590
G1 X91.620 Y71.934 E0.02612
G1 X92.364 Y72.316 E0.02620
G1 X93.050 Y72.861 E0.02748
G1 X93.649 Y73.585 E0.02946
G1 X94.044 Y74.327 E0.02635
G1 X94.296 Y75.159 E0.02727
G1 X94.377 Y76.000 E0.02648
G1 X94.340 Y104.569 E0.89576
G1 X94.165 Y105.345 E0.02493
G1 X93.848 Y106.085 E0.02525
G1 X93.391 Y106.768 E0.02576
G1 X92.852 Y107.320 E0.02419
G1 X92.294 Y107.727 E0.02166
G1 X91.574 Y108.083 E0.02519
G1 X90.820 Y108.299 E0.02460
G1 X90.005 Y108.377 E0.02565
G1 X89.180 Y108.300 E0.02598
G1 X88.380 Y108.066 E0.02616
G1 X87.636 Y107.684 E0.02620
G1 X86.950 Y107.139 E0.02748
G1 X86.351 Y106.415 E0.02946
G1 X85.956 Y105.673 E0.02635
G1 X85.704 Y104.839 E0.02732
G1 X85.623 Y104.000 E0.02643
G1 X85.660 Y75.494 E0.89378
M204 S1250
G1 E-2.24000 F4200.00000
G1 F7200.000
G1 X85.835 Y74.655 E-0.47480
G1 X86.145 Y73.930 E-0.43720
G1 E-0.04800 F4200.00000
G1 Z0.400 F9000.000
G1 X89.870 Y102.595
G1 Z0.200
G1 E3.20000 F2400.00000
M204 S800
G1 F1200.000
G1 X90.125 Y102.595 E0.00801
G1 X90.371 Y102.641 E0.00784
G1 X90.606 Y102.730 E0.00788
G1 X90.820 Y102.865 E0.00792
G1 X91.002 Y103.037 E0.00785
G1 X91.148 Y103.240 E0.00786
G1 X91.248 Y103.473 E0.00795
G1 X91.304 Y103.812 E0.01076
G1 X91.304 Y104.143 E0.01037
G1 X91.258 Y104.372 E0.00735
G1 X91.173 Y104.588 E0.00727
G1 X91.051 Y104.785 E0.00727
G1 X90.896 Y104.958 E0.00727
G1 X90.710 Y105.104 E0.00742
G1 X90.404 Y105.249 E0.01060
G1 X90.169 Y105.301 E0.00757
G1 X89.831 Y105.301 E0.01060
G1 X89.600 Y105.250 E0.00742
G1 X89.386 Y105.160 E0.00727
G1 X89.192 Y105.033 E0.00727
G1 X89.023 Y104.875 E0.00727
G1 X88.884 Y104.689 E0.00727
G1 X88.777 Y104.478 E0.00742
G1 X88.696 Y104.150 E0.01058
G1 X88.689 Y103.918 E0.00728
G1 X88.726 Y103.590 E0.01036
G1 X88.797 Y103.355 E0.00768
G1 X88.919 Y103.134 E0.00791
G1 X89.085 Y102.947 E0.00787
G1 X89.283 Y102.791 E0.00788
G1 X89.514 Y102.678 E0.00807
G1 X89.811 Y102.609 E0.00957
M204 S1250
G1 X89.973 Y102.361 F9000.000
G1 X88.826 Y102.671
M204 S800
G1 F1200.000
G1 X88.771 Y102.733 E0.00260
G1 X88.787 Y102.007 E0.02279
G1 X88.787 Y78.496 E0.73717
G1 X88.769 Y77.263 E0.03867
G1 X88.884 Y77.382 E0.00522
G1 X89.151 Y77.572 E0.01027
G1 X89.451 Y77.701 E0.01021
G1 X89.760 Y77.773 E0.00997
G1 X90.080 Y77.788 E0.01004
G1 X90.409 Y77.742 E0.01041
G1 X90.838 Y77.579 E0.01437
G1 X91.116 Y77.382 E0.01067
G1 X91.229 Y77.265 E0.00513
G1 X91.213 Y77.994 E0.02286
G1 X91.213 Y101.504 E0.73717
G1 X91.231 Y102.735 E0.03858
G1 X91.053 Y102.565 E0.00772
G1 X90.775 Y102.391 E0.01027
G1 X90.473 Y102.276 E0.01013
G1 X90.160 Y102.218 E0.00999
G1 X89.827 Y102.218 E0.01046
G1 X89.387 Y102.320 E0.01417
G1 X89.081 Y102.470 E0.01067
G1 X88.873 Y102.634 E0.00831
M204 S1250
G1 E-2.24000 F4200.00000
G1 F7200.000
G1 X88.771 Y102.733 E-0.07882
G1 X88.787 Y102.007 E-0.40276
G1 X88.787 Y101.230 E-0.43042
G1 E-0.04800 F4200.00000
G1 Z0.400 F9000.000
G1 X90.315 Y77.374
G1 Z0.200
G1 E3.20000 F2400.00000
M204 S800
G1 F1200.000
G1 X90.063 Y77.409 E0.00799
G1 X89.812 Y77.398 E0.00786
G1 X89.569 Y77.341 E0.00783
G1 X89.337 Y77.241 E0.00791
G1 X89.131 Y77.095 E0.00792
G1 X88.957 Y76.915 E0.00785
G1 X88.823 Y76.702 E0.00788
G1 X88.738 Y76.468 E0.00781
G1 X88.692 Y76.133 E0.01062
G1 X88.703 Y75.801 E0.01041
G1 X88.760 Y75.573 E0.00738
G1 X88.854 Y75.361 E0.00727
G1 X88.987 Y75.165 E0.00742
G1 X89.234 Y74.934 E0.01060
G1 X89.438 Y74.814 E0.00742
G1 X89.656 Y74.734 E0.00727
G1 X89.884 Y74.693 E0.00727
G1 X90.116 Y74.693 E0.00727
G1 X90.344 Y74.734 E0.00727
G1 X90.566 Y74.816 E0.00742
G1 X90.850 Y75.000 E0.01060
G1 X91.015 Y75.169 E0.00742
G1 X91.148 Y75.365 E0.00742
G1 X91.273 Y75.679 E0.01060
G1 X91.309 Y75.911 E0.00734
G1 X91.308 Y76.137 E0.00710
G1 X91.262 Y76.468 E0.01049
G1 X91.177 Y76.702 E0.00781
G1 X91.043 Y76.915 E0.00788
G1 X90.869 Y77.095 E0.00785
G1 X90.659 Y77.244 E0.00806
G1 X90.371 Y77.353 E0.00964
M204 S1250
G1 X90.246 Y77.620 F9000.000
G1 E-2.24000 F4200.00000
G1 F7200.000
G1 X90.063 Y77.409 E-0.17387
G1 X89.812 Y77.398 E-0.13896
G1 X89.569 Y77.341 E-0.13845
G1 X89.337 Y77.241 E-0.13987
G1 X89.131 Y77.095 E-0.13994
G1 X88.957 Y76.915 E-0.13871
G1 X88.917 Y76.851 E-0.04221
G1 E-0.04800 F4200.00000
G1 Z0.400 F9000.000
G1 X91.684 Y75.893
G1 Z0.200
G1 E3.20000 F2400.00000
M204 S800
G1 F1200.000
G1 X91.613 Y76.988 E0.03442
G1 X91.590 Y77.998 E0.03166
G1 X91.590 Y101.502 E0.73695
G1 X91.613 Y103.010 E0.04729
G1 X91.688 Y103.997 E0.03106
G1 X91.658 Y104.316 E0.01004
G1 X91.569 Y104.621 E0.00996
G1 X91.423 Y104.907 E0.01006
G1 X91.300 Y105.076 E0.00654
G1 X91.158 Y105.228 E0.00655
G1 X90.904 Y105.425 E0.01006
G1 X90.621 Y105.569 E0.00996
G1 X90.316 Y105.657 E0.00996
G1 X90.000 Y105.687 E0.00995
G1 X89.684 Y105.657 E0.00995
G1 X89.379 Y105.569 E0.00996
G1 X89.096 Y105.425 E0.00996
G1 X88.845 Y105.230 E0.00996
G1 X88.635 Y104.992 E0.00996
G1 X88.473 Y104.718 E0.00996
G1 X88.366 Y104.420 E0.00996
G1 X88.316 Y104.107 E0.00991
G1 X88.342 Y103.514 E0.01862
G1 X88.387 Y103.012 E0.01581
G1 X88.410 Y102.002 E0.03166
G1 X88.410 Y78.498 E0.73695
G1 X88.388 Y76.990 E0.04729
G1 X88.312 Y75.999 E0.03117
G1 X88.326 Y75.789 E0.00661
G1 X88.364 Y75.583 E0.00656
G1 X88.473 Y75.282 E0.01006
G1 X88.635 Y75.008 E0.00996
G1 X88.845 Y74.770 E0.00996
G1 X89.096 Y74.576 E0.00995
G1 X89.379 Y74.431 E0.00996
G1 X89.687 Y74.342 E0.01006
G1 X89.894 Y74.316 E0.00655
G1 X90.102 Y74.316 E0.00653
G1 X90.420 Y74.366 E0.01007
G1 X90.719 Y74.473 E0.00996
G1 X90.992 Y74.635 E0.00996
G1 X91.233 Y74.847 E0.01006
G1 X91.363 Y75.005 E0.00643
G1 X91.527 Y75.282 E0.01006
G1 X91.634 Y75.580 E0.00996
G1 X91.675 Y75.834 E0.00804
M204 S1250
G1 X91.346 Y76.107 F9000.000
G1 X91.435 Y76.607
M204 S800
G1 F1200.000
G1 X91.403 Y76.754 E0.00104
G1 X91.376 Y76.797 E0.00034
M204 S1250
M204 S800
G1 X91.328 Y76.859 E0.00041
M204 S1250
G1 X91.100 Y78.259 F9000.000
M204 S800
G1 F1200.000
G1 X90.755 Y77.913 E0.01534
G1 X90.480 Y78.018 E0.00923
G1 X90.344 Y78.036 E0.00432
G1 X90.930 Y78.623 E0.02606
G1 X90.930 Y79.157 E0.01677
G1 X89.832 Y78.059 E0.04877
G1 X89.721 Y78.054 E0.00349
G1 X89.362 Y77.970 E0.01159
G1 X89.094 Y77.855 E0.00917
G1 X90.930 Y79.691 E0.08157
G1 X90.930 Y80.226 E0.01677
G1 X89.068 Y78.363 E0.08271
G1 X89.070 Y78.899 E0.01683
G1 X90.930 Y80.760 E0.08263
G1 X90.930 Y81.294 E0.01677
G1 X89.070 Y79.433 E0.08263
G1 X89.070 Y79.967 E0.01677
G1 X90.930 Y81.828 E0.08263
G1 X90.930 Y82.362 E0.01677
G1 X89.070 Y80.502 E0.08263
G1 X89.070 Y81.036 E0.01677
G1 X90.930 Y82.896 E0.08263
G1 X90.930 Y83.430 E0.01677
G1 X89.070 Y81.570 E0.08263
G1 X89.070 Y82.104 E0.01677
G1 X90.930 Y83.964 E0.08263
G1 X90.930 Y84.499 E0.01677
G1 X89.070 Y82.638 E0.08263
G1 X89.070 Y83.172 E0.01677
G1 X90.930 Y85.033 E0.08263
G1 X90.930 Y85.567 E0.01677
G1 X89.070 Y83.706 E0.08263
G1 X89.070 Y84.240 E0.01677
G1 X90.930 Y86.101 E0.08263
G1 X90.930 Y86.635 E0.01677
G1 X89.070 Y84.775 E0.08263
G1 X89.070 Y85.309 E0.01677
G1 X90.930 Y87.169 E0.08263
G1 X90.930 Y87.703 E0.01677
G1 X89.070 Y85.843 E0.08263
G1 X89.070 Y86.377 E0.01677
G1 X90.930 Y88.237 E0.08263
G1 X90.930 Y88.771 E0.01677
G1 X89.070 Y86.911 E0.08263
G1 X89.070 Y87.445 E0.01677
G1 X90.930 Y89.306 E0.08263
G1 X90.930 Y89.840 E0.01677
G1 X89.070 Y87.979 E0.08263
G1 X89.070 Y88.513 E0.01677
G1 X90.930 Y90.374 E0.08263
G1 X90.930 Y90.908 E0.01677
G1 X89.070 Y89.047 E0.08263
G1 X89.070 Y89.582 E0.01677
G1 X90.930 Y91.442 E0.08263
G1 X90.930 Y91.976 E0.01677
G1 X89.070 Y90.116 E0.08263
G1 X89.070 Y90.650 E0.01677
G1 X90.930 Y92.510 E0.08263
G1 X90.930 Y93.044 E0.01677
G1 X89.070 Y91.184 E0.08263
G1 X89.070 Y91.718 E0.01677
G1 X90.930 Y93.579 E0.08263
G1 X90.930 Y94.113 E0.01677
G1 X89.070 Y92.252 E0.08263
G1 X89.070 Y92.786 E0.01677
G1 X90.930 Y94.647 E0.08263
G1 X90.930 Y95.181 E0.01677
G1 X89.070 Y93.320 E0.08263
G1 X89.070 Y93.855 E0.01677
G1 X90.930 Y95.715 E0.08263
G1 X90.930 Y96.249 E0.01677
G1 X89.070 Y94.389 E0.08263
G1 X89.070 Y94.923 E0.01677
G1 X90.930 Y96.783 E0.08263
G1 X90.930 Y97.317 E0.01677
G1 X89.070 Y95.457 E0.08263
G1 X89.070 Y95.991 E0.01677
G1 X90.930 Y97.851 E0.08263
G1 X90.930 Y98.386 E0.01677
G1 X89.070 Y96.525 E0.08263
G1 X89.070 Y97.059 E0.01677
G1 X90.930 Y98.920 E0.08263
G1 X90.930 Y99.454 E0.01677
G1 X89.070 Y97.593 E0.08263
G1 X89.070 Y98.127 E0.01677
G1 X90.930 Y99.988 E0.08263
G1 X90.930 Y100.522 E0.01677
G1 X89.070 Y98.662 E0.08263
G1 X89.070 Y99.196 E0.01677
G1 X90.930 Y101.056 E0.08263
G1 X90.931 Y101.592 E0.01681
G1 X89.070 Y99.730 E0.08268
G1 X89.070 Y100.264 E0.01677
G1 X90.940 Y102.134 E0.08305
G1 X90.940 Y102.160 E0.00083
G1 X90.550 Y102.003 E0.01320
G1 X90.212 Y101.940 E0.01081
G1 X89.070 Y100.798 E0.05071
G1 X89.070 Y101.332 E0.01677
G1 X89.696 Y101.958 E0.02780
G1 X89.267 Y102.064 E0.01385
G1 X88.900 Y101.697 E0.01632
M204 S1250
G1 E-2.24000 F4200.00000
G1 F7200.000
G1 X89.267 Y102.064 E-0.28790
G1 X89.696 Y101.958 E-0.24449
G1 X89.211 Y101.474 E-0.37961
G1 E-0.04800 F4200.00000
G1 Z0.400 F9000.000
G1 X88.647 Y103.191
G1 Z0.200
G1 E3.20000 F2400.00000
M204 S800
G1 F1200.000
G1 X88.588 Y103.276 E0.00056
G1 X88.565 Y103.393 E0.00065
M204 S1250
G1 E-2.24000 F4200.00000
G1 F7200.000
G1 X88.588 Y103.276 E-0.06627
G1 X88.647 Y103.191 E-0.05759
G1 E-0.83614 F4200.00000
G1 Z0.400 F9000.000
G1 X91.429 Y103.364
G1 Z0.200
G1 E3.20000 F2400.00000
M204 S800
G1 F1200.000
G1 X91.371 Y103.127 E0.00191
M204 S1250
G1 X91.303 Y103.094 F9000.000
M204 S800
G1 F1200.000
G1 X91.443 Y103.269 E0.00105
M204 S1250
G1 E-2.24000 F4200.00000
G1 F7200.000
G1 X91.303 Y103.094 E-0.12403
G1 E-0.83597 F4200.00000
G1 Z0.400 F9000.000
G1 X88.672 Y76.859
G1 Z0.200
G1 E3.20000 F2400.00000
M204 S800
G1 F1200.000
G1 X88.600 Y76.758 E0.00062
G1 X88.571 Y76.623 E0.00069
M204 S1250
M106 S255
;BEFORE_LAYER_CHANGE
G92 E0.0
;0.4


G1 Z0.400 F9000.000
;AFTER_LAYER_CHANGE
;0.4
G1 E-3.20000 F4200.00000
G1 Z0.600 F9000.000
G1 X85.290 Y75.355
G1 Z0.400
G1 E3.20000 F2400.00000
G1 F1571
G1 X85.479 Y74.530 E0.02655
G1 X85.824 Y73.729 E0.02733
G1 X86.312 Y73.000 E0.02751
G1 X86.905 Y72.392 E0.02664
G1 X87.516 Y71.947 E0.02369
G1 X88.300 Y71.561 E0.02740
G1 X89.120 Y71.328 E0.02673
G1 X90.000 Y71.246 E0.02771
G1 X90.894 Y71.331 E0.02815
G1 X91.762 Y71.585 E0.02837
G1 X92.572 Y72.002 E0.02857
G1 X93.317 Y72.595 E0.02983
G1 X93.964 Y73.376 E0.03181
G1 X94.393 Y74.185 E0.02872
G1 X94.666 Y75.089 E0.02960
G1 X94.754 Y76.000 E0.02871
G1 X94.710 Y104.644 E0.89812
G1 X94.521 Y105.470 E0.02656
G1 X94.176 Y106.271 E0.02733
G1 X93.682 Y107.008 E0.02784
G1 X93.095 Y107.608 E0.02632
G1 X92.484 Y108.053 E0.02369
G1 X91.705 Y108.437 E0.02725
G1 X90.888 Y108.670 E0.02662
G1 X90.008 Y108.754 E0.02771
G1 X89.112 Y108.670 E0.02824
G1 X88.242 Y108.417 E0.02841
G1 X87.431 Y108.000 E0.02857
G1 X86.687 Y107.409 E0.02981
G1 X86.039 Y106.628 E0.03183
G1 X85.608 Y105.819 E0.02872
G1 X85.335 Y104.914 E0.02966
G1 X85.246 Y104.000 E0.02878
G1 X85.290 Y75.415 E0.89625
G1 X85.660 Y75.434 F9000.000
G1 F1571
G1 X85.835 Y74.655 E0.02502
G1 X86.152 Y73.915 E0.02525
G1 X86.603 Y73.241 E0.02544
G1 X87.148 Y72.680 E0.02452
G1 X87.706 Y72.273 E0.02166
G1 X88.430 Y71.915 E0.02533
G1 X89.184 Y71.700 E0.02458
G1 X89.998 Y71.623 E0.02565
G1 X90.821 Y71.701 E0.02590
G1 X91.620 Y71.934 E0.02612
G1 X92.364 Y72.316 E0.02620
G1 X93.050 Y72.861 E0.02748
G1 X93.649 Y73.585 E0.02946
G1 X94.044 Y74.327 E0.02635
G1 X94.296 Y75.159 E0.02727
G1 X94.377 Y76.000 E0.02648
G1 X94.340 Y104.569 E0.89576
G1 X94.165 Y105.345 E0.02493
G1 X93.848 Y106.085 E0.02525
G1 X93.391 Y106.768 E0.02576
G1 X92.852 Y107.320 E0.02419
G1 X92.294 Y107.727 E0.02166
G1 X91.574 Y108.083 E0.02519
G1 X90.820 Y108.299 E0.02460
G1 X90.005 Y108.377 E0.02565
G1 X89.180 Y108.300 E0.02598
G1 X88.380 Y108.066 E0.02616
G1 X87.636 Y107.684 E0.02620
G1 X86.950 Y107.139 E0.02748
G1 X86.351 Y106.415 E0.02946
G1 X85.956 Y105.673 E0.02635
G1 X85.704 Y104.839 E0.02732
G1 X85.623 Y104.000 E0.02643
G1 X85.660 Y75.494 E0.89378
G1 E-2.24000 F4200.00000
G1 F7200.000
G1 X85.835 Y74.655 E-0.47480
G1 X86.145 Y73.930 E-0.43720
G1 E-0.04800 F4200.00000
G1 Z0.600 F9000.000
G1 X89.683 Y102.815
G1 Z0.400
G1 E3.20000 F2400.00000
M204 S800
G1 F1500.000
G1 X89.990 Y102.774 E0.01049
G1 X90.215 Y102.793 E0.00766
G1 X90.430 Y102.851 E0.00752
G1 X90.708 Y102.999 E0.01065
G1 X90.876 Y103.143 E0.00750
G1 X91.014 Y103.311 E0.00733
G1 X91.119 Y103.500 E0.00733
G1 X91.191 Y103.708 E0.00746
G1 X91.226 Y103.997 E0.00987
G1 X91.202 Y104.241 E0.00829
G1 X91.140 Y104.450 E0.00738
G1 X91.043 Y104.644 E0.00733
G1 X90.911 Y104.821 E0.00750
G1 X90.675 Y105.023 E0.01049
G1 X90.476 Y105.130 E0.00766
G1 X90.269 Y105.196 E0.00735
G1 X90.054 Y105.225 E0.00733
G1 X89.838 Y105.215 E0.00733
G1 X89.622 Y105.166 E0.00750
G1 X89.341 Y105.034 E0.01049
G1 X89.159 Y104.892 E0.00783
G1 X88.959 Y104.648 E0.01066
G1 X88.860 Y104.450 E0.00750
G1 X88.798 Y104.242 E0.00733
G1 X88.774 Y104.027 E0.00733
G1 X88.789 Y103.806 E0.00750
G1 X88.878 Y103.504 E0.01065
G1 X88.986 Y103.311 E0.00750
G1 X89.124 Y103.143 E0.00733
G1 X89.288 Y103.002 E0.00733
G1 X89.475 Y102.892 E0.00733
G1 X89.627 Y102.836 E0.00547
M204 S1250
G1 X89.771 Y102.518 F9000.000
G1 X88.648 Y103.081
M204 S800
G1 F1571
G1 X88.636 Y103.103 E0.00088
G1 X88.632 Y76.892 E0.88723
G1 X88.881 Y77.196 E0.01330
G1 X89.222 Y77.439 E0.01419
G1 X89.502 Y77.557 E0.01026
G1 X89.784 Y77.620 E0.00978
G1 X90.072 Y77.633 E0.00978
