; generated by PrusaSlicer 2.3.0+win64 on 2021-06-30 at 10:44:05 UTC


;
;

;
;
; 

; external perimeters extrusion width = 0.45mm
; perimeters extrusion width = 0.45mm
; infill extrusion width = 0.45mm
; solid infill extrusion width = 0.45mm
; top infill extrusion width = 0.40mm
; first layer extrusion width = 0.42mm

M73 P0 R118
M201 X1250 Y1250 Z400 E5000 ; sets maximum accelerations, mm/sec^2
M203 X180 Y180 Z12 E80 ; sets maximum feedrates, mm/sec
M204 P1250 R1250 T1250 ; sets acceleration (P, T) and retract acceleration (R), mm/sec^2
M205 X8.00 Y8.00 Z2.00 E10.00 ; sets the jerk limits, mm/sec
M205 S0 T0 ; sets the minimum extruding and travel feed rate, mm/sec
M107
;TYPE:Custom
G90 ; use absolute coordinates
M83 ; extruder relative mode
M104 S170 ; set extruder temp for bed leveling
M140 S60 ; set bed temp
M109 R170 ; wait for bed leveling temp
M190 S60 ; wait for bed temp
G28 ; home all without mesh bed level
G29 ; mesh bed leveling 
M104 S215 ; set extruder temp
G92 E0.0
G1 Y-2.0 X179 F2400
G1 Z3 F720
M109 S215 ; wait for extruder temp

; intro line
G1 X170 F1000
G1 Z0.2 F720
G1 X110.0 E8.0 F900
G1 X40.0 E10.0 F700
G92 E0.0

M221 S95 ; set flow
G21 ; set units to millimeters
G90 ; use absolute coordinates
M83 ; use relative distances for extrusion
M900 K0.2 ; Filament gcode LA 1.5
; ; Filament gcode LA 1.0
;LAYER_CHANGE
;Z:0.2
;HEIGHT:0.2
;BEFORE_LAYER_CHANGE
G92 E0.0
;0.2


G1 E-3.20000 F4200.000
G1 Z0.200 F9000.000
;AFTER_LAYER_CHANGE
;0.2
G1 Z0.400
G1 X54.593 Y42.787
G1 Z0.200
G1 E3.20000 F2400.000
M204 S800
;TYPE:Skirt
;WIDTH:0.42
G1 F1200.000
G1 X54.927 Y41.649 E0.03719
G1 X55.517 Y40.615 E0.03733
G1 X56.312 Y39.696 E0.03811
G1 X57.456 Y38.749 E0.04655
G1 X58.877 Y37.869 E0.05239
G1 X60.619 Y37.032 E0.06062
G1 X62.728 Y36.230 E0.07074
G1 X64.801 Y35.590 E0.06801
G1 X67.669 Y34.873 E0.09271
G1 X70.373 Y34.330 E0.08646
G1 X73.353 Y33.848 E0.09465
G1 X76.545 Y33.443 E0.10090
G1 X79.975 Y33.120 E0.10803
G1 X83.554 Y32.890 E0.11244
G1 X90.211 Y32.733 E0.20876
G1 X96.798 Y32.908 E0.20661
G1 X100.310 Y33.143 E0.11037
G1 X103.644 Y33.465 E0.10503
G1 X106.755 Y33.863 E0.09835
G1 X109.796 Y34.360 E0.09659
G1 X112.391 Y34.886 E0.08304
G1 X114.683 Y35.448 E0.07396
G1 X116.731 Y36.051 E0.06697
G1 X118.795 Y36.791 E0.06874
G1 X120.539 Y37.565 E0.05981
G1 X121.983 Y38.373 E0.05191
G1 X123.173 Y39.232 E0.04600
G1 X124.060 Y40.087 E0.03863
G1 X124.740 Y41.003 E0.03577
G1 X125.221 Y42.033 E0.03565
G1 X125.401 Y42.753 E0.02326
G1 X125.463 Y43.494 E0.02332
G1 X125.476 Y136.500 E2.91614
G1 X125.404 Y137.226 E0.02288
G1 X125.219 Y137.970 E0.02404
G1 X124.897 Y138.719 E0.02555
G1 X124.499 Y139.364 E0.02377
G1 X123.932 Y140.055 E0.02802
G1 X122.598 Y141.213 E0.05540
G1 X120.660 Y142.374 E0.07083
G1 X118.125 Y143.467 E0.08655
G1 X115.314 Y144.378 E0.09266
G1 X111.946 Y145.212 E0.10879
G1 X108.023 Y145.944 E0.12512
G1 X103.629 Y146.538 E0.13902
G1 X99.499 Y146.921 E0.13004
G1 X95.165 Y147.167 E0.13612
G1 X90.359 Y147.267 E0.15072
G1 X78.189 Y146.725 E0.38194
G1 X74.932 Y146.366 E0.10274
G1 X71.917 Y145.934 E0.09551
G1 X68.137 Y145.230 E0.12054
G1 X64.897 Y144.437 E0.10459
G1 X61.860 Y143.462 E0.09999
G1 X59.368 Y142.388 E0.08511
G1 X57.507 Y141.288 E0.06778
G1 X56.079 Y140.066 E0.05893
G1 X55.519 Y139.389 E0.02755
G1 X55.073 Y138.661 E0.02678
G1 X54.779 Y137.967 E0.02360
G1 X54.598 Y137.243 E0.02340
G1 X54.593 Y42.847 E2.95972
M204 S1250
; printing object ToiletRoll_LidJoinForm07.stl id:0 copy 0
G1 E-2.24000 F4200.000
;WIPE_START
G1 F7200.000
G1 X54.927 Y41.649 E-0.68925
G1 X55.126 Y41.300 E-0.22275
;WIPE_END
G1 E-0.04800 F4200.000
G1 Z0.400 F9000.000
G1 X93.360 Y135.269
G1 Z0.200
G1 E3.20000 F2400.000
M204 S800
;TYPE:External perimeter
;WIDTH:0.32417
G1 F1200.000
G1 X93.422 Y135.284 E0.00151
M204 S1250
M204 S800
;WIDTH:0.35542
G1 X93.485 Y135.300 E0.00167
M204 S1250
G1 X93.360 Y135.269 F9000.000
M204 S800
;WIDTH:0.29292
G1 F1200.000
G1 X75.360 Y135.269 E0.37418
G1 X75.235 Y135.300 E0.00268
M204 S1250
G1 E-2.24000 F4200.000
;WIPE_START
G1 F7200.000
G1 X75.360 Y135.269 E-0.07140
G1 X76.877 Y135.269 E-0.84060
;WIPE_END
G1 E-0.04800 F4200.000
G1 Z0.400 F9000.000
G1 X75.235 Y137.334
G1 Z0.200
G1 E3.20000 F2400.000
M204 S800
G1 F1200.000
G1 X75.110 Y137.365 E0.00268
G1 X62.860 Y137.365 E0.25465
G1 X62.756 Y137.344 E0.00220
G1 X62.735 Y137.240 E0.00220
G1 X62.735 Y49.740 E1.81891
G1 X62.756 Y49.637 E0.00220
G1 X62.860 Y49.615 E0.00220
G1 X105.410 Y49.615 E0.88451
G1 X105.513 Y49.594 E0.00220
G1 X105.535 Y49.490 E0.00220
G1 X105.535 Y39.158 E0.21478
M204 S1250
G1 X105.687 Y38.520 F9000.000
M204 S800
;TYPE:Perimeter
;WIDTH:0.42
G1 F1200.000
G1 X105.595 Y38.416 E0.00436
G1 X104.733 Y38.217 E0.02773
G1 X102.485 Y37.949 E0.07099
G1 X100.171 Y37.730 E0.07286
G1 X97.787 Y37.562 E0.07494
G1 X97.787 Y36.139 E0.04464
G1 X100.056 Y36.297 E0.07132
G1 X102.019 Y36.474 E0.06180
G1 X104.529 Y36.756 E0.07919
G1 X106.305 Y36.995 E0.05618
G1 X108.176 Y37.288 E0.05937
G1 X109.744 Y37.570 E0.04995
G1 X111.703 Y37.975 E0.06273
G1 X113.461 Y38.398 E0.05669
G1 X115.026 Y38.834 E0.05095
G1 X116.405 Y39.278 E0.04543
G1 X117.619 Y39.728 E0.04060
G1 X118.668 Y40.177 E0.03577
G1 X119.762 Y40.732 E0.03845
G1 X120.304 Y41.055 E0.01980
G1 X120.765 Y41.367 E0.01744
G1 X121.152 Y41.668 E0.01536
G1 X121.576 Y42.061 E0.01814
G1 X121.843 Y42.368 E0.01275
G1 X122.021 Y42.624 E0.00977
G1 X122.192 Y42.966 E0.01199
G1 X122.261 Y43.189 E0.00731
G1 X122.299 Y43.534 E0.01089
G1 X122.299 Y44.443 E0.02848
G1 X122.128 Y44.486 E0.00554
G1 X121.843 Y43.952 E0.01896
G1 X121.463 Y43.487 E0.01882
G1 X121.084 Y43.130 E0.01632
G1 X120.607 Y42.757 E0.01900
G1 X120.039 Y42.381 E0.02135
G1 X119.314 Y41.969 E0.02615
G1 X118.745 Y41.684 E0.01997
G1 X117.832 Y41.278 E0.03132
G1 X117.112 Y40.991 E0.02428
G1 X115.498 Y40.431 E0.05360
G1 X114.123 Y40.022 E0.04496
G1 X113.104 Y39.751 E0.03306
G1 X110.912 Y39.242 E0.07055
G1 X108.441 Y38.768 E0.07890
G1 X107.117 Y38.550 E0.04207
G1 X106.397 Y38.462 E0.02275
G1 X105.950 Y38.459 E0.01402
G1 X105.745 Y38.507 E0.00659
M204 S1250
G1 E-2.24000 F4200.000
;WIPE_START
G1 F7200.000
G1 X105.595 Y38.416 E-0.09730
G1 X104.733 Y38.217 E-0.49010
G1 X104.151 Y38.148 E-0.32460
;WIPE_END
G1 E-0.04800 F4200.000
G1 Z0.400 F9000.000
G1 X75.720 Y36.715
G1 Z0.200
G1 E3.20000 F2400.000
M204 S800
G1 F1200.000
G1 X75.504 Y36.989 E0.01091
G1 X75.309 Y37.443 E0.01552
G1 X75.232 Y37.791 E0.01116
G1 X75.223 Y38.195 E0.01268
G1 X72.571 Y38.567 E0.08398
G1 X71.296 Y38.779 E0.04052
G1 X69.502 Y39.115 E0.05722
G1 X68.398 Y39.348 E0.03540
G1 X66.841 Y39.715 E0.05016
G1 X65.432 Y40.091 E0.04572
G1 X64.040 Y40.516 E0.04563
M73 P0 R117
G1 X62.919 Y40.905 E0.03719
G1 X61.920 Y41.298 E0.03368
G1 X61.047 Y41.688 E0.02997
G1 X60.061 Y42.203 E0.03487
G1 X59.271 Y42.702 E0.02930
G1 X58.668 Y43.172 E0.02396
G1 X58.209 Y43.629 E0.02033
G1 X57.884 Y44.081 E0.01743
G1 X57.718 Y44.035 E0.00542
G1 X57.718 Y43.317 E0.02252
G1 X57.792 Y43.011 E0.00988
G1 X57.923 Y42.721 E0.00997
G1 X58.169 Y42.353 E0.01389
G1 X58.420 Y42.064 E0.01200
G1 X58.860 Y41.657 E0.01879
G1 X59.283 Y41.333 E0.01672
G1 X59.791 Y40.996 E0.01910
G1 X60.388 Y40.649 E0.02164
G1 X61.070 Y40.301 E0.02402
G1 X61.866 Y39.940 E0.02741
G1 X62.756 Y39.582 E0.03008
G1 X63.758 Y39.223 E0.03336
G1 X64.861 Y38.869 E0.03632
G1 X65.661 Y38.636 E0.02612
G1 X66.958 Y38.292 E0.04209
G1 X67.882 Y38.069 E0.02980
G1 X69.363 Y37.746 E0.04753
G1 X70.939 Y37.443 E0.05033
G1 X73.212 Y37.067 E0.07223
G1 X75.660 Y36.724 E0.07751
M204 S1250
G1 E-2.24000 F4200.000
;WIPE_START
G1 F7200.000
G1 X75.504 Y36.989 E-0.17046
G1 X75.309 Y37.443 E-0.27423
G1 X75.232 Y37.791 E-0.19726
G1 X75.223 Y38.195 E-0.22412
G1 X75.141 Y38.207 E-0.04594
;WIPE_END
G1 E-0.04800 F4200.000
G1 Z0.400 F9000.000
G1 X97.410 Y36.193
G1 Z0.200
G1 E3.20000 F2400.000
M204 S800
;TYPE:External perimeter
G1 F1200.000
G1 X81.496 Y36.198 E0.49896
G1 X78.991 Y36.287 E0.07859
G1 X77.483 Y36.359 E0.04734
G1 X77.139 Y36.396 E0.01084
G1 X76.787 Y36.474 E0.01132
G1 X76.430 Y36.612 E0.01201
G1 X76.196 Y36.760 E0.00868
G1 X76.082 Y36.865 E0.00486
G1 X75.831 Y37.183 E0.01270
G1 X75.669 Y37.560 E0.01285
G1 X75.608 Y37.836 E0.00887
G1 X75.594 Y38.527 E0.02166
G1 X73.941 Y38.744 E0.05226
G1 X72.630 Y38.940 E0.04158
G1 X71.362 Y39.151 E0.04030
G1 X69.576 Y39.485 E0.05697
G1 X68.480 Y39.716 E0.03513
G1 X66.932 Y40.081 E0.04984
G1 X65.536 Y40.454 E0.04534
G1 X64.157 Y40.874 E0.04520
G1 X63.050 Y41.258 E0.03672
G1 X62.066 Y41.646 E0.03317
G1 X61.212 Y42.028 E0.02934
G1 X60.250 Y42.530 E0.03402
G1 X59.488 Y43.011 E0.02823
G1 X58.918 Y43.455 E0.02266
G1 X58.493 Y43.878 E0.01881
G1 X58.265 Y44.177 E0.01178
G1 X58.109 Y44.444 E0.00969
G1 X58.109 Y136.693 E2.89241
G1 X58.180 Y136.943 E0.00814
G1 X58.302 Y137.196 E0.00883
G1 X58.606 Y137.616 E0.01626
G1 X58.895 Y137.914 E0.01302
G1 X59.141 Y138.131 E0.01027
G1 X59.771 Y138.596 E0.02456
G1 X60.568 Y139.075 E0.02915
G1 X61.388 Y139.492 E0.02885
G1 X62.504 Y139.977 E0.03815
G1 X63.639 Y140.401 E0.03801
G1 X64.790 Y140.779 E0.03798
G1 X66.235 Y141.196 E0.04715
G1 X67.696 Y141.566 E0.04726
G1 X69.453 Y141.954 E0.05641
G1 X71.228 Y142.293 E0.05667
G1 X72.998 Y142.587 E0.05625
G1 X74.771 Y142.841 E0.05617
G1 X75.664 Y142.942 E0.02819
G1 X75.842 Y143.593 E0.02115
G1 X76.937 Y143.606 E0.03435
G1 X77.862 Y143.654 E0.02904
G1 X77.974 Y143.676 E0.00358
G1 X77.962 Y143.980 E0.00954
G1 X77.726 Y144.026 E0.00755
G1 X76.797 Y143.977 E0.02917
G1 X75.587 Y143.835 E0.03819
G1 X75.008 Y143.613 E0.01946
G1 X74.689 Y143.540 E0.01025
G1 X72.360 Y143.182 E0.07388
G1 X70.740 Y142.904 E0.05154
G1 X69.202 Y142.606 E0.04912
G1 X67.788 Y142.296 E0.04539
G1 X66.467 Y141.973 E0.04265
G1 X64.882 Y141.532 E0.05159
G1 X63.799 Y141.190 E0.03560
G1 X62.527 Y140.735 E0.04236
G1 X61.331 Y140.237 E0.04061
G1 X60.399 Y139.785 E0.03248
G1 X59.613 Y139.338 E0.02834
G1 X58.818 Y138.793 E0.03023
G1 X58.560 Y138.584 E0.01043
G1 X58.029 Y138.069 E0.02320
G1 X57.785 Y137.765 E0.01221
G1 X57.595 Y137.468 E0.01107
G1 X57.406 Y137.029 E0.01496
G1 X57.338 Y136.719 E0.00996
G1 X57.340 Y43.272 E2.92997
G1 X57.434 Y42.887 E0.01241
G1 X57.593 Y42.538 E0.01204
G1 X57.869 Y42.123 E0.01562
G1 X58.150 Y41.801 E0.01339
G1 X58.617 Y41.369 E0.01997
G1 X59.064 Y41.026 E0.01767
G1 X59.592 Y40.675 E0.01986
G1 X60.207 Y40.318 E0.02230
G1 X60.906 Y39.961 E0.02462
G1 X61.718 Y39.594 E0.02794
G1 X62.622 Y39.229 E0.03055
G1 X63.636 Y38.865 E0.03379
G1 X64.750 Y38.508 E0.03668
G1 X65.559 Y38.272 E0.02642
G1 X66.866 Y37.926 E0.04237
G1 X67.798 Y37.702 E0.03006
G1 X69.287 Y37.377 E0.04780
G1 X70.873 Y37.071 E0.05063
G1 X73.155 Y36.694 E0.07253
G1 X75.596 Y36.352 E0.07727
G1 X75.920 Y36.296 E0.01030
G1 X76.857 Y36.062 E0.03029
G1 X77.483 Y35.980 E0.01978
G1 X81.233 Y35.814 E0.11771
G1 X83.699 Y35.674 E0.07743
G1 X85.842 Y35.586 E0.06726
G1 X88.742 Y35.526 E0.09096
G1 X90.938 Y35.523 E0.06884
G1 X93.104 Y35.557 E0.06792
G1 X95.239 Y35.626 E0.06697
G1 X97.347 Y35.730 E0.06619
G1 X100.086 Y35.921 E0.08610
G1 X102.057 Y36.099 E0.06205
G1 X104.575 Y36.382 E0.07945
G1 X106.359 Y36.622 E0.05644
G1 X108.238 Y36.916 E0.05962
G1 X109.815 Y37.199 E0.05024
G1 X111.785 Y37.607 E0.06307
G1 X113.555 Y38.033 E0.05709
G1 X115.134 Y38.473 E0.05139
G1 X116.528 Y38.922 E0.04592
G1 X117.759 Y39.378 E0.04116
G1 X118.828 Y39.835 E0.03645
G1 X119.944 Y40.402 E0.03923
G1 X120.507 Y40.737 E0.02055
G1 X120.986 Y41.062 E0.01817
G1 X121.396 Y41.380 E0.01626
G1 X121.848 Y41.798 E0.01930
G1 X122.141 Y42.136 E0.01404
G1 X122.346 Y42.431 E0.01126
G1 X122.543 Y42.825 E0.01381
G1 X122.631 Y43.112 E0.00940
G1 X122.676 Y43.513 E0.01266
G1 X122.676 Y52.757 E0.28984
G1 X121.961 Y52.757 E0.02244
G1 X121.961 Y51.421 E0.04190
G1 X121.819 Y51.421 E0.00445
G1 X121.815 Y44.888 E0.20484
G1 X121.731 Y44.542 E0.01117
G1 X121.527 Y44.162 E0.01351
G1 X121.187 Y43.744 E0.01690
G1 X120.838 Y43.417 E0.01500
G1 X120.386 Y43.063 E0.01799
G1 X119.842 Y42.702 E0.02048
G1 X119.136 Y42.302 E0.02544
G1 X118.583 Y42.025 E0.01939
G1 X117.685 Y41.625 E0.03081
G1 X116.981 Y41.345 E0.02378
G1 X115.382 Y40.790 E0.05307
G1 X114.021 Y40.385 E0.04452
G1 X113.013 Y40.117 E0.03270
G1 X110.834 Y39.611 E0.07013
G1 X108.375 Y39.139 E0.07852
G1 X107.064 Y38.923 E0.04167
G1 X106.373 Y38.839 E0.02182
G1 X105.992 Y38.836 E0.01194
G1 X105.552 Y38.938 E0.01415
G1 X105.392 Y38.756 E0.00762
G1 X104.668 Y38.589 E0.02329
G1 X102.445 Y38.324 E0.07020
G1 X100.140 Y38.106 E0.07258
G1 X97.410 Y37.914 E0.08582
G1 X97.410 Y36.253 E0.05207
M204 S1250
G1 X97.284 Y35.813 F9000.000
G1 E-2.24000 F4200.000
;WIPE_START
G1 F7200.000
G1 X95.764 Y36.247 E-0.91200
;WIPE_END
G1 E-0.04800 F4200.000
G1 Z0.400 F9000.000
G1 X93.485 Y137.334
G1 Z0.200
G1 E3.20000 F2400.000
M204 S800
;WIDTH:0.35542
G1 F1200.000
G1 X93.422 Y137.350 E0.00167
M204 S1250
M204 S800
;WIDTH:0.32417
G1 X93.360 Y137.365 E0.00151
M204 S1250
M204 S800
;WIDTH:0.29292
G1 X75.360 Y137.365 E0.37418
M73 P1 R117
G1 X75.235 Y137.334 E0.00268
M204 S1250
M204 S800
G1 X75.235 Y135.394 E0.04034
M204 S1250
M204 S800
;WIDTH:0.32417
G1 X75.235 Y135.347 E0.00110
M204 S1250
M204 S800
;WIDTH:0.35542
G1 X75.235 Y135.300 E0.00122
M204 S1250
M204 S800
;WIDTH:0.29292
G1 X75.110 Y135.269 E0.00268
G1 X64.860 Y135.269 E0.21307
G1 X64.756 Y135.247 E0.00220
G1 X64.735 Y135.144 E0.00220
G1 X64.735 Y51.644 E1.73576
G1 X64.756 Y51.540 E0.00220
G1 X64.860 Y51.519 E0.00220
G1 X103.860 Y51.519 E0.81072
G1 X103.964 Y51.540 E0.00220
G1 X103.985 Y51.644 E0.00220
G1 X103.985 Y135.144 E1.73576
G1 X103.964 Y135.247 E0.00220
G1 X103.860 Y135.269 E0.00220
G1 X93.610 Y135.269 E0.21307
M204 S1250
M204 S800
;WIDTH:0.32417
G1 X93.547 Y135.284 E0.00151
M204 S1250
M204 S800
;WIDTH:0.35542
G1 X93.485 Y135.300 E0.00167
M204 S1250
M204 S800
G1 X93.485 Y135.347 E0.00122
M204 S1250
M204 S800
;WIDTH:0.32417
G1 X93.485 Y135.394 E0.00110
M204 S1250
M204 S800
;WIDTH:0.29292
G1 X93.485 Y137.334 E0.04034
M204 S1250
M204 S800
G1 X93.610 Y137.365 E0.00268
G1 X105.410 Y137.365 E0.24529
G1 X105.513 Y137.387 E0.00220
G1 X105.535 Y137.490 E0.00220
G1 X105.535 Y142.332 E0.10065
M204 S1250
G1 X105.556 Y142.562 F9000.000
M204 S800
;WIDTH:0.42
G1 F1200.000
G1 X105.698 Y142.703 E0.00628
G1 X106.070 Y142.658 E0.01174
G1 X106.368 Y142.671 E0.00936
G1 X107.523 Y142.505 E0.03657
G1 X109.294 Y142.198 E0.05636
G1 X111.273 Y141.800 E0.06331
G1 X112.649 Y141.483 E0.04427
G1 X113.921 Y141.154 E0.04119
G1 X115.070 Y140.823 E0.03750
G1 X116.124 Y140.483 E0.03471
G1 X117.631 Y139.923 E0.05039
G1 X118.889 Y139.358 E0.04325
G1 X119.723 Y138.911 E0.02968
G1 X120.406 Y138.476 E0.02538
G1 X120.961 Y138.045 E0.02204
G1 X121.343 Y137.662 E0.01694
G1 X121.961 Y137.662 E0.01937
G1 X121.961 Y128.041 E0.30167
G1 X122.689 Y128.041 E0.02282
G1 X122.689 Y136.293 E0.25874
G1 X122.660 Y136.732 E0.01378
G1 X122.577 Y137.081 E0.01126
G1 X122.424 Y137.433 E0.01203
G1 X122.275 Y137.662 E0.00858
G1 X122.311 Y137.662 E0.00114
G1 X121.885 Y138.164 E0.02063
G1 X121.549 Y138.489 E0.01466
G1 X121.133 Y138.830 E0.01686
G1 X120.643 Y139.175 E0.01880
G1 X120.060 Y139.532 E0.02143
G1 X119.403 Y139.887 E0.02341
G1 X118.645 Y140.248 E0.02633
G1 X117.776 Y140.616 E0.02958
G1 X117.145 Y140.858 E0.02119
G1 X116.104 Y141.222 E0.03457
G1 X115.352 Y141.461 E0.02476
G1 X114.135 Y141.813 E0.03970
G1 X113.262 Y142.042 E0.02832
G1 X111.850 Y142.379 E0.04550
G1 X110.856 Y142.594 E0.03189
G1 X108.724 Y143.001 E0.06807
G1 X106.989 Y143.284 E0.05511
G1 X105.791 Y143.459 E0.03796
G1 X103.310 Y143.770 E0.07842
G1 X101.346 Y143.970 E0.06189
G1 X99.981 Y144.088 E0.04296
G1 X97.187 Y144.279 E0.08779
G1 X94.342 Y144.408 E0.08932
G1 X90.770 Y144.478 E0.11200
G1 X90.770 Y143.795 E0.02141
G1 X97.410 Y143.795 E0.20819
G1 X97.410 Y143.578 E0.00681
G1 X99.384 Y143.447 E0.06202
G1 X102.039 Y143.213 E0.08359
G1 X104.243 Y142.966 E0.06952
G1 X104.559 Y142.923 E0.01000
G1 X105.187 Y142.775 E0.02024
G1 X105.504 Y142.592 E0.01146
M204 S1250
G1 X105.580 Y142.761 F9000.000
G1 X105.518 Y142.802
M204 S800
;TYPE:Gap fill
;WIDTH:0.461642
G1 F1200.000
G1 X105.490 Y143.079 E0.00969
G1 X105.654 Y143.092 E0.00571
M204 S1250
M204 S800
;WIDTH:0.347154
G1 X106.084 Y143.036 E0.01099
