; generated by PrusaSlicer 2.3.0+win64 on 2021-06-21 at 11:54:50 UTC


;
;

;
;
; 

; external perimeters extrusion width = 0.45mm
; perimeters extrusion width = 0.45mm
; infill extrusion width = 0.45mm
; solid infill extrusion width = 0.45mm
; top infill extrusion width = 0.40mm
; first layer extrusion width = 0.42mm

M73 P0 R28
M201 X1250 Y1250 Z400 E5000 ; sets maximum accelerations, mm/sec^2
M203 X180 Y180 Z12 E80 ; sets maximum feedrates, mm/sec
M204 P1250 R1250 T1250 ; sets acceleration (P, T) and retract acceleration (R), mm/sec^2
M205 X8.00 Y8.00 Z2.00 E10.00 ; sets the jerk limits, mm/sec
M205 S0 T0 ; sets the minimum extruding and travel feed rate, mm/sec
M107
;TYPE:Custom
G90 ; use absolute coordinates
M83 ; extruder relative mode
M104 S170 ; set extruder temp for bed leveling
M140 S60 ; set bed temp
M109 R170 ; wait for bed leveling temp
M190 S60 ; wait for bed temp
G28 ; home all without mesh bed level
G29 ; mesh bed leveling 
M104 S215 ; set extruder temp
G92 E0.0
G1 Y-2.0 X179 F2400
G1 Z3 F720
M109 S215 ; wait for extruder temp

; intro line
G1 X170 F1000
G1 Z0.2 F720
G1 X110.0 E8.0 F900
G1 X40.0 E10.0 F700
G92 E0.0

M221 S95 ; set flow
G21 ; set units to millimeters
G90 ; use absolute coordinates
M83 ; use relative distances for extrusion
M900 K0.2 ; Filament gcode LA 1.5
; ; Filament gcode LA 1.0
;LAYER_CHANGE
;Z:0.2
;HEIGHT:0.2
;BEFORE_LAYER_CHANGE
G92 E0.0
;0.2


G1 E-3.20000 F4200.000
G1 Z0.200 F9000.000
;AFTER_LAYER_CHANGE
;0.2
G1 Z0.400
G1 X61.910 Y42.117
G1 Z0.200
G1 E3.20000 F2400.000
M204 S800
;TYPE:Skirt
;WIDTH:0.42
G1 F1200.000
G1 X62.276 Y41.613 E0.01953
G1 X62.761 Y41.222 E0.01953
G1 X63.330 Y40.969 E0.01953
G1 X63.946 Y40.874 E0.01953
G1 X116.004 Y40.873 E1.63225
M73 P1 R28
G1 X116.902 Y41.051 E0.02872
G1 X117.664 Y41.553 E0.02860
G1 X118.181 Y42.305 E0.02860
G1 X118.377 Y43.199 E0.02872
G1 X118.377 Y136.758 E2.93345
M73 P1 R27
G1 X118.303 Y137.338 E0.01835
G1 X118.090 Y137.883 E0.01835
G1 X117.721 Y138.390 E0.01965
G1 X117.233 Y138.782 E0.01965
G1 X116.659 Y139.034 E0.01965
G1 X116.039 Y139.127 E0.01965
G1 X63.989 Y139.127 E1.63201
G1 X63.412 Y139.053 E0.01823
G1 X62.867 Y138.840 E0.01835
G1 X62.358 Y138.469 E0.01977
G1 X61.964 Y137.976 E0.01977
G1 X61.713 Y137.398 E0.01977
G1 X61.623 Y136.774 E0.01977
G1 X61.623 Y43.242 E2.93262
G1 X61.697 Y42.662 E0.01835
G1 X61.888 Y42.173 E0.01646
M204 S1250
; printing object ToiletRoll_LidRedesign01.stl id:0 copy 0
G1 E-2.24000 F4200.000
;WIPE_START
G1 F7200.000
G1 X62.276 Y41.613 E-0.37745
G1 X62.761 Y41.222 E-0.34518
G1 X63.073 Y41.083 E-0.18937
;WIPE_END
G1 E-0.04800 F4200.000
G1 Z0.400 F9000.000
G1 X64.787 Y44.037
G1 Z0.200
G1 E3.20000 F2400.000
M204 S800
;TYPE:Perimeter
G1 F1200.000
G1 X115.213 Y44.037 E1.58107
M73 P2 R27
G1 X115.213 Y135.963 E2.88227
G1 X98.287 Y135.963 E0.53070
G1 X98.287 Y132.537 E0.10741
G1 X108.787 Y132.537 E0.32922
G1 X108.787 Y47.463 E2.66744
G1 X68.213 Y47.463 E1.27217
G1 X68.213 Y132.537 E2.66744
M73 P3 R27
G1 X78.713 Y132.537 E0.32922
G1 X78.713 Y135.963 E0.10741
G1 X64.787 Y135.963 E0.43663
G1 X64.787 Y44.097 E2.88039
M204 S1250
G1 E-2.24000 F4200.000
;WIPE_START
G1 F7200.000
G1 X66.433 Y44.095 E-0.91200
;WIPE_END
G1 E-0.04800 F4200.000
G1 Z0.400 F9000.000
G1 X108.410 Y132.160
G1 Z0.200
G1 E3.20000 F2400.000
M204 S800
;TYPE:External perimeter
G1 F1200.000
G1 X108.410 Y47.840 E2.64379
G1 X68.590 Y47.840 E1.24853
G1 X68.590 Y132.160 E2.64379
M73 P4 R27
G1 X79.090 Y132.160 E0.32922
G1 X79.090 Y136.340 E0.13106
G1 X64.410 Y136.340 E0.46028
G1 X64.410 Y43.660 E2.90592
G1 X115.590 Y43.660 E1.60471
G1 X115.590 Y136.340 E2.90592
G1 X97.910 Y136.340 E0.55434
G1 X97.910 Y132.160 E0.13106
M73 P4 R26
G1 X108.350 Y132.160 E0.32734
M204 S1250
M73 P5 R26
G1 X108.807 Y132.110 F9000.000
G1 E-2.24000 F4200.000
;WIPE_START
G1 F7200.000
G1 X108.351 Y130.514 E-0.91200
;WIPE_END
G1 E-0.04800 F4200.000
G1 Z0.400 F9000.000
G1 X115.100 Y44.913
G1 Z0.200
G1 E3.20000 F2400.000
M204 S800
;TYPE:Solid infill
;WIDTH:0.42033
G1 F1200.000
G1 X114.507 Y44.320 E0.02633
G1 X113.973 Y44.320 E0.01675
G1 X114.930 Y45.277 E0.04249
G1 X114.930 Y45.811 E0.01675
G1 X113.439 Y44.320 E0.06617
G1 X112.905 Y44.320 E0.01675
G1 X114.930 Y46.345 E0.08986
G1 X114.930 Y46.878 E0.01675
G1 X112.372 Y44.320 E0.11355
G1 X111.838 Y44.320 E0.01675
G1 X114.930 Y47.412 E0.13724
G1 X114.930 Y47.946 E0.01675
G1 X111.304 Y44.320 E0.16093
G1 X110.770 Y44.320 E0.01675
G1 X114.930 Y48.480 E0.18461
G1 X114.930 Y49.013 E0.01675
G1 X110.237 Y44.320 E0.20830
G1 X109.703 Y44.320 E0.01675
G1 X114.930 Y49.547 E0.23199
G1 X114.930 Y50.081 E0.01675
G1 X109.169 Y44.320 E0.25568
G1 X108.635 Y44.320 E0.01675
G1 X114.930 Y50.615 E0.27936
G1 X114.930 Y51.148 E0.01675
G1 X108.102 Y44.320 E0.30305
G1 X107.568 Y44.320 E0.01675
G1 X114.930 Y51.682 E0.32674
G1 X114.930 Y52.216 E0.01675
G1 X107.034 Y44.320 E0.35043
G1 X106.500 Y44.320 E0.01675
G1 X114.930 Y52.750 E0.37411
G1 X114.930 Y53.283 E0.01675
G1 X105.967 Y44.320 E0.39780
G1 X105.433 Y44.320 E0.01675
G1 X108.293 Y47.180 E0.12694
G1 X107.759 Y47.180 E0.01675
G1 X104.899 Y44.320 E0.12694
G1 X104.365 Y44.320 E0.01675
G1 X107.226 Y47.180 E0.12694
G1 X106.692 Y47.180 E0.01675
G1 X103.832 Y44.320 E0.12694
G1 X103.298 Y44.320 E0.01675
G1 X106.158 Y47.180 E0.12694
G1 X105.625 Y47.180 E0.01675
G1 X102.764 Y44.320 E0.12694
G1 X102.231 Y44.320 E0.01675
G1 X105.091 Y47.180 E0.12694
G1 X104.557 Y47.180 E0.01675
G1 X101.697 Y44.320 E0.12694
G1 X101.163 Y44.320 E0.01675
G1 X104.023 Y47.180 E0.12694
G1 X103.490 Y47.180 E0.01675
G1 X100.629 Y44.320 E0.12694
G1 X100.096 Y44.320 E0.01675
G1 X102.956 Y47.180 E0.12694
G1 X102.422 Y47.180 E0.01675
G1 X99.562 Y44.320 E0.12694
G1 X99.028 Y44.320 E0.01675
G1 X101.888 Y47.180 E0.12694
G1 X101.355 Y47.180 E0.01675
G1 X98.494 Y44.320 E0.12694
G1 X97.961 Y44.320 E0.01675
G1 X100.821 Y47.180 E0.12694
G1 X100.287 Y47.180 E0.01675
G1 X97.427 Y44.320 E0.12694
G1 X96.893 Y44.320 E0.01675
G1 X99.753 Y47.180 E0.12694
G1 X99.220 Y47.180 E0.01675
G1 X96.359 Y44.320 E0.12694
G1 X95.826 Y44.320 E0.01675
G1 X98.686 Y47.180 E0.12694
G1 X98.152 Y47.180 E0.01675
G1 X95.292 Y44.320 E0.12694
G1 X94.758 Y44.320 E0.01675
G1 X97.618 Y47.180 E0.12694
G1 X97.085 Y47.180 E0.01675
G1 X94.224 Y44.320 E0.12694
G1 X93.691 Y44.320 E0.01675
G1 X96.551 Y47.180 E0.12694
G1 X96.017 Y47.180 E0.01675
G1 X93.157 Y44.320 E0.12694
G1 X92.623 Y44.320 E0.01675
G1 X95.483 Y47.180 E0.12694
G1 X94.950 Y47.180 E0.01675
G1 X92.090 Y44.320 E0.12694
G1 X91.556 Y44.320 E0.01675
G1 X94.416 Y47.180 E0.12694
G1 X93.882 Y47.180 E0.01675
G1 X91.022 Y44.320 E0.12694
G1 X90.488 Y44.320 E0.01675
G1 X93.349 Y47.180 E0.12694
G1 X92.815 Y47.180 E0.01675
G1 X89.955 Y44.320 E0.12694
G1 X89.421 Y44.320 E0.01675
G1 X92.281 Y47.180 E0.12694
G1 X91.747 Y47.180 E0.01675
G1 X88.887 Y44.320 E0.12694
G1 X88.353 Y44.320 E0.01675
G1 X91.214 Y47.180 E0.12694
G1 X90.680 Y47.180 E0.01675
G1 X87.820 Y44.320 E0.12694
G1 X87.286 Y44.320 E0.01675
G1 X90.146 Y47.180 E0.12694
G1 X89.612 Y47.180 E0.01675
G1 X86.752 Y44.320 E0.12694
G1 X86.218 Y44.320 E0.01675
G1 X89.079 Y47.180 E0.12694
G1 X88.545 Y47.180 E0.01675
G1 X85.685 Y44.320 E0.12694
G1 X85.151 Y44.320 E0.01675
G1 X88.011 Y47.180 E0.12694
M73 P6 R26
G1 X87.477 Y47.180 E0.01675
G1 X84.617 Y44.320 E0.12694
G1 X84.083 Y44.320 E0.01675
G1 X86.944 Y47.180 E0.12694
G1 X86.410 Y47.180 E0.01675
G1 X83.550 Y44.320 E0.12694
G1 X83.016 Y44.320 E0.01675
G1 X85.876 Y47.180 E0.12694
G1 X85.342 Y47.180 E0.01675
G1 X82.482 Y44.320 E0.12694
G1 X81.948 Y44.320 E0.01675
G1 X84.809 Y47.180 E0.12694
G1 X84.275 Y47.180 E0.01675
G1 X81.415 Y44.320 E0.12694
G1 X80.881 Y44.320 E0.01675
G1 X83.741 Y47.180 E0.12694
G1 X83.208 Y47.180 E0.01675
G1 X80.347 Y44.320 E0.12694
G1 X79.814 Y44.320 E0.01675
G1 X82.674 Y47.180 E0.12694
G1 X82.140 Y47.180 E0.01675
G1 X79.280 Y44.320 E0.12694
G1 X78.746 Y44.320 E0.01675
G1 X81.606 Y47.180 E0.12694
G1 X81.073 Y47.180 E0.01675
G1 X78.212 Y44.320 E0.12694
G1 X77.679 Y44.320 E0.01675
G1 X80.539 Y47.180 E0.12694
G1 X80.005 Y47.180 E0.01675
G1 X77.145 Y44.320 E0.12694
G1 X76.611 Y44.320 E0.01675
G1 X79.471 Y47.180 E0.12694
G1 X78.938 Y47.180 E0.01675
G1 X76.077 Y44.320 E0.12694
G1 X75.544 Y44.320 E0.01675
G1 X78.404 Y47.180 E0.12694
G1 X77.870 Y47.180 E0.01675
G1 X75.010 Y44.320 E0.12694
G1 X74.476 Y44.320 E0.01675
G1 X77.336 Y47.180 E0.12694
G1 X76.803 Y47.180 E0.01675
G1 X73.942 Y44.320 E0.12694
G1 X73.409 Y44.320 E0.01675
G1 X76.269 Y47.180 E0.12694
G1 X75.735 Y47.180 E0.01675
G1 X72.875 Y44.320 E0.12694
G1 X72.341 Y44.320 E0.01675
G1 X75.201 Y47.180 E0.12694
G1 X74.668 Y47.180 E0.01675
G1 X71.807 Y44.320 E0.12694
G1 X71.274 Y44.320 E0.01675
G1 X74.134 Y47.180 E0.12694
G1 X73.600 Y47.180 E0.01675
G1 X70.740 Y44.320 E0.12694
G1 X70.206 Y44.320 E0.01675
G1 X73.066 Y47.180 E0.12694
G1 X72.533 Y47.180 E0.01675
G1 X69.672 Y44.320 E0.12694
G1 X69.139 Y44.320 E0.01675
G1 X71.999 Y47.180 E0.12694
G1 X71.465 Y47.180 E0.01675
G1 X68.605 Y44.320 E0.12694
G1 X68.071 Y44.320 E0.01675
G1 X70.932 Y47.180 E0.12694
G1 X70.398 Y47.180 E0.01675
G1 X67.538 Y44.320 E0.12694
G1 X67.004 Y44.320 E0.01675
G1 X69.864 Y47.180 E0.12694
G1 X69.330 Y47.180 E0.01675
G1 X66.470 Y44.320 E0.12694
G1 X65.936 Y44.320 E0.01675
G1 X68.797 Y47.180 E0.12694
G1 X68.263 Y47.180 E0.01675
G1 X65.403 Y44.320 E0.12694
G1 X65.070 Y44.320 E0.01044
G1 X65.070 Y44.521 E0.00631
G1 X67.930 Y47.381 E0.12694
G1 X67.930 Y47.915 E0.01675
G1 X65.070 Y45.055 E0.12694
G1 X65.070 Y45.588 E0.01675
G1 X67.930 Y48.449 E0.12694
G1 X67.930 Y48.982 E0.01675
G1 X65.070 Y46.122 E0.12694
G1 X65.070 Y46.656 E0.01675
G1 X67.930 Y49.516 E0.12694
G1 X67.930 Y50.050 E0.01675
G1 X65.070 Y47.190 E0.12694
G1 X65.070 Y47.723 E0.01675
G1 X67.930 Y50.584 E0.12694
G1 X67.930 Y51.117 E0.01675
G1 X65.070 Y48.257 E0.12694
G1 X65.070 Y48.791 E0.01675
G1 X67.930 Y51.651 E0.12694
G1 X67.930 Y52.185 E0.01675
G1 X65.070 Y49.325 E0.12694
G1 X65.070 Y49.858 E0.01675
G1 X67.930 Y52.719 E0.12694
G1 X67.930 Y53.252 E0.01675
G1 X65.070 Y50.392 E0.12694
G1 X65.070 Y50.926 E0.01675
G1 X67.930 Y53.786 E0.12694
G1 X67.930 Y54.320 E0.01675
G1 X65.070 Y51.459 E0.12694
G1 X65.070 Y51.993 E0.01675
G1 X67.930 Y54.853 E0.12694
G1 X67.930 Y55.387 E0.01675
G1 X65.070 Y52.527 E0.12694
G1 X65.070 Y53.061 E0.01675
G1 X67.930 Y55.921 E0.12694
G1 X67.930 Y56.455 E0.01675
G1 X65.070 Y53.594 E0.12694
G1 X65.070 Y54.128 E0.01675
G1 X67.930 Y56.988 E0.12694
G1 X67.930 Y57.522 E0.01675
G1 X65.070 Y54.662 E0.12694
G1 X65.070 Y55.196 E0.01675
G1 X67.930 Y58.056 E0.12694
G1 X67.930 Y58.590 E0.01675
G1 X65.070 Y55.729 E0.12694
G1 X65.070 Y56.263 E0.01675
G1 X67.930 Y59.123 E0.12694
G1 X67.930 Y59.657 E0.01675
G1 X65.070 Y56.797 E0.12694
G1 X65.070 Y57.331 E0.01675
G1 X67.930 Y60.191 E0.12694
G1 X67.930 Y60.725 E0.01675
G1 X65.070 Y57.864 E0.12694
G1 X65.070 Y58.398 E0.01675
G1 X67.930 Y61.258 E0.12694
G1 X67.930 Y61.792 E0.01675
G1 X65.070 Y58.932 E0.12694
G1 X65.070 Y59.466 E0.01675
G1 X67.930 Y62.326 E0.12694
G1 X67.930 Y62.860 E0.01675
G1 X65.070 Y59.999 E0.12694
G1 X65.070 Y60.533 E0.01675
G1 X67.930 Y63.393 E0.12694
G1 X67.930 Y63.927 E0.01675
G1 X65.070 Y61.067 E0.12694
M73 P7 R26
G1 X65.070 Y61.601 E0.01675
G1 X67.930 Y64.461 E0.12694
G1 X67.930 Y64.995 E0.01675
G1 X65.070 Y62.134 E0.12694
G1 X65.070 Y62.668 E0.01675
G1 X67.930 Y65.528 E0.12694
G1 X67.930 Y66.062 E0.01675
G1 X65.070 Y63.202 E0.12694
G1 X65.070 Y63.735 E0.01675
G1 X67.930 Y66.596 E0.12694
G1 X67.930 Y67.129 E0.01675
G1 X65.070 Y64.269 E0.12694
G1 X65.070 Y64.803 E0.01675
G1 X67.930 Y67.663 E0.12694
G1 X67.930 Y68.197 E0.01675
G1 X65.070 Y65.337 E0.12694
G1 X65.070 Y65.870 E0.01675
G1 X67.930 Y68.731 E0.12694
G1 X67.930 Y69.264 E0.01675
G1 X65.070 Y66.404 E0.12694
G1 X65.070 Y66.938 E0.01675
G1 X67.930 Y69.798 E0.12694
G1 X67.930 Y70.332 E0.01675
G1 X65.070 Y67.472 E0.12694
G1 X65.070 Y68.005 E0.01675
G1 X67.930 Y70.866 E0.12694
G1 X67.930 Y71.399 E0.01675
G1 X65.070 Y68.539 E0.12694
G1 X65.070 Y69.073 E0.01675
G1 X67.930 Y71.933 E0.12694
G1 X67.930 Y72.467 E0.01675
G1 X65.070 Y69.607 E0.12694
G1 X65.070 Y70.140 E0.01675
G1 X67.930 Y73.001 E0.12694
G1 X67.930 Y73.534 E0.01675
G1 X65.070 Y70.674 E0.12694
G1 X65.070 Y71.208 E0.01675
G1 X67.930 Y74.068 E0.12694
G1 X67.930 Y74.602 E0.01675
G1 X65.070 Y71.742 E0.12694
G1 X65.070 Y72.275 E0.01675
G1 X67.930 Y75.136 E0.12694
G1 X67.930 Y75.669 E0.01675
G1 X65.070 Y72.809 E0.12694
G1 X65.070 Y73.343 E0.01675
G1 X67.930 Y76.203 E0.12694
G1 X67.930 Y76.737 E0.01675
G1 X65.070 Y73.877 E0.12694
G1 X65.070 Y74.410 E0.01675
G1 X67.930 Y77.270 E0.12694
G1 X67.930 Y77.804 E0.01675
G1 X65.070 Y74.944 E0.12694
G1 X65.070 Y75.478 E0.01675
G1 X67.930 Y78.338 E0.12694
G1 X67.930 Y78.872 E0.01675
G1 X65.070 Y76.011 E0.12694
G1 X65.070 Y76.545 E0.01675
G1 X67.930 Y79.405 E0.12694
G1 X67.930 Y79.939 E0.01675
G1 X65.070 Y77.079 E0.12694
G1 X65.070 Y77.613 E0.01675
G1 X67.930 Y80.473 E0.12694
G1 X67.930 Y81.007 E0.01675
G1 X65.070 Y78.146 E0.12694
G1 X65.070 Y78.680 E0.01675
G1 X67.930 Y81.540 E0.12694
G1 X67.930 Y82.074 E0.01675
G1 X65.070 Y79.214 E0.12694
G1 X65.070 Y79.748 E0.01675
G1 X67.930 Y82.608 E0.12694
G1 X67.930 Y83.142 E0.01675
G1 X65.070 Y80.281 E0.12694
G1 X65.070 Y80.815 E0.01675
G1 X67.930 Y83.675 E0.12694
G1 X67.930 Y84.209 E0.01675
G1 X65.070 Y81.349 E0.12694
G1 X65.070 Y81.883 E0.01675
G1 X67.930 Y84.743 E0.12694
G1 X67.930 Y85.277 E0.01675
G1 X65.070 Y82.416 E0.12694
G1 X65.070 Y82.950 E0.01675
G1 X67.930 Y85.810 E0.12694
G1 X67.930 Y86.344 E0.01675
G1 X65.070 Y83.484 E0.12694
G1 X65.070 Y84.018 E0.01675
G1 X67.930 Y86.878 E0.12694
G1 X67.930 Y87.412 E0.01675
G1 X65.070 Y84.551 E0.12694
G1 X65.070 Y85.085 E0.01675
G1 X67.930 Y87.945 E0.12694
G1 X67.930 Y88.479 E0.01675
G1 X65.070 Y85.619 E0.12694
G1 X65.070 Y86.152 E0.01675
G1 X67.930 Y89.013 E0.12694
G1 X67.930 Y89.546 E0.01675
G1 X65.070 Y86.686 E0.12694
G1 X65.070 Y87.220 E0.01675
G1 X67.930 Y90.080 E0.12694
G1 X67.930 Y90.614 E0.01675
G1 X65.070 Y87.754 E0.12694
G1 X65.070 Y88.287 E0.01675
G1 X67.930 Y91.148 E0.12694
G1 X67.930 Y91.681 E0.01675
G1 X65.070 Y88.821 E0.12694
G1 X65.070 Y89.355 E0.01675
G1 X67.930 Y92.215 E0.12694
G1 X67.930 Y92.749 E0.01675
G1 X65.070 Y89.889 E0.12694
G1 X65.070 Y90.422 E0.01675
G1 X67.930 Y93.283 E0.12694
G1 X67.930 Y93.816 E0.01675
G1 X65.070 Y90.956 E0.12694
G1 X65.070 Y91.490 E0.01675
G1 X67.930 Y94.350 E0.12694
G1 X67.930 Y94.884 E0.01675
G1 X65.070 Y92.024 E0.12694
G1 X65.070 Y92.557 E0.01675
G1 X67.930 Y95.418 E0.12694
G1 X67.930 Y95.951 E0.01675
G1 X65.070 Y93.091 E0.12694
G1 X65.070 Y93.625 E0.01675
G1 X67.930 Y96.485 E0.12694
G1 X67.930 Y97.019 E0.01675
G1 X65.070 Y94.159 E0.12694
G1 X65.070 Y94.692 E0.01675
G1 X67.930 Y97.553 E0.12694
G1 X67.930 Y98.086 E0.01675
G1 X65.070 Y95.226 E0.12694
G1 X65.070 Y95.760 E0.01675
G1 X67.930 Y98.620 E0.12694
G1 X67.930 Y99.154 E0.01675
G1 X65.070 Y96.294 E0.12694
G1 X65.070 Y96.827 E0.01675
G1 X67.930 Y99.687 E0.12694
G1 X67.930 Y100.221 E0.01675
G1 X65.070 Y97.361 E0.12694
G1 X65.070 Y97.895 E0.01675
G1 X67.930 Y100.755 E0.12694
M73 P8 R26
G1 X67.930 Y101.289 E0.01675
G1 X65.070 Y98.428 E0.12694
G1 X65.070 Y98.962 E0.01675
G1 X67.930 Y101.822 E0.12694
G1 X67.930 Y102.356 E0.01675
G1 X65.070 Y99.496 E0.12694
G1 X65.070 Y100.030 E0.01675
G1 X67.930 Y102.890 E0.12694
G1 X67.930 Y103.424 E0.01675
G1 X65.070 Y100.563 E0.12694
G1 X65.070 Y101.097 E0.01675
G1 X67.930 Y103.957 E0.12694
G1 X67.930 Y104.491 E0.01675
G1 X65.070 Y101.631 E0.12694
G1 X65.070 Y102.165 E0.01675
G1 X67.930 Y105.025 E0.12694
G1 X67.930 Y105.559 E0.01675
G1 X65.070 Y102.698 E0.12694
G1 X65.070 Y103.232 E0.01675
G1 X67.930 Y106.092 E0.12694
G1 X67.930 Y106.626 E0.01675
G1 X65.070 Y103.766 E0.12694
G1 X65.070 Y104.300 E0.01675
G1 X67.930 Y107.160 E0.12694
G1 X67.930 Y107.694 E0.01675
G1 X65.070 Y104.833 E0.12694
G1 X65.070 Y105.367 E0.01675
G1 X67.930 Y108.227 E0.12694
G1 X67.930 Y108.761 E0.01675
G1 X65.070 Y105.901 E0.12694
G1 X65.070 Y106.435 E0.01675
G1 X67.930 Y109.295 E0.12694
G1 X67.930 Y109.829 E0.01675
G1 X65.070 Y106.968 E0.12694
G1 X65.070 Y107.502 E0.01675
G1 X67.930 Y110.362 E0.12694
