; generated by PrusaSlicer 2.3.0+win64 on 2021-06-17 at 20:33:00 UTC


;
;

;
;
; 

; external perimeters extrusion width = 0.45mm
; perimeters extrusion width = 0.45mm
; infill extrusion width = 0.45mm
; solid infill extrusion width = 0.45mm
; top infill extrusion width = 0.40mm
; first layer extrusion width = 0.42mm

M73 P0 R137
M201 X1250 Y1250 Z400 E5000 ; sets maximum accelerations, mm/sec^2
M203 X180 Y180 Z12 E80 ; sets maximum feedrates, mm/sec
M204 P1250 R1250 T1250 ; sets acceleration (P, T) and retract acceleration (R), mm/sec^2
M205 X8.00 Y8.00 Z2.00 E10.00 ; sets the jerk limits, mm/sec
M205 S0 T0 ; sets the minimum extruding and travel feed rate, mm/sec
M107
;TYPE:Custom
G90 ; use absolute coordinates
M83 ; extruder relative mode
M104 S170 ; set extruder temp for bed leveling
M140 S60 ; set bed temp
M109 R170 ; wait for bed leveling temp
M190 S60 ; wait for bed temp
G28 ; home all without mesh bed level
G29 ; mesh bed leveling 
M104 S215 ; set extruder temp
G92 E0.0
G1 Y-2.0 X179 F2400
G1 Z3 F720
M109 S215 ; wait for extruder temp

; intro line
G1 X170 F1000
G1 Z0.2 F720
G1 X110.0 E8.0 F900
G1 X40.0 E10.0 F700
G92 E0.0

M221 S95 ; set flow
G21 ; set units to millimeters
G90 ; use absolute coordinates
M83 ; use relative distances for extrusion
M900 K0.2 ; Filament gcode LA 1.5
; ; Filament gcode LA 1.0
;LAYER_CHANGE
;Z:0.2
;HEIGHT:0.2
;BEFORE_LAYER_CHANGE
G92 E0.0
;0.2


G1 E-3.20000 F4200.000
G1 Z0.200 F9000.000
;AFTER_LAYER_CHANGE
;0.2
G1 Z0.400
G1 X53.092 Y43.945
G1 Z0.200
G1 E3.20000 F2400.000
M204 S800
;TYPE:Skirt
;WIDTH:0.42
G1 F1200.000
G1 X53.764 Y42.850 E0.04029
G1 X54.745 Y41.803 E0.04501
G1 X55.955 Y40.872 E0.04785
G1 X57.532 Y39.951 E0.05726
G1 X59.348 Y39.120 E0.06263
G1 X61.416 Y38.357 E0.06912
G1 X63.701 Y37.668 E0.07482
G1 X66.221 Y37.041 E0.08144
G1 X69.238 Y36.430 E0.09651
G1 X72.153 Y35.954 E0.09260
G1 X75.565 Y35.513 E0.10789
G1 X79.130 Y35.169 E0.11229
G1 X82.813 Y34.924 E0.11572
G1 X90.010 Y34.738 E0.22574
G1 X97.180 Y34.923 E0.22489
G1 X103.736 Y35.437 E0.20618
G1 X107.179 Y35.858 E0.10875
G1 X110.125 Y36.317 E0.09347
G1 X112.900 Y36.849 E0.08862
G1 X115.486 Y37.452 E0.08324
G1 X117.845 Y38.120 E0.07688
G1 X119.981 Y38.855 E0.07083
G1 X121.876 Y39.659 E0.06454
G1 X123.374 Y40.450 E0.05312
G1 X124.676 Y41.324 E0.04917
G1 X125.762 Y42.295 E0.04566
G1 X126.552 Y43.300 E0.04010
G1 X127.069 Y44.326 E0.03601
G1 X127.306 Y45.194 E0.02821
G1 X127.377 Y45.995 E0.02523
G1 X127.377 Y134.004 E2.75945
G1 X127.275 Y134.966 E0.03034
G1 X127.048 Y135.728 E0.02492
G1 X126.654 Y136.535 E0.02817
G1 X126.131 Y137.283 E0.02860
G1 X125.498 Y137.971 E0.02932
G1 X124.663 Y138.686 E0.03448
G1 X123.712 Y139.343 E0.03621
G1 X121.468 Y140.529 E0.07960
G1 X118.568 Y141.648 E0.09746
G1 X115.184 Y142.625 E0.11043
G1 X111.359 Y143.460 E0.12275
G1 X106.824 Y144.191 E0.14403
G1 X101.931 Y144.740 E0.15439
G1 X96.785 Y145.097 E0.16173
G1 X91.493 Y145.255 E0.16600
G1 X86.205 Y145.211 E0.16579
G1 X80.960 Y144.966 E0.16463
G1 X75.916 Y144.526 E0.15878
G1 X71.165 Y143.896 E0.15027
G1 X67.100 Y143.151 E0.12958
G1 X63.974 Y142.406 E0.10073
G1 X61.169 Y141.559 E0.09189
G1 X58.720 Y140.613 E0.08232
G1 X56.639 Y139.557 E0.07315
G1 X55.042 Y138.452 E0.06088
G1 X53.877 Y137.293 E0.05155
G1 X53.083 Y136.037 E0.04657
G1 X52.680 Y134.720 E0.04320
G1 X52.623 Y134.000 E0.02265
G1 X52.623 Y46.000 E2.75918
G1 X52.724 Y45.039 E0.03030
G1 X53.072 Y44.002 E0.03430
M204 S1250
; printing object ToiletRoll_Base01.stl id:0 copy 0
G1 E-2.24000 F4200.000
;WIPE_START
G1 F7200.000
G1 X53.764 Y42.850 E-0.74451
G1 X53.970 Y42.629 E-0.16749
;WIPE_END
G1 E-0.04800 F4200.000
G1 Z0.400 F9000.000
G1 X102.695 Y118.143
G1 Z0.200
G1 E3.20000 F2400.000
M204 S800
;TYPE:Perimeter
G1 F1200.000
G1 X103.014 Y117.942 E0.01182
G1 X103.354 Y117.779 E0.01182
G1 X103.865 Y117.616 E0.01682
G1 X104.237 Y117.553 E0.01181
G1 X104.602 Y117.532 E0.01148
G1 X105.147 Y117.576 E0.01715
G1 X105.515 Y117.660 E0.01184
G1 X105.871 Y117.785 E0.01182
G1 X106.348 Y118.031 E0.01682
G1 X106.655 Y118.249 E0.01182
G1 X106.936 Y118.501 E0.01182
G1 X107.282 Y118.910 E0.01682
G1 X107.483 Y119.230 E0.01182
G1 X107.643 Y119.562 E0.01156
G1 X107.765 Y119.910 E0.01156
G1 X107.848 Y120.277 E0.01182
G1 X107.894 Y120.820 E0.01708
G1 X107.848 Y121.363 E0.01708
G1 X107.765 Y121.730 E0.01182
G1 X107.640 Y122.086 E0.01182
G1 X107.394 Y122.563 E0.01682
G1 X107.176 Y122.870 E0.01182
G1 X106.930 Y123.145 E0.01156
G1 X106.655 Y123.391 E0.01155
G1 X106.357 Y123.603 E0.01148
G1 X105.872 Y123.855 E0.01715
G1 X105.516 Y123.980 E0.01183
G1 X105.159 Y124.061 E0.01148
G1 X104.606 Y124.109 E0.01741
G1 X104.062 Y124.064 E0.01710
G1 X103.695 Y123.980 E0.01182
G1 X103.347 Y123.858 E0.01156
G1 X103.014 Y123.698 E0.01156
G1 X102.695 Y123.497 E0.01182
G1 X102.285 Y123.151 E0.01682
G1 X102.034 Y122.870 E0.01181
G1 X101.822 Y122.572 E0.01148
G1 X101.566 Y122.079 E0.01741
G1 X101.401 Y121.560 E0.01710
G1 X101.338 Y121.188 E0.01182
G1 X101.317 Y120.820 E0.01156
G1 X101.338 Y120.452 E0.01156
G1 X101.401 Y120.080 E0.01182
G1 X101.564 Y119.569 E0.01682
G1 X101.727 Y119.230 E0.01182
G1 X101.928 Y118.910 E0.01182
G1 X102.279 Y118.494 E0.01708
G1 X102.649 Y118.182 E0.01520
M204 S1250
G1 X102.547 Y118.762 F9000.000
M204 S800
;TYPE:External perimeter
G1 F1200.000
G1 X102.918 Y118.448 E0.01525
G1 X103.197 Y118.273 E0.01033
G1 X103.494 Y118.130 E0.01033
G1 X103.954 Y117.983 E0.01516
G1 X104.279 Y117.928 E0.01032
G1 X104.597 Y117.910 E0.01000
G1 X105.089 Y117.950 E0.01548
G1 X105.411 Y118.023 E0.01033
G1 X105.722 Y118.132 E0.01033
G1 X106.151 Y118.354 E0.01516
G1 X106.420 Y118.545 E0.01033
G1 X106.665 Y118.764 E0.01033
G1 X106.977 Y119.133 E0.01516
G1 X107.152 Y119.412 E0.01033
G1 X107.294 Y119.706 E0.01023
G1 X107.402 Y120.014 E0.01023
G1 X107.475 Y120.335 E0.01033
G1 X107.516 Y120.820 E0.01525
G1 X107.475 Y121.305 E0.01525
G1 X107.402 Y121.626 E0.01033
G1 X107.293 Y121.937 E0.01033
G1 X107.071 Y122.366 E0.01516
G1 X106.880 Y122.635 E0.01033
G1 X106.663 Y122.878 E0.01023
G1 X106.420 Y123.095 E0.01023
G1 X106.160 Y123.280 E0.01000
G1 X105.722 Y123.508 E0.01548
G1 X105.411 Y123.617 E0.01033
G1 X105.100 Y123.688 E0.01000
G1 X104.605 Y123.731 E0.01557
G1 X104.120 Y123.690 E0.01526
G1 X103.799 Y123.617 E0.01033
G1 X103.491 Y123.509 E0.01023
G1 X103.197 Y123.367 E0.01023
G1 X102.918 Y123.192 E0.01033
G1 X102.549 Y122.880 E0.01516
G1 X102.330 Y122.635 E0.01032
G1 X102.145 Y122.375 E0.01000
G1 X101.916 Y121.934 E0.01557
G1 X101.768 Y121.471 E0.01526
G1 X101.713 Y121.146 E0.01033
G1 X101.695 Y120.820 E0.01023
G1 X101.713 Y120.494 E0.01023
G1 X101.768 Y120.169 E0.01033
G1 X101.915 Y119.709 E0.01516
G1 X102.058 Y119.412 E0.01033
G1 X102.233 Y119.133 E0.01033
G1 X102.508 Y118.808 E0.01337
M204 S1250
G1 X102.447 Y118.374 F9000.000
G1 E-2.24000 F4200.000
;WIPE_START
G1 F7200.000
G1 X102.918 Y118.448 E-0.30235
G1 X103.197 Y118.273 E-0.18250
G1 X103.494 Y118.130 E-0.18251
G1 X103.915 Y117.996 E-0.24464
;WIPE_END
G1 E-0.04800 F4200.000
G1 Z0.400 F9000.000
G1 X112.571 Y128.501
G1 Z0.200
G1 E3.20000 F2400.000
M204 S800
;TYPE:Perimeter
G1 F1200.000
G1 X112.846 Y128.256 E0.01155
G1 X113.144 Y128.044 E0.01148
G1 X113.637 Y127.788 E0.01741
G1 X114.157 Y127.622 E0.01710
G1 X114.528 Y127.559 E0.01181
G1 X114.893 Y127.538 E0.01147
G1 X115.438 Y127.583 E0.01715
G1 X115.807 Y127.667 E0.01184
G1 X116.163 Y127.791 E0.01182
G1 X116.639 Y128.038 E0.01682
G1 X116.947 Y128.256 E0.01182
G1 X117.221 Y128.501 E0.01156
G1 X117.467 Y128.776 E0.01155
G1 X117.679 Y129.074 E0.01148
G1 X117.935 Y129.567 E0.01741
G1 X118.101 Y130.087 E0.01710
G1 X118.164 Y130.458 E0.01182
G1 X118.185 Y130.826 E0.01156
G1 X118.164 Y131.195 E0.01156
G1 X118.101 Y131.566 E0.01182
G1 X117.938 Y132.077 E0.01682
G1 X117.774 Y132.417 E0.01182
G1 X117.574 Y132.736 E0.01182
G1 X117.228 Y133.146 E0.01682
G1 X116.947 Y133.397 E0.01181
G1 X116.648 Y133.609 E0.01148
G1 X116.156 Y133.865 E0.01741
G1 X115.636 Y134.031 E0.01710
G1 X115.265 Y134.094 E0.01182
G1 X114.896 Y134.115 E0.01156
G1 X114.528 Y134.094 E0.01156
G1 X114.157 Y134.031 E0.01182
G1 X113.638 Y133.865 E0.01708
G1 X113.154 Y133.615 E0.01708
G1 X112.846 Y133.397 E0.01182
G1 X112.565 Y133.146 E0.01182
G1 X112.219 Y132.736 E0.01682
G1 X112.019 Y132.417 E0.01182
G1 X111.859 Y132.085 E0.01156
G1 X111.737 Y131.737 E0.01155
G1 X111.655 Y131.380 E0.01148
G1 X111.607 Y130.827 E0.01741
G1 X111.653 Y130.284 E0.01710
G1 X111.737 Y129.916 E0.01182
G1 X111.861 Y129.560 E0.01182
G1 X112.108 Y129.084 E0.01682
G1 X112.326 Y128.776 E0.01182
G1 X112.531 Y128.546 E0.00968
M204 S1250
G1 X112.813 Y128.797 F9000.000
M204 S800
;TYPE:External perimeter
G1 F1200.000
G1 X113.082 Y128.551 E0.01144
G1 X113.342 Y128.366 E0.01000
G1 X113.782 Y128.137 E0.01557
G1 X114.246 Y127.990 E0.01526
G1 X114.570 Y127.934 E0.01032
G1 X114.889 Y127.916 E0.01000
G1 X115.381 Y127.956 E0.01548
G1 X115.702 Y128.030 E0.01033
G1 X116.013 Y128.139 E0.01033
G1 X116.442 Y128.360 E0.01516
G1 X116.711 Y128.551 E0.01033
G1 X116.954 Y128.769 E0.01023
G1 X117.172 Y129.012 E0.01023
G1 X117.357 Y129.272 E0.01000
G1 X117.586 Y129.712 E0.01557
G1 X117.733 Y130.176 E0.01526
G1 X117.789 Y130.501 E0.01033
G1 X117.807 Y130.826 E0.01023
G1 X117.789 Y131.152 E0.01023
G1 X117.733 Y131.477 E0.01033
G1 X117.587 Y131.938 E0.01516
G1 X117.444 Y132.234 E0.01033
G1 X117.268 Y132.513 E0.01033
G1 X116.957 Y132.882 E0.01516
G1 X116.711 Y133.102 E0.01032
G1 X116.451 Y133.287 E0.01000
G1 X116.011 Y133.516 E0.01557
G1 X115.547 Y133.663 E0.01526
G1 X115.222 Y133.719 E0.01033
G1 X114.896 Y133.737 E0.01023
G1 X114.571 Y133.719 E0.01023
G1 X114.246 Y133.663 E0.01033
G1 X113.783 Y133.516 E0.01525
G1 X113.350 Y133.293 E0.01525
G1 X113.082 Y133.102 E0.01033
G1 X112.836 Y132.882 E0.01033
G1 X112.524 Y132.513 E0.01516
G1 X112.349 Y132.234 E0.01033
G1 X112.208 Y131.940 E0.01023
G1 X112.100 Y131.632 E0.01023
G1 X112.029 Y131.322 E0.01000
G1 X111.986 Y130.827 E0.01557
G1 X112.026 Y130.342 E0.01526
G1 X112.100 Y130.021 E0.01033
G1 X112.209 Y129.710 E0.01033
G1 X112.430 Y129.280 E0.01516
G1 X112.621 Y129.012 E0.01033
G1 X112.773 Y128.842 E0.00713
M204 S1250
G1 X112.715 Y128.446 F9000.000
G1 E-2.24000 F4200.000
;WIPE_START
G1 F7200.000
G1 X113.082 Y128.551 E-0.23531
G1 X113.342 Y128.366 E-0.17666
G1 X113.782 Y128.137 E-0.27524
G1 X114.169 Y128.014 E-0.22478
;WIPE_END
G1 E-0.04800 F4200.000
G1 Z0.400 F9000.000
G1 X78.599 Y121.560
G1 Z0.200
G1 E3.20000 F2400.000
M204 S800
;TYPE:Perimeter
G1 F1200.000
G1 X78.434 Y122.079 E0.01708
G1 X78.184 Y122.563 E0.01708
G1 X77.966 Y122.870 E0.01182
G1 X77.715 Y123.151 E0.01182
G1 X77.305 Y123.497 E0.01682
G1 X76.986 Y123.698 E0.01182
G1 X76.653 Y123.858 E0.01156
G1 X76.306 Y123.980 E0.01155
G1 X75.949 Y124.061 E0.01148
G1 X75.396 Y124.109 E0.01741
G1 X74.852 Y124.064 E0.01710
G1 X74.485 Y123.980 E0.01182
G1 X74.129 Y123.855 E0.01182
G1 X73.652 Y123.609 E0.01682
G1 X73.345 Y123.391 E0.01182
G1 X73.070 Y123.145 E0.01156
G1 X72.824 Y122.870 E0.01155
G1 X72.612 Y122.572 E0.01148
G1 X72.360 Y122.087 E0.01715
G1 X72.235 Y121.730 E0.01184
G1 X72.152 Y121.363 E0.01182
G1 X72.106 Y120.820 E0.01708
G1 X72.152 Y120.277 E0.01708
G1 X72.235 Y119.910 E0.01182
G1 X72.357 Y119.562 E0.01156
G1 X72.517 Y119.230 E0.01156
G1 X72.718 Y118.910 E0.01182
G1 X73.064 Y118.501 E0.01682
G1 X73.345 Y118.250 E0.01181
G1 X73.643 Y118.037 E0.01148
G1 X74.136 Y117.781 E0.01741
G1 X74.655 Y117.616 E0.01710
G1 X75.027 Y117.553 E0.01181
G1 X75.392 Y117.532 E0.01148
G1 X75.937 Y117.576 E0.01715
G1 X76.305 Y117.660 E0.01184
G1 X76.653 Y117.782 E0.01156
G1 X76.986 Y117.942 E0.01156
G1 X77.305 Y118.143 E0.01182
G1 X77.721 Y118.494 E0.01708
G1 X78.072 Y118.910 E0.01708
G1 X78.273 Y119.230 E0.01182
G1 X78.436 Y119.569 E0.01182
G1 X78.599 Y120.080 E0.01682
G1 X78.662 Y120.452 E0.01182
G1 X78.683 Y120.820 E0.01156
G1 X78.662 Y121.188 E0.01156
G1 X78.609 Y121.501 E0.00994
M204 S1250
G1 X78.238 Y121.438 F9000.000
M204 S800
;TYPE:External perimeter
G1 F1200.000
G1 X78.084 Y121.934 E0.01629
G1 X77.861 Y122.366 E0.01525
G1 X77.670 Y122.635 E0.01033
G1 X77.451 Y122.880 E0.01033
G1 X77.082 Y123.192 E0.01516
G1 X76.803 Y123.367 E0.01033
G1 X76.509 Y123.509 E0.01023
G1 X76.201 Y123.617 E0.01023
G1 X75.890 Y123.688 E0.01000
G1 X75.395 Y123.731 E0.01557
G1 X74.910 Y123.690 E0.01526
G1 X74.589 Y123.617 E0.01033
G1 X74.278 Y123.508 E0.01033
G1 X73.849 Y123.286 E0.01516
G1 X73.580 Y123.095 E0.01033
G1 X73.337 Y122.878 E0.01023
G1 X73.120 Y122.635 E0.01023
G1 X72.935 Y122.375 E0.01000
G1 X72.707 Y121.937 E0.01548
G1 X72.598 Y121.626 E0.01033
G1 X72.525 Y121.305 E0.01033
G1 X72.484 Y120.820 E0.01525
G1 X72.525 Y120.335 E0.01525
G1 X72.598 Y120.014 E0.01033
G1 X72.706 Y119.706 E0.01023
G1 X72.848 Y119.412 E0.01023
G1 X73.023 Y119.133 E0.01033
G1 X73.335 Y118.764 E0.01516
G1 X73.580 Y118.545 E0.01032
G1 X73.840 Y118.360 E0.01000
G1 X74.281 Y118.131 E0.01557
G1 X74.744 Y117.983 E0.01526
G1 X75.069 Y117.928 E0.01032
G1 X75.387 Y117.910 E0.01000
G1 X75.879 Y117.950 E0.01548
G1 X76.201 Y118.023 E0.01033
G1 X76.509 Y118.131 E0.01023
G1 X76.803 Y118.273 E0.01023
G1 X77.082 Y118.448 E0.01033
G1 X77.453 Y118.762 E0.01525
G1 X77.767 Y119.133 E0.01525
G1 X77.942 Y119.412 E0.01033
G1 X78.085 Y119.709 E0.01033
G1 X78.232 Y120.169 E0.01516
G1 X78.287 Y120.494 E0.01033
G1 X78.305 Y120.820 E0.01023
G1 X78.287 Y121.146 E0.01023
G1 X78.248 Y121.378 E0.00739
M204 S1250
G1 X78.528 Y121.713 F9000.000
G1 E-2.24000 F4200.000
;WIPE_START
G1 F7200.000
G1 X78.084 Y121.934 E-0.32092
G1 X77.861 Y122.366 E-0.26952
G1 X77.670 Y122.635 E-0.18251
G1 X77.503 Y122.822 E-0.13906
;WIPE_END
G1 E-0.04800 F4200.000
G1 Z0.400 F9000.000
G1 X64.933 Y129.732
G1 Z0.200
G1 E3.20000 F2400.000
M204 S800
;TYPE:Perimeter
G1 F1200.000
G1 X65.210 Y130.195 E0.01691
G1 X65.396 Y130.692 E0.01663
G1 X65.473 Y131.052 E0.01155
G1 X65.506 Y131.417 E0.01150
G1 X65.474 Y131.948 E0.01668
G1 X65.346 Y132.472 E0.01691
G1 X65.130 Y132.957 E0.01663
G1 X64.932 Y133.267 E0.01155
G1 X64.698 Y133.552 E0.01155
G1 X64.304 Y133.906 E0.01663
G1 X63.853 Y134.185 E0.01663
G1 X63.514 Y134.330 E0.01155
G1 X63.160 Y134.433 E0.01155
G1 X62.635 Y134.505 E0.01663
G1 X62.096 Y134.480 E0.01691
G1 X61.579 Y134.362 E0.01663
G1 X61.237 Y134.228 E0.01154
G1 X60.922 Y134.059 E0.01120
G1 X60.488 Y133.736 E0.01696
G1 X60.121 Y133.340 E0.01693
G1 X59.835 Y132.893 E0.01663
G1 X59.685 Y132.556 E0.01155
G1 X59.577 Y132.204 E0.01155
G1 X59.498 Y131.680 E0.01663
G1 X59.514 Y131.141 E0.01691
G1 X59.624 Y130.622 E0.01663
G1 X59.754 Y130.277 E0.01155
G1 X59.923 Y129.950 E0.01155
G1 X60.235 Y129.521 E0.01663
G1 X60.618 Y129.155 E0.01663
G1 X60.920 Y128.943 E0.01155
G1 X61.244 Y128.768 E0.01155
G1 X61.735 Y128.592 E0.01635
G1 X62.096 Y128.521 E0.01154
G1 X62.452 Y128.494 E0.01120
G1 X62.992 Y128.533 E0.01696
G1 X63.506 Y128.667 E0.01665
G1 X63.845 Y128.811 E0.01155
G1 X64.164 Y128.995 E0.01155
G1 X64.578 Y129.326 E0.01663
G1 X64.894 Y129.687 E0.01502
M204 S1250
G1 X64.610 Y129.935 F9000.000
M204 S800
;TYPE:External perimeter
G1 F1200.000
G1 X64.869 Y130.359 E0.01558
G1 X65.033 Y130.798 E0.01468
G1 X65.099 Y131.108 E0.00996
G1 X65.127 Y131.423 E0.00991
G1 X65.100 Y131.892 E0.01473
G1 X64.988 Y132.350 E0.01478
G1 X64.797 Y132.777 E0.01468
G1 X64.626 Y133.045 E0.00996
G1 X64.425 Y133.290 E0.00996
G1 X64.077 Y133.604 E0.01468
G1 X63.679 Y133.850 E0.01468
G1 X63.387 Y133.974 E0.00996
G1 X63.082 Y134.063 E0.00996
G1 X62.618 Y134.126 E0.01468
G1 X62.147 Y134.105 E0.01478
G1 X61.691 Y134.001 E0.01468
G1 X61.395 Y133.885 E0.00995
G1 X61.125 Y133.740 E0.00962
G1 X60.741 Y133.454 E0.01501
G1 X60.420 Y133.108 E0.01479
G1 X60.168 Y132.714 E0.01468
G1 X60.039 Y132.424 E0.00996
G1 X59.946 Y132.120 E0.00996
G1 X59.876 Y131.657 E0.01468
G1 X59.890 Y131.186 E0.01478
G1 X59.987 Y130.728 E0.01468
G1 X60.099 Y130.431 E0.00996
G1 X60.245 Y130.149 E0.00996
G1 X60.520 Y129.770 E0.01468
G1 X60.859 Y129.447 E0.01468
G1 X61.118 Y129.264 E0.00996
G1 X61.398 Y129.114 E0.00996
G1 X61.836 Y128.957 E0.01458
G1 X62.147 Y128.895 E0.00995
G1 X62.453 Y128.872 E0.00962
G1 X62.930 Y128.906 E0.01501
G1 X63.384 Y129.024 E0.01469
G1 X63.676 Y129.149 E0.00996
