; generated by PrusaSlicer 2.3.0+win64 on 2021-06-18 at 20:19:09 UTC


;
;

;
;
; 

; external perimeters extrusion width = 0.45mm
; perimeters extrusion width = 0.45mm
; infill extrusion width = 0.45mm
; solid infill extrusion width = 0.45mm
; top infill extrusion width = 0.40mm
; first layer extrusion width = 0.42mm

M73 P0 R60
M201 X1250 Y1250 Z400 E5000 ; sets maximum accelerations, mm/sec^2
M203 X180 Y180 Z12 E80 ; sets maximum feedrates, mm/sec
M204 P1250 R1250 T1250 ; sets acceleration (P, T) and retract acceleration (R), mm/sec^2
M205 X8.00 Y8.00 Z2.00 E10.00 ; sets the jerk limits, mm/sec
M205 S0 T0 ; sets the minimum extruding and travel feed rate, mm/sec
M107
;TYPE:Custom
G90 ; use absolute coordinates
M83 ; extruder relative mode
M104 S170 ; set extruder temp for bed leveling
M140 S60 ; set bed temp
M109 R170 ; wait for bed leveling temp
M190 S60 ; wait for bed temp
G28 ; home all without mesh bed level
G29 ; mesh bed leveling 
M104 S215 ; set extruder temp
G92 E0.0
G1 Y-2.0 X179 F2400
G1 Z3 F720
M109 S215 ; wait for extruder temp

; intro line
G1 X170 F1000
G1 Z0.2 F720
G1 X110.0 E8.0 F900
G1 X40.0 E10.0 F700
G92 E0.0

M221 S95 ; set flow
G21 ; set units to millimeters
G90 ; use absolute coordinates
M83 ; use relative distances for extrusion
M900 K0.2 ; Filament gcode LA 1.5
; ; Filament gcode LA 1.0
;LAYER_CHANGE
;Z:0.2
;HEIGHT:0.2
;BEFORE_LAYER_CHANGE
G92 E0.0
;0.2


G1 E-3.20000 F4200.000
G1 Z0.200 F9000.000
;AFTER_LAYER_CHANGE
;0.2
G1 Z0.400
G1 X72.310 Y47.907
G1 Z0.200
G1 E3.20000 F2400.000
M204 S800
;TYPE:Skirt
;WIDTH:0.42
G1 F1200.000
G1 X72.452 Y47.434 E0.01550
G1 X72.689 Y47.000 E0.01550
G1 X73.010 Y46.624 E0.01550
G1 X73.403 Y46.324 E0.01550
G1 X94.430 Y33.951 E0.76495
G1 X95.003 Y33.717 E0.01941
G1 X95.613 Y33.638 E0.01929
G1 X96.157 Y33.702 E0.01716
G1 X97.683 Y34.129 E0.04969
G1 X100.549 Y35.104 E0.09492
G1 X102.624 Y36.018 E0.07111
G1 X104.382 Y37.027 E0.06354
G1 X105.726 Y38.075 E0.05345
G1 X106.705 Y39.170 E0.04606
G1 X107.358 Y40.327 E0.04165
G1 X107.697 Y41.606 E0.04150
G1 X107.731 Y135.167 E2.93352
G1 X107.640 Y136.084 E0.02891
G1 X107.282 Y137.181 E0.03616
G1 X106.710 Y138.157 E0.03548
G1 X105.872 Y139.120 E0.04001
G1 X104.845 Y139.982 E0.04205
G1 X103.528 Y140.833 E0.04917
G1 X101.833 Y141.691 E0.05957
G1 X100.090 Y142.404 E0.05903
G1 X97.935 Y143.129 E0.07132
G1 X95.542 Y143.790 E0.07782
G1 X92.939 Y144.384 E0.08371
G1 X90.144 Y144.907 E0.08916
G1 X87.175 Y145.358 E0.09418
G1 X83.718 Y145.769 E0.10915
G1 X80.468 Y146.057 E0.10229
G1 X76.018 Y146.314 E0.13976
G1 X74.202 Y146.320 E0.05695
G1 X73.449 Y146.039 E0.02520
G1 X72.831 Y145.520 E0.02532
G1 X72.421 Y144.824 E0.02532
G1 X72.269 Y144.032 E0.02532
G1 X72.310 Y47.967 E3.01204
M204 S1250
; printing object ToiletRoll_Base02_TestPrint.stl id:0 copy 0
M73 P0 R59
G1 E-2.24000 F4200.000
;WIPE_START
G1 F7200.000
G1 X72.452 Y47.434 E-0.30591
G1 X72.689 Y47.000 E-0.27391
G1 X73.010 Y46.624 E-0.27391
G1 X73.094 Y46.560 E-0.05827
;WIPE_END
G1 E-0.04800 F4200.000
G1 Z0.400 F9000.000
G1 X78.951 Y124.719
G1 Z0.200
G1 E3.20000 F2400.000
M204 S800
;TYPE:Perimeter
G1 F1200.000
G1 X79.317 Y124.698 E0.01148
G1 X79.862 Y124.743 E0.01715
G1 X80.230 Y124.827 E0.01184
G1 X80.586 Y124.952 E0.01182
G1 X81.062 Y125.198 E0.01682
G1 X81.370 Y125.416 E0.01182
G1 X81.651 Y125.667 E0.01182
G1 X81.997 Y126.077 E0.01682
G1 X82.198 Y126.396 E0.01182
G1 X82.357 Y126.728 E0.01156
G1 X82.479 Y127.076 E0.01155
G1 X82.561 Y127.433 E0.01148
G1 X82.609 Y127.986 E0.01741
G1 X82.563 Y128.529 E0.01710
G1 X82.479 Y128.897 E0.01182
G1 X82.355 Y129.253 E0.01182
G1 X82.109 Y129.729 E0.01682
G1 X81.890 Y130.037 E0.01182
G1 X81.645 Y130.312 E0.01156
G1 X81.370 Y130.557 E0.01155
G1 X81.072 Y130.769 E0.01148
G1 X80.586 Y131.022 E0.01715
G1 X80.230 Y131.146 E0.01183
G1 X79.874 Y131.228 E0.01148
G1 X79.320 Y131.276 E0.01741
G1 X78.777 Y131.230 E0.01710
G1 X78.409 Y131.146 E0.01182
G1 X78.054 Y131.022 E0.01182
G1 X77.577 Y130.776 E0.01682
G1 X77.270 Y130.557 E0.01182
G1 X76.995 Y130.312 E0.01156
G1 X76.749 Y130.037 E0.01155
G1 X76.537 Y129.739 E0.01148
G1 X76.285 Y129.254 E0.01715
G1 X76.160 Y128.897 E0.01184
G1 X76.076 Y128.529 E0.01182
G1 X76.030 Y127.987 E0.01708
G1 X76.076 Y127.444 E0.01708
G1 X76.160 Y127.076 E0.01182
G1 X76.285 Y126.721 E0.01182
G1 X76.531 Y126.244 E0.01682
G1 X76.749 Y125.937 E0.01182
G1 X76.995 Y125.662 E0.01156
G1 X77.270 Y125.416 E0.01156
G1 X77.577 Y125.198 E0.01182
G1 X78.061 Y124.948 E0.01708
G1 X78.580 Y124.782 E0.01708
G1 X78.892 Y124.729 E0.00993
M204 S1250
G1 X78.206 Y125.297 F9000.000
M204 S800
;TYPE:External perimeter
G1 F1200.000
G1 X78.669 Y125.150 E0.01525
G1 X78.994 Y125.095 E0.01032
G1 X79.312 Y125.076 E0.01000
G1 X79.804 Y125.117 E0.01548
G1 X80.125 Y125.190 E0.01033
G1 X80.436 Y125.299 E0.01033
G1 X80.866 Y125.521 E0.01516
G1 X81.134 Y125.711 E0.01033
G1 X81.380 Y125.931 E0.01033
G1 X81.692 Y126.300 E0.01516
G1 X81.867 Y126.579 E0.01033
G1 X82.009 Y126.873 E0.01023
G1 X82.116 Y127.181 E0.01023
G1 X82.188 Y127.492 E0.01000
G1 X82.231 Y127.986 E0.01557
G1 X82.190 Y128.471 E0.01526
G1 X82.116 Y128.792 E0.01033
G1 X82.008 Y129.103 E0.01033
G1 X81.786 Y129.533 E0.01516
G1 X81.595 Y129.801 E0.01033
G1 X81.378 Y130.045 E0.01023
G1 X81.134 Y130.262 E0.01023
G1 X80.875 Y130.447 E0.01000
G1 X80.437 Y130.675 E0.01548
G1 X80.126 Y130.783 E0.01033
G1 X79.815 Y130.855 E0.01000
G1 X79.320 Y130.898 E0.01557
G1 X78.835 Y130.857 E0.01526
G1 X78.514 Y130.783 E0.01033
G1 X78.203 Y130.675 E0.01033
G1 X77.774 Y130.453 E0.01516
G1 X77.505 Y130.262 E0.01033
G1 X77.262 Y130.045 E0.01023
G1 X77.044 Y129.801 E0.01023
G1 X76.860 Y129.542 E0.01000
G1 X76.632 Y129.104 E0.01548
G1 X76.523 Y128.792 E0.01033
G1 X76.450 Y128.471 E0.01033
G1 X76.409 Y127.987 E0.01525
G1 X76.450 Y127.502 E0.01525
G1 X76.523 Y127.181 E0.01033
G1 X76.632 Y126.870 E0.01033
G1 X76.854 Y126.441 E0.01516
G1 X77.044 Y126.172 E0.01033
G1 X77.262 Y125.929 E0.01023
G1 X77.505 Y125.711 E0.01023
G1 X77.774 Y125.521 E0.01033
G1 X78.152 Y125.325 E0.01337
M204 S1250
G1 X78.262 Y124.901 F9000.000
G1 E-2.24000 F4200.000
;WIPE_START
G1 F7200.000
G1 X78.669 Y125.150 E-0.30235
G1 X78.994 Y125.095 E-0.18245
G1 X79.312 Y125.076 E-0.17666
G1 X79.763 Y125.113 E-0.25054
;WIPE_END
G1 E-0.04800 F4200.000
G1 Z0.400 F9000.000
G1 X89.885 Y130.436
G1 Z0.200
G1 E3.20000 F2400.000
M204 S800
;TYPE:Perimeter
G1 F1200.000
G1 X90.057 Y130.076 E0.01252
G1 X90.264 Y129.734 E0.01252
G1 X90.504 Y129.415 E0.01252
G1 X90.774 Y129.120 E0.01252
G1 X91.071 Y128.854 E0.01252
G1 X91.394 Y128.619 E0.01252
G1 X91.738 Y128.416 E0.01252
G1 X92.101 Y128.248 E0.01252
G1 X92.478 Y128.118 E0.01252
G1 X92.866 Y128.025 E0.01252
G1 X93.262 Y127.970 E0.01251
G1 X93.657 Y127.955 E0.01241
G1 X94.250 Y128.006 E0.01865
G1 X94.648 Y128.091 E0.01277
G1 X95.029 Y128.212 E0.01252
G1 X95.395 Y128.371 E0.01252
G1 X95.744 Y128.565 E0.01252
G1 X96.073 Y128.792 E0.01252
G1 X96.377 Y129.051 E0.01252
G1 X96.654 Y129.339 E0.01252
G1 X96.901 Y129.652 E0.01252
G1 X97.116 Y129.989 E0.01252
G1 X97.297 Y130.345 E0.01252
G1 X97.442 Y130.717 E0.01252
G1 X97.549 Y131.102 E0.01252
G1 X97.618 Y131.495 E0.01252
G1 X97.648 Y131.893 E0.01252
G1 X97.638 Y132.293 E0.01252
G1 X97.589 Y132.689 E0.01252
G1 X97.500 Y133.078 E0.01252
G1 X97.374 Y133.457 E0.01252
G1 X97.211 Y133.822 E0.01252
G1 X97.013 Y134.169 E0.01252
G1 X96.781 Y134.494 E0.01252
G1 X96.519 Y134.795 E0.01252
G1 X96.228 Y135.068 E0.01252
G1 X95.911 Y135.312 E0.01252
G1 X95.572 Y135.523 E0.01252
G1 X95.214 Y135.699 E0.01252
G1 X94.840 Y135.840 E0.01252
G1 X94.454 Y135.942 E0.01252
G1 X94.060 Y136.006 E0.01252
G1 X93.661 Y136.031 E0.01252
G1 X93.262 Y136.016 E0.01252
G1 X92.866 Y135.962 E0.01252
G1 X92.478 Y135.869 E0.01252
G1 X92.101 Y135.738 E0.01252
G1 X91.738 Y135.570 E0.01252
G1 X91.394 Y135.368 E0.01252
G1 X91.071 Y135.132 E0.01252
G1 X90.774 Y134.866 E0.01252
G1 X90.504 Y134.572 E0.01252
G1 X90.264 Y134.252 E0.01252
G1 X90.057 Y133.910 E0.01252
G1 X89.885 Y133.550 E0.01252
G1 X89.750 Y133.174 E0.01252
G1 X89.652 Y132.787 E0.01252
G1 X89.593 Y132.392 E0.01252
G1 X89.573 Y131.993 E0.01252
G1 X89.593 Y131.594 E0.01252
G1 X89.652 Y131.199 E0.01252
G1 X89.750 Y130.812 E0.01252
G1 X89.865 Y130.493 E0.01064
M204 S1250
G1 X90.220 Y130.621 F9000.000
M204 S800
;TYPE:External perimeter
G1 F1200.000
G1 X90.390 Y130.255 E0.01264
G1 X90.577 Y129.946 E0.01135
G1 X90.794 Y129.656 E0.01135
G1 X91.039 Y129.389 E0.01135
G1 X91.309 Y129.148 E0.01135
G1 X91.601 Y128.934 E0.01135
G1 X91.913 Y128.751 E0.01135
G1 X92.242 Y128.599 E0.01135
G1 X92.584 Y128.480 E0.01135
G1 X92.936 Y128.396 E0.01135
G1 X93.295 Y128.347 E0.01135
G1 X93.648 Y128.333 E0.01110
G1 X94.194 Y128.379 E0.01718
G1 X94.551 Y128.456 E0.01144
G1 X94.896 Y128.566 E0.01135
G1 X95.228 Y128.709 E0.01135
G1 X95.545 Y128.885 E0.01135
G1 X95.842 Y129.092 E0.01135
G1 X96.118 Y129.326 E0.01135
G1 X96.369 Y129.587 E0.01135
G1 X96.594 Y129.871 E0.01135
G1 X96.789 Y130.176 E0.01135
G1 X96.953 Y130.499 E0.01135
G1 X97.084 Y130.836 E0.01135
G1 X97.181 Y131.185 E0.01135
G1 X97.244 Y131.542 E0.01135
G1 X97.270 Y131.903 E0.01135
G1 X97.261 Y132.265 E0.01135
G1 X97.217 Y132.624 E0.01135
G1 X97.137 Y132.977 E0.01135
G1 X97.022 Y133.320 E0.01135
G1 X96.875 Y133.651 E0.01135
G1 X96.695 Y133.965 E0.01135
G1 X96.485 Y134.260 E0.01135
G1 X96.247 Y134.533 E0.01135
G1 X95.983 Y134.781 E0.01135
G1 X95.696 Y135.002 E0.01135
G1 X95.389 Y135.193 E0.01135
G1 X95.064 Y135.353 E0.01135
G1 X94.725 Y135.480 E0.01135
G1 X94.375 Y135.573 E0.01135
G1 X94.018 Y135.631 E0.01135
G1 X93.656 Y135.653 E0.01135
G1 X93.295 Y135.640 E0.01135
G1 X92.936 Y135.591 E0.01135
G1 X92.584 Y135.506 E0.01135
G1 X92.242 Y135.388 E0.01135
G1 X91.913 Y135.236 E0.01135
G1 X91.601 Y135.052 E0.01135
G1 X91.309 Y134.839 E0.01135
G1 X91.039 Y134.597 E0.01135
G1 X90.794 Y134.331 E0.01135
G1 X90.577 Y134.041 E0.01135
G1 X90.390 Y133.731 E0.01135
G1 X90.234 Y133.404 E0.01135
G1 X90.111 Y133.064 E0.01135
G1 X90.022 Y132.713 E0.01135
G1 X89.969 Y132.355 E0.01135
G1 X89.951 Y131.993 E0.01135
G1 X89.969 Y131.632 E0.01135
G1 X90.022 Y131.274 E0.01135
G1 X90.111 Y130.923 E0.01135
G1 X90.199 Y130.677 E0.00817
M204 S1250
G1 X89.975 Y130.305 F9000.000
G1 E-2.24000 F4200.000
;WIPE_START
G1 F7200.000
G1 X90.390 Y130.255 E-0.25656
M73 P1 R59
G1 X90.577 Y129.946 E-0.20063
G1 X90.794 Y129.656 E-0.20063
G1 X91.039 Y129.389 E-0.20063
G1 X91.111 Y129.325 E-0.05356
;WIPE_END
G1 E-0.04800 F4200.000
G1 Z0.400 F9000.000
G1 X79.874 Y59.568
G1 Z0.200
G1 E3.20000 F2400.000
M204 S800
;TYPE:Perimeter
G1 F1200.000
G1 X79.320 Y59.616 E0.01741
G1 X78.777 Y59.570 E0.01710
G1 X78.409 Y59.486 E0.01182
G1 X78.054 Y59.362 E0.01182
G1 X77.577 Y59.116 E0.01682
G1 X77.270 Y58.897 E0.01182
G1 X76.995 Y58.652 E0.01156
G1 X76.749 Y58.377 E0.01155
G1 X76.537 Y58.079 E0.01148
G1 X76.285 Y57.594 E0.01715
G1 X76.160 Y57.237 E0.01184
G1 X76.076 Y56.869 E0.01182
G1 X76.031 Y56.335 E0.01682
G1 X76.052 Y55.959 E0.01182
G1 X76.115 Y55.587 E0.01182
G1 X76.281 Y55.068 E0.01708
G1 X76.531 Y54.584 E0.01708
G1 X76.749 Y54.277 E0.01182
G1 X77.000 Y53.996 E0.01182
G1 X77.410 Y53.649 E0.01682
G1 X77.729 Y53.449 E0.01182
G1 X78.069 Y53.285 E0.01182
G1 X78.580 Y53.122 E0.01682
G1 X78.951 Y53.059 E0.01181
G1 X79.317 Y53.038 E0.01148
G1 X79.862 Y53.083 E0.01715
G1 X80.230 Y53.167 E0.01184
G1 X80.578 Y53.289 E0.01156
G1 X80.910 Y53.449 E0.01156
G1 X81.229 Y53.649 E0.01182
G1 X81.646 Y54.001 E0.01708
G1 X81.997 Y54.417 E0.01708
G1 X82.198 Y54.736 E0.01182
G1 X82.357 Y55.068 E0.01156
G1 X82.479 Y55.416 E0.01156
G1 X82.563 Y55.784 E0.01182
G1 X82.609 Y56.327 E0.01708
G1 X82.563 Y56.869 E0.01708
G1 X82.479 Y57.237 E0.01182
G1 X82.357 Y57.585 E0.01156
G1 X82.198 Y57.917 E0.01156
G1 X81.997 Y58.236 E0.01182
G1 X81.651 Y58.646 E0.01682
G1 X81.370 Y58.897 E0.01182
G1 X81.062 Y59.116 E0.01182
G1 X80.586 Y59.362 E0.01682
G1 X80.230 Y59.486 E0.01181
G1 X79.932 Y59.555 E0.00959
M204 S1250
G1 X79.320 Y59.238 F9000.000
M204 S800
;TYPE:External perimeter
G1 F1200.000
G1 X78.835 Y59.197 E0.01526
G1 X78.514 Y59.123 E0.01033
G1 X78.203 Y59.015 E0.01033
G1 X77.774 Y58.793 E0.01516
G1 X77.505 Y58.602 E0.01033
G1 X77.262 Y58.385 E0.01023
G1 X77.044 Y58.141 E0.01023
G1 X76.860 Y57.882 E0.01000
G1 X76.632 Y57.444 E0.01548
G1 X76.523 Y57.132 E0.01033
G1 X76.450 Y56.811 E0.01033
G1 X76.409 Y56.330 E0.01516
G1 X76.428 Y56.001 E0.01033
G1 X76.483 Y55.676 E0.01033
G1 X76.630 Y55.213 E0.01525
G1 X76.854 Y54.781 E0.01525
G1 X77.044 Y54.512 E0.01033
G1 X77.264 Y54.267 E0.01033
G1 X77.633 Y53.955 E0.01516
G1 X77.912 Y53.779 E0.01033
G1 X78.209 Y53.637 E0.01033
G1 X78.669 Y53.490 E0.01516
G1 X78.994 Y53.435 E0.01032
G1 X79.312 Y53.416 E0.01000
G1 X79.804 Y53.457 E0.01548
G1 X80.125 Y53.530 E0.01033
G1 X80.433 Y53.638 E0.01023
G1 X80.728 Y53.779 E0.01023
G1 X81.006 Y53.955 E0.01033
G1 X81.378 Y54.268 E0.01525
G1 X81.692 Y54.640 E0.01525
G1 X81.867 Y54.919 E0.01033
G1 X82.009 Y55.213 E0.01023
G1 X82.116 Y55.521 E0.01023
G1 X82.190 Y55.842 E0.01033
G1 X82.231 Y56.327 E0.01525
G1 X82.190 Y56.811 E0.01525
G1 X82.116 Y57.132 E0.01033
G1 X82.009 Y57.440 E0.01023
G1 X81.867 Y57.735 E0.01023
G1 X81.692 Y58.013 E0.01033
G1 X81.380 Y58.383 E0.01516
G1 X81.134 Y58.602 E0.01033
G1 X80.866 Y58.793 E0.01033
G1 X80.436 Y59.015 E0.01516
G1 X80.126 Y59.123 E0.01032
G1 X79.815 Y59.195 E0.01000
G1 X79.380 Y59.232 E0.01369
M204 S1250
G1 X79.117 Y59.582 F9000.000
G1 E-2.24000 F4200.000
;WIPE_START
G1 F7200.000
G1 X78.835 Y59.197 E-0.30249
G1 X78.514 Y59.123 E-0.18250
G1 X78.203 Y59.015 E-0.18251
G1 X77.811 Y58.812 E-0.24451
;WIPE_END
G1 E-0.04800 F4200.000
G1 Z0.400 F9000.000
G1 X90.733 Y48.822
G1 Z0.200
G1 E3.20000 F2400.000
M204 S800
;TYPE:Perimeter
G1 F1200.000
G1 X90.504 Y48.572 E0.01064
G1 X90.264 Y48.252 E0.01252
G1 X90.057 Y47.910 E0.01252
G1 X89.885 Y47.550 E0.01252
G1 X89.750 Y47.174 E0.01252
G1 X89.652 Y46.787 E0.01252
G1 X89.593 Y46.392 E0.01252
G1 X89.573 Y45.993 E0.01252
G1 X89.593 Y45.594 E0.01252
G1 X89.652 Y45.199 E0.01252
G1 X89.750 Y44.812 E0.01252
G1 X89.885 Y44.436 E0.01252
G1 X90.057 Y44.076 E0.01252
G1 X90.264 Y43.734 E0.01252
G1 X90.504 Y43.415 E0.01252
G1 X90.774 Y43.120 E0.01252
G1 X91.071 Y42.854 E0.01252
G1 X91.394 Y42.619 E0.01252
G1 X91.738 Y42.416 E0.01252
G1 X92.101 Y42.249 E0.01252
G1 X92.478 Y42.118 E0.01252
G1 X92.866 Y42.025 E0.01252
G1 X93.262 Y41.970 E0.01251
G1 X93.657 Y41.955 E0.01241
G1 X94.250 Y42.006 E0.01865
G1 X94.648 Y42.091 E0.01277
G1 X95.029 Y42.212 E0.01252
G1 X95.395 Y42.371 E0.01252
G1 X95.744 Y42.565 E0.01252
G1 X96.073 Y42.792 E0.01252
G1 X96.377 Y43.051 E0.01252
G1 X96.654 Y43.339 E0.01252
G1 X96.901 Y43.652 E0.01252
G1 X97.116 Y43.989 E0.01252
G1 X97.297 Y44.345 E0.01252
G1 X97.442 Y44.717 E0.01252
G1 X97.549 Y45.102 E0.01252
G1 X97.618 Y45.495 E0.01252
G1 X97.648 Y45.893 E0.01252
G1 X97.638 Y46.293 E0.01252
G1 X97.589 Y46.689 E0.01252
G1 X97.500 Y47.078 E0.01252
G1 X97.374 Y47.457 E0.01252
G1 X97.211 Y47.822 E0.01252
G1 X97.013 Y48.169 E0.01252
G1 X96.781 Y48.494 E0.01252
G1 X96.519 Y48.795 E0.01252
G1 X96.228 Y49.068 E0.01252
G1 X95.911 Y49.312 E0.01252
G1 X95.572 Y49.523 E0.01252
G1 X95.214 Y49.699 E0.01252
G1 X94.840 Y49.840 E0.01252
G1 X94.454 Y49.942 E0.01252
G1 X94.060 Y50.006 E0.01252
G1 X93.661 Y50.031 E0.01252
G1 X93.262 Y50.016 E0.01252
G1 X92.866 Y49.962 E0.01252
G1 X92.478 Y49.869 E0.01252
G1 X92.101 Y49.738 E0.01252
G1 X91.738 Y49.570 E0.01252
G1 X91.394 Y49.368 E0.01252
G1 X91.071 Y49.132 E0.01252
G1 X90.774 Y48.866 E0.01252
M204 S1250
G1 X91.039 Y48.597 F9000.000
M204 S800
;TYPE:External perimeter
G1 F1200.000
G1 X90.794 Y48.331 E0.01135
G1 X90.577 Y48.041 E0.01135
G1 X90.390 Y47.731 E0.01135
G1 X90.234 Y47.404 E0.01135
G1 X90.111 Y47.064 E0.01135
G1 X90.022 Y46.713 E0.01135
G1 X89.969 Y46.355 E0.01135
G1 X89.951 Y45.993 E0.01135
G1 X89.969 Y45.632 E0.01135
G1 X90.022 Y45.274 E0.01135
G1 X90.111 Y44.923 E0.01135
G1 X90.234 Y44.582 E0.01135
G1 X90.390 Y44.255 E0.01135
G1 X90.577 Y43.946 E0.01135
G1 X90.794 Y43.656 E0.01135
G1 X91.039 Y43.389 E0.01135
G1 X91.309 Y43.148 E0.01135
G1 X91.601 Y42.934 E0.01135
G1 X91.913 Y42.751 E0.01135
G1 X92.242 Y42.599 E0.01135
