; generated by PrusaSlicer 2.3.0+win64 on 2021-06-19 at 18:15:44 UTC


;
;

;
;
; 

; external perimeters extrusion width = 0.45mm
; perimeters extrusion width = 0.45mm
; infill extrusion width = 0.45mm
; solid infill extrusion width = 0.45mm
; top infill extrusion width = 0.40mm
; first layer extrusion width = 0.42mm

M73 P0 R12
M201 X1250 Y1250 Z400 E5000 ; sets maximum accelerations, mm/sec^2
M203 X180 Y180 Z12 E80 ; sets maximum feedrates, mm/sec
M204 P1250 R1250 T1250 ; sets acceleration (P, T) and retract acceleration (R), mm/sec^2
M205 X8.00 Y8.00 Z2.00 E10.00 ; sets the jerk limits, mm/sec
M205 S0 T0 ; sets the minimum extruding and travel feed rate, mm/sec
M107
;TYPE:Custom
G90 ; use absolute coordinates
M83 ; extruder relative mode
M104 S170 ; set extruder temp for bed leveling
M140 S60 ; set bed temp
M109 R170 ; wait for bed leveling temp
M190 S60 ; wait for bed temp
G28 ; home all without mesh bed level
G29 ; mesh bed leveling 
M104 S215 ; set extruder temp
G92 E0.0
G1 Y-2.0 X179 F2400
M73 P0 R11
G1 Z3 F720
M109 S215 ; wait for extruder temp

; intro line
G1 X170 F1000
G1 Z0.2 F720
G1 X110.0 E8.0 F900
M73 P1 R11
G1 X40.0 E10.0 F700
G92 E0.0

M221 S95 ; set flow
G21 ; set units to millimeters
G90 ; use absolute coordinates
M83 ; use relative distances for extrusion
M900 K0.2 ; Filament gcode LA 1.5
; ; Filament gcode LA 1.0
;LAYER_CHANGE
;Z:0.2
;HEIGHT:0.2
;BEFORE_LAYER_CHANGE
G92 E0.0
;0.2


M73 P2 R11
G1 E-3.20000 F4200.000
G1 Z0.200 F9000.000
;AFTER_LAYER_CHANGE
;0.2
G1 Z0.400
G1 X43.654 Y96.575
G1 Z0.200
G1 E3.20000 F2400.000
M204 S800
;TYPE:Skirt
;WIDTH:0.42
G1 F1200.000
G1 X43.948 Y95.575 E0.03269
G1 X44.768 Y93.498 E0.07003
G1 X46.256 Y90.428 E0.10694
G1 X48.288 Y87.107 E0.12210
G1 X50.340 Y84.390 E0.10675
G1 X51.824 Y82.706 E0.07038
G1 X53.361 Y81.158 E0.06837
G1 X54.665 Y79.975 E0.05520
G1 X56.394 Y78.568 E0.06990
G1 X57.786 Y77.553 E0.05402
G1 X59.648 Y76.340 E0.06968
G1 X61.595 Y75.231 E0.07024
G1 X63.120 Y74.466 E0.05352
G1 X65.168 Y73.570 E0.07008
G1 X67.245 Y72.806 E0.06939
G1 X68.911 Y72.291 E0.05466
G1 X71.068 Y71.748 E0.06976
G1 X72.759 Y71.416 E0.05402
G1 X74.970 Y71.103 E0.07001
G1 X77.193 Y70.922 E0.06993
G1 X78.903 Y70.873 E0.05365
G1 X81.159 Y70.953 E0.07078
G1 X83.413 Y71.170 E0.07100
G1 X132.269 Y77.404 E1.54427
M73 P3 R11
G1 X132.782 Y77.531 E0.01657
G1 X133.254 Y77.768 E0.01657
G1 X133.668 Y78.109 E0.01680
G1 X133.994 Y78.535 E0.01680
G1 X134.217 Y79.022 E0.01680
G1 X134.325 Y79.547 E0.01680
G1 X136.361 Y104.674 E0.79042
G1 X136.350 Y107.016 E0.07343
G1 X136.225 Y107.553 E0.01728
G1 X135.980 Y108.046 E0.01728
G1 X135.603 Y108.494 E0.01835
G1 X135.128 Y108.835 E0.01835
G1 X134.584 Y109.051 E0.01835
G1 X134.000 Y109.127 E0.01846
G1 X48.834 Y109.127 E2.67033
G1 X48.029 Y108.981 E0.02567
G1 X47.323 Y108.572 E0.02555
G1 X46.868 Y108.063 E0.02142
M73 P4 R11
G1 X46.576 Y107.445 E0.02142
G1 X43.716 Y97.485 E0.32490
G1 X43.658 Y96.635 E0.02672
M204 S1250
; printing object ToiletRoll_TopsScreenHalf_01_test_print.stl id:0 copy 0
G1 E-2.24000 F4200.000
;WIPE_START
G1 F7200.000
G1 X43.948 Y95.575 E-0.60903
G1 X44.149 Y95.067 E-0.30297
;WIPE_END
G1 E-0.04800 F4200.000
G1 Z0.400 F9000.000
G1 X108.513 Y96.083
G1 Z0.200
G1 E3.20000 F2400.000
M204 S800
;TYPE:Perimeter
G1 F1200.000
G1 X108.513 Y91.799 E0.13431
G1 X108.682 Y91.755 E0.00548
G1 X109.495 Y93.323 E0.05539
G1 X109.929 Y94.252 E0.03214
G1 X110.530 Y95.678 E0.04852
G1 X110.681 Y96.083 E0.01355
G1 X108.573 Y96.083 E0.06610
M204 S1250
G1 E-2.24000 F4200.000
;WIPE_START
G1 F7200.000
G1 X108.549 Y94.437 E-0.91200
;WIPE_END
G1 E-0.04800 F4200.000
G1 Z0.400 F9000.000
G1 X60.023 Y105.600
G1 Z0.200
G1 E3.20000 F2400.000
M204 S800
G1 F1200.000
G1 X60.023 Y105.963 E0.01138
G1 X49.636 Y105.963 E0.32567
G1 X49.636 Y105.600 E0.01138
G1 X59.963 Y105.600 E0.32379
M204 S1250
G1 E-2.24000 F4200.000
;WIPE_START
G1 F7200.000
G1 X60.023 Y105.963 E-0.20383
G1 X58.745 Y105.963 E-0.70817
;WIPE_END
G1 E-0.04800 F4200.000
G1 Z0.400 F9000.000
G1 X49.309 Y96.083
G1 Z0.200
G1 E3.20000 F2400.000
M204 S800
G1 F1200.000
G1 X47.147 Y96.083 E0.06776
G1 X47.485 Y95.199 E0.02967
G1 X48.107 Y93.784 E0.04845
G1 X48.555 Y92.859 E0.03221
G1 X49.140 Y91.757 E0.03914
G1 X49.309 Y91.801 E0.00546
G1 X49.309 Y96.023 E0.13235
M204 S1250
G1 E-2.24000 F4200.000
;WIPE_START
G1 F7200.000
G1 X47.664 Y96.068 E-0.91200
;WIPE_END
G1 E-0.04800 F4200.000
G1 Z0.400 F9000.000
G1 X49.686 Y91.392
G1 Z0.200
G1 E3.20000 F2400.000
M204 S800
;TYPE:External perimeter
G1 F1200.000
G1 X49.686 Y105.223 E0.43366
G1 X60.400 Y105.223 E0.33594
G1 X60.400 Y106.340 E0.03502
G1 X49.259 Y106.340 E0.34931
M73 P5 R11
G1 X49.259 Y96.460 E0.30978
G1 X46.600 Y96.460 E0.08338
G1 X47.136 Y95.055 E0.04713
G1 X47.764 Y93.625 E0.04897
G1 X48.218 Y92.690 E0.03261
G1 X48.700 Y91.768 E0.03261
G1 X49.475 Y90.411 E0.04898
G1 X50.311 Y89.092 E0.04898
G1 X50.900 Y88.234 E0.03261
G1 X51.514 Y87.395 E0.03261
G1 X52.484 Y86.170 E0.04898
G1 X53.508 Y84.991 E0.04896
G1 X54.584 Y83.859 E0.04898
G1 X55.328 Y83.133 E0.03261
G1 X56.095 Y82.428 E0.03264
G1 X56.882 Y81.747 E0.03264
G1 X57.689 Y81.091 E0.03261
G1 X58.938 Y80.151 E0.04901
G1 X59.792 Y79.557 E0.03261
G1 X60.664 Y78.989 E0.03261
G1 X62.003 Y78.186 E0.04898
G1 X63.378 Y77.445 E0.04898
G1 X64.312 Y76.985 E0.03261
G1 X65.258 Y76.555 E0.03261
G1 X66.704 Y75.961 E0.04901
G1 X67.681 Y75.603 E0.03261
G1 X68.668 Y75.274 E0.03261
G1 X70.168 Y74.836 E0.04901
G1 X71.177 Y74.582 E0.03261
G1 X72.193 Y74.359 E0.03261
G1 X73.731 Y74.081 E0.04901
G1 X74.760 Y73.934 E0.03261
G1 X75.794 Y73.819 E0.03261
G1 X77.353 Y73.704 E0.04901
G1 X78.392 Y73.667 E0.03261
G1 X79.163 Y73.664 E0.02417
G1 X80.469 Y73.704 E0.04095
G1 X82.026 Y73.819 E0.04897
G1 X83.577 Y74.004 E0.04898
G1 X84.604 Y74.166 E0.03259
G1 X86.138 Y74.467 E0.04901
G1 X87.150 Y74.705 E0.03261
G1 X88.155 Y74.974 E0.03261
G1 X89.648 Y75.434 E0.04898
G1 X91.118 Y75.962 E0.04898
G1 X92.083 Y76.349 E0.03259
G1 X93.510 Y76.986 E0.04901
G1 X94.444 Y77.445 E0.03261
G1 X95.363 Y77.932 E0.03261
G1 X96.715 Y78.715 E0.04898
G1 X98.022 Y79.553 E0.04870
G1 X98.883 Y80.151 E0.03287
G1 X100.125 Y81.086 E0.04872
G1 X100.938 Y81.747 E0.03287
G1 X102.106 Y82.772 E0.04872
G1 X102.867 Y83.493 E0.03287
G1 X103.961 Y84.609 E0.04900
G1 X104.660 Y85.379 E0.03259
G1 X105.667 Y86.574 E0.04901
G1 X106.306 Y87.394 E0.03261
G1 X106.921 Y88.234 E0.03261
G1 X107.796 Y89.528 E0.04898
G1 X108.612 Y90.860 E0.04898
G1 X109.121 Y91.766 E0.03259
G1 X109.834 Y93.157 E0.04901
G1 X110.274 Y94.099 E0.03259
G1 X110.880 Y95.539 E0.04899
G1 X111.224 Y96.460 E0.03082
G1 X108.135 Y96.460 E0.09684
G1 X108.135 Y91.392 E0.15890
G1 X107.283 Y89.987 E0.05152
G1 X106.427 Y88.712 E0.04815
G1 X105.824 Y87.884 E0.03214
G1 X105.196 Y87.074 E0.03211
G1 X104.544 Y86.284 E0.03211
G1 X103.869 Y85.513 E0.03214
G1 X102.814 Y84.398 E0.04812
G1 X102.082 Y83.680 E0.03214
G1 X101.330 Y82.986 E0.03211
G1 X100.556 Y82.314 E0.03211
G1 X99.763 Y81.666 E0.03214
G1 X98.538 Y80.740 E0.04814
G1 X97.272 Y79.871 E0.04814
G1 X96.406 Y79.323 E0.03214
G1 X95.524 Y78.801 E0.03213
G1 X94.322 Y78.147 E0.04289
G1 X92.931 Y77.465 E0.04858
G1 X91.974 Y77.041 E0.03283
G1 X90.545 Y76.472 E0.04822
G1 X89.081 Y75.964 E0.04861
M73 P6 R11
G1 X87.594 Y75.524 E0.04861
G1 X86.090 Y75.152 E0.04858
G1 X85.076 Y74.942 E0.03246
G1 X83.548 Y74.686 E0.04858
G1 X82.009 Y74.500 E0.04861
G1 X80.464 Y74.385 E0.04858
G1 X79.429 Y74.347 E0.03245
G1 X78.391 Y74.347 E0.03254
G1 X76.843 Y74.416 E0.04860
G1 X75.299 Y74.555 E0.04861
G1 X73.762 Y74.764 E0.04862
G1 X71.985 Y75.098 E0.05669
G1 X70.228 Y75.524 E0.05667
G1 X69.234 Y75.810 E0.03245
G1 X68.250 Y76.126 E0.03241
G1 X67.276 Y76.472 E0.03241
G1 X66.313 Y76.847 E0.03241
G1 X65.362 Y77.252 E0.03241
G1 X64.423 Y77.686 E0.03243
G1 X63.043 Y78.388 E0.04855
G1 X62.297 Y78.802 E0.02674
G1 X61.416 Y79.323 E0.03210
G1 X60.550 Y79.870 E0.03211
G1 X59.701 Y80.444 E0.03211
G1 X58.870 Y81.043 E0.03211
G1 X58.057 Y81.667 E0.03214
G1 X56.876 Y82.647 E0.04812
G1 X56.113 Y83.330 E0.03214
G1 X55.370 Y84.036 E0.03211
G1 X54.650 Y84.764 E0.03211
G1 X53.952 Y85.514 E0.03211
G1 X53.277 Y86.284 E0.03211
G1 X52.625 Y87.075 E0.03214
G1 X51.694 Y88.295 E0.04812
G1 X51.103 Y89.133 E0.03214
G1 X50.538 Y89.988 E0.03214
G1 X49.717 Y91.340 E0.04961
M204 S1250
G1 X49.308 Y91.524 F9000.000
G1 X49.238 Y91.588
M204 S800
;TYPE:Gap fill
;WIDTH:0.337346
G1 F1200.000
G1 X49.373 Y91.264 E0.00859
G1 X49.770 Y90.589 E0.01916
G1 X50.596 Y89.280 E0.03790
G1 X51.179 Y88.432 E0.02518
G1 X51.788 Y87.604 E0.02518
G1 X52.363 Y86.864 E0.02294
G1 X53.019 Y86.068 E0.02525
G1 X53.760 Y85.220 E0.02756
G1 X55.135 Y83.793 E0.04852
G1 X55.882 Y83.083 E0.02521
G1 X56.658 Y82.389 E0.02550
G1 X57.848 Y81.400 E0.03789
G1 X58.668 Y80.774 E0.02525
G1 X59.506 Y80.168 E0.02532
G1 X60.363 Y79.589 E0.02532
G1 X61.238 Y79.037 E0.02532
G1 X62.172 Y78.482 E0.02659
G1 X63.536 Y77.751 E0.03790
G1 X64.272 Y77.382 E0.02015
G1 X65.226 Y76.941 E0.02573
G1 X66.184 Y76.537 E0.02544
G1 X67.794 Y75.925 E0.04216
G1 X68.770 Y75.600 E0.02518
G1 X70.139 Y75.197 E0.03494
G1 X71.910 Y74.768 E0.04462
G1 X73.785 Y74.417 E0.04670
G1 X74.804 Y74.275 E0.02518
G1 X75.826 Y74.162 E0.02518
G1 X77.372 Y74.048 E0.03795
G1 X78.387 Y74.007 E0.02488
G1 X79.433 Y74.010 E0.02560
G1 X80.479 Y74.046 E0.02564
G1 X81.994 Y74.158 E0.03717
G1 X83.600 Y74.351 E0.03960
G1 X85.135 Y74.612 E0.03813
G1 X86.066 Y74.800 E0.02325
G1 X87.686 Y75.199 E0.04085
G1 X89.539 Y75.760 E0.04741
G1 X90.666 Y76.157 E0.02925
G1 X91.950 Y76.664 E0.03378
G1 X93.365 Y77.296 E0.03795
G1 X94.475 Y77.845 E0.03031
G1 X95.196 Y78.232 E0.02005
G1 X96.585 Y79.034 E0.03925
G1 X97.832 Y79.838 E0.03632
G1 X98.733 Y80.463 E0.02685
G1 X99.915 Y81.354 E0.03623
G1 X100.718 Y82.007 E0.02535
G1 X101.876 Y83.025 E0.03773
G1 X102.628 Y83.737 E0.02535
G1 X103.711 Y84.845 E0.03795
G1 X104.802 Y86.068 E0.04012
M204 S1250
M204 S800
;WIDTH:0.348697
G1 X105.463 Y86.864 E0.02630
G1 X106.093 Y87.678 E0.02619
G1 X106.642 Y88.430 E0.02366
G1 X107.566 Y89.802 E0.04206
G1 X108.451 Y91.262 E0.04340
M204 S1250
M204 S800
;WIDTH:0.359938
G1 X108.584 Y91.585 E0.00922
M204 S1250
G1 E-2.24000 F4200.000
;WIPE_START
G1 F7200.000
G1 X108.451 Y91.262 E-0.19374
;WIPE_END
G1 E-0.76626 F4200.000
G1 Z0.400 F9000.000
G1 X109.603 Y93.821
G1 Z0.200
G1 E3.20000 F2400.000
M204 S800
;TYPE:Solid infill
;WIDTH:0.449664
G1 F1200.000
G1 X108.795 Y93.013 E0.03863
G1 X108.795 Y93.588 E0.01945
G1 X109.741 Y94.534 E0.04523
G1 X110.160 Y95.528 E0.03649
G1 X108.795 Y94.164 E0.06527
G1 X108.795 Y94.739 E0.01945
G1 X109.856 Y95.800 E0.05074
G1 X109.281 Y95.800 E0.01945
G1 X108.626 Y95.144 E0.03135
M204 S1250
G1 E-2.24000 F4200.000
;WIPE_START
M73 P7 R11
G1 F7200.000
G1 X109.281 Y95.800 E-0.51363
G1 X109.856 Y95.800 E-0.31877
G1 X109.755 Y95.698 E-0.07961
;WIPE_END
G1 E-0.04800 F4200.000
G1 Z0.400 F9000.000
G1 X49.196 Y93.026
G1 Z0.200
G1 E3.20000 F2400.000
M204 S800
;WIDTH:0.448388
G1 F1200.000
G1 X48.929 Y92.759 E0.01273
G1 X48.734 Y93.138 E0.01436
G1 X49.026 Y93.429 E0.01391
G1 X49.026 Y94.003 E0.01933
G1 X48.547 Y93.524 E0.02284
G1 X48.360 Y93.910 E0.01447
G1 X49.026 Y94.576 E0.03176
G1 X49.026 Y95.150 E0.01933
G1 X48.185 Y94.309 E0.04010
G1 X48.010 Y94.707 E0.01467
G1 X49.026 Y95.723 E0.04845
G1 X49.026 Y95.800 E0.00259
G1 X48.529 Y95.800 E0.01674
G1 X47.835 Y95.105 E0.03311
G1 X47.668 Y95.512 E0.01482
G1 X48.126 Y95.970 E0.02181
M204 S1250
G1 E-2.24000 F4200.000
;WIPE_START
G1 F7200.000
G1 X47.668 Y95.512 E-0.35855
G1 X47.835 Y95.105 E-0.24356
G1 X48.230 Y95.501 E-0.30989
;WIPE_END
G1 E-0.04800 F4200.000
G1 Z0.400 F9000.000
G1 X120.319 Y96.083
G1 Z0.200
G1 E3.20000 F2400.000
M204 S800
;TYPE:Perimeter
;WIDTH:0.42
G1 F1200.000
G1 X120.569 Y95.431 E0.02190
G1 X121.075 Y94.240 E0.04058
G1 X121.512 Y93.306 E0.03232
G1 X122.318 Y91.755 E0.05479
G1 X122.486 Y91.800 E0.00546
G1 X122.486 Y96.083 E0.13429
G1 X120.379 Y96.083 E0.06607
M204 S1250
G1 E-2.24000 F4200.000
;WIPE_START
G1 F7200.000
G1 X120.569 Y95.431 E-0.37639
G1 X120.947 Y94.541 E-0.53561
;WIPE_END
G1 E-0.04800 F4200.000
G1 Z0.400 F9000.000
G1 X122.814 Y105.600
G1 Z0.200
G1 E3.20000 F2400.000
M204 S800
G1 F1200.000
G1 X133.201 Y105.600 E0.32567
G1 X133.201 Y105.963 E0.01138
G1 X122.814 Y105.963 E0.32567
G1 X122.814 Y105.660 E0.00950
M204 S1250
G1 X122.863 Y105.223 F9000.000
M204 S800
;TYPE:External perimeter
G1 F1200.000
G1 X133.578 Y105.223 E0.33594
G1 X133.578 Y106.340 E0.03502
G1 X122.437 Y106.340 E0.34931
G1 X122.437 Y96.460 E0.30978
G1 X119.771 Y96.460 E0.08360
G1 X120.219 Y95.289 E0.03930
G1 X120.731 Y94.086 E0.04100
G1 X121.173 Y93.140 E0.03275
G1 X121.891 Y91.743 E0.04922
G1 X122.537 Y90.607 E0.04098
G1 X123.224 Y89.495 E0.04100
G1 X123.804 Y88.626 E0.03275
G1 X124.723 Y87.354 E0.04921
G1 X125.699 Y86.126 E0.04918
M73 P8 R11
G1 X126.729 Y84.943 E0.04918
G1 X127.813 Y83.808 E0.04921
G1 X128.562 Y83.080 E0.03277
G1 X129.334 Y82.374 E0.03278
G1 X130.738 Y81.171 E0.05797
G1 X131.124 Y80.764 E0.01758
G1 X131.274 Y80.543 E0.00839
G1 X131.734 Y80.183 E0.01830
G1 X131.719 Y80.664 E0.01509
G1 X131.592 Y81.115 E0.01468
G1 X131.537 Y81.447 E0.01055
G1 X131.246 Y81.660 E0.01130
G1 X130.449 Y82.309 E0.03223
G1 X129.296 Y83.325 E0.04819
G1 X128.190 Y84.392 E0.04818
G1 X127.480 Y85.132 E0.03216
G1 X126.792 Y85.892 E0.03214
G1 X126.128 Y86.673 E0.03214
G1 X125.488 Y87.474 E0.03216
G1 X124.574 Y88.710 E0.04818
G1 X123.717 Y89.986 E0.04821
G1 X122.863 Y91.392 E0.05156
G1 X122.863 Y105.163 E0.43178
M204 S1250
G1 X122.856 Y105.623 F9000.000
G1 E-2.24000 F4200.000
;WIPE_START
G1 F7200.000
G1 X124.509 Y105.172 E-0.91200
;WIPE_END
G1 E-0.04800 F4200.000
G1 Z0.400 F9000.000
G1 X122.373 Y93.032
G1 Z0.200
G1 E3.20000 F2400.000
M204 S800
;TYPE:Solid infill
;WIDTH:0.448339
G1 F1200.000
G1 X122.110 Y92.769 E0.01256
G1 X121.914 Y93.146 E0.01433
G1 X122.203 Y93.436 E0.01382
G1 X122.203 Y94.009 E0.01933
G1 X121.721 Y93.526 E0.02301
G1 X121.538 Y93.917 E0.01454
G1 X122.203 Y94.582 E0.03172
G1 X122.203 Y95.156 E0.01933
G1 X121.356 Y94.308 E0.04042
G1 X121.183 Y94.709 E0.01471
G1 X122.203 Y95.729 E0.04864
G1 X122.203 Y95.800 E0.00238
G1 X121.701 Y95.800 E0.01695
G1 X121.012 Y95.111 E0.03284
G1 X120.841 Y95.513 E0.01474
G1 X121.297 Y95.970 E0.02175
M204 S1250
G1 E-2.24000 F4200.000
;WIPE_START
G1 F7200.000
G1 X120.841 Y95.513 E-0.35752
G1 X121.012 Y95.111 E-0.24224
G1 X121.410 Y95.510 E-0.31224
;WIPE_END
G1 E-0.04800 F4200.000
G1 Z0.400 F9000.000
G1 X122.416 Y91.586
G1 Z0.200
G1 E3.20000 F2400.000
M204 S800
;TYPE:Gap fill
;WIDTH:0.342042
G1 F1200.000
G1 X122.549 Y91.263 E0.00870
G1 X122.832 Y90.782 E0.01386
G1 X123.433 Y89.801 E0.02863
G1 X124.085 Y88.822 E0.02927
G1 X124.996 Y87.561 E0.03868
G1 X125.869 Y86.456 E0.03502
G1 X126.982 Y85.173 E0.04224
G1 X127.953 Y84.151 E0.03507
G1 X129.064 Y83.079 E0.03841
G1 X130.232 Y82.049 E0.03874
M204 S1250
M204 S800
;WIDTH:0.36794
G1 X130.985 Y81.420 E0.02652
M204 S1250
M204 S800
;WIDTH:0.376298
G1 X131.032 Y81.376 E0.00177
M204 S1250
M204 S800
;WIDTH:0.414248
G1 X131.418 Y81.037 E0.01587
M204 S1250
G1 X131.532 Y80.586 F9000.000
M204 S800
;WIDTH:0.294926
G1 F1200.000
G1 X130.970 Y81.642 E0.02507
M204 S1250
; stop printing object ToiletRoll_TopsScreenHalf_01_test_print.stl id:0 copy 0
M106 S84.15
;LAYER_CHANGE
;Z:0.4
;HEIGHT:0.2
;BEFORE_LAYER_CHANGE
G92 E0.0
;0.4


G1 E-2.24000 F4200.000
;WIPE_START
G1 F7200.000
G1 X131.532 Y80.586 E-0.66303
;WIPE_END
G1 E-0.29697 F4200.000
G1 Z0.400 F9000.000
;AFTER_LAYER_CHANGE
;0.4
M104 S210 ; set temperature
G1 Z0.600
G1 X43.654 Y96.575
G1 Z0.400
G1 E3.20000 F2400.000
;TYPE:Skirt
;WIDTH:0.42
G1 X43.948 Y95.575 E0.03269
G1 X44.768 Y93.498 E0.07003
G1 X46.256 Y90.428 E0.10694
G1 X48.288 Y87.107 E0.12210
G1 X50.340 Y84.390 E0.10675
G1 X51.824 Y82.706 E0.07038
G1 X53.361 Y81.158 E0.06837
G1 X54.665 Y79.975 E0.05520
G1 X56.394 Y78.568 E0.06990
G1 X57.786 Y77.553 E0.05402
G1 X59.648 Y76.340 E0.06968
G1 X61.595 Y75.231 E0.07024
G1 X63.120 Y74.466 E0.05352
G1 X65.168 Y73.570 E0.07008
G1 X67.245 Y72.806 E0.06939
M73 P8 R10
G1 X68.911 Y72.291 E0.05466
G1 X71.068 Y71.748 E0.06976
G1 X72.759 Y71.416 E0.05402
G1 X74.970 Y71.103 E0.07001
G1 X77.193 Y70.922 E0.06993
