; generated by PrusaSlicer 2.3.0+win64 on 2021-06-24 at 11:43:58 UTC


;
;

;
;
; 

; external perimeters extrusion width = 0.45mm
; perimeters extrusion width = 0.45mm
; infill extrusion width = 0.45mm
; solid infill extrusion width = 0.45mm
; top infill extrusion width = 0.40mm
; first layer extrusion width = 0.42mm

M73 P0 R38
M201 X1250 Y1250 Z400 E5000 ; sets maximum accelerations, mm/sec^2
M203 X180 Y180 Z12 E80 ; sets maximum feedrates, mm/sec
M204 P1250 R1250 T1250 ; sets acceleration (P, T) and retract acceleration (R), mm/sec^2
M205 X8.00 Y8.00 Z2.00 E10.00 ; sets the jerk limits, mm/sec
M205 S0 T0 ; sets the minimum extruding and travel feed rate, mm/sec
M107
;TYPE:Custom
G90 ; use absolute coordinates
M83 ; extruder relative mode
M104 S170 ; set extruder temp for bed leveling
M140 S60 ; set bed temp
M109 R170 ; wait for bed leveling temp
M190 S60 ; wait for bed temp
G28 ; home all without mesh bed level
G29 ; mesh bed leveling 
M104 S215 ; set extruder temp
G92 E0.0
G1 Y-2.0 X179 F2400
G1 Z3 F720
M109 S215 ; wait for extruder temp

; intro line
G1 X170 F1000
G1 Z0.2 F720
G1 X110.0 E8.0 F900
G1 X40.0 E10.0 F700
G92 E0.0

M221 S95 ; set flow
G21 ; set units to millimeters
G90 ; use absolute coordinates
M83 ; use relative distances for extrusion
M900 K0.2 ; Filament gcode LA 1.5
; ; Filament gcode LA 1.0
;LAYER_CHANGE
;Z:0.2
;HEIGHT:0.2
;BEFORE_LAYER_CHANGE
G92 E0.0
;0.2


G1 E-3.20000 F4200.000
G1 Z0.200 F9000.000
;AFTER_LAYER_CHANGE
;0.2
G1 Z0.400
G1 X65.443 Y46.398
G1 Z0.200
G1 E3.20000 F2400.000
M204 S800
;TYPE:Skirt
;WIDTH:0.42
G1 F1200.000
G1 X66.314 Y45.241 E0.04543
G1 X67.503 Y44.021 E0.05343
G1 X68.849 Y42.975 E0.05343
G1 X70.097 Y42.239 E0.04543
G1 X71.663 Y41.567 E0.05343
G1 X73.303 Y41.117 E0.05331
G1 X74.392 Y40.948 E0.03455
G1 X75.732 Y40.873 E0.04209
G1 X104.254 Y40.873 E0.89428
M73 P0 R37
G1 X105.323 Y40.920 E0.03357
G1 X106.632 Y41.104 E0.04143
G1 X108.661 Y41.686 E0.06619
G1 X110.565 Y42.606 E0.06631
G1 X111.666 Y43.341 E0.04149
G1 X112.475 Y44.002 E0.03277
G1 X113.927 Y45.534 E0.06619
G1 X115.099 Y47.292 E0.06625
G1 X115.672 Y48.483 E0.04143
G1 X116.033 Y49.463 E0.03277
G1 X116.509 Y51.543 E0.06690
G1 X116.627 Y53.247 E0.05355
G1 X116.627 Y126.765 E2.30511
M73 P1 R37
G1 X116.457 Y128.794 E0.06384
G1 X116.035 Y130.531 E0.05605
G1 X115.401 Y132.121 E0.05367
G1 X114.557 Y133.602 E0.05343
G1 X113.501 Y134.972 E0.05426
G1 X112.472 Y136.001 E0.04561
G1 X111.126 Y137.042 E0.05337
G1 X109.619 Y137.902 E0.05438
G1 X108.011 Y138.542 E0.05426
G1 X106.349 Y138.948 E0.05367
G1 X104.264 Y139.127 E0.06559
G1 X75.723 Y139.127 E0.89488
G1 X73.706 Y138.957 E0.06348
G1 X71.965 Y138.534 E0.05617
G1 X70.350 Y137.887 E0.05456
G1 X68.612 Y136.861 E0.06327
G1 X67.249 Y135.746 E0.05522
G1 X66.073 Y134.466 E0.05450
G1 X65.087 Y133.034 E0.05450
G1 X64.303 Y131.456 E0.05527
G1 X63.690 Y129.533 E0.06327
G1 X63.418 Y127.805 E0.05486
G1 X63.373 Y53.235 E2.33808
G1 X63.543 Y51.206 E0.06384
G1 X63.966 Y49.465 E0.05617
G1 X64.599 Y47.879 E0.05355
G1 X65.413 Y46.450 E0.05155
M204 S1250
; printing object ToiletRoll_LidRedesign03.stl id:0 copy 0
G1 E-2.24000 F4200.000
;WIPE_START
G1 F7200.000
G1 X66.314 Y45.241 E-0.83585
G1 X66.410 Y45.142 E-0.07615
;WIPE_END
G1 E-0.04800 F4200.000
G1 Z0.400 F9000.000
G1 X110.537 Y132.537
G1 Z0.200
G1 E3.20000 F2400.000
M204 S800
;TYPE:Perimeter
G1 F1200.000
G1 X110.537 Y47.463 E2.66744
G1 X69.963 Y47.463 E1.27217
G1 X69.963 Y132.537 E2.66744
G1 X80.463 Y132.537 E0.32922
G1 X80.463 Y135.963 E0.10741
G1 X75.760 Y135.963 E0.14747
G1 X75.233 Y135.948 E0.01651
G1 X74.723 Y135.905 E0.01607
G1 X73.953 Y135.785 E0.02443
G1 X73.196 Y135.601 E0.02443
G1 X72.711 Y135.447 E0.01594
G1 X71.983 Y135.157 E0.02456
G1 X71.525 Y134.937 E0.01594
G1 X70.849 Y134.550 E0.02443
G1 X70.207 Y134.108 E0.02443
G1 X69.809 Y133.791 E0.01594
G1 X69.236 Y133.264 E0.02443
G1 X68.709 Y132.691 E0.02443
G1 X68.389 Y132.290 E0.01607
G1 X68.092 Y131.872 E0.01607
G1 X67.685 Y131.203 E0.02456
G1 X67.452 Y130.751 E0.01594
G1 X67.143 Y130.035 E0.02443
G1 X66.898 Y129.300 E0.02430
G1 X66.714 Y128.543 E0.02443
G1 X66.628 Y128.042 E0.01594
G1 X66.552 Y127.262 E0.02456
G1 X66.537 Y126.740 E0.01638
G1 X66.537 Y53.264 E2.30381
M73 P2 R37
G1 X66.570 Y52.476 E0.02473
G1 X66.668 Y51.707 E0.02430
G1 X66.830 Y50.949 E0.02430
G1 X67.056 Y50.203 E0.02443
G1 X67.239 Y49.724 E0.01607
G1 X67.450 Y49.253 E0.01620
G1 X67.685 Y48.797 E0.01607
G1 X68.090 Y48.132 E0.02443
G1 X68.550 Y47.503 E0.02443
G1 X68.881 Y47.111 E0.01607
G1 X69.233 Y46.739 E0.01607
G1 X69.809 Y46.209 E0.02456
G1 X70.207 Y45.892 E0.01594
G1 X70.849 Y45.450 E0.02443
G1 X71.525 Y45.063 E0.02443
G1 X71.987 Y44.841 E0.01607
G1 X72.465 Y44.643 E0.01620
G1 X72.948 Y44.474 E0.01607
G1 X73.704 Y44.268 E0.02456
G1 X74.203 Y44.168 E0.01594
G1 X74.976 Y44.070 E0.02443
G1 X75.764 Y44.037 E0.02473
G1 X104.479 Y44.041 E0.90036
G1 X105.282 Y44.096 E0.02522
G1 X106.047 Y44.215 E0.02428
G1 X106.800 Y44.398 E0.02430
G1 X107.535 Y44.643 E0.02430
G1 X108.247 Y44.950 E0.02430
G1 X108.931 Y45.315 E0.02430
G1 X109.584 Y45.739 E0.02443
G1 X109.994 Y46.047 E0.01607
G1 X110.386 Y46.378 E0.01607
G1 X110.944 Y46.921 E0.02443
G1 X111.453 Y47.506 E0.02430
G1 X111.912 Y48.135 E0.02443
G1 X112.185 Y48.569 E0.01607
G1 X112.433 Y49.018 E0.01607
G1 X112.763 Y49.728 E0.02456
G1 X112.946 Y50.207 E0.01608
G1 X113.094 Y50.672 E0.01530
G1 X113.285 Y51.453 E0.02521
G1 X113.405 Y52.223 E0.02441
G1 X113.448 Y52.733 E0.01607
G1 X113.463 Y53.260 E0.01651
G1 X113.463 Y126.736 E2.30381
G1 X113.430 Y127.524 E0.02473
G1 X113.332 Y128.293 E0.02430
G1 X113.170 Y129.051 E0.02430
G1 X112.945 Y129.793 E0.02430
G1 X112.657 Y130.517 E0.02443
G1 X112.435 Y130.978 E0.01607
G1 X112.187 Y131.427 E0.01607
G1 X111.761 Y132.084 E0.02456
G1 X111.453 Y132.494 E0.01607
G1 X111.119 Y132.889 E0.01620
G1 X110.764 Y133.264 E0.01620
G1 X110.392 Y133.617 E0.01607
G1 X109.790 Y134.111 E0.02443
G1 X109.148 Y134.553 E0.02443
G1 X108.706 Y134.813 E0.01607
G1 X108.251 Y135.048 E0.01607
G1 X107.535 Y135.357 E0.02443
G1 X106.800 Y135.602 E0.02430
G1 X106.047 Y135.785 E0.02430
G1 X105.277 Y135.905 E0.02443
G1 X104.767 Y135.948 E0.01607
G1 X104.240 Y135.963 E0.01651
G1 X100.037 Y135.963 E0.13179
G1 X100.037 Y132.537 E0.10741
G1 X110.477 Y132.537 E0.32734
M204 S1250
G1 X110.160 Y132.160 F9000.000
M204 S800
;TYPE:External perimeter
G1 F1200.000
G1 X110.160 Y47.840 E2.64379
G1 X70.340 Y47.840 E1.24853
G1 X70.340 Y132.160 E2.64379
G1 X80.840 Y132.160 E0.32922
G1 X80.840 Y136.340 E0.13106
G1 X75.754 Y136.340 E0.15946
G1 X75.212 Y136.325 E0.01700
G1 X74.678 Y136.280 E0.01682
G1 X73.879 Y136.156 E0.02534
G1 X73.094 Y135.965 E0.02534
G1 X72.584 Y135.802 E0.01677
G1 X71.832 Y135.503 E0.02539
G1 X71.350 Y135.271 E0.01677
G1 X70.648 Y134.870 E0.02534
G1 X69.982 Y134.412 E0.02534
G1 X69.564 Y134.078 E0.01677
G1 X68.969 Y133.531 E0.02534
G1 X68.422 Y132.936 E0.02534
G1 X68.088 Y132.517 E0.01682
G1 X67.777 Y132.079 E0.01682
G1 X67.356 Y131.388 E0.02539
G1 X67.110 Y130.912 E0.01677
G1 X66.791 Y130.170 E0.02534
G1 X66.535 Y129.405 E0.02529
G1 X66.344 Y128.619 E0.02534
G1 X66.255 Y128.092 E0.01677
G1 X66.175 Y127.286 E0.02539
G1 X66.160 Y126.746 E0.01696
G1 X66.160 Y53.256 E2.30422
M73 P3 R37
G1 X66.194 Y52.444 E0.02548
G1 X66.296 Y51.644 E0.02529
G1 X66.464 Y50.855 E0.02529
G1 X66.699 Y50.081 E0.02534
G1 X66.890 Y49.580 E0.01682
G1 X67.110 Y49.089 E0.01687
G1 X67.356 Y48.612 E0.01682
G1 X67.776 Y47.922 E0.02534
G1 X68.253 Y47.270 E0.02534
G1 X68.599 Y46.860 E0.01682
G1 X68.968 Y46.470 E0.01682
G1 X69.564 Y45.922 E0.02539
G1 X69.982 Y45.588 E0.01677
G1 X70.648 Y45.130 E0.02534
G1 X71.350 Y44.729 E0.02534
G1 X71.833 Y44.497 E0.01682
G1 X72.330 Y44.291 E0.01687
G1 X72.836 Y44.113 E0.01682
G1 X73.617 Y43.900 E0.02539
G1 X74.142 Y43.796 E0.01677
G1 X74.944 Y43.694 E0.02534
G1 X75.756 Y43.660 E0.02548
G1 X104.492 Y43.664 E0.90102
G1 X105.324 Y43.721 E0.02613
G1 X106.121 Y43.844 E0.02529
G1 X106.905 Y44.035 E0.02529
G1 X107.670 Y44.291 E0.02529
G1 X108.411 Y44.610 E0.02529
G1 X109.122 Y44.990 E0.02529
G1 X109.801 Y45.430 E0.02534
G1 X110.229 Y45.752 E0.01682
G1 X110.639 Y46.098 E0.01682
G1 X111.219 Y46.662 E0.02534
G1 X111.748 Y47.271 E0.02529
G1 X112.224 Y47.923 E0.02534
G1 X112.510 Y48.378 E0.01682
G1 X112.769 Y48.847 E0.01682
G1 X113.110 Y49.581 E0.02539
G1 X113.302 Y50.083 E0.01682
G1 X113.457 Y50.570 E0.01603
G1 X113.656 Y51.379 E0.02613
G1 X113.780 Y52.178 E0.02534
G1 X113.825 Y52.712 E0.01682
G1 X113.840 Y53.254 E0.01700
G1 X113.840 Y126.744 E2.30422
G1 X113.806 Y127.556 E0.02548
G1 X113.704 Y128.356 E0.02529
G1 X113.536 Y129.145 E0.02529
M73 P3 R36
G1 X113.302 Y129.917 E0.02529
G1 X113.003 Y130.668 E0.02534
G1 X112.770 Y131.152 E0.01682
G1 X112.511 Y131.621 E0.01682
G1 X112.070 Y132.301 E0.02539
G1 X111.748 Y132.729 E0.01682
G1 X111.401 Y133.140 E0.01687
G1 X111.031 Y133.531 E0.01687
G1 X110.641 Y133.900 E0.01682
G1 X110.017 Y134.412 E0.02534
G1 X109.351 Y134.871 E0.02534
G1 X108.889 Y135.143 E0.01682
G1 X108.412 Y135.390 E0.01682
G1 X107.670 Y135.709 E0.02534
G1 X106.905 Y135.965 E0.02529
G1 X106.121 Y136.156 E0.02529
G1 X105.322 Y136.280 E0.02534
G1 X104.788 Y136.325 E0.01682
G1 X104.246 Y136.340 E0.01700
G1 X99.660 Y136.340 E0.14378
G1 X99.660 Y132.160 E0.13106
G1 X110.100 Y132.160 E0.32734
M204 S1250
G1 X110.557 Y132.110 F9000.000
G1 E-2.24000 F4200.000
;WIPE_START
G1 F7200.000
G1 X110.101 Y130.514 E-0.91200
;WIPE_END
G1 E-0.04800 F4200.000
G1 Z0.400 F9000.000
G1 X112.484 Y49.396
G1 Z0.200
G1 E3.20000 F2400.000
M204 S800
;TYPE:Solid infill
;WIDTH:0.420984
G1 F1200.000
G1 X110.820 Y47.732 E0.07398
G1 X110.820 Y48.267 E0.01681
G1 X112.571 Y50.018 E0.07783
G1 X112.679 Y50.301 E0.00954
G1 X112.840 Y50.821 E0.01712
G1 X110.820 Y48.801 E0.08979
G1 X110.820 Y49.336 E0.01681
G1 X113.011 Y51.527 E0.09740
G1 X113.109 Y52.160 E0.02014
G1 X110.820 Y49.871 E0.10178
G1 X110.820 Y50.405 E0.01681
G1 X113.166 Y52.751 E0.10429
G1 X113.180 Y53.264 E0.01611
G1 X113.180 Y53.300 E0.00116
G1 X110.820 Y50.940 E0.10493
G1 X110.820 Y51.475 E0.01681
G1 X113.180 Y53.835 E0.10493
G1 X113.180 Y54.370 E0.01681
G1 X110.820 Y52.009 E0.10493
G1 X110.820 Y52.544 E0.01681
G1 X113.180 Y54.904 E0.10493
G1 X113.180 Y55.439 E0.01681
G1 X110.820 Y53.079 E0.10493
G1 X110.820 Y53.613 E0.01681
G1 X113.180 Y55.974 E0.10493
G1 X113.180 Y56.508 E0.01681
G1 X110.820 Y54.148 E0.10493
G1 X110.820 Y54.683 E0.01681
G1 X113.180 Y57.043 E0.10493
G1 X113.180 Y57.578 E0.01681
G1 X110.820 Y55.217 E0.10493
G1 X110.820 Y55.752 E0.01681
G1 X113.180 Y58.112 E0.10493
G1 X113.180 Y58.647 E0.01681
G1 X110.820 Y56.287 E0.10493
G1 X110.820 Y56.821 E0.01681
G1 X113.180 Y59.182 E0.10493
G1 X113.180 Y59.716 E0.01681
G1 X110.820 Y57.356 E0.10493
G1 X110.820 Y57.891 E0.01681
G1 X113.180 Y60.251 E0.10493
G1 X113.180 Y60.786 E0.01681
G1 X110.820 Y58.425 E0.10493
G1 X110.820 Y58.960 E0.01681
G1 X113.180 Y61.320 E0.10493
G1 X113.180 Y61.855 E0.01681
G1 X110.820 Y59.495 E0.10493
G1 X110.820 Y60.029 E0.01681
G1 X113.180 Y62.390 E0.10493
G1 X113.180 Y62.924 E0.01681
G1 X110.820 Y60.564 E0.10493
G1 X110.820 Y61.099 E0.01681
G1 X113.180 Y63.459 E0.10493
G1 X113.180 Y63.994 E0.01681
G1 X110.820 Y61.633 E0.10493
G1 X110.820 Y62.168 E0.01681
G1 X113.180 Y64.528 E0.10493
G1 X113.180 Y65.063 E0.01681
G1 X110.820 Y62.703 E0.10493
G1 X110.820 Y63.237 E0.01681
G1 X113.180 Y65.598 E0.10493
G1 X113.180 Y66.132 E0.01681
G1 X110.820 Y63.772 E0.10493
G1 X110.820 Y64.307 E0.01681
G1 X113.180 Y66.667 E0.10493
G1 X113.180 Y67.202 E0.01681
G1 X110.820 Y64.841 E0.10493
G1 X110.820 Y65.376 E0.01681
G1 X113.180 Y67.736 E0.10493
G1 X113.180 Y68.271 E0.01681
G1 X110.820 Y65.911 E0.10493
G1 X110.820 Y66.445 E0.01681
G1 X113.180 Y68.806 E0.10493
G1 X113.180 Y69.340 E0.01681
G1 X110.820 Y66.980 E0.10493
G1 X110.820 Y67.515 E0.01681
G1 X113.180 Y69.875 E0.10493
G1 X113.180 Y70.410 E0.01681
G1 X110.820 Y68.049 E0.10493
G1 X110.820 Y68.584 E0.01681
G1 X113.180 Y70.944 E0.10493
G1 X113.180 Y71.479 E0.01681
G1 X110.820 Y69.119 E0.10493
G1 X110.820 Y69.653 E0.01681
G1 X113.180 Y72.014 E0.10493
G1 X113.180 Y72.548 E0.01681
G1 X110.820 Y70.188 E0.10493
G1 X110.820 Y70.723 E0.01681
G1 X113.180 Y73.083 E0.10493
G1 X113.180 Y73.618 E0.01681
G1 X110.820 Y71.257 E0.10493
G1 X110.820 Y71.792 E0.01681
G1 X113.180 Y74.152 E0.10493
G1 X113.180 Y74.687 E0.01681
G1 X110.820 Y72.327 E0.10493
G1 X110.820 Y72.861 E0.01681
G1 X113.180 Y75.222 E0.10493
G1 X113.180 Y75.756 E0.01681
G1 X110.820 Y73.396 E0.10493
M73 P4 R36
G1 X110.820 Y73.931 E0.01681
G1 X113.180 Y76.291 E0.10493
G1 X113.180 Y76.826 E0.01681
G1 X110.820 Y74.465 E0.10493
G1 X110.820 Y75.000 E0.01681
G1 X113.180 Y77.360 E0.10493
G1 X113.180 Y77.895 E0.01681
G1 X110.820 Y75.535 E0.10493
G1 X110.820 Y76.069 E0.01681
G1 X113.180 Y78.430 E0.10493
G1 X113.180 Y78.964 E0.01681
G1 X110.820 Y76.604 E0.10493
G1 X110.820 Y77.139 E0.01681
G1 X113.180 Y79.499 E0.10493
G1 X113.180 Y80.034 E0.01681
G1 X110.820 Y77.673 E0.10493
G1 X110.820 Y78.208 E0.01681
G1 X113.180 Y80.568 E0.10493
G1 X113.180 Y81.103 E0.01681
G1 X110.820 Y78.743 E0.10493
G1 X110.820 Y79.277 E0.01681
G1 X113.180 Y81.638 E0.10493
G1 X113.180 Y82.172 E0.01681
G1 X110.820 Y79.812 E0.10493
G1 X110.820 Y80.347 E0.01681
G1 X113.180 Y82.707 E0.10493
G1 X113.180 Y83.242 E0.01681
G1 X110.820 Y80.881 E0.10493
G1 X110.820 Y81.416 E0.01681
G1 X113.180 Y83.776 E0.10493
G1 X113.180 Y84.311 E0.01681
G1 X110.820 Y81.951 E0.10493
G1 X110.820 Y82.485 E0.01681
G1 X113.180 Y84.846 E0.10493
G1 X113.180 Y85.380 E0.01681
G1 X110.820 Y83.020 E0.10493
G1 X110.820 Y83.555 E0.01681
G1 X113.180 Y85.915 E0.10493
G1 X113.180 Y86.450 E0.01681
G1 X110.820 Y84.089 E0.10493
G1 X110.820 Y84.624 E0.01681
G1 X113.180 Y86.984 E0.10493
G1 X113.180 Y87.519 E0.01681
G1 X110.820 Y85.159 E0.10493
G1 X110.820 Y85.693 E0.01681
G1 X113.180 Y88.053 E0.10493
G1 X113.180 Y88.588 E0.01681
G1 X110.820 Y86.228 E0.10493
G1 X110.820 Y86.763 E0.01681
G1 X113.180 Y89.123 E0.10493
G1 X113.180 Y89.657 E0.01681
G1 X110.820 Y87.297 E0.10493
G1 X110.820 Y87.832 E0.01681
G1 X113.180 Y90.192 E0.10493
G1 X113.180 Y90.727 E0.01681
G1 X110.820 Y88.367 E0.10493
G1 X110.820 Y88.901 E0.01681
G1 X113.180 Y91.261 E0.10493
G1 X113.180 Y91.796 E0.01681
G1 X110.820 Y89.436 E0.10493
G1 X110.820 Y89.971 E0.01681
G1 X113.180 Y92.331 E0.10493
G1 X113.180 Y92.865 E0.01681
G1 X110.820 Y90.505 E0.10493
G1 X110.820 Y91.040 E0.01681
G1 X113.180 Y93.400 E0.10493
G1 X113.180 Y93.935 E0.01681
G1 X110.820 Y91.575 E0.10493
G1 X110.820 Y92.109 E0.01681
G1 X113.180 Y94.469 E0.10493
G1 X113.180 Y95.004 E0.01681
G1 X110.820 Y92.644 E0.10493
G1 X110.820 Y93.179 E0.01681
G1 X113.180 Y95.539 E0.10493
G1 X113.180 Y96.073 E0.01681
G1 X110.820 Y93.713 E0.10493
G1 X110.820 Y94.248 E0.01681
G1 X113.180 Y96.608 E0.10493
G1 X113.180 Y97.143 E0.01681
G1 X110.820 Y94.783 E0.10493
G1 X110.820 Y95.317 E0.01681
G1 X113.180 Y97.677 E0.10493
G1 X113.180 Y98.212 E0.01681
G1 X110.820 Y95.852 E0.10493
G1 X110.820 Y96.387 E0.01681
G1 X113.180 Y98.747 E0.10493
G1 X113.180 Y99.281 E0.01681
G1 X110.820 Y96.921 E0.10493
G1 X110.820 Y97.456 E0.01681
G1 X113.180 Y99.816 E0.10493
G1 X113.180 Y100.351 E0.01681
G1 X110.820 Y97.991 E0.10493
G1 X110.820 Y98.525 E0.01681
G1 X113.180 Y100.885 E0.10493
G1 X113.180 Y101.420 E0.01681
G1 X110.820 Y99.060 E0.10493
G1 X110.820 Y99.594 E0.01681
G1 X113.180 Y101.955 E0.10493
G1 X113.180 Y102.489 E0.01681
G1 X110.820 Y100.129 E0.10493
G1 X110.820 Y100.664 E0.01681
G1 X113.180 Y103.024 E0.10493
G1 X113.180 Y103.559 E0.01681
G1 X110.820 Y101.198 E0.10493
G1 X110.820 Y101.733 E0.01681
G1 X113.180 Y104.093 E0.10493
G1 X113.180 Y104.628 E0.01681
G1 X110.820 Y102.268 E0.10493
G1 X110.820 Y102.802 E0.01681
G1 X113.180 Y105.163 E0.10493
G1 X113.180 Y105.697 E0.01681
G1 X110.820 Y103.337 E0.10493
G1 X110.820 Y103.872 E0.01681
G1 X113.180 Y106.232 E0.10493
G1 X113.180 Y106.767 E0.01681
G1 X110.820 Y104.406 E0.10493
G1 X110.820 Y104.941 E0.01681
G1 X113.180 Y107.301 E0.10493
G1 X113.180 Y107.836 E0.01681
G1 X110.820 Y105.476 E0.10493
G1 X110.820 Y106.010 E0.01681
G1 X113.180 Y108.371 E0.10493
G1 X113.180 Y108.905 E0.01681
