; generated by PrusaSlicer 2.3.0+win64 on 2021-06-23 at 21:11:14 UTC


;
;

;
;
; 

; external perimeters extrusion width = 0.45mm
; perimeters extrusion width = 0.45mm
; infill extrusion width = 0.45mm
; solid infill extrusion width = 0.45mm
; top infill extrusion width = 0.40mm
; first layer extrusion width = 0.42mm

M73 P0 R31
M201 X1250 Y1250 Z400 E5000 ; sets maximum accelerations, mm/sec^2
M203 X180 Y180 Z12 E80 ; sets maximum feedrates, mm/sec
M204 P1250 R1250 T1250 ; sets acceleration (P, T) and retract acceleration (R), mm/sec^2
M205 X8.00 Y8.00 Z2.00 E10.00 ; sets the jerk limits, mm/sec
M205 S0 T0 ; sets the minimum extruding and travel feed rate, mm/sec
M107
;TYPE:Custom
G90 ; use absolute coordinates
M83 ; extruder relative mode
M104 S170 ; set extruder temp for bed leveling
M140 S60 ; set bed temp
M109 R170 ; wait for bed leveling temp
M190 S60 ; wait for bed temp
G28 ; home all without mesh bed level
G29 ; mesh bed leveling 
M104 S215 ; set extruder temp
G92 E0.0
G1 Y-2.0 X179 F2400
G1 Z3 F720
M109 S215 ; wait for extruder temp

; intro line
G1 X170 F1000
G1 Z0.2 F720
G1 X110.0 E8.0 F900
G1 X40.0 E10.0 F700
G92 E0.0

M221 S95 ; set flow
G21 ; set units to millimeters
G90 ; use absolute coordinates
M83 ; use relative distances for extrusion
M900 K0.2 ; Filament gcode LA 1.5
; ; Filament gcode LA 1.0
;LAYER_CHANGE
;Z:0.2
;HEIGHT:0.2
;BEFORE_LAYER_CHANGE
G92 E0.0
;0.2


G1 E-3.20000 F4200.000
G1 Z0.200 F9000.000
;AFTER_LAYER_CHANGE
;0.2
G1 Z0.400
G1 X65.538 Y46.637
G1 Z0.200
G1 E3.20000 F2400.000
M204 S800
;TYPE:Skirt
;WIDTH:0.42
G1 F1200.000
G1 X66.544 Y45.264 E0.05337
G1 X67.731 Y44.041 E0.05343
G1 X68.865 Y43.137 E0.04549
G1 X70.320 Y42.253 E0.05337
G1 X71.884 Y41.577 E0.05343
G1 X73.273 Y41.177 E0.04531
G1 X74.615 Y40.951 E0.04268
G1 X75.978 Y40.873 E0.04281
G1 X104.004 Y40.873 E0.87872
G1 X105.073 Y40.920 E0.03357
G1 X106.382 Y41.104 E0.04143
G1 X108.411 Y41.686 E0.06619
G1 X110.315 Y42.606 E0.06631
G1 X111.416 Y43.341 E0.04149
G1 X112.225 Y44.002 E0.03277
G1 X113.677 Y45.534 E0.06619
M73 P1 R31
G1 X114.849 Y47.292 E0.06625
G1 X115.422 Y48.483 E0.04143
G1 X115.783 Y49.463 E0.03277
G1 X116.259 Y51.543 E0.06690
G1 X116.377 Y53.247 E0.05355
G1 X116.377 Y126.765 E2.30511
G1 X116.207 Y128.794 E0.06384
G1 X115.789 Y130.520 E0.05569
G1 X115.153 Y132.118 E0.05391
G1 X114.307 Y133.602 E0.05355
G1 X113.251 Y134.972 E0.05426
G1 X112.224 Y136.000 E0.04554
G1 X110.876 Y137.042 E0.05343
G1 X109.369 Y137.902 E0.05438
G1 X107.761 Y138.542 E0.05426
G1 X106.106 Y138.946 E0.05343
G1 X104.014 Y139.127 E0.06583
G1 X75.973 Y139.127 E0.87921
G1 X73.956 Y138.957 E0.06348
G1 X72.226 Y138.538 E0.05581
G1 X70.600 Y137.887 E0.05492
G1 X68.862 Y136.861 E0.06327
G1 X67.499 Y135.746 E0.05522
G1 X66.323 Y134.466 E0.05450
G1 X65.337 Y133.034 E0.05450
G1 X64.553 Y131.456 E0.05527
G1 X63.940 Y129.533 E0.06327
G1 X63.668 Y127.805 E0.05486
G1 X63.623 Y53.235 E2.33808
G1 X63.793 Y51.206 E0.06384
G1 X64.212 Y49.476 E0.05581
G1 X64.836 Y47.906 E0.05295
G1 X65.509 Y46.689 E0.04360
M204 S1250
; printing object ToiletRoll_LidRedesign02.stl id:0 copy 0
G1 E-2.24000 F4200.000
;WIPE_START
G1 F7200.000
G1 X66.476 Y45.358 E-0.91200
;WIPE_END
G1 E-0.04800 F4200.000
G1 Z0.400 F9000.000
G1 X109.787 Y132.537
G1 Z0.200
G1 E3.20000 F2400.000
M204 S800
;TYPE:Perimeter
G1 F1200.000
G1 X109.787 Y47.463 E2.66744
G1 X70.213 Y47.463 E1.24082
M73 P2 R31
G1 X70.213 Y132.537 E2.66744
G1 X80.213 Y132.537 E0.31354
G1 X80.213 Y135.963 E0.10741
G1 X76.010 Y135.963 E0.13179
G1 X75.483 Y135.948 E0.01651
G1 X74.973 Y135.905 E0.01607
G1 X74.203 Y135.785 E0.02443
G1 X73.446 Y135.601 E0.02443
G1 X72.961 Y135.447 E0.01594
G1 X72.233 Y135.157 E0.02456
G1 X71.775 Y134.937 E0.01594
G1 X71.099 Y134.550 E0.02443
G1 X70.457 Y134.108 E0.02443
G1 X70.059 Y133.791 E0.01594
G1 X69.486 Y133.264 E0.02443
G1 X68.959 Y132.691 E0.02443
G1 X68.639 Y132.290 E0.01607
G1 X68.342 Y131.872 E0.01607
G1 X67.935 Y131.203 E0.02456
G1 X67.702 Y130.751 E0.01594
G1 X67.393 Y130.035 E0.02443
G1 X67.148 Y129.300 E0.02430
G1 X66.964 Y128.543 E0.02443
G1 X66.878 Y128.042 E0.01594
G1 X66.802 Y127.262 E0.02456
G1 X66.787 Y126.740 E0.01638
G1 X66.787 Y53.264 E2.30381
G1 X66.820 Y52.476 E0.02473
G1 X66.918 Y51.707 E0.02430
G1 X67.080 Y50.949 E0.02430
G1 X67.306 Y50.203 E0.02443
G1 X67.489 Y49.724 E0.01607
G1 X67.700 Y49.253 E0.01620
G1 X67.935 Y48.797 E0.01607
G1 X68.340 Y48.132 E0.02443
G1 X68.800 Y47.503 E0.02443
G1 X69.131 Y47.111 E0.01607
G1 X69.483 Y46.739 E0.01607
G1 X70.059 Y46.209 E0.02456
G1 X70.457 Y45.892 E0.01594
G1 X71.099 Y45.450 E0.02443
G1 X71.775 Y45.063 E0.02443
G1 X72.237 Y44.841 E0.01607
G1 X72.715 Y44.643 E0.01620
G1 X73.198 Y44.474 E0.01607
G1 X73.954 Y44.268 E0.02456
G1 X74.453 Y44.168 E0.01594
G1 X75.226 Y44.070 E0.02443
G1 X76.014 Y44.037 E0.02473
G1 X104.229 Y44.041 E0.88469
G1 X105.032 Y44.096 E0.02522
G1 X105.797 Y44.215 E0.02428
G1 X106.550 Y44.398 E0.02430
G1 X107.285 Y44.643 E0.02430
G1 X107.997 Y44.950 E0.02430
G1 X108.681 Y45.315 E0.02430
G1 X109.334 Y45.739 E0.02443
G1 X109.744 Y46.047 E0.01607
G1 X110.136 Y46.378 E0.01607
G1 X110.694 Y46.921 E0.02443
G1 X111.203 Y47.506 E0.02430
G1 X111.662 Y48.135 E0.02443
G1 X111.935 Y48.569 E0.01607
G1 X112.183 Y49.018 E0.01607
G1 X112.513 Y49.728 E0.02456
G1 X112.696 Y50.207 E0.01608
G1 X112.844 Y50.672 E0.01530
G1 X113.035 Y51.453 E0.02521
G1 X113.155 Y52.223 E0.02441
G1 X113.198 Y52.733 E0.01607
G1 X113.213 Y53.260 E0.01651
G1 X113.213 Y126.736 E2.30381
M73 P2 R30
G1 X113.180 Y127.524 E0.02473
G1 X113.082 Y128.293 E0.02430
G1 X112.920 Y129.051 E0.02430
G1 X112.695 Y129.793 E0.02430
G1 X112.407 Y130.517 E0.02443
G1 X112.185 Y130.978 E0.01607
G1 X111.937 Y131.427 E0.01607
G1 X111.511 Y132.084 E0.02456
G1 X111.203 Y132.494 E0.01607
G1 X110.869 Y132.889 E0.01620
G1 X110.514 Y133.264 E0.01620
G1 X110.142 Y133.617 E0.01607
G1 X109.540 Y134.111 E0.02443
G1 X108.898 Y134.553 E0.02443
G1 X108.456 Y134.813 E0.01607
G1 X108.001 Y135.048 E0.01607
G1 X107.285 Y135.357 E0.02443
G1 X106.550 Y135.602 E0.02430
G1 X105.797 Y135.785 E0.02430
G1 X105.027 Y135.905 E0.02443
G1 X104.517 Y135.948 E0.01607
G1 X103.990 Y135.963 E0.01651
G1 X99.787 Y135.963 E0.13179
G1 X99.787 Y132.537 E0.10741
G1 X109.727 Y132.537 E0.31166
M204 S1250
G1 X109.410 Y132.160 F9000.000
M204 S800
;TYPE:External perimeter
G1 F1200.000
G1 X109.410 Y47.840 E2.64379
M73 P3 R30
G1 X70.590 Y47.840 E1.21717
G1 X70.590 Y132.160 E2.64379
G1 X80.590 Y132.160 E0.31354
G1 X80.590 Y136.340 E0.13106
G1 X76.004 Y136.340 E0.14378
G1 X75.462 Y136.325 E0.01700
G1 X74.928 Y136.280 E0.01682
G1 X74.129 Y136.156 E0.02534
G1 X73.344 Y135.965 E0.02534
G1 X72.834 Y135.802 E0.01677
G1 X72.082 Y135.503 E0.02539
G1 X71.600 Y135.271 E0.01677
G1 X70.898 Y134.870 E0.02534
G1 X70.232 Y134.412 E0.02534
G1 X69.814 Y134.078 E0.01677
G1 X69.219 Y133.531 E0.02534
G1 X68.672 Y132.936 E0.02534
G1 X68.338 Y132.517 E0.01682
G1 X68.027 Y132.079 E0.01682
G1 X67.606 Y131.388 E0.02539
G1 X67.360 Y130.912 E0.01677
G1 X67.041 Y130.170 E0.02534
G1 X66.785 Y129.405 E0.02529
G1 X66.594 Y128.619 E0.02534
G1 X66.505 Y128.092 E0.01677
G1 X66.425 Y127.286 E0.02539
G1 X66.410 Y126.746 E0.01696
G1 X66.410 Y53.256 E2.30422
G1 X66.444 Y52.444 E0.02548
G1 X66.546 Y51.644 E0.02529
G1 X66.714 Y50.855 E0.02529
G1 X66.949 Y50.081 E0.02534
G1 X67.140 Y49.580 E0.01682
G1 X67.360 Y49.089 E0.01687
G1 X67.606 Y48.612 E0.01682
G1 X68.026 Y47.922 E0.02534
G1 X68.503 Y47.270 E0.02534
G1 X68.849 Y46.860 E0.01682
G1 X69.218 Y46.470 E0.01682
G1 X69.814 Y45.922 E0.02539
G1 X70.232 Y45.588 E0.01677
G1 X70.898 Y45.130 E0.02534
G1 X71.600 Y44.729 E0.02534
G1 X72.083 Y44.497 E0.01682
G1 X72.580 Y44.291 E0.01687
G1 X73.086 Y44.113 E0.01682
G1 X73.867 Y43.900 E0.02539
G1 X74.392 Y43.796 E0.01677
G1 X75.194 Y43.694 E0.02534
G1 X76.006 Y43.660 E0.02548
G1 X104.242 Y43.664 E0.88534
G1 X105.074 Y43.721 E0.02613
G1 X105.871 Y43.844 E0.02529
G1 X106.655 Y44.035 E0.02529
G1 X107.420 Y44.291 E0.02529
G1 X108.161 Y44.610 E0.02529
G1 X108.872 Y44.990 E0.02529
G1 X109.551 Y45.430 E0.02534
G1 X109.979 Y45.752 E0.01682
G1 X110.389 Y46.098 E0.01682
G1 X110.969 Y46.662 E0.02534
G1 X111.498 Y47.271 E0.02529
G1 X111.974 Y47.923 E0.02534
G1 X112.260 Y48.378 E0.01682
G1 X112.519 Y48.847 E0.01682
G1 X112.860 Y49.581 E0.02539
G1 X113.052 Y50.083 E0.01682
G1 X113.207 Y50.570 E0.01603
G1 X113.406 Y51.379 E0.02613
G1 X113.530 Y52.178 E0.02534
G1 X113.575 Y52.712 E0.01682
G1 X113.590 Y53.254 E0.01700
G1 X113.590 Y126.744 E2.30422
M73 P4 R30
G1 X113.556 Y127.556 E0.02548
G1 X113.454 Y128.356 E0.02529
G1 X113.286 Y129.145 E0.02529
G1 X113.052 Y129.917 E0.02529
G1 X112.753 Y130.668 E0.02534
G1 X112.520 Y131.152 E0.01682
G1 X112.261 Y131.621 E0.01682
G1 X111.820 Y132.301 E0.02539
G1 X111.498 Y132.729 E0.01682
G1 X111.151 Y133.140 E0.01687
G1 X110.781 Y133.531 E0.01687
G1 X110.391 Y133.900 E0.01682
G1 X109.767 Y134.412 E0.02534
G1 X109.101 Y134.871 E0.02534
G1 X108.639 Y135.143 E0.01682
G1 X108.162 Y135.390 E0.01682
G1 X107.420 Y135.709 E0.02534
G1 X106.655 Y135.965 E0.02529
G1 X105.871 Y136.156 E0.02529
G1 X105.072 Y136.280 E0.02534
G1 X104.538 Y136.325 E0.01682
G1 X103.996 Y136.340 E0.01700
G1 X99.410 Y136.340 E0.14378
G1 X99.410 Y132.160 E0.13106
G1 X109.350 Y132.160 E0.31166
M204 S1250
G1 X109.807 Y132.107 F9000.000
G1 E-2.24000 F4200.000
;WIPE_START
G1 F7200.000
G1 X109.351 Y130.514 E-0.91200
;WIPE_END
G1 E-0.04800 F4200.000
G1 Z0.400 F9000.000
G1 X109.083 Y45.711
G1 Z0.200
G1 E3.20000 F2400.000
M204 S800
;TYPE:Solid infill
;WIDTH:0.421087
G1 F1200.000
G1 X110.493 Y47.121 E0.06269
G1 X110.981 Y47.683 E0.02340
G1 X111.428 Y48.294 E0.02381
G1 X111.865 Y49.028 E0.02686
G1 X108.236 Y45.398 E0.16141
G1 X107.874 Y45.205 E0.01288
G1 X107.230 Y44.928 E0.02205
G1 X109.483 Y47.180 E0.10017
G1 X108.948 Y47.180 E0.01682
G1 X106.426 Y44.659 E0.11213
G1 X105.722 Y44.489 E0.02278
G1 X108.413 Y47.180 E0.11967
G1 X107.878 Y47.180 E0.01682
G1 X105.089 Y44.391 E0.12405
G1 X105.000 Y44.377 E0.00282
G1 X104.507 Y44.343 E0.01557
G1 X107.344 Y47.180 E0.12616
G1 X106.809 Y47.180 E0.01682
G1 X103.952 Y44.323 E0.12704
G1 X103.417 Y44.323 E0.01682
G1 X106.274 Y47.180 E0.12704
G1 X105.739 Y47.180 E0.01682
G1 X102.882 Y44.323 E0.12704
G1 X102.347 Y44.323 E0.01682
G1 X105.204 Y47.180 E0.12705
G1 X104.670 Y47.180 E0.01682
G1 X101.812 Y44.323 E0.12705
G1 X101.278 Y44.323 E0.01682
G1 X104.135 Y47.180 E0.12705
G1 X103.600 Y47.180 E0.01682
G1 X100.743 Y44.323 E0.12706
G1 X100.208 Y44.323 E0.01682
G1 X103.065 Y47.180 E0.12706
G1 X102.530 Y47.180 E0.01682
G1 X99.673 Y44.323 E0.12706
G1 X99.138 Y44.323 E0.01682
G1 X101.995 Y47.180 E0.12707
G1 X101.461 Y47.180 E0.01682
G1 X98.603 Y44.323 E0.12707
G1 X98.068 Y44.323 E0.01682
G1 X100.926 Y47.180 E0.12707
G1 X100.391 Y47.180 E0.01682
G1 X97.533 Y44.323 E0.12707
G1 X96.999 Y44.322 E0.01682
G1 X99.856 Y47.180 E0.12708
G1 X99.321 Y47.180 E0.01682
G1 X96.464 Y44.322 E0.12708
G1 X95.929 Y44.322 E0.01682
G1 X98.787 Y47.180 E0.12708
G1 X98.252 Y47.180 E0.01682
G1 X95.394 Y44.322 E0.12709
G1 X94.859 Y44.322 E0.01682
G1 X97.717 Y47.180 E0.12709
G1 X97.182 Y47.180 E0.01682
G1 X94.324 Y44.322 E0.12709
G1 X93.789 Y44.322 E0.01682
G1 X96.647 Y47.180 E0.12710
G1 X96.113 Y47.180 E0.01682
G1 X93.254 Y44.322 E0.12710
G1 X92.720 Y44.322 E0.01682
G1 X95.578 Y47.180 E0.12710
G1 X95.043 Y47.180 E0.01682
G1 X92.185 Y44.322 E0.12710
G1 X91.650 Y44.322 E0.01682
G1 X94.508 Y47.180 E0.12711
G1 X93.973 Y47.180 E0.01682
G1 X91.115 Y44.322 E0.12711
G1 X90.580 Y44.322 E0.01682
G1 X93.439 Y47.180 E0.12711
G1 X92.904 Y47.180 E0.01682
G1 X90.045 Y44.322 E0.12712
G1 X89.510 Y44.322 E0.01682
G1 X92.369 Y47.180 E0.12712
G1 X91.834 Y47.180 E0.01682
G1 X88.975 Y44.321 E0.12712
G1 X88.441 Y44.321 E0.01682
G1 X91.299 Y47.180 E0.12712
G1 X90.764 Y47.180 E0.01682
G1 X87.906 Y44.321 E0.12713
G1 X87.371 Y44.321 E0.01682
G1 X90.230 Y47.180 E0.12713
G1 X89.695 Y47.180 E0.01682
G1 X86.836 Y44.321 E0.12713
G1 X86.301 Y44.321 E0.01682
G1 X89.160 Y47.180 E0.12714
G1 X88.625 Y47.180 E0.01682
G1 X85.766 Y44.321 E0.12714
G1 X85.231 Y44.321 E0.01682
G1 X88.090 Y47.180 E0.12714
G1 X87.556 Y47.180 E0.01682
G1 X84.696 Y44.321 E0.12715
G1 X84.162 Y44.321 E0.01682
G1 X87.021 Y47.180 E0.12715
G1 X86.486 Y47.180 E0.01682
G1 X83.627 Y44.321 E0.12715
G1 X83.092 Y44.321 E0.01682
G1 X85.951 Y47.180 E0.12715
G1 X85.416 Y47.180 E0.01682
G1 X82.557 Y44.321 E0.12716
G1 X82.022 Y44.321 E0.01682
G1 X84.882 Y47.180 E0.12716
G1 X84.347 Y47.180 E0.01682
G1 X81.487 Y44.321 E0.12716
G1 X80.952 Y44.320 E0.01682
G1 X83.812 Y47.180 E0.12717
G1 X83.277 Y47.180 E0.01682
G1 X80.417 Y44.320 E0.12717
G1 X79.883 Y44.320 E0.01682
G1 X82.742 Y47.180 E0.12717
G1 X82.208 Y47.180 E0.01682
G1 X79.348 Y44.320 E0.12718
G1 X78.813 Y44.320 E0.01682
G1 X81.673 Y47.180 E0.12718
G1 X81.138 Y47.180 E0.01682
G1 X78.278 Y44.320 E0.12718
G1 X77.743 Y44.320 E0.01682
G1 X80.603 Y47.180 E0.12718
M73 P5 R30
G1 X80.068 Y47.180 E0.01682
G1 X77.208 Y44.320 E0.12719
G1 X76.673 Y44.320 E0.01682
G1 X79.534 Y47.180 E0.12719
G1 X78.999 Y47.180 E0.01682
G1 X76.138 Y44.320 E0.12719
G1 X75.620 Y44.337 E0.01630
G1 X78.464 Y47.180 E0.12645
G1 X77.929 Y47.180 E0.01682
G1 X75.118 Y44.369 E0.12501
G1 X74.643 Y44.429 E0.01504
G1 X77.394 Y47.180 E0.12233
G1 X76.859 Y47.180 E0.01682
G1 X74.189 Y44.509 E0.11877
G1 X74.019 Y44.543 E0.00544
G1 X73.759 Y44.614 E0.00849
G1 X76.325 Y47.180 E0.11411
G1 X75.790 Y47.180 E0.01682
G1 X73.338 Y44.729 E0.10901
G1 X72.939 Y44.864 E0.01326
G1 X75.255 Y47.180 E0.10299
G1 X74.720 Y47.180 E0.01682
G1 X72.555 Y45.015 E0.09628
G1 X72.185 Y45.180 E0.01274
G1 X74.185 Y47.180 E0.08895
G1 X73.651 Y47.180 E0.01682
G1 X71.829 Y45.358 E0.08101
G1 X71.488 Y45.553 E0.01233
G1 X73.116 Y47.180 E0.07237
G1 X72.581 Y47.180 E0.01682
G1 X71.155 Y45.754 E0.06341
G1 X70.838 Y45.972 E0.01209
G1 X72.046 Y47.180 E0.05371
G1 X71.511 Y47.180 E0.01682
G1 X70.528 Y46.197 E0.04373
G1 X70.231 Y46.435 E0.01196
G1 X70.977 Y47.180 E0.03314
G1 X70.442 Y47.180 E0.01682
G1 X69.953 Y46.691 E0.02175
G1 X69.674 Y46.948 E0.01190
G1 X69.930 Y47.203 E0.01137
G1 X69.930 Y47.738 E0.01682
G1 X69.415 Y47.223 E0.02293
G1 X69.165 Y47.508 E0.01192
G1 X69.930 Y48.273 E0.03400
G1 X69.930 Y48.808 E0.01682
G1 X68.929 Y47.806 E0.04454
G1 X68.703 Y48.115 E0.01203
G1 X69.930 Y49.343 E0.05458
G1 X69.930 Y49.877 E0.01682
G1 X68.487 Y48.434 E0.06417
G1 X68.285 Y48.767 E0.01224
G1 X69.930 Y50.412 E0.07317
G1 X69.930 Y50.947 E0.01682
G1 X68.092 Y49.109 E0.08173
G1 X67.955 Y49.376 E0.00943
G1 X67.914 Y49.466 E0.00311
G1 X69.930 Y51.482 E0.08965
G1 X69.930 Y52.017 E0.01682
G1 X67.749 Y49.835 E0.09700
G1 X67.601 Y50.222 E0.01303
G1 X69.930 Y52.551 E0.10357
G1 X69.930 Y53.086 E0.01682
G1 X67.472 Y50.628 E0.10929
G1 X67.349 Y51.040 E0.01351
G1 X69.930 Y53.621 E0.11477
G1 X69.930 Y54.156 E0.01682
G1 X67.255 Y51.481 E0.11895
G1 X67.174 Y51.934 E0.01449
G1 X69.930 Y54.691 E0.12257
G1 X69.930 Y55.225 E0.01682
G1 X67.114 Y52.409 E0.12524
G1 X67.085 Y52.915 E0.01593
G1 X69.930 Y55.760 E0.12653
G1 X69.930 Y56.295 E0.01682
G1 X67.070 Y53.435 E0.12719
G1 X67.070 Y53.970 E0.01682
G1 X69.930 Y56.830 E0.12719
G1 X69.930 Y57.365 E0.01682
G1 X67.070 Y54.504 E0.12719
G1 X67.070 Y55.039 E0.01682
G1 X69.930 Y57.899 E0.12719
G1 X69.930 Y58.434 E0.01682
G1 X67.070 Y55.574 E0.12719
G1 X67.070 Y56.109 E0.01682
G1 X69.930 Y58.969 E0.12719
G1 X69.930 Y59.504 E0.01682
G1 X67.070 Y56.644 E0.12719
G1 X67.070 Y57.178 E0.01682
G1 X69.930 Y60.039 E0.12719
G1 X69.930 Y60.574 E0.01682
G1 X67.070 Y57.713 E0.12719
G1 X67.070 Y58.248 E0.01682
G1 X69.930 Y61.108 E0.12719
G1 X69.930 Y61.643 E0.01682
G1 X67.070 Y58.783 E0.12719
G1 X67.070 Y59.318 E0.01682
G1 X69.930 Y62.178 E0.12719
G1 X69.930 Y62.713 E0.01682
G1 X67.070 Y59.853 E0.12719
G1 X67.070 Y60.387 E0.01682
G1 X69.930 Y63.248 E0.12719
G1 X69.930 Y63.782 E0.01682
G1 X67.070 Y60.922 E0.12719
G1 X67.070 Y61.457 E0.01682
G1 X69.930 Y64.317 E0.12719
G1 X69.930 Y64.852 E0.01682
G1 X67.070 Y61.992 E0.12719
G1 X67.070 Y62.527 E0.01682
G1 X69.930 Y65.387 E0.12719
G1 X69.930 Y65.922 E0.01682
G1 X67.070 Y63.061 E0.12719
G1 X67.070 Y63.596 E0.01682
G1 X69.930 Y66.456 E0.12719
