; generated by PrusaSlicer 2.3.0+win64 on 2021-06-29 at 12:56:04 UTC


;
;

;
;
; 

; external perimeters extrusion width = 0.45mm
; perimeters extrusion width = 0.45mm
; infill extrusion width = 0.45mm
; solid infill extrusion width = 0.45mm
; top infill extrusion width = 0.40mm
; first layer extrusion width = 0.42mm

M73 P0 R53
M201 X1250 Y1250 Z400 E5000 ; sets maximum accelerations, mm/sec^2
M203 X180 Y180 Z12 E80 ; sets maximum feedrates, mm/sec
M204 P1250 R1250 T1250 ; sets acceleration (P, T) and retract acceleration (R), mm/sec^2
M205 X8.00 Y8.00 Z2.00 E10.00 ; sets the jerk limits, mm/sec
M205 S0 T0 ; sets the minimum extruding and travel feed rate, mm/sec
M107
;TYPE:Custom
G90 ; use absolute coordinates
M83 ; extruder relative mode
M104 S170 ; set extruder temp for bed leveling
M140 S60 ; set bed temp
M109 R170 ; wait for bed leveling temp
M190 S60 ; wait for bed temp
G28 ; home all without mesh bed level
G29 ; mesh bed leveling 
M104 S215 ; set extruder temp
G92 E0.0
G1 Y-2.0 X179 F2400
G1 Z3 F720
M109 S215 ; wait for extruder temp

; intro line
G1 X170 F1000
G1 Z0.2 F720
G1 X110.0 E8.0 F900
G1 X40.0 E10.0 F700
G92 E0.0

M221 S95 ; set flow
G21 ; set units to millimeters
G90 ; use absolute coordinates
M83 ; use relative distances for extrusion
M900 K0.2 ; Filament gcode LA 1.5
; ; Filament gcode LA 1.0
;LAYER_CHANGE
;Z:0.2
;HEIGHT:0.2
;BEFORE_LAYER_CHANGE
G92 E0.0
;0.2


G1 E-3.20000 F4200.000
G1 Z0.200 F9000.000
;AFTER_LAYER_CHANGE
;0.2
G1 Z0.400
G1 X54.920 Y41.626
G1 Z0.200
G1 E3.20000 F2400.000
M204 S800
;TYPE:Skirt
;WIDTH:0.42
G1 F1200.000
G1 X55.518 Y40.583 E0.03771
G1 X56.465 Y39.525 E0.04453
G1 X57.553 Y38.657 E0.04364
G1 X59.144 Y37.704 E0.05814
G1 X60.826 Y36.923 E0.05815
G1 X62.875 Y36.159 E0.06856
G1 X64.904 Y35.540 E0.06651
G1 X67.674 Y34.851 E0.08949
G1 X70.162 Y34.347 E0.07960
G1 X73.578 Y33.795 E0.10849
G1 X76.537 Y33.423 E0.09352
G1 X82.988 Y32.899 E0.20291
G1 X90.083 Y32.712 E0.22254
G1 X96.817 Y32.889 E0.21123
G1 X103.138 Y33.388 E0.19881
G1 X106.043 Y33.742 E0.09175
G1 X109.353 Y34.260 E0.10502
G1 X111.793 Y34.735 E0.07794
G1 X114.461 Y35.367 E0.08597
G1 X116.780 Y36.046 E0.07578
G1 X118.759 Y36.754 E0.06591
G1 X120.424 Y37.486 E0.05700
G1 X121.893 Y38.294 E0.05257
G1 X123.038 Y39.098 E0.04389
G1 X124.053 Y40.052 E0.04367
G1 X124.742 Y40.975 E0.03614
G1 X125.227 Y42.006 E0.03571
G1 X125.419 Y42.778 E0.02492
G1 X125.476 Y43.486 E0.02230
G1 X125.476 Y136.492 E2.91612
G1 X125.413 Y137.239 E0.02353
G1 X125.229 Y137.971 E0.02364
G1 X124.942 Y138.651 E0.02314
G1 X124.495 Y139.382 E0.02690
G1 X123.986 Y140.006 E0.02522
G1 X122.599 Y141.218 E0.05775
G1 X120.726 Y142.346 E0.06858
G1 X118.279 Y143.415 E0.08372
G1 X115.522 Y144.322 E0.09098
G1 X112.264 Y145.146 E0.10539
G1 X108.417 Y145.884 E0.12281
G1 X104.147 Y146.483 E0.13518
G1 X99.447 Y146.929 E0.14803
G1 X95.246 Y147.167 E0.13194
G1 X90.361 Y147.271 E0.15320
G1 X78.185 Y146.728 E0.38213
G1 X75.168 Y146.399 E0.09516
G1 X71.750 Y145.911 E0.10828
G1 X68.052 Y145.215 E0.11797
G1 X64.443 Y144.312 E0.11664
G1 X61.511 Y143.335 E0.09693
G1 X59.219 Y142.318 E0.07861
G1 X57.399 Y141.217 E0.06669
G1 X56.619 Y140.597 E0.03124
G1 X55.955 Y139.940 E0.02929
G1 X55.411 Y139.247 E0.02763
G1 X55.050 Y138.636 E0.02225
G1 X54.739 Y137.874 E0.02580
G1 X54.581 Y137.203 E0.02161
G1 X54.524 Y136.495 E0.02228
G1 X54.524 Y43.492 E2.91605
M73 P1 R53
G1 X54.587 Y42.742 E0.02359
G1 X54.902 Y41.684 E0.03461
M204 S1250
; printing object ToiletRoll_LidJoinForm03.stl id:0 copy 0
G1 E-2.24000 F4200.000
;WIPE_START
G1 F7200.000
G1 X55.518 Y40.583 E-0.69895
G1 X55.775 Y40.297 E-0.21305
;WIPE_END
G1 E-0.04800 F4200.000
G1 Z0.400 F9000.000
G1 X105.535 Y142.218
G1 Z0.200
G1 E3.20000 F2400.000
M204 S800
;TYPE:External perimeter
;WIDTH:0.29292
G1 F1200.000
G1 X105.535 Y137.482 E0.09847
G1 X105.513 Y137.378 E0.00220
G1 X105.410 Y137.357 E0.00220
G1 X62.860 Y137.357 E0.88451
G1 X62.756 Y137.335 E0.00220
G1 X62.735 Y137.232 E0.00220
G1 X62.735 Y49.732 E1.81891
G1 X62.756 Y49.628 E0.00220
G1 X62.860 Y49.607 E0.00220
G1 X105.410 Y49.607 E0.88451
G1 X105.513 Y49.585 E0.00220
G1 X105.535 Y49.482 E0.00220
G1 X105.524 Y37.758 E0.24370
M204 S1250
M204 S800
;WIDTH:0.190862
G1 X105.410 Y37.627 E0.00214
M204 S1250
G1 E-2.24000 F4200.000
;WIPE_START
G1 F7200.000
G1 X105.524 Y37.758 E-0.09636
;WIPE_END
G1 E-0.86364 F4200.000
G1 Z0.400 F9000.000
G1 X75.842 Y36.387
G1 Z0.200
G1 E3.20000 F2400.000
M204 S800
;WIDTH:0.42
G1 F1200.000
G1 X75.664 Y37.038 E0.02117
G1 X74.211 Y37.214 E0.04590
G1 X72.252 Y37.511 E0.06212
G1 X70.411 Y37.836 E0.05861
G1 X68.732 Y38.177 E0.05372
G1 X67.174 Y38.540 E0.05017
G1 X65.309 Y39.043 E0.06056
G1 X64.076 Y39.429 E0.04052
G1 X62.657 Y39.941 E0.04730
G1 X61.668 Y40.357 E0.03364
G1 X60.647 Y40.859 E0.03565
M73 P1 R52
G1 X60.015 Y41.224 E0.02291
G1 X59.323 Y41.699 E0.02631
G1 X58.809 Y42.143 E0.02129
G1 X58.452 Y42.547 E0.01691
G1 X58.316 Y42.748 E0.00762
G1 X58.176 Y43.025 E0.00973
G1 X58.097 Y43.298 E0.00889
G1 X58.082 Y43.478 E0.00568
G1 X58.082 Y136.505 E2.91679
G1 X58.097 Y136.684 E0.00563
G1 X58.174 Y136.953 E0.00875
G1 X58.264 Y137.146 E0.00669
G1 X58.451 Y137.435 E0.01079
G1 X58.619 Y137.640 E0.00830
G1 X58.932 Y137.957 E0.01397
G1 X59.192 Y138.179 E0.01072
G1 X59.861 Y138.661 E0.02585
G1 X60.730 Y139.168 E0.03154
G1 X61.567 Y139.580 E0.02927
G1 X62.501 Y139.980 E0.03186
G1 X63.611 Y140.396 E0.03715
G1 X64.878 Y140.811 E0.04180
G1 X66.289 Y141.215 E0.04603
G1 X67.644 Y141.558 E0.04382
G1 X69.321 Y141.931 E0.05388
G1 X71.166 Y142.286 E0.05892
G1 X72.466 Y142.507 E0.04132
G1 X74.516 Y142.811 E0.06498
G1 X75.664 Y142.945 E0.03626
G1 X75.842 Y143.597 E0.02117
G1 X76.937 Y143.610 E0.03435
G1 X77.862 Y143.658 E0.02904
G1 X77.973 Y143.680 E0.00355
G1 X77.960 Y143.971 E0.00914
G1 X77.642 Y144.026 E0.01012
G1 X76.575 Y143.960 E0.03352
G1 X75.870 Y143.878 E0.02224
G1 X75.545 Y143.822 E0.01035
G1 X75.222 Y143.691 E0.01092
G1 X74.866 Y143.584 E0.01166
G1 X74.512 Y143.512 E0.01134
G1 X72.834 Y143.261 E0.05320
G1 X70.956 Y142.948 E0.05970
G1 X69.192 Y142.608 E0.05631
G1 X67.583 Y142.253 E0.05166
G1 X66.104 Y141.882 E0.04781
G1 X64.773 Y141.503 E0.04339
G1 X63.564 Y141.115 E0.03983
G1 X62.504 Y140.731 E0.03533
G1 X61.552 Y140.340 E0.03228
G1 X60.478 Y139.831 E0.03727
G1 X59.598 Y139.335 E0.03165
G1 X58.878 Y138.845 E0.02731
G1 X58.336 Y138.392 E0.02218
G1 X58.121 Y138.179 E0.00948
G1 X57.849 Y137.864 E0.01304
G1 X57.707 Y137.666 E0.00764
G1 X57.538 Y137.379 E0.01044
G1 X57.421 Y137.105 E0.00936
G1 X57.348 Y136.841 E0.00858
G1 X57.311 Y136.479 E0.01140
G1 X57.311 Y43.499 E2.91531
G1 X57.325 Y43.285 E0.00674
G1 X57.407 Y42.919 E0.01174
G1 X57.578 Y42.531 E0.01331
G1 X57.857 Y42.110 E0.01585
G1 X58.141 Y41.784 E0.01356
G1 X58.514 Y41.431 E0.01610
G1 X58.969 Y41.071 E0.01819
G1 X59.543 Y40.683 E0.02171
G1 X60.204 Y40.297 E0.02402
G1 X61.002 Y39.893 E0.02802
G1 X61.584 Y39.629 E0.02004
G1 X62.608 Y39.213 E0.03466
G1 X63.367 Y38.937 E0.02533
G1 X64.297 Y38.627 E0.03074
G1 X65.194 Y38.356 E0.02937
G1 X66.668 Y37.955 E0.04790
G1 X67.730 Y37.696 E0.03430
G1 X69.446 Y37.324 E0.05506
G1 X70.661 Y37.089 E0.03878
G1 X72.612 Y36.757 E0.06205
G1 X74.694 Y36.440 E0.06603
G1 X75.066 Y36.350 E0.01201
G1 X75.416 Y36.216 E0.01176
G1 X75.745 Y36.120 E0.01074
G1 X76.820 Y36.001 E0.03390
G1 X81.112 Y35.804 E0.13471
G1 X83.951 Y35.641 E0.08917
G1 X85.595 Y35.574 E0.05160
G1 X88.094 Y35.513 E0.07837
G1 X90.919 Y35.502 E0.08859
G1 X92.587 Y35.525 E0.05229
G1 X95.050 Y35.597 E0.07726
G1 X97.476 Y35.717 E0.07616
G1 X99.836 Y35.880 E0.07418
G1 X102.105 Y36.083 E0.07142
G1 X104.277 Y36.324 E0.06853
G1 X106.332 Y36.597 E0.06499
G1 X108.258 Y36.899 E0.06114
G1 X110.056 Y37.225 E0.05729
G1 X111.742 Y37.576 E0.05400
G1 X113.274 Y37.940 E0.04936
G1 X115.089 Y38.438 E0.05904
G1 X116.331 Y38.833 E0.04086
G1 X117.738 Y39.348 E0.04696
G1 X118.933 Y39.863 E0.04082
G1 X119.920 Y40.366 E0.03473
G1 X120.428 Y40.664 E0.01847
G1 X120.964 Y41.022 E0.02023
G1 X121.410 Y41.367 E0.01767
G1 X121.778 Y41.701 E0.01559
G1 X122.068 Y42.017 E0.01344
G1 X122.357 Y42.417 E0.01547
G1 X122.505 Y42.696 E0.00991
G1 X122.634 Y43.061 E0.01213
G1 X122.680 Y43.321 E0.00829
G1 X122.689 Y43.499 E0.00559
G1 X122.689 Y52.749 E0.29001
G1 X121.961 Y52.749 E0.02282
G1 X121.961 Y51.413 E0.04190
G1 X121.918 Y51.413 E0.00134
G1 X121.915 Y43.393 E0.25144
G1 X121.841 Y43.067 E0.01050
G1 X121.676 Y42.734 E0.01166
G1 X121.444 Y42.416 E0.01232
G1 X121.137 Y42.091 E0.01405
G1 X120.738 Y41.748 E0.01650
G1 X120.247 Y41.393 E0.01899
G1 X119.653 Y41.026 E0.02190
G1 X118.914 Y40.632 E0.02624
G1 X118.058 Y40.236 E0.02957
G1 X117.383 Y39.957 E0.02292
G1 X116.250 Y39.539 E0.03784
G1 X115.417 Y39.264 E0.02751
G1 X113.560 Y38.728 E0.06063
G1 X111.419 Y38.211 E0.06903
G1 X109.639 Y37.846 E0.05698
G1 X108.381 Y37.618 E0.04009
G1 X107.067 Y37.403 E0.04174
G1 X106.375 Y37.319 E0.02187
G1 X105.993 Y37.317 E0.01197
G1 X105.551 Y37.420 E0.01422
G1 X105.310 Y37.223 E0.00974
G1 X104.604 Y37.062 E0.02272
G1 X101.593 Y36.723 E0.09499
G1 X99.257 Y36.523 E0.07351
G1 X96.410 Y36.348 E0.08944
G1 X96.410 Y36.185 E0.00513
G1 X81.497 Y36.187 E0.46758
M73 P2 R52
G1 X79.992 Y36.229 E0.04720
G1 X76.994 Y36.370 E0.09412
G1 X75.902 Y36.386 E0.03424
M204 S1250
G1 X75.447 Y36.321 F9000.000
G1 E-2.24000 F4200.000
;WIPE_START
G1 F7200.000
G1 X75.664 Y37.038 E-0.38463
G1 X74.719 Y37.153 E-0.52737
;WIPE_END
G1 E-0.04800 F4200.000
G1 Z0.400 F9000.000
G1 X121.961 Y128.033
G1 Z0.200
G1 E3.20000 F2400.000
M204 S800
G1 F1200.000
G1 X122.689 Y128.033 E0.02282
G1 X122.689 Y136.483 E0.26495
G1 X122.673 Y136.720 E0.00745
G1 X122.585 Y137.088 E0.01188
G1 X122.464 Y137.374 E0.00973
G1 X122.205 Y137.791 E0.01537
G1 X121.932 Y138.122 E0.01345
G1 X121.577 Y138.472 E0.01564
G1 X121.145 Y138.827 E0.01752
G1 X120.593 Y139.214 E0.02115
G1 X120.190 Y139.463 E0.01485
G1 X119.461 Y139.863 E0.02607
G1 X118.903 Y140.135 E0.01947
G1 X117.980 Y140.538 E0.03155
G1 X117.275 Y140.815 E0.02377
G1 X116.090 Y141.231 E0.03938
G1 X115.225 Y141.504 E0.02843
G1 X113.288 Y142.040 E0.06301
G1 X111.091 Y142.549 E0.07070
G1 X108.650 Y143.017 E0.07794
G1 X105.950 Y143.441 E0.08569
G1 X103.088 Y143.798 E0.09044
G1 X100.009 Y144.090 E0.09695
G1 X97.605 Y144.259 E0.07558
G1 X94.332 Y144.412 E0.10273
G1 X90.770 Y144.481 E0.11170
G1 X90.770 Y143.799 E0.02140
G1 X96.410 Y143.799 E0.17684
G1 X96.410 Y143.636 E0.00511
G1 X98.833 Y143.491 E0.07610
G1 X101.888 Y143.232 E0.09614
G1 X104.426 Y142.945 E0.08010
G1 X104.788 Y142.883 E0.01150
G1 X105.161 Y142.781 E0.01212
G1 X105.559 Y142.566 E0.01420
G1 X105.997 Y142.666 E0.01407
G1 X106.369 Y142.663 E0.01169
G1 X107.361 Y142.535 E0.03134
G1 X109.767 Y142.113 E0.07660
G1 X111.969 Y141.649 E0.07055
G1 X113.929 Y141.156 E0.06337
G1 X114.809 Y140.906 E0.02868
G1 X116.027 Y140.520 E0.04007
G1 X116.761 Y140.263 E0.02438
G1 X117.765 Y139.872 E0.03378
G1 X118.352 Y139.617 E0.02005
G1 X119.135 Y139.239 E0.02728
G1 X119.801 Y138.871 E0.02383
G1 X120.359 Y138.514 E0.02079
G1 X120.826 Y138.165 E0.01827
G1 X121.188 Y137.843 E0.01519
G1 X121.474 Y137.531 E0.01329
G1 X121.683 Y137.238 E0.01127
G1 X121.836 Y136.929 E0.01081
G1 X121.915 Y136.597 E0.01071
G1 X121.918 Y129.233 E0.23089
G1 X121.961 Y129.233 E0.00134
G1 X121.961 Y128.093 E0.03574
M204 S1250
G1 X122.305 Y128.237 F9000.000
G1 X122.325 Y128.221
M204 S800
;TYPE:Gap fill
;WIDTH:0.393658
G1 F1200.000
G1 X122.325 Y129.421 E0.03500
M204 S1250
M204 S800
;WIDTH:0.439678
G1 X122.303 Y129.544 E0.00410
G1 X122.297 Y136.619 E0.23341
M204 S1250
M204 S800
;WIDTH:0.342353
G1 X122.182 Y137.077 E0.01175
G1 X122.006 Y137.415 E0.00950
G1 X121.902 Y137.573 E0.00471
G1 X121.660 Y137.873 E0.00958
G1 X121.447 Y138.094 E0.00764
G1 X121.046 Y138.446 E0.01330
G1 X120.556 Y138.808 E0.01518
G1 X119.977 Y139.177 E0.01709
G1 X119.293 Y139.553 E0.01943
G1 X118.500 Y139.932 E0.02189
G1 X117.895 Y140.195 E0.01642
G1 X116.883 Y140.586 E0.02700
G1 X115.980 Y140.901 E0.02383
G1 X114.906 Y141.236 E0.02801
G1 X113.202 Y141.700 E0.04397
G1 X111.019 Y142.206 E0.05579
G1 X109.829 Y142.446 E0.03022
G1 X107.408 Y142.870 E0.06118
M204 S1250
M204 S800
;WIDTH:0.37121
G1 X106.384 Y143.016 E0.02825
M204 S1250
M204 S800
;WIDTH:0.40115
G1 X106.181 Y143.032 E0.00607
M204 S1250
M204 S800
;WIDTH:0.431088
G1 X105.978 Y143.049 E0.00658
M204 S1250
M204 S800
;WIDTH:0.443397
G1 X105.931 Y143.050 E0.00155
M204 S1250
M204 S800
;WIDTH:0.45716
G1 X105.895 Y143.049 E0.00125
M204 S1250
M204 S800
;WIDTH:0.504657
G1 X105.759 Y143.042 E0.00523
M204 S1250
M204 S800
;WIDTH:0.552156
G1 X105.623 Y143.035 E0.00577
G1 X105.523 Y143.067 E0.00441
M204 S1250
M204 S800
;WIDTH:0.425663
G1 X105.077 Y143.182 E0.01467
M204 S1250
M204 S800
;WIDTH:0.31985
G1 X104.470 Y143.283 E0.01417
G1 X101.919 Y143.569 E0.05910
G1 X98.859 Y143.830 E0.07072
G1 X96.751 Y143.957 E0.04862
G1 X96.723 Y143.987 E0.00095
M204 S1250
M204 S800
;WIDTH:0.208514
G1 X96.599 Y144.052 E0.00193
G1 X95.839 Y144.070 E0.01046
M204 S1250
M204 S800
;WIDTH:0.244034
G1 X95.080 Y144.088 E0.01270
M204 S1250
M204 S800
;WIDTH:0.279554
G1 X94.321 Y144.105 E0.01494
M204 S1250
M204 S800
;WIDTH:0.309187
G1 X93.074 Y144.120 E0.02762
M204 S1250
M204 S800
;WIDTH:0.345188
G1 X90.959 Y144.139 E0.05316
M204 S1250
G1 E-2.24000 F4200.000
;WIPE_START
G1 F7200.000
G1 X92.604 Y144.124 E-0.91200
;WIPE_END
G1 E-0.04800 F4200.000
G1 Z0.400 F9000.000
G1 X75.659 Y143.645
G1 Z0.200
G1 E3.20000 F2400.000
M204 S800
;WIDTH:0.464713
G1 F1200.000
G1 X75.342 Y143.310 E0.01618
G1 X75.153 Y143.271 E0.00680
M204 S1250
M204 S800
;WIDTH:0.349207
G1 X71.017 Y142.608 E0.10667
G1 X69.262 Y142.270 E0.04551
G1 X67.663 Y141.916 E0.04172
G1 X66.197 Y141.548 E0.03849
G1 X64.874 Y141.171 E0.03503
G1 X63.677 Y140.785 E0.03204
G1 X62.631 Y140.404 E0.02835
G1 X61.694 Y140.018 E0.02579
G1 X60.569 Y139.480 E0.03177
G1 X59.675 Y138.961 E0.02631
G1 X58.977 Y138.464 E0.02184
G1 X58.683 Y138.214 E0.00982
G1 X58.389 Y137.928 E0.01044
G1 X58.147 Y137.644 E0.00951
G1 X58.021 Y137.461 E0.00565
G1 X57.876 Y137.208 E0.00743
G1 X57.783 Y136.977 E0.00634
G1 X57.725 Y136.770 E0.00548
G1 X57.697 Y136.460 E0.00794
G1 X57.707 Y43.339 E2.37157
G1 X57.773 Y43.040 E0.00781
G1 X57.821 Y42.905 E0.00365
G1 X58.005 Y42.552 E0.01013
G1 X58.154 Y42.330 E0.00680
G1 X58.408 Y42.040 E0.00984
G1 X58.754 Y41.708 E0.01221
G1 X59.181 Y41.361 E0.01402
G1 X59.832 Y40.923 E0.01997
G1 X60.487 Y40.547 E0.01923
G1 X61.723 Y39.953 E0.03492
G1 X62.734 Y39.540 E0.02781
G1 X63.969 Y39.100 E0.03339
G1 X65.215 Y38.710 E0.03327
G1 X66.754 Y38.292 E0.04062
G1 X67.808 Y38.035 E0.02763
G1 X69.516 Y37.664 E0.04451
G1 X70.723 Y37.430 E0.03130
G1 X72.199 Y37.174 E0.03815
M204 S1250
M204 S800
;WIDTH:0.359186
G1 X74.166 Y36.871 E0.05236
M204 S1250
M204 S800
;WIDTH:0.378486
G1 X74.769 Y36.788 E0.01698
M204 S1250
M204 S800
;WIDTH:0.430001
G1 X75.191 Y36.711 E0.01380
M204 S1250
M204 S800
;WIDTH:0.467643
G1 X75.579 Y36.615 E0.01412
M204 S1250
G1 E-2.24000 F4200.000
;WIPE_START
G1 F7200.000
G1 X75.191 Y36.711 E-0.22157
;WIPE_END
G1 E-0.73843 F4200.000
G1 Z0.400 F9000.000
G1 X81.855 Y35.974
G1 Z0.200
G1 E3.20000 F2400.000
M204 S800
;WIDTH:0.132994
G1 F1200.000
G1 X82.558 Y35.954 E0.00527
M204 S1250
M204 S800
;WIDTH:0.172668
G1 X83.261 Y35.934 E0.00759
M204 S1250
M204 S800
;WIDTH:0.212342
G1 X83.964 Y35.914 E0.00991
M204 S1250
M204 S800
;WIDTH:0.245647
G1 X84.785 Y35.897 E0.01383
M204 S1250
M204 S800
;WIDTH:0.278949
G1 X85.605 Y35.880 E0.01611
M204 S1250
M204 S800
;WIDTH:0.309075
G1 X86.852 Y35.865 E0.02759
M204 S1250
M204 S800
;WIDTH:0.326782
G1 X90.918 Y35.844 E0.09597
G1 X93.809 Y35.873 E0.06825
M204 S1250
M204 S800
;WIDTH:0.217009
G1 X96.599 Y35.929 E0.04039
G1 X96.641 Y35.952 E0.00069
M204 S1250
M204 S800
;WIDTH:0.257359
G1 X96.683 Y35.974 E0.00086
M204 S1250
M204 S800
;WIDTH:0.297708
G1 X96.726 Y35.996 E0.00102
M204 S1250
M204 S800
;WIDTH:0.325335
G1 X96.740 Y36.011 E0.00047
M204 S1250
M204 S800
;WIDTH:0.347728
G1 X96.754 Y36.025 E0.00051
G1 X99.284 Y36.183 E0.06426
M204 S1250
M204 S800
;WIDTH:0.355094
G1 X102.070 Y36.427 E0.07260
G1 X104.672 Y36.724 E0.06797
M204 S1250
M204 S800
;WIDTH:0.39093
G1 X105.055 Y36.793 E0.01126
M204 S1250
M204 S800
