; generated by PrusaSlicer 2.3.0+win64 on 2021-06-19 at 16:16:20 UTC


;
;

;
;
; 

; external perimeters extrusion width = 0.45mm
; perimeters extrusion width = 0.45mm
; infill extrusion width = 0.45mm
; solid infill extrusion width = 0.45mm
; top infill extrusion width = 0.40mm
; first layer extrusion width = 0.42mm

M73 P0 R63
M201 X1250 Y1250 Z400 E5000 ; sets maximum accelerations, mm/sec^2
M203 X180 Y180 Z12 E80 ; sets maximum feedrates, mm/sec
M204 P1250 R1250 T1250 ; sets acceleration (P, T) and retract acceleration (R), mm/sec^2
M205 X8.00 Y8.00 Z2.00 E10.00 ; sets the jerk limits, mm/sec
M205 S0 T0 ; sets the minimum extruding and travel feed rate, mm/sec
M107
;TYPE:Custom
G90 ; use absolute coordinates
M83 ; extruder relative mode
M104 S170 ; set extruder temp for bed leveling
M140 S60 ; set bed temp
M109 R170 ; wait for bed leveling temp
M190 S60 ; wait for bed temp
G28 ; home all without mesh bed level
G29 ; mesh bed leveling 
M104 S215 ; set extruder temp
G92 E0.0
G1 Y-2.0 X179 F2400
G1 Z3 F720
M109 S215 ; wait for extruder temp

; intro line
G1 X170 F1000
G1 Z0.2 F720
G1 X110.0 E8.0 F900
G1 X40.0 E10.0 F700
G92 E0.0

M221 S95 ; set flow
G21 ; set units to millimeters
G90 ; use absolute coordinates
M83 ; use relative distances for extrusion
M900 K0.2 ; Filament gcode LA 1.5
; ; Filament gcode LA 1.0
;LAYER_CHANGE
;Z:0.2
;HEIGHT:0.2
;BEFORE_LAYER_CHANGE
G92 E0.0
;0.2


G1 E-3.20000 F4200.000
G1 Z0.200 F9000.000
;AFTER_LAYER_CHANGE
;0.2
G1 Z0.400
G1 X82.329 Y53.925
G1 Z0.200
G1 E3.20000 F2400.000
M204 S800
;TYPE:Skirt
;WIDTH:0.42
G1 F1086
G1 X83.308 Y53.795 E0.03096
G1 X84.200 Y53.971 E0.02849
G1 X84.961 Y54.467 E0.02849
G1 X85.479 Y55.213 E0.02849
G1 X85.681 Y56.099 E0.02849
G1 X85.682 Y130.840 E2.34345
G1 X85.630 Y131.324 E0.01526
G1 X85.480 Y131.791 E0.01538
G1 X85.237 Y132.217 E0.01538
G1 X84.912 Y132.584 E0.01538
G1 X84.080 Y133.080 E0.03036
G1 X83.097 Y133.210 E0.03108
G1 X82.206 Y133.033 E0.02849
G1 X81.446 Y132.535 E0.02849
G1 X80.928 Y131.789 E0.02849
G1 X80.729 Y130.906 E0.02837
G1 X80.727 Y56.165 E2.34345
G1 X80.779 Y55.681 E0.01526
G1 X80.929 Y55.214 E0.01538
G1 X81.172 Y54.788 E0.01538
G1 X81.498 Y54.421 E0.01538
G1 X82.278 Y53.956 E0.02848
M204 S1250
; printing object ToiletRoll_TopsScreenHalf_01.stl id:0 copy 0
G1 E-2.24000 F4200.000
;WIPE_START
G1 F7200.000
G1 X83.308 Y53.795 E-0.57794
G1 X83.900 Y53.912 E-0.33406
;WIPE_END
G1 E-0.04800 F4200.000
G1 Z0.400 F9000.000
G1 X83.205 Y130.833
G1 Z0.200
G1 E3.20000 F2400.000
M204 S800
;TYPE:External perimeter
;WIDTH:0.24292
G1 F1086
G1 X83.205 Y56.173 E1.24160
M204 S1250
; stop printing object ToiletRoll_TopsScreenHalf_01.stl id:0 copy 0
M106 S84.15
;LAYER_CHANGE
;Z:0.4
;HEIGHT:0.2
;BEFORE_LAYER_CHANGE
G92 E0.0
;0.4


G1 E-2.24000 F4200.000
;WIPE_START
G1 F7200.000
G1 X83.205 Y57.818 E-0.91200
;WIPE_END
G1 E-0.04800 F4200.000
G1 Z0.400 F9000.000
;AFTER_LAYER_CHANGE
;0.4
M104 S210 ; set temperature
G1 Z0.600
G1 X82.329 Y53.925
G1 Z0.400
G1 E3.20000 F2400.000
;TYPE:Skirt
;WIDTH:0.42
G1 F1040
G1 X83.308 Y53.795 E0.03096
G1 X84.200 Y53.971 E0.02849
G1 X84.961 Y54.467 E0.02849
G1 X85.479 Y55.213 E0.02849
G1 X85.681 Y56.099 E0.02849
G1 X85.682 Y130.840 E2.34345
G1 X85.630 Y131.324 E0.01526
G1 X85.480 Y131.791 E0.01538
G1 X85.237 Y132.217 E0.01538
G1 X84.912 Y132.584 E0.01538
G1 X84.080 Y133.080 E0.03036
G1 X83.097 Y133.210 E0.03108
G1 X82.206 Y133.033 E0.02849
G1 X81.446 Y132.535 E0.02849
G1 X80.928 Y131.789 E0.02849
G1 X80.729 Y130.906 E0.02837
G1 X80.727 Y56.165 E2.34345
M73 P1 R63
G1 X80.779 Y55.681 E0.01526
G1 X80.929 Y55.214 E0.01538
G1 X81.172 Y54.788 E0.01538
G1 X81.498 Y54.421 E0.01538
G1 X82.278 Y53.956 E0.02848
; printing object ToiletRoll_TopsScreenHalf_01.stl id:0 copy 0
G1 E-2.24000 F4200.000
;WIPE_START
G1 F7200.000
G1 X83.308 Y53.795 E-0.57794
G1 X83.900 Y53.912 E-0.33406
;WIPE_END
G1 E-0.04800 F4200.000
G1 Z0.600 F9000.000
G1 X83.205 Y130.833
G1 Z0.400
G1 E3.20000 F2400.000
M204 S800
;TYPE:External perimeter
;WIDTH:0.24292
G1 F1040
G1 X83.205 Y56.173 E1.24160
M204 S1250
; stop printing object ToiletRoll_TopsScreenHalf_01.stl id:0 copy 0
M106 S170.85
;LAYER_CHANGE
;Z:0.6
;HEIGHT:0.2
;BEFORE_LAYER_CHANGE
G92 E0.0
;0.6


G1 E-2.24000 F4200.000
;WIPE_START
G1 F7200.000
G1 X83.205 Y57.818 E-0.91200
;WIPE_END
G1 E-0.04800 F4200.000
G1 Z0.600 F9000.000
;AFTER_LAYER_CHANGE
;0.6
G1 Z0.800
G1 X82.329 Y53.925
G1 Z0.600
G1 E3.20000 F2400.000
;TYPE:Skirt
;WIDTH:0.42
G1 F1040
G1 X83.308 Y53.795 E0.03096
G1 X84.200 Y53.971 E0.02849
G1 X84.961 Y54.467 E0.02849
G1 X85.479 Y55.213 E0.02849
G1 X85.681 Y56.099 E0.02849
G1 X85.682 Y130.840 E2.34345
G1 X85.630 Y131.324 E0.01526
G1 X85.480 Y131.791 E0.01538
G1 X85.237 Y132.217 E0.01538
G1 X84.912 Y132.584 E0.01538
G1 X84.080 Y133.080 E0.03036
G1 X83.097 Y133.210 E0.03108
G1 X82.206 Y133.033 E0.02849
G1 X81.446 Y132.535 E0.02849
G1 X80.928 Y131.789 E0.02849
G1 X80.729 Y130.906 E0.02837
G1 X80.727 Y56.165 E2.34345
G1 X80.779 Y55.681 E0.01526
G1 X80.929 Y55.214 E0.01538
G1 X81.172 Y54.788 E0.01538
G1 X81.498 Y54.421 E0.01538
G1 X82.278 Y53.956 E0.02848
; printing object ToiletRoll_TopsScreenHalf_01.stl id:0 copy 0
G1 E-2.24000 F4200.000
;WIPE_START
G1 F7200.000
G1 X83.308 Y53.795 E-0.57794
G1 X83.900 Y53.912 E-0.33406
;WIPE_END
G1 E-0.04800 F4200.000
G1 Z0.800 F9000.000
G1 X83.205 Y130.833
G1 Z0.600
G1 E3.20000 F2400.000
M204 S800
;TYPE:External perimeter
;WIDTH:0.24292
G1 F1040
G1 X83.205 Y56.173 E1.24160
M204 S1250
; stop printing object ToiletRoll_TopsScreenHalf_01.stl id:0 copy 0
M106 S255
;LAYER_CHANGE
;Z:0.8
;HEIGHT:0.2
;BEFORE_LAYER_CHANGE
G92 E0.0
;0.8


M73 P1 R62
G1 E-2.24000 F4200.000
;WIPE_START
G1 F7200.000
G1 X83.205 Y57.818 E-0.91200
;WIPE_END
G1 E-0.04800 F4200.000
G1 Z0.800 F9000.000
;AFTER_LAYER_CHANGE
;0.8
; printing object ToiletRoll_TopsScreenHalf_01.stl id:0 copy 0
G1 Z1.000
G1 X83.205 Y130.833
G1 Z0.800
G1 E3.20000 F2400.000
M204 S800
G1 F900
G1 X83.205 Y56.173 E1.24160
M204 S1250
; stop printing object ToiletRoll_TopsScreenHalf_01.stl id:0 copy 0
;LAYER_CHANGE
;Z:1
;HEIGHT:0.2
;BEFORE_LAYER_CHANGE
G92 E0.0
;1


G1 E-2.24000 F4200.000
;WIPE_START
G1 F7200.000
G1 X83.205 Y57.818 E-0.91200
;WIPE_END
G1 E-0.04800 F4200.000
G1 Z1.000 F9000.000
;AFTER_LAYER_CHANGE
;1
; printing object ToiletRoll_TopsScreenHalf_01.stl id:0 copy 0
G1 Z1.200
G1 X83.205 Y130.833
G1 Z1.000
G1 E3.20000 F2400.000
M204 S800
G1 F900
G1 X83.205 Y56.173 E1.24160
M204 S1250
; stop printing object ToiletRoll_TopsScreenHalf_01.stl id:0 copy 0
;LAYER_CHANGE
;Z:1.2
;HEIGHT:0.2
;BEFORE_LAYER_CHANGE
G92 E0.0
;1.2


G1 E-2.24000 F4200.000
;WIPE_START
G1 F7200.000
G1 X83.205 Y57.818 E-0.91200
;WIPE_END
G1 E-0.04800 F4200.000
G1 Z1.200 F9000.000
;AFTER_LAYER_CHANGE
;1.2
; printing object ToiletRoll_TopsScreenHalf_01.stl id:0 copy 0
G1 Z1.400
G1 X83.205 Y130.833
G1 Z1.200
G1 E3.20000 F2400.000
M204 S800
G1 F900
G1 X83.205 Y56.173 E1.24160
M204 S1250
; stop printing object ToiletRoll_TopsScreenHalf_01.stl id:0 copy 0
;LAYER_CHANGE
;Z:1.4
;HEIGHT:0.2
;BEFORE_LAYER_CHANGE
G92 E0.0
;1.4


M73 P2 R62
G1 E-2.24000 F4200.000
;WIPE_START
G1 F7200.000
G1 X83.205 Y57.818 E-0.91200
;WIPE_END
G1 E-0.04800 F4200.000
G1 Z1.400 F9000.000
;AFTER_LAYER_CHANGE
;1.4
; printing object ToiletRoll_TopsScreenHalf_01.stl id:0 copy 0
G1 Z1.600
G1 X83.205 Y130.833
G1 Z1.400
G1 E3.20000 F2400.000
M204 S800
G1 F900
G1 X83.205 Y56.173 E1.24160
M204 S1250
; stop printing object ToiletRoll_TopsScreenHalf_01.stl id:0 copy 0
;LAYER_CHANGE
;Z:1.6
;HEIGHT:0.2
;BEFORE_LAYER_CHANGE
G92 E0.0
;1.6


G1 E-2.24000 F4200.000
;WIPE_START
G1 F7200.000
G1 X83.205 Y57.818 E-0.91200
;WIPE_END
G1 E-0.04800 F4200.000
G1 Z1.600 F9000.000
;AFTER_LAYER_CHANGE
;1.6
; printing object ToiletRoll_TopsScreenHalf_01.stl id:0 copy 0
G1 Z1.800
G1 X83.205 Y130.833
G1 Z1.600
G1 E3.20000 F2400.000
M204 S800
G1 F900
G1 X83.205 Y56.173 E1.24160
M204 S1250
; stop printing object ToiletRoll_TopsScreenHalf_01.stl id:0 copy 0
;LAYER_CHANGE
;Z:1.8
;HEIGHT:0.2
;BEFORE_LAYER_CHANGE
G92 E0.0
;1.8


G1 E-2.24000 F4200.000
;WIPE_START
G1 F7200.000
G1 X83.205 Y57.818 E-0.91200
;WIPE_END
G1 E-0.04800 F4200.000
G1 Z1.800 F9000.000
;AFTER_LAYER_CHANGE
;1.8
; printing object ToiletRoll_TopsScreenHalf_01.stl id:0 copy 0
G1 Z2.000
G1 X83.205 Y130.833
G1 Z1.800
G1 E3.20000 F2400.000
M204 S800
G1 F900
G1 X83.205 Y56.173 E1.24160
M204 S1250
; stop printing object ToiletRoll_TopsScreenHalf_01.stl id:0 copy 0
;LAYER_CHANGE
;Z:2
;HEIGHT:0.2
;BEFORE_LAYER_CHANGE
G92 E0.0
;2


G1 E-2.24000 F4200.000
;WIPE_START
G1 F7200.000
G1 X83.205 Y57.818 E-0.91200
;WIPE_END
G1 E-0.04800 F4200.000
G1 Z2.000 F9000.000
;AFTER_LAYER_CHANGE
;2
; printing object ToiletRoll_TopsScreenHalf_01.stl id:0 copy 0
G1 Z2.200
G1 X83.205 Y130.833
G1 Z2.000
G1 E3.20000 F2400.000
M204 S800
G1 F900
G1 X83.205 Y56.173 E1.24160
M204 S1250
; stop printing object ToiletRoll_TopsScreenHalf_01.stl id:0 copy 0
;LAYER_CHANGE
;Z:2.2
;HEIGHT:0.2
;BEFORE_LAYER_CHANGE
G92 E0.0
;2.2


G1 E-2.24000 F4200.000
;WIPE_START
G1 F7200.000
G1 X83.205 Y57.818 E-0.91200
;WIPE_END
G1 E-0.04800 F4200.000
G1 Z2.200 F9000.000
;AFTER_LAYER_CHANGE
;2.2
; printing object ToiletRoll_TopsScreenHalf_01.stl id:0 copy 0
G1 Z2.400
G1 X83.205 Y130.833
G1 Z2.200
G1 E3.20000 F2400.000
M204 S800
G1 F900
G1 X83.205 Y56.173 E1.24160
M204 S1250
; stop printing object ToiletRoll_TopsScreenHalf_01.stl id:0 copy 0
;LAYER_CHANGE
;Z:2.4
;HEIGHT:0.2
;BEFORE_LAYER_CHANGE
G92 E0.0
;2.4


G1 E-2.24000 F4200.000
;WIPE_START
G1 F7200.000
G1 X83.205 Y57.818 E-0.91200
;WIPE_END
G1 E-0.04800 F4200.000
G1 Z2.400 F9000.000
;AFTER_LAYER_CHANGE
;2.4
; printing object ToiletRoll_TopsScreenHalf_01.stl id:0 copy 0
G1 Z2.600
G1 X83.205 Y130.833
G1 Z2.400
G1 E3.20000 F2400.000
M204 S800
G1 F900
G1 X83.205 Y56.173 E1.24160
M204 S1250
; stop printing object ToiletRoll_TopsScreenHalf_01.stl id:0 copy 0
;LAYER_CHANGE
;Z:2.6
;HEIGHT:0.2
;BEFORE_LAYER_CHANGE
G92 E0.0
;2.6


G1 E-2.24000 F4200.000
;WIPE_START
G1 F7200.000
G1 X83.205 Y57.818 E-0.91200
;WIPE_END
G1 E-0.04800 F4200.000
G1 Z2.600 F9000.000
;AFTER_LAYER_CHANGE
;2.6
; printing object ToiletRoll_TopsScreenHalf_01.stl id:0 copy 0
G1 Z2.800
G1 X83.205 Y130.833
M73 P3 R62
G1 Z2.600
G1 E3.20000 F2400.000
M204 S800
G1 F1800.000
G1 X83.205 Y56.173 E1.24160
M204 S1250
G1 E-2.24000 F4200.000
;WIPE_START
G1 F7200.000
G1 X83.205 Y57.818 E-0.91200
;WIPE_END
G1 E-0.04800 F4200.000
G1 Z2.800 F9000.000
G1 X94.402 Y48.506
G1 Z2.600
G1 E3.20000 F2400.000
M204 S800
;TYPE:Overhang perimeter
;WIDTH:0.389872
;HEIGHT:0.389872
G1 F1800.000
G1 X94.402 Y39.486 E0.44768
M73 P3 R61
G1 X101.976 Y39.486 E0.37589
G1 X102.014 Y39.684 E0.01001
G1 X101.483 Y39.937 E0.02917
G1 X101.152 Y40.149 E0.01952
G1 X100.843 Y40.393 E0.01952
G1 X100.559 Y40.664 E0.01952
G1 X100.301 Y40.961 E0.01952
G1 X100.073 Y41.282 E0.01952
G1 X99.876 Y41.622 E0.01952
G1 X99.713 Y41.980 E0.01952
G1 X99.584 Y42.352 E0.01952
G1 X99.491 Y42.734 E0.01952
G1 X99.435 Y43.123 E0.01952
G1 X99.417 Y43.516 E0.01952
G1 X99.435 Y43.909 E0.01952
G1 X99.491 Y44.298 E0.01952
G1 X99.584 Y44.680 E0.01952
G1 X99.713 Y45.052 E0.01952
G1 X99.876 Y45.410 E0.01952
G1 X100.073 Y45.750 E0.01952
G1 X100.301 Y46.071 E0.01952
G1 X100.559 Y46.368 E0.01952
G1 X100.843 Y46.640 E0.01954
G1 X101.163 Y46.890 E0.02018
G1 X101.649 Y47.186 E0.02822
G1 X102.014 Y47.353 E0.01989
G1 X102.385 Y47.481 E0.01952
G1 X102.767 Y47.574 E0.01952
G1 X103.157 Y47.630 E0.01952
G1 X103.550 Y47.649 E0.01952
G1 X103.942 Y47.630 E0.01952
G1 X104.332 Y47.574 E0.01952
G1 X104.714 Y47.481 E0.01954
G1 X105.098 Y47.348 E0.02018
G1 X105.610 Y47.099 E0.02822
G1 X105.947 Y46.882 E0.01989
G1 X106.256 Y46.639 E0.01952
G1 X106.541 Y46.368 E0.01952
G1 X106.798 Y46.071 E0.01952
G1 X107.026 Y45.750 E0.01952
G1 X107.223 Y45.410 E0.01952
G1 X107.386 Y45.052 E0.01952
G1 X107.515 Y44.680 E0.01952
G1 X107.608 Y44.298 E0.01952
G1 X107.664 Y43.909 E0.01952
G1 X107.683 Y43.508 E0.01989
G1 X107.642 Y42.935 E0.02852
G1 X107.566 Y42.542 E0.01989
G1 X107.455 Y42.164 E0.01952
G1 X107.309 Y41.799 E0.01952
G1 X107.129 Y41.449 E0.01952
G1 X106.916 Y41.119 E0.01952
G1 X106.673 Y40.809 E0.01952
G1 X106.402 Y40.525 E0.01952
G1 X106.104 Y40.267 E0.01952
G1 X105.784 Y40.039 E0.01952
G1 X105.443 Y39.843 E0.01952
G1 X105.084 Y39.678 E0.01961
G1 X105.126 Y39.486 E0.00977
G1 X107.092 Y39.486 E0.09758
G1 X107.496 Y39.878 E0.02794
G1 X107.867 Y40.328 E0.02896
G1 X108.188 Y40.816 E0.02897
G1 X108.454 Y41.336 E0.02897
G1 X108.662 Y41.881 E0.02897
G1 X108.809 Y42.446 E0.02897
G1 X108.894 Y43.024 E0.02897
G1 X108.916 Y43.607 E0.02897
G1 X108.874 Y44.189 E0.02897
G1 X108.770 Y44.763 E0.02897
G1 X108.603 Y45.323 E0.02897
G1 X108.377 Y45.861 E0.02897
G1 X108.091 Y46.377 E0.02926
G1 X107.875 Y46.694 E0.01904
G1 X107.637 Y46.994 E0.01904
G1 X107.231 Y47.421 E0.02926
G1 X106.780 Y47.802 E0.02926
G1 X106.466 Y48.022 E0.01904
G1 X106.132 Y48.221 E0.01932
G1 X105.519 Y48.506 E0.03351
G1 X94.462 Y48.506 E0.54881
M204 S1250
G1 E-2.24000 F4200.000
;WIPE_START
G1 F7200.000
G1 X94.451 Y46.860 E-0.91200
;WIPE_END
G1 E-0.04800 F4200.000
G1 Z2.800 F9000.000
G1 X100.238 Y45.223
G1 Z2.600
G1 E3.20000 F2400.000
M204 S800
G1 F1500.000
G1 X100.091 Y44.900 E0.01760
G1 X99.975 Y44.565 E0.01760
G1 X99.892 Y44.221 E0.01760
G1 X99.841 Y43.870 E0.01760
G1 X99.824 Y43.516 E0.01760
G1 X99.841 Y43.162 E0.01760
G1 X99.892 Y42.811 E0.01760
G1 X99.975 Y42.466 E0.01760
G1 X100.091 Y42.131 E0.01760
G1 X100.238 Y41.809 E0.01760
G1 X100.416 Y41.502 E0.01760
G1 X100.621 Y41.213 E0.01760
G1 X100.853 Y40.945 E0.01760
G1 X101.110 Y40.701 E0.01760
G1 X101.389 Y40.481 E0.01760
G1 X101.687 Y40.290 E0.01759
G1 X102.002 Y40.127 E0.01760
G1 X102.331 Y39.996 E0.01760
G1 X102.671 Y39.896 E0.01760
G1 X103.022 Y39.828 E0.01773
G1 X103.541 Y39.791 E0.02583
G1 X103.904 Y39.807 E0.01801
G1 X104.255 Y39.858 E0.01760
G1 X104.599 Y39.942 E0.01760
G1 X104.934 Y40.057 E0.01760
G1 X105.257 Y40.205 E0.01760
G1 X105.564 Y40.382 E0.01760
G1 X105.852 Y40.588 E0.01760
G1 X106.120 Y40.820 E0.01760
G1 X106.365 Y41.076 E0.01760
G1 X106.584 Y41.355 E0.01760
G1 X106.776 Y41.653 E0.01760
G1 X106.938 Y41.968 E0.01760
G1 X107.070 Y42.297 E0.01760
G1 X107.170 Y42.638 E0.01760
G1 X107.237 Y42.988 E0.01773
G1 X107.275 Y43.513 E0.02612
G1 X107.258 Y43.870 E0.01773
G1 X107.207 Y44.221 E0.01760
G1 X107.124 Y44.565 E0.01760
G1 X107.008 Y44.900 E0.01760
G1 X106.861 Y45.223 E0.01760
G1 X106.683 Y45.530 E0.01760
G1 X106.478 Y45.819 E0.01760
G1 X106.246 Y46.087 E0.01760
G1 X105.989 Y46.331 E0.01760
G1 X105.710 Y46.550 E0.01760
G1 X105.410 Y46.743 E0.01773
G1 X104.942 Y46.971 E0.02583
G1 X104.599 Y47.090 E0.01801
G1 X104.255 Y47.174 E0.01760
G1 X103.904 Y47.224 E0.01760
G1 X103.550 Y47.241 E0.01760
G1 X103.195 Y47.224 E0.01760
G1 X102.845 Y47.174 E0.01760
G1 X102.500 Y47.090 E0.01760
G1 X102.165 Y46.974 E0.01760
G1 X101.840 Y46.826 E0.01773
G1 X101.396 Y46.555 E0.02583
G1 X101.110 Y46.331 E0.01801
G1 X100.853 Y46.087 E0.01760
G1 X100.621 Y45.819 E0.01760
G1 X100.416 Y45.530 E0.01760
G1 X100.268 Y45.275 E0.01462
M204 S1250
G1 E-2.24000 F4200.000
;WIPE_START
G1 F7200.000
G1 X100.091 Y44.900 E-0.22958
G1 X99.975 Y44.565 E-0.19646
G1 X99.892 Y44.221 E-0.19646
G1 X99.841 Y43.870 E-0.19646
G1 X99.833 Y43.702 E-0.09305
;WIPE_END
G1 E-0.04800 F4200.000
G1 Z2.800 F9000.000
G1 X93.995 Y48.913
G1 Z2.600
G1 E3.20000 F2400.000
M204 S800
G1 F1800.000
G1 X93.995 Y39.079 E0.48809
G1 X107.245 Y39.079 E0.65762
G1 X107.795 Y39.602 E0.03769
G1 X108.195 Y40.086 E0.03117
G1 X108.540 Y40.611 E0.03117
G1 X108.826 Y41.170 E0.03117
G1 X109.050 Y41.757 E0.03117
G1 X109.208 Y42.365 E0.03117
G1 X109.300 Y42.986 E0.03117
G1 X109.323 Y43.614 E0.03117
G1 X109.279 Y44.240 E0.03117
G1 X109.166 Y44.858 E0.03117
G1 X108.987 Y45.460 E0.03117
G1 X108.744 Y46.039 E0.03117
G1 X108.438 Y46.590 E0.03127
G1 X108.203 Y46.935 E0.02069
G1 X107.945 Y47.262 E0.02069
G1 X107.510 Y47.718 E0.03127
G1 X107.029 Y48.125 E0.03127
G1 X106.688 Y48.364 E0.02069
G1 X106.328 Y48.579 E0.02079
G1 X105.954 Y48.767 E0.02079
G1 X105.601 Y48.913 E0.01897
G1 X94.055 Y48.913 E0.57303
M204 S1250
G1 X95.436 Y48.382 F9000.000
M204 S1000
