; generated by PrusaSlicer 2.3.0+win64 on 2021-06-19 at 10:09:11 UTC


;
;

;
;
; 

; external perimeters extrusion width = 0.45mm
; perimeters extrusion width = 0.45mm
; infill extrusion width = 0.45mm
; solid infill extrusion width = 0.45mm
; top infill extrusion width = 0.40mm
; first layer extrusion width = 0.42mm

M73 P0 R135
M201 X1250 Y1250 Z400 E5000 ; sets maximum accelerations, mm/sec^2
M203 X180 Y180 Z12 E80 ; sets maximum feedrates, mm/sec
M204 P1250 R1250 T1250 ; sets acceleration (P, T) and retract acceleration (R), mm/sec^2
M205 X8.00 Y8.00 Z2.00 E10.00 ; sets the jerk limits, mm/sec
M205 S0 T0 ; sets the minimum extruding and travel feed rate, mm/sec
M107
;TYPE:Custom
G90 ; use absolute coordinates
M83 ; extruder relative mode
M104 S170 ; set extruder temp for bed leveling
M140 S60 ; set bed temp
M109 R170 ; wait for bed leveling temp
M190 S60 ; wait for bed temp
G28 ; home all without mesh bed level
G29 ; mesh bed leveling 
M104 S215 ; set extruder temp
G92 E0.0
G1 Y-2.0 X179 F2400
G1 Z3 F720
M109 S215 ; wait for extruder temp

; intro line
G1 X170 F1000
G1 Z0.2 F720
G1 X110.0 E8.0 F900
G1 X40.0 E10.0 F700
G92 E0.0

M221 S95 ; set flow
G21 ; set units to millimeters
G90 ; use absolute coordinates
M83 ; use relative distances for extrusion
M900 K0.2 ; Filament gcode LA 1.5
; ; Filament gcode LA 1.0
;LAYER_CHANGE
;Z:0.2
;HEIGHT:0.2
;BEFORE_LAYER_CHANGE
G92 E0.0
;0.2


M73 P0 R134
G1 E-3.20000 F4200.000
G1 Z0.200 F9000.000
;AFTER_LAYER_CHANGE
;0.2
G1 Z0.400
G1 X53.658 Y40.491
G1 Z0.200
G1 E3.20000 F2400.000
M204 S800
;TYPE:Skirt
;WIDTH:0.42
G1 F1200.000
G1 X54.608 Y39.428 E0.04472
G1 X55.793 Y38.482 E0.04755
G1 X57.344 Y37.549 E0.05674
G1 X59.134 Y36.709 E0.06199
G1 X61.176 Y35.938 E0.06844
G1 X63.443 Y35.239 E0.07438
G1 X65.933 Y34.607 E0.08055
G1 X68.931 Y33.986 E0.09601
G1 X72.148 Y33.454 E0.10224
G1 X75.562 Y33.014 E0.10791
G1 X79.130 Y32.669 E0.11242
G1 X82.813 Y32.424 E0.11572
G1 X90.010 Y32.238 E0.22574
G1 X97.184 Y32.423 E0.22501
G1 X104.084 Y32.974 E0.21704
G1 X107.514 Y33.405 E0.10839
G1 X110.442 Y33.872 E0.09295
G1 X113.197 Y34.412 E0.08803
G1 X115.751 Y35.021 E0.08234
G1 X118.094 Y35.698 E0.07646
G1 X120.204 Y36.441 E0.07014
G1 X122.072 Y37.253 E0.06387
G1 X123.546 Y38.054 E0.05259
G1 X124.824 Y38.940 E0.04876
G1 X125.880 Y39.923 E0.04522
G1 X126.643 Y40.946 E0.04002
G1 X127.114 Y41.953 E0.03488
G1 X127.312 Y42.727 E0.02505
G1 X127.377 Y43.495 E0.02416
G1 X127.377 Y136.500 E2.91610
G1 X127.305 Y137.313 E0.02559
G1 X127.110 Y138.059 E0.02418
G1 X126.745 Y138.877 E0.02807
G1 X126.248 Y139.635 E0.02843
G1 X125.643 Y140.328 E0.02883
G1 X124.941 Y140.966 E0.02973
G1 X124.031 Y141.637 E0.03545
G1 X121.881 Y142.838 E0.07724
G1 X119.278 Y143.904 E0.08818
G1 X116.006 Y144.912 E0.10736
G1 X112.283 Y145.779 E0.11984
G1 X108.157 Y146.501 E0.13134
G1 X103.709 Y147.066 E0.14058
G1 X98.642 Y147.492 E0.15943
G1 X93.394 Y147.721 E0.16472
G1 X88.104 Y147.750 E0.16586
G1 X82.820 Y147.577 E0.16577
G1 X78.045 Y147.238 E0.15008
G1 X73.158 Y146.688 E0.15420
G1 X68.927 Y146.013 E0.13433
G1 X65.355 Y145.257 E0.11450
G1 X62.158 Y144.382 E0.10391
G1 X59.363 Y143.386 E0.09304
G1 X57.170 Y142.358 E0.07593
G1 X55.468 Y141.284 E0.06311
G1 X54.087 Y140.041 E0.05826
G1 X53.550 Y139.356 E0.02728
G1 X53.161 Y138.698 E0.02398
G1 X52.869 Y137.996 E0.02383
G1 X52.683 Y137.243 E0.02433
G1 X52.623 Y136.500 E0.02336
G1 X52.623 Y43.500 E2.91595
G1 X52.694 Y42.692 E0.02543
G1 X53.020 Y41.604 E0.03561
G1 X53.628 Y40.544 E0.03832
M204 S1250
; printing object ToiletRoll_Base02.stl id:0 copy 0
G1 E-2.24000 F4200.000
;WIPE_START
G1 F7200.000
G1 X54.608 Y39.428 E-0.82292
G1 X54.734 Y39.328 E-0.08908
;WIPE_END
G1 E-0.04800 F4200.000
G1 Z0.400 F9000.000
G1 X95.924 Y56.409
G1 Z0.200
G1 E3.20000 F2400.000
M204 S800
;TYPE:Perimeter
G1 F1200.000
G1 X96.087 Y56.070 E0.01182
G1 X96.288 Y55.750 E0.01182
G1 X96.639 Y55.334 E0.01708
G1 X97.055 Y54.983 E0.01708
G1 X97.374 Y54.782 E0.01182
G1 X97.714 Y54.619 E0.01182
G1 X98.225 Y54.456 E0.01682
G1 X98.597 Y54.393 E0.01181
G1 X98.962 Y54.372 E0.01148
G1 X99.507 Y54.416 E0.01715
G1 X99.875 Y54.500 E0.01184
G1 X100.223 Y54.622 E0.01156
G1 X100.556 Y54.782 E0.01156
G1 X100.875 Y54.983 E0.01182
G1 X101.291 Y55.334 E0.01708
G1 X101.642 Y55.750 E0.01708
G1 X101.843 Y56.070 E0.01182
G1 X102.006 Y56.409 E0.01182
G1 X102.169 Y56.920 E0.01682
G1 X102.232 Y57.292 E0.01182
G1 X102.254 Y57.668 E0.01182
G1 X102.208 Y58.203 E0.01682
G1 X102.125 Y58.570 E0.01182
G1 X102.003 Y58.918 E0.01156
G1 X101.843 Y59.251 E0.01156
G1 X101.642 Y59.570 E0.01182
G1 X101.296 Y59.980 E0.01682
G1 X101.015 Y60.231 E0.01181
G1 X100.717 Y60.443 E0.01148
G1 X100.232 Y60.695 E0.01715
G1 X99.876 Y60.820 E0.01183
G1 X99.519 Y60.901 E0.01147
G1 X98.966 Y60.949 E0.01741
G1 X98.422 Y60.903 E0.01710
G1 X98.055 Y60.820 E0.01182
G1 X97.699 Y60.695 E0.01182
G1 X97.222 Y60.449 E0.01682
G1 X96.915 Y60.231 E0.01182
G1 X96.634 Y59.980 E0.01182
G1 X96.288 Y59.570 E0.01682
G1 X96.087 Y59.251 E0.01182
G1 X95.927 Y58.918 E0.01156
G1 X95.806 Y58.571 E0.01155
G1 X95.724 Y58.214 E0.01148
G1 X95.676 Y57.669 E0.01715
G1 X95.698 Y57.292 E0.01184
G1 X95.761 Y56.920 E0.01182
G1 X95.905 Y56.466 E0.01494
M204 S1250
G1 X96.265 Y56.581 F9000.000
M204 S800
;TYPE:External perimeter
G1 F1200.000
G1 X96.418 Y56.252 E0.01137
G1 X96.593 Y55.973 E0.01033
G1 X96.907 Y55.602 E0.01525
G1 X97.278 Y55.288 E0.01525
G1 X97.557 Y55.113 E0.01033
G1 X97.854 Y54.970 E0.01033
G1 X98.314 Y54.823 E0.01516
G1 X98.639 Y54.768 E0.01032
G1 X98.957 Y54.750 E0.01000
G1 X99.449 Y54.790 E0.01548
G1 X99.771 Y54.863 E0.01033
G1 X100.079 Y54.971 E0.01023
G1 X100.373 Y55.113 E0.01023
G1 X100.652 Y55.288 E0.01033
G1 X101.023 Y55.602 E0.01525
G1 X101.337 Y55.973 E0.01525
G1 X101.512 Y56.252 E0.01033
G1 X101.655 Y56.549 E0.01033
G1 X101.802 Y57.009 E0.01516
G1 X101.857 Y57.334 E0.01033
G1 X101.876 Y57.663 E0.01033
G1 X101.835 Y58.145 E0.01516
G1 X101.762 Y58.466 E0.01033
G1 X101.654 Y58.774 E0.01023
G1 X101.512 Y59.068 E0.01023
G1 X101.337 Y59.347 E0.01033
G1 X101.025 Y59.716 E0.01516
G1 X100.780 Y59.935 E0.01032
G1 X100.520 Y60.120 E0.01000
G1 X100.082 Y60.348 E0.01548
G1 X99.771 Y60.457 E0.01033
G1 X99.460 Y60.528 E0.01000
G1 X98.965 Y60.571 E0.01557
G1 X98.480 Y60.530 E0.01526
G1 X98.159 Y60.457 E0.01033
G1 X97.848 Y60.348 E0.01033
G1 X97.419 Y60.126 E0.01516
G1 X97.150 Y59.935 E0.01033
G1 X96.905 Y59.716 E0.01033
G1 X96.593 Y59.347 E0.01516
G1 X96.418 Y59.068 E0.01033
G1 X96.276 Y58.774 E0.01023
G1 X96.168 Y58.466 E0.01023
G1 X96.097 Y58.155 E0.01000
G1 X96.054 Y57.663 E0.01548
G1 X96.073 Y57.334 E0.01033
G1 X96.128 Y57.009 E0.01033
G1 X96.246 Y56.638 E0.01222
M204 S1250
G1 X96.039 Y56.297 F9000.000
G1 E-2.24000 F4200.000
;WIPE_START
G1 F7200.000
G1 X96.418 Y56.252 E-0.23393
G1 X96.593 Y55.973 E-0.18250
G1 X96.907 Y55.602 E-0.26952
G1 X97.218 Y55.339 E-0.22605
;WIPE_END
G1 E-0.04800 F4200.000
G1 Z0.400 F9000.000
G1 X91.784 Y47.126
G1 Z0.200
G1 E3.20000 F2400.000
M204 S800
;TYPE:Perimeter
G1 F1200.000
G1 X91.417 Y47.284 E0.01252
G1 X91.037 Y47.406 E0.01252
G1 X90.646 Y47.489 E0.01252
G1 X90.250 Y47.534 E0.01252
G1 X89.850 Y47.538 E0.01252
G1 X89.452 Y47.504 E0.01252
G1 X89.060 Y47.430 E0.01252
G1 X88.676 Y47.318 E0.01252
G1 X88.306 Y47.169 E0.01252
G1 X87.952 Y46.983 E0.01252
G1 X87.619 Y46.764 E0.01252
G1 X87.308 Y46.513 E0.01252
G1 X87.024 Y46.232 E0.01252
G1 X86.769 Y45.925 E0.01252
G1 X86.545 Y45.594 E0.01252
G1 X86.356 Y45.242 E0.01252
G1 X86.202 Y44.874 E0.01252
G1 X86.085 Y44.492 E0.01252
G1 X86.007 Y44.100 E0.01252
G1 X85.967 Y43.703 E0.01252
G1 X85.967 Y43.304 E0.01252
G1 X86.007 Y42.906 E0.01252
G1 X86.085 Y42.515 E0.01252
G1 X86.202 Y42.133 E0.01252
G1 X86.356 Y41.764 E0.01252
G1 X86.545 Y41.413 E0.01252
G1 X86.769 Y41.082 E0.01252
G1 X87.024 Y40.774 E0.01252
G1 X87.308 Y40.494 E0.01252
G1 X87.619 Y40.243 E0.01252
G1 X87.952 Y40.023 E0.01252
G1 X88.306 Y39.838 E0.01252
G1 X88.676 Y39.689 E0.01252
G1 X89.060 Y39.576 E0.01252
G1 X89.452 Y39.503 E0.01252
G1 X89.850 Y39.468 E0.01252
G1 X90.249 Y39.473 E0.01252
G1 X90.654 Y39.518 E0.01275
G1 X91.222 Y39.654 E0.01832
G1 X91.603 Y39.797 E0.01275
G1 X91.961 Y39.974 E0.01252
G1 X92.300 Y40.185 E0.01252
G1 X92.617 Y40.428 E0.01252
G1 X92.908 Y40.702 E0.01252
G1 X93.170 Y41.003 E0.01252
G1 X93.402 Y41.328 E0.01252
G1 X93.600 Y41.675 E0.01252
G1 X93.763 Y42.039 E0.01252
G1 X93.889 Y42.418 E0.01252
G1 X93.977 Y42.808 E0.01252
G1 X94.027 Y43.204 E0.01252
G1 X94.037 Y43.603 E0.01252
G1 X94.007 Y44.002 E0.01252
G1 X93.938 Y44.395 E0.01252
G1 X93.831 Y44.780 E0.01252
G1 X93.686 Y45.152 E0.01252
G1 X93.505 Y45.508 E0.01252
G1 X93.290 Y45.844 E0.01252
G1 X93.043 Y46.158 E0.01252
G1 X92.766 Y46.445 E0.01252
G1 X92.461 Y46.704 E0.01252
G1 X92.133 Y46.932 E0.01252
G1 X91.836 Y47.097 E0.01064
M204 S1250
G1 X91.653 Y46.767 F9000.000
M204 S800
;TYPE:External perimeter
G1 F1200.000
G1 X91.285 Y46.931 E0.01264
G1 X90.940 Y47.041 E0.01135
G1 X90.586 Y47.116 E0.01135
G1 X90.226 Y47.157 E0.01135
G1 X89.864 Y47.161 E0.01135
G1 X89.504 Y47.130 E0.01135
G1 X89.148 Y47.063 E0.01135
G1 X88.800 Y46.961 E0.01135
G1 X88.464 Y46.826 E0.01135
G1 X88.144 Y46.658 E0.01135
G1 X87.841 Y46.459 E0.01135
G1 X87.560 Y46.232 E0.01135
G1 X87.302 Y45.977 E0.01135
G1 X87.071 Y45.699 E0.01135
G1 X86.868 Y45.398 E0.01135
G1 X86.697 Y45.080 E0.01135
G1 X86.557 Y44.746 E0.01135
G1 X86.451 Y44.400 E0.01135
G1 X86.380 Y44.045 E0.01135
G1 X86.344 Y43.684 E0.01135
G1 X86.344 Y43.322 E0.01135
G1 X86.380 Y42.962 E0.01135
G1 X86.451 Y42.607 E0.01135
G1 X86.557 Y42.261 E0.01135
G1 X86.697 Y41.927 E0.01135
G1 X86.868 Y41.608 E0.01135
G1 X87.071 Y41.308 E0.01135
G1 X87.302 Y41.030 E0.01135
G1 X87.560 Y40.775 E0.01135
G1 X87.841 Y40.547 E0.01135
G1 X88.144 Y40.349 E0.01135
G1 X88.464 Y40.181 E0.01135
G1 X88.800 Y40.045 E0.01135
G1 X89.148 Y39.944 E0.01135
G1 X89.504 Y39.877 E0.01135
G1 X89.864 Y39.846 E0.01135
G1 X90.226 Y39.850 E0.01135
G1 X90.589 Y39.891 E0.01143
G1 X91.111 Y40.016 E0.01686
G1 X91.453 Y40.144 E0.01143
G1 X91.778 Y40.304 E0.01135
G1 X92.085 Y40.495 E0.01135
G1 X92.372 Y40.716 E0.01135
G1 X92.636 Y40.964 E0.01135
G1 X92.874 Y41.236 E0.01135
G1 X93.084 Y41.531 E0.01135
G1 X93.263 Y41.846 E0.01135
G1 X93.411 Y42.176 E0.01135
G1 X93.526 Y42.520 E0.01135
G1 X93.606 Y42.873 E0.01135
G1 X93.650 Y43.232 E0.01135
G1 X93.659 Y43.594 E0.01135
G1 X93.632 Y43.955 E0.01135
G1 X93.570 Y44.312 E0.01135
G1 X93.473 Y44.660 E0.01135
G1 X93.341 Y44.998 E0.01135
G1 X93.177 Y45.320 E0.01135
G1 X92.982 Y45.625 E0.01135
G1 X92.758 Y45.910 E0.01135
G1 X92.507 Y46.170 E0.01135
G1 X92.231 Y46.405 E0.01135
G1 X91.934 Y46.611 E0.01135
G1 X91.706 Y46.738 E0.00817
M204 S1250
G1 X91.630 Y47.166 F9000.000
G1 E-2.24000 F4200.000
;WIPE_START
G1 F7200.000
G1 X91.285 Y46.931 E-0.25657
G1 X90.940 Y47.041 E-0.20063
G1 X90.586 Y47.116 E-0.20063
G1 X90.226 Y47.157 E-0.20062
G1 X90.130 Y47.158 E-0.05355
;WIPE_END
G1 E-0.04800 F4200.000
G1 Z0.400 F9000.000
G1 X109.219 Y47.326
G1 Z0.200
G1 E3.20000 F2400.000
M204 S800
;TYPE:Perimeter
G1 F1200.000
G1 X109.238 Y46.928 E0.01252
G1 X109.297 Y46.533 E0.01252
G1 X109.395 Y46.145 E0.01252
G1 X109.531 Y45.770 E0.01252
G1 X109.703 Y45.409 E0.01252
G1 X109.910 Y45.068 E0.01252
G1 X110.149 Y44.748 E0.01252
G1 X110.419 Y44.454 E0.01252
G1 X110.717 Y44.187 E0.01252
G1 X111.039 Y43.952 E0.01252
G1 X111.383 Y43.749 E0.01252
G1 X111.746 Y43.582 E0.01252
G1 X112.123 Y43.451 E0.01252
G1 X112.512 Y43.358 E0.01252
G1 X112.907 Y43.304 E0.01251
G1 X113.303 Y43.289 E0.01241
G1 X113.895 Y43.339 E0.01865
G1 X114.293 Y43.424 E0.01277
G1 X114.674 Y43.546 E0.01252
G1 X115.040 Y43.704 E0.01252
G1 X115.390 Y43.898 E0.01252
G1 X115.718 Y44.126 E0.01252
G1 X116.022 Y44.384 E0.01252
G1 X116.299 Y44.672 E0.01252
G1 X116.546 Y44.986 E0.01252
G1 X116.762 Y45.322 E0.01252
G1 X116.943 Y45.678 E0.01252
G1 X117.087 Y46.050 E0.01252
G1 X117.195 Y46.435 E0.01252
G1 X117.263 Y46.828 E0.01252
G1 X117.293 Y47.227 E0.01252
G1 X117.283 Y47.626 E0.01252
G1 X117.234 Y48.022 E0.01252
G1 X117.146 Y48.412 E0.01252
G1 X117.020 Y48.791 E0.01252
G1 X116.856 Y49.155 E0.01252
G1 X116.658 Y49.502 E0.01252
G1 X116.427 Y49.827 E0.01252
G1 X116.164 Y50.128 E0.01252
G1 X115.873 Y50.402 E0.01252
G1 X115.557 Y50.645 E0.01252
G1 X115.217 Y50.856 E0.01252
G1 X114.859 Y51.033 E0.01252
G1 X114.485 Y51.173 E0.01252
G1 X114.099 Y51.275 E0.01252
G1 X113.705 Y51.339 E0.01252
G1 X113.306 Y51.364 E0.01252
G1 X112.907 Y51.349 E0.01252
G1 X112.512 Y51.295 E0.01252
G1 X112.123 Y51.202 E0.01252
G1 X111.746 Y51.071 E0.01252
G1 X111.383 Y50.904 E0.01252
G1 X111.039 Y50.701 E0.01252
G1 X110.717 Y50.466 E0.01252
G1 X110.419 Y50.199 E0.01252
G1 X110.149 Y49.905 E0.01252
G1 X109.910 Y49.585 E0.01252
G1 X109.703 Y49.244 E0.01252
G1 X109.531 Y48.883 E0.01252
G1 X109.395 Y48.508 E0.01252
G1 X109.297 Y48.120 E0.01252
G1 X109.238 Y47.725 E0.01252
G1 X109.222 Y47.386 E0.01064
M204 S1250
G1 X109.598 Y47.368 F9000.000
M204 S800
;TYPE:External perimeter
G1 F1200.000
G1 X109.614 Y46.965 E0.01264
G1 X109.668 Y46.607 E0.01135
G1 X109.756 Y46.256 E0.01135
G1 X109.879 Y45.915 E0.01135
G1 X110.035 Y45.589 E0.01135
G1 X110.222 Y45.279 E0.01135
G1 X110.440 Y44.989 E0.01135
G1 X110.684 Y44.722 E0.01135
G1 X110.954 Y44.481 E0.01135
G1 X111.246 Y44.267 E0.01135
G1 X111.558 Y44.084 E0.01135
G1 X111.887 Y43.932 E0.01135
G1 X112.229 Y43.813 E0.01135
G1 X112.581 Y43.729 E0.01135
G1 X112.940 Y43.680 E0.01135
G1 X113.294 Y43.666 E0.01110
G1 X113.840 Y43.713 E0.01718
G1 X114.197 Y43.789 E0.01144
G1 X114.541 Y43.899 E0.01135
G1 X114.874 Y44.043 E0.01135
G1 X115.190 Y44.219 E0.01135
G1 X115.488 Y44.425 E0.01135
G1 X115.763 Y44.659 E0.01135
G1 X116.015 Y44.920 E0.01135
G1 X116.239 Y45.204 E0.01135
G1 X116.434 Y45.509 E0.01135
G1 X116.598 Y45.832 E0.01135
G1 X116.729 Y46.170 E0.01135
G1 X116.826 Y46.518 E0.01135
G1 X116.889 Y46.875 E0.01135
G1 X116.916 Y47.236 E0.01135
G1 X116.907 Y47.598 E0.01135
G1 X116.862 Y47.957 E0.01135
G1 X116.782 Y48.310 E0.01135
G1 X116.668 Y48.654 E0.01135
G1 X116.520 Y48.984 E0.01135
G1 X116.340 Y49.298 E0.01135
G1 X116.130 Y49.593 E0.01135
G1 X115.892 Y49.866 E0.01135
G1 X115.628 Y50.114 E0.01135
G1 X115.341 Y50.335 E0.01135
G1 X115.034 Y50.526 E0.01135
G1 X114.709 Y50.686 E0.01135
G1 X114.370 Y50.813 E0.01135
G1 X114.020 Y50.906 E0.01135
G1 X113.663 Y50.964 E0.01135
G1 X113.302 Y50.987 E0.01135
G1 X112.940 Y50.973 E0.01135
G1 X112.581 Y50.924 E0.01135
G1 X112.229 Y50.840 E0.01135
G1 X111.887 Y50.721 E0.01135
G1 X111.558 Y50.569 E0.01135
G1 X111.246 Y50.386 E0.01135
G1 X110.954 Y50.172 E0.01135
G1 X110.684 Y49.931 E0.01135
G1 X110.440 Y49.664 E0.01135
G1 X110.222 Y49.374 E0.01135
G1 X110.035 Y49.064 E0.01135
G1 X109.879 Y48.738 E0.01135
G1 X109.756 Y48.397 E0.01135
G1 X109.668 Y48.046 E0.01135
G1 X109.614 Y47.688 E0.01135
G1 X109.601 Y47.428 E0.00817
M204 S1250
G1 X109.250 Y47.170 F9000.000
G1 E-2.24000 F4200.000
;WIPE_START
G1 F7200.000
G1 X109.614 Y46.965 E-0.25657
G1 X109.668 Y46.607 E-0.20062
G1 X109.756 Y46.256 E-0.20063
G1 X109.879 Y45.915 E-0.20063
G1 X109.921 Y45.828 E-0.05355
;WIPE_END
G1 E-0.04800 F4200.000
G1 Z0.400 F9000.000
G1 X72.959 Y56.920
G1 Z0.200
G1 E3.20000 F2400.000
M204 S800
;TYPE:Perimeter
G1 F1200.000
G1 X73.022 Y57.292 E0.01182
G1 X73.043 Y57.660 E0.01156
G1 X73.022 Y58.028 E0.01156
G1 X72.959 Y58.400 E0.01182
G1 X72.796 Y58.911 E0.01682
G1 X72.633 Y59.251 E0.01182
G1 X72.432 Y59.570 E0.01182
G1 X72.086 Y59.980 E0.01682
G1 X71.805 Y60.231 E0.01181
G1 X71.507 Y60.443 E0.01148
G1 X71.022 Y60.695 E0.01715
G1 X70.666 Y60.820 E0.01183
G1 X70.309 Y60.901 E0.01147
G1 X69.756 Y60.949 E0.01741
G1 X69.212 Y60.903 E0.01710
G1 X68.845 Y60.820 E0.01182
G1 X68.489 Y60.695 E0.01182
G1 X68.012 Y60.449 E0.01682
G1 X67.705 Y60.231 E0.01182
G1 X67.424 Y59.980 E0.01182
G1 X67.078 Y59.570 E0.01682
G1 X66.877 Y59.251 E0.01182
G1 X66.714 Y58.911 E0.01182
G1 X66.551 Y58.400 E0.01682
G1 X66.488 Y58.028 E0.01182
G1 X66.467 Y57.660 E0.01156
G1 X66.488 Y57.292 E0.01156
G1 X66.551 Y56.920 E0.01182
G1 X66.714 Y56.409 E0.01682
G1 X66.877 Y56.070 E0.01182
G1 X67.078 Y55.750 E0.01182
G1 X67.429 Y55.334 E0.01708
G1 X67.845 Y54.983 E0.01708
