; generated by PrusaSlicer 2.2.0+win64 on 2020-10-28 at 13:23:32 UTC


;
;

;
;
; 

; external perimeters extrusion width = 0.45mm
; perimeters extrusion width = 0.45mm
; infill extrusion width = 0.45mm
; solid infill extrusion width = 0.45mm
; top infill extrusion width = 0.40mm
; first layer extrusion width = 0.42mm

M73 P0 R53
M201 X1250 Y1250 Z400 E5000 ; sets maximum accelerations, mm/sec^2
M203 X180 Y180 Z12 E80 ; sets maximum feedrates, mm/sec
M204 P1250 R1250 T1250 ; sets acceleration (P, T) and retract acceleration (R), mm/sec^2
M205 X8.00 Y8.00 Z2.00 E10.00 ; sets the jerk limits, mm/sec
M205 S0 T0 ; sets the minimum extruding and travel feed rate, mm/sec
M107
G90 ; use absolute coordinates
M83 ; extruder relative mode
M104 S170 ; set extruder temp for bed leveling
M140 S60 ; set bed temp
M109 R170 ; wait for bed leveling temp
M190 S60 ; wait for bed temp
G28 ; home all without mesh bed level
G29 ; mesh bed leveling 
M104 S215 ; set extruder temp
G92 E0.0
G1 Y-2.0 X179 F2400
G1 Z3 F720
M109 S215 ; wait for extruder temp

; intro line
G1 X170 F1000
G1 Z0.2 F720
G1 X110.0 E8.0 F900
M73 P0 R53
G1 X40.0 E10.0 F700
G92 E0.0

M221 S95 ; set flow
G21 ; set units to millimeters
G90 ; use absolute coordinates
M83 ; use relative distances for extrusion
M900 K0.2 ; Filament gcode LA 1.5
; ; Filament gcode LA 1.0
;BEFORE_LAYER_CHANGE
G92 E0.0
;0.2


G1 Z0.200 F9000.000
;AFTER_LAYER_CHANGE
;0.2
G1 E-3.20000 F4200.00000
G1 Z0.400 F9000.000
G1 X60.117 Y55.767
G1 Z0.200
G1 E3.20000 F2400.00000
M204 S800
G1 F1200.000
G1 X60.919 Y54.025 E0.06011
G1 X61.451 Y53.222 E0.03021
G1 X62.310 Y52.172 E0.04252
G1 X62.894 Y51.616 E0.02530
G1 X63.535 Y51.143 E0.02497
G1 X64.726 Y50.446 E0.04327
G1 X65.644 Y50.038 E0.03148
G1 X66.814 Y49.676 E0.03841
G1 X68.065 Y49.466 E0.03978
G1 X111.289 Y49.420 E1.35526
G1 X113.112 Y49.600 E0.05742
G1 X114.656 Y50.046 E0.05039
G1 X116.295 Y50.871 E0.05754
G1 X117.575 Y51.842 E0.05035
G1 X118.668 Y53.016 E0.05031
G1 X119.652 Y54.563 E0.05749
G1 X120.251 Y56.050 E0.05025
G1 X120.614 Y57.841 E0.05731
G1 X123.057 Y87.330 E0.92779
G1 X123.062 Y92.546 E0.16352
G1 X120.613 Y122.160 E0.93169
G1 X120.467 Y123.105 E0.02998
G1 X120.158 Y124.237 E0.03681
G1 X119.358 Y125.975 E0.05999
G1 X118.672 Y126.979 E0.03811
G1 X118.003 Y127.745 E0.03189
G1 X117.098 Y128.561 E0.03823
G1 X116.103 Y129.248 E0.03790
G1 X115.205 Y129.721 E0.03182
G1 X114.073 Y130.156 E0.03803
G1 X112.883 Y130.443 E0.03838
G1 X111.898 Y130.560 E0.03109
G1 X68.694 Y130.575 E1.35463
G1 X67.474 Y130.456 E0.03845
G1 X66.480 Y130.237 E0.03191
G1 X65.329 Y129.836 E0.03821
G1 X64.219 Y129.275 E0.03900
G1 X63.323 Y128.714 E0.03314
G1 X62.702 Y128.217 E0.02494
G1 X61.418 Y126.733 E0.06152
G1 X60.786 Y125.743 E0.03684
G1 X60.372 Y124.897 E0.02952
G1 X59.800 Y123.063 E0.06022
G1 X59.660 Y122.132 E0.02952
G1 X56.940 Y92.604 E0.92975
G1 X56.945 Y87.314 E0.16589
G1 X59.662 Y57.852 E0.92768
G1 X59.808 Y56.900 E0.03020
G1 X60.101 Y55.824 E0.03495
M204 S1250
G1 E-2.24000 F4200.00000
G1 F7200.000
G1 X60.782 Y54.326 E-0.91200
G1 E-0.04800 F4200.00000
G1 Z0.400 F9000.000
G1 X76.055 Y118.213
G1 Z0.200
G1 E3.20000 F2400.00000
M204 S800
G1 F1200.000
G1 X82.629 Y118.213 E0.20613
G1 X82.629 Y122.787 E0.14342
G1 X76.055 Y122.787 E0.20613
G1 X76.055 Y118.273 E0.14154
M204 S1250
G1 X76.432 Y118.590 F9000.000
M204 S800
G1 F1200.000
G1 X82.252 Y118.590 E0.18248
G1 X82.252 Y122.410 E0.11977
G1 X76.432 Y122.410 E0.18248
G1 X76.432 Y118.650 E0.11789
M204 S1250
G1 X76.303 Y118.212 F9000.000
G1 E-2.24000 F4200.00000
G1 F7200.000
G1 X78.078 Y118.633 E-0.91200
G1 E-0.04800 F4200.00000
G1 Z0.400 F9000.000
G1 X76.055 Y57.213
G1 Z0.200
G1 E3.20000 F2400.00000
M204 S800
G1 F1200.000
G1 X82.629 Y57.213 E0.20613
G1 X82.629 Y61.787 E0.14342
G1 X76.055 Y61.787 E0.20613
G1 X76.055 Y57.273 E0.14154
M204 S1250
G1 X76.432 Y57.590 F9000.000
M204 S800
G1 F1200.000
G1 X82.252 Y57.590 E0.18248
G1 X82.252 Y61.410 E0.11977
G1 X76.432 Y61.410 E0.18248
G1 X76.432 Y57.650 E0.11789
M204 S1250
G1 X76.303 Y57.212 F9000.000
G1 E-2.24000 F4200.00000
G1 F7200.000
G1 X78.078 Y57.633 E-0.91200
G1 E-0.04800 F4200.00000
G1 Z0.400 F9000.000
G1 X84.055 Y57.213
G1 Z0.200
G1 E3.20000 F2400.00000
M204 S800
G1 F1200.000
G1 X112.629 Y57.213 E0.89592
G1 X112.629 Y67.430 E0.32034
G1 X116.316 Y67.430 E0.11559
G1 X116.316 Y77.290 E0.30915
G1 X112.629 Y77.290 E0.11559
G1 X112.629 Y102.710 E0.79705
G1 X116.316 Y102.710 E0.11559
G1 X116.316 Y112.570 E0.30915
G1 X112.629 Y112.570 E0.11559
G1 X112.629 Y122.787 E0.32034
G1 X84.055 Y122.787 E0.89592
G1 X84.055 Y112.570 E0.32034
G1 X80.368 Y112.570 E0.11559
G1 X80.368 Y102.710 E0.30915
G1 X84.055 Y102.710 E0.11559
G1 X84.055 Y95.372 E0.23008
G1 X83.721 Y95.317 E0.01062
G1 X83.084 Y95.141 E0.02073
G1 X82.660 Y94.976 E0.01427
G1 X82.256 Y94.779 E0.01408
G1 X81.865 Y94.546 E0.01426
G1 X81.345 Y94.158 E0.02035
G1 X80.996 Y93.838 E0.01484
G1 X80.558 Y93.342 E0.02075
G1 X80.293 Y92.972 E0.01427
G1 X80.061 Y92.581 E0.01426
G1 X79.787 Y91.992 E0.02035
G1 X79.635 Y91.551 E0.01465
G1 X79.524 Y91.115 E0.01410
G1 X79.449 Y90.666 E0.01427
G1 X79.408 Y90.006 E0.02073
G1 X79.427 Y89.551 E0.01427
G1 X79.484 Y89.100 E0.01426
G1 X79.629 Y88.468 E0.02035
G1 X79.780 Y88.025 E0.01465
G1 X79.963 Y87.608 E0.01429
G1 X80.290 Y87.033 E0.02073
G1 X80.558 Y86.658 E0.01446
G1 X81.000 Y86.158 E0.02092
G1 X81.490 Y85.724 E0.02054
G1 X81.870 Y85.452 E0.01465
G1 X82.256 Y85.221 E0.01410
G1 X82.660 Y85.024 E0.01408
G1 X83.084 Y84.859 E0.01427
G1 X83.721 Y84.683 E0.02073
G1 X84.055 Y84.628 E0.01062
G1 X84.055 Y77.290 E0.23008
G1 X80.368 Y77.290 E0.11559
G1 X80.368 Y67.430 E0.30915
G1 X84.055 Y67.430 E0.11559
G1 X84.055 Y57.273 E0.31846
M204 S1250
G1 E-2.24000 F4200.00000
G1 F7200.000
G1 X85.701 Y57.269 E-0.91200
G1 E-0.04800 F4200.00000
G1 Z0.400 F9000.000
G1 X83.939 Y103.087
G1 Z0.200
G1 E3.20000 F2400.00000
M204 S800
G1 F1200.000
G1 X83.939 Y112.193 E0.28550
G1 X80.745 Y112.193 E0.10013
G1 X80.745 Y103.087 E0.28550
G1 X83.879 Y103.087 E0.09824
M204 S1250
G1 X84.305 Y102.928 F9000.000
G1 E-2.24000 F4200.00000
G1 F7200.000
G1 X83.890 Y104.733 E-0.91200
G1 E-0.04800 F4200.00000
G1 Z0.400 F9000.000
G1 X112.745 Y103.087
G1 Z0.200
G1 E3.20000 F2400.00000
M204 S800
G1 F1200.000
G1 X115.939 Y103.087 E0.10013
G1 X115.939 Y112.193 E0.28550
G1 X112.745 Y112.193 E0.10013
G1 X112.745 Y103.147 E0.28362
M204 S1250
G1 X112.701 Y102.690 F9000.000
G1 E-2.24000 F4200.00000
G1 F7200.000
G1 X114.391 Y103.117 E-0.91200
G1 E-0.04800 F4200.00000
G1 Z0.400 F9000.000
G1 X112.745 Y76.913
G1 Z0.200
G1 E3.20000 F2400.00000
M204 S800
G1 F1200.000
G1 X112.745 Y67.807 E0.28550
G1 X115.939 Y67.807 E0.10013
G1 X115.939 Y76.913 E0.28550
G1 X112.805 Y76.913 E0.09824
M204 S1250
G1 X112.379 Y77.072 F9000.000
G1 E-2.24000 F4200.00000
G1 F7200.000
G1 X112.795 Y75.267 E-0.91200
G1 E-0.04800 F4200.00000
G1 Z0.400 F9000.000
G1 X84.432 Y57.590
G1 Z0.200
G1 E3.20000 F2400.00000
M204 S800
G1 F1200.000
G1 X112.252 Y57.590 E0.87228
G1 X112.252 Y122.410 E2.03239
G1 X84.432 Y122.410 E0.87228
G1 X84.432 Y95.035 E0.85832
G1 X83.802 Y94.948 E0.01993
G1 X83.202 Y94.783 E0.01951
G1 X82.811 Y94.630 E0.01317
G1 X82.436 Y94.447 E0.01310
G1 X82.075 Y94.232 E0.01317
G1 X81.585 Y93.867 E0.01913
G1 X81.266 Y93.574 E0.01361
G1 X80.853 Y93.107 E0.01952
G1 X80.609 Y92.765 E0.01317
G1 X80.394 Y92.405 E0.01317
G1 X80.137 Y91.851 E0.01913
G1 X79.996 Y91.443 E0.01354
G1 X79.894 Y91.038 E0.01311
G1 X79.825 Y90.623 E0.01317
G1 X79.786 Y90.002 E0.01951
G1 X79.803 Y89.582 E0.01317
G1 X79.855 Y89.166 E0.01317
G1 X79.992 Y88.571 E0.01913
G1 X80.132 Y88.162 E0.01354
G1 X80.301 Y87.777 E0.01318
G1 X80.608 Y87.236 E0.01951
G1 X80.853 Y86.893 E0.01324
G1 X81.267 Y86.425 E0.01958
G1 X81.726 Y86.019 E0.01920
G1 X82.077 Y85.767 E0.01354
G1 X82.436 Y85.553 E0.01311
G1 X82.811 Y85.370 E0.01310
G1 X83.202 Y85.217 E0.01317
G1 X83.802 Y85.052 E0.01951
G1 X84.432 Y84.965 E0.01993
G1 X84.432 Y57.650 E0.85644
M204 S1250
G1 X84.435 Y57.190 F9000.000
G1 E-2.24000 F4200.00000
G1 F7200.000
G1 X86.078 Y57.646 E-0.91200
G1 E-0.04800 F4200.00000
G1 Z0.400 F9000.000
G1 X83.939 Y67.807
G1 Z0.200
G1 E3.20000 F2400.00000
M204 S800
G1 F1200.000
G1 X83.939 Y76.913 E0.28550
G1 X80.745 Y76.913 E0.10013
G1 X80.745 Y67.807 E0.28550
G1 X83.879 Y67.807 E0.09824
M204 S1250
G1 X84.305 Y67.647 F9000.000
G1 E-2.24000 F4200.00000
G1 F7200.000
G1 X83.890 Y69.452 E-0.91200
G1 E-0.04800 F4200.00000
G1 Z0.400 F9000.000
G1 X117.498 Y88.287
G1 Z0.200
G1 E3.20000 F2400.00000
M204 S800
G1 F1200.000
G1 X119.898 Y88.287 E0.07525
G1 X119.898 Y91.713 E0.10741
G1 X117.499 Y91.713 E0.07525
G1 X117.495 Y121.411 E0.93115
G1 X117.467 Y121.825 E0.01302
G1 X117.412 Y122.236 E0.01302
G1 X117.329 Y122.643 E0.01302
G1 X117.219 Y123.044 E0.01302
G1 X117.083 Y123.436 E0.01302
G1 X116.921 Y123.818 E0.01302
G1 X116.734 Y124.189 E0.01302
G1 X116.525 Y124.542 E0.01286
G1 X116.158 Y125.057 E0.01983
G1 X115.893 Y125.370 E0.01286
G1 X115.604 Y125.669 E0.01302
G1 X115.297 Y125.947 E0.01302
G1 X114.971 Y126.205 E0.01302
G1 X114.628 Y126.439 E0.01302
G1 X114.275 Y126.649 E0.01286
G1 X113.706 Y126.924 E0.01983
G1 X113.323 Y127.072 E0.01286
G1 X112.927 Y127.195 E0.01302
G1 X112.523 Y127.291 E0.01302
G1 X112.118 Y127.359 E0.01286
G1 X111.488 Y127.412 E0.01983
G1 X68.783 Y127.412 E1.33899
M73 P2 R52
G1 X68.369 Y127.384 E0.01302
G1 X67.957 Y127.329 E0.01302
G1 X67.555 Y127.247 E0.01286
G1 X66.948 Y127.070 E0.01983
G1 X66.565 Y126.923 E0.01286
G1 X66.189 Y126.748 E0.01302
G1 X65.820 Y126.546 E0.01320
G1 X65.250 Y126.197 E0.02095
G1 X64.835 Y125.879 E0.01638
G1 X64.551 Y125.587 E0.01276
G1 X63.988 Y124.886 E0.02821
G1 X63.754 Y124.546 E0.01294
G1 X63.545 Y124.193 E0.01286
G1 X63.272 Y123.628 E0.01968
G1 X63.058 Y123.043 E0.01952
G1 X62.902 Y122.436 E0.01968
G1 X62.834 Y122.031 E0.01286
G1 X62.792 Y121.618 E0.01302
G1 X62.778 Y121.192 E0.01338
G1 X62.778 Y91.713 E0.92428
G1 X60.102 Y91.713 E0.08391
G1 X60.102 Y88.287 E0.10741
G1 X62.778 Y88.287 E0.08391
G1 X62.782 Y58.589 E0.93115
G1 X62.809 Y58.175 E0.01302
G1 X62.865 Y57.764 E0.01302
G1 X62.947 Y57.357 E0.01302
G1 X63.057 Y56.956 E0.01302
G1 X63.193 Y56.564 E0.01302
G1 X63.355 Y56.182 E0.01302
G1 X63.543 Y55.811 E0.01302
G1 X63.752 Y55.458 E0.01286
G1 X64.121 Y54.939 E0.01998
G1 X64.554 Y54.410 E0.02143
G1 X64.736 Y54.215 E0.00836
G1 X65.133 Y53.882 E0.01626
G1 X65.822 Y53.453 E0.02544
G1 X66.189 Y53.252 E0.01312
G1 X66.561 Y53.080 E0.01286
G1 X67.155 Y52.862 E0.01983
G1 X67.551 Y52.754 E0.01286
G1 X67.952 Y52.672 E0.01283
G1 X68.581 Y52.598 E0.01987
G1 X69.002 Y52.584 E0.01322
G1 X111.492 Y52.588 E1.33224
G1 X111.907 Y52.616 E0.01306
G1 X112.319 Y52.671 E0.01302
G1 X112.721 Y52.753 E0.01286
G1 X113.328 Y52.930 E0.01983
G1 X113.706 Y53.076 E0.01271
G1 X114.275 Y53.351 E0.01983
G1 X114.624 Y53.558 E0.01271
G1 X115.140 Y53.925 E0.01983
G1 X115.449 Y54.186 E0.01271
G1 X115.895 Y54.633 E0.01979
G1 X116.158 Y54.943 E0.01275
G1 X116.525 Y55.458 E0.01983
G1 X116.731 Y55.807 E0.01271
G1 X117.005 Y56.372 E0.01968
G1 X117.220 Y56.961 E0.01968
G1 X117.329 Y57.357 E0.01286
G1 X117.412 Y57.764 E0.01302
G1 X117.466 Y58.170 E0.01286
G1 X117.498 Y58.813 E0.02019
G1 X117.498 Y88.227 E0.92225
M204 S1250
G1 X117.876 Y87.910 F9000.000
M204 S800
G1 F1200.000
G1 X120.276 Y87.910 E0.07525
G1 X120.276 Y92.090 E0.13106
G1 X117.876 Y92.090 E0.07525
G1 X117.872 Y121.423 E0.91972
G1 X117.842 Y121.863 E0.01381
G1 X117.784 Y122.299 E0.01381
G1 X117.696 Y122.731 E0.01381
G1 X117.580 Y123.155 E0.01381
G1 X117.435 Y123.571 E0.01381
G1 X117.263 Y123.977 E0.01381
G1 X117.064 Y124.370 E0.01381
G1 X116.841 Y124.747 E0.01375
G1 X116.456 Y125.288 E0.02082
G1 X116.173 Y125.623 E0.01375
G1 X115.867 Y125.940 E0.01381
G1 X115.540 Y126.235 E0.01381
G1 X115.194 Y126.508 E0.01381
G1 X114.831 Y126.758 E0.01381
G1 X114.454 Y126.981 E0.01375
G1 X113.856 Y127.271 E0.02082
G1 X113.447 Y127.428 E0.01375
G1 X113.027 Y127.559 E0.01381
G1 X112.598 Y127.661 E0.01381
G1 X112.166 Y127.734 E0.01375
G1 X111.504 Y127.789 E0.02082
G1 X68.771 Y127.789 E1.33987
G1 X68.331 Y127.760 E0.01381
G1 X67.895 Y127.701 E0.01381
G1 X67.465 Y127.614 E0.01375
G1 X66.828 Y127.428 E0.02082
G1 X66.418 Y127.270 E0.01375
G1 X66.019 Y127.085 E0.01381
G1 X65.631 Y126.872 E0.01387
G1 X65.042 Y126.512 E0.02163
G1 X64.579 Y126.156 E0.01833
G1 X64.269 Y125.837 E0.01393
G1 X63.685 Y125.111 E0.02922
G1 X63.436 Y124.749 E0.01378
G1 X63.213 Y124.371 E0.01375
G1 X62.924 Y123.776 E0.02076
G1 X62.697 Y123.155 E0.02071
G1 X62.533 Y122.514 E0.02076
G1 X62.460 Y122.081 E0.01375
G1 X62.416 Y121.643 E0.01381
G1 X62.401 Y121.198 E0.01397
G1 X62.401 Y92.090 E0.91265
G1 X59.724 Y92.090 E0.08391
G1 X59.724 Y87.910 E0.13106
G1 X62.401 Y87.910 E0.08391
G1 X62.405 Y58.577 E0.91972
G1 X62.434 Y58.137 E0.01381
G1 X62.493 Y57.701 E0.01381
G1 X62.580 Y57.269 E0.01381
G1 X62.697 Y56.845 E0.01381
G1 X62.841 Y56.429 E0.01381
G1 X63.013 Y56.023 E0.01381
G1 X63.212 Y55.630 E0.01381
G1 X63.435 Y55.253 E0.01375
G1 X63.821 Y54.710 E0.02087
G1 X64.270 Y54.162 E0.02222
G1 X64.471 Y53.946 E0.00923
G1 X64.918 Y53.572 E0.01829
G1 X65.631 Y53.128 E0.02635
G1 X66.019 Y52.915 E0.01384
G1 X66.417 Y52.731 E0.01375
G1 X67.040 Y52.503 E0.02082
G1 X67.463 Y52.387 E0.01375
G1 X67.892 Y52.300 E0.01372
G1 X68.552 Y52.222 E0.02085
G1 X68.996 Y52.207 E0.01392
G1 X111.505 Y52.211 E1.33283
G1 X111.945 Y52.240 E0.01385
G1 X112.382 Y52.299 E0.01381
G1 X112.811 Y52.386 E0.01375
G1 X113.449 Y52.572 E0.02082
G1 X113.856 Y52.729 E0.01370
G1 X114.454 Y53.019 E0.02082
G1 X114.830 Y53.242 E0.01370
G1 X115.371 Y53.626 E0.02082
G1 X115.705 Y53.909 E0.01370
G1 X116.173 Y54.377 E0.02078
G1 X116.456 Y54.712 E0.01373
G1 X116.841 Y55.253 E0.02082
G1 X117.064 Y55.629 E0.01370
G1 X117.352 Y56.224 E0.02076
G1 X117.580 Y56.846 E0.02076
G1 X117.696 Y57.269 E0.01375
G1 X117.784 Y57.701 E0.01381
G1 X117.842 Y58.136 E0.01375
G1 X117.876 Y58.804 E0.02098
G1 X117.876 Y87.850 E0.91072
M204 S1250
G1 X117.876 Y88.310 F9000.000
G1 X117.385 Y88.104
M204 S800
G1 F1200.000
G1 X112.912 Y83.631 E0.19909
G1 X112.912 Y83.095 E0.01685
G1 X117.216 Y87.399 E0.19154
G1 X117.216 Y86.864 E0.01685
G1 X112.912 Y82.560 E0.19154
G1 X112.912 Y82.025 E0.01685
G1 X117.216 Y86.328 E0.19154
G1 X117.216 Y85.793 E0.01685
G1 X112.912 Y81.489 E0.19154
G1 X112.912 Y80.954 E0.01685
G1 X117.216 Y85.258 E0.19154
G1 X117.216 Y84.723 E0.01685
G1 X112.912 Y80.419 E0.19154
G1 X112.912 Y79.884 E0.01685
G1 X117.216 Y84.187 E0.19154
G1 X117.216 Y83.652 E0.01685
G1 X112.912 Y79.348 E0.19154
G1 X112.912 Y78.813 E0.01685
G1 X117.216 Y83.117 E0.19154
G1 X117.216 Y82.582 E0.01685
G1 X112.912 Y78.278 E0.19154
G1 X112.912 Y77.743 E0.01685
G1 X117.216 Y82.046 E0.19154
G1 X117.216 Y81.511 E0.01685
G1 X113.277 Y77.572 E0.17530
G1 X113.812 Y77.572 E0.01685
G1 X117.216 Y80.976 E0.15148
G1 X117.216 Y80.441 E0.01685
G1 X114.348 Y77.572 E0.12765
G1 X114.883 Y77.572 E0.01685
G1 X117.216 Y79.905 E0.10383
G1 X117.216 Y79.370 E0.01685
G1 X115.418 Y77.572 E0.08001
G1 X115.953 Y77.572 E0.01685
G1 X117.216 Y78.835 E0.05618
G1 X117.216 Y78.299 E0.01685
G1 X116.489 Y77.572 E0.03236
G1 X116.599 Y77.572 E0.00347
G1 X116.599 Y77.147 E0.01338
G1 X117.216 Y77.764 E0.02746
G1 X117.216 Y77.229 E0.01685
G1 X116.599 Y76.612 E0.02746
G1 X116.599 Y76.077 E0.01685
G1 X117.216 Y76.694 E0.02746
G1 X117.216 Y76.158 E0.01685
G1 X116.599 Y75.541 E0.02746
G1 X116.599 Y75.006 E0.01685
G1 X117.216 Y75.623 E0.02746
G1 X117.216 Y75.088 E0.01685
G1 X116.599 Y74.471 E0.02746
G1 X116.599 Y73.936 E0.01685
G1 X117.216 Y74.553 E0.02746
G1 X117.216 Y74.017 E0.01685
G1 X116.599 Y73.400 E0.02746
G1 X116.599 Y72.865 E0.01685
G1 X117.216 Y73.482 E0.02746
G1 X117.216 Y72.947 E0.01685
G1 X116.599 Y72.330 E0.02746
G1 X116.599 Y71.795 E0.01685
G1 X117.216 Y72.412 E0.02746
G1 X117.216 Y71.876 E0.01685
G1 X116.599 Y71.259 E0.02746
G1 X116.599 Y70.724 E0.01685
G1 X117.216 Y71.341 E0.02746
G1 X117.216 Y70.806 E0.01685
G1 X116.599 Y70.189 E0.02746
G1 X116.599 Y69.654 E0.01685
G1 X117.216 Y70.271 E0.02746
G1 X117.216 Y69.735 E0.01685
G1 X116.599 Y69.118 E0.02746
G1 X116.599 Y68.583 E0.01685
G1 X117.216 Y69.200 E0.02746
G1 X117.216 Y68.665 E0.01685
