; generated by PrusaSlicer 2.2.0+win64 on 2020-10-27 at 20:45:13 UTC


;
;

;
;
; 

; external perimeters extrusion width = 0.45mm
; perimeters extrusion width = 0.45mm
; infill extrusion width = 0.45mm
; solid infill extrusion width = 0.45mm
; top infill extrusion width = 0.40mm
; first layer extrusion width = 0.42mm

M73 P0 R27
M201 X1250 Y1250 Z400 E5000 ; sets maximum accelerations, mm/sec^2
M203 X180 Y180 Z12 E80 ; sets maximum feedrates, mm/sec
M204 P1250 R1250 T1250 ; sets acceleration (P, T) and retract acceleration (R), mm/sec^2
M205 X8.00 Y8.00 Z2.00 E10.00 ; sets the jerk limits, mm/sec
M205 S0 T0 ; sets the minimum extruding and travel feed rate, mm/sec
M107
G90 ; use absolute coordinates
M83 ; extruder relative mode
M104 S170 ; set extruder temp for bed leveling
M140 S60 ; set bed temp
M109 R170 ; wait for bed leveling temp
M190 S60 ; wait for bed temp
G28 ; home all without mesh bed level
G29 ; mesh bed leveling 
M104 S215 ; set extruder temp
G92 E0.0
G1 Y-2.0 X179 F2400
G1 Z3 F720
M109 S215 ; wait for extruder temp

; intro line
G1 X170 F1000
G1 Z0.2 F720
G1 X110.0 E8.0 F900
M73 P0 R27
G1 X40.0 E10.0 F700
G92 E0.0

M221 S95 ; set flow
G21 ; set units to millimeters
G90 ; use absolute coordinates
M83 ; use relative distances for extrusion
M900 K0.2 ; Filament gcode LA 1.5
; ; Filament gcode LA 1.0
;BEFORE_LAYER_CHANGE
G92 E0.0
;0.2


G1 Z0.200 F9000.000
;AFTER_LAYER_CHANGE
;0.2
G1 E-3.20000 F4200.00000
G1 Z0.400 F9000.000
G1 X73.538 Y52.777
G1 Z0.200
G1 E3.20000 F2400.00000
M204 S800
G1 F1200.000
G1 X74.891 Y52.623 E0.04270
G1 X113.160 Y52.623 E1.19991
G1 X113.995 Y52.678 E0.02622
G1 X114.857 Y52.854 E0.02759
G1 X115.805 Y53.199 E0.03163
G1 X116.574 Y53.616 E0.02744
G1 X117.260 Y54.118 E0.02663
G1 X117.880 Y54.716 E0.02701
G1 X118.407 Y55.381 E0.02661
G1 X118.914 Y56.258 E0.03176
G1 X129.188 Y83.404 E0.91006
G1 X129.587 Y84.796 E0.04541
G1 X129.843 Y86.470 E0.05310
G1 X129.869 Y93.157 E0.20966
G1 X129.715 Y94.553 E0.04406
G1 X129.404 Y95.919 E0.04391
G1 X119.138 Y123.212 E0.91429
G1 X118.699 Y124.154 E0.03258
G1 X118.231 Y124.862 E0.02664
G1 X117.702 Y125.472 E0.02530
G1 X116.549 Y126.399 E0.04639
G1 X115.847 Y126.782 E0.02508
G1 X115.073 Y127.082 E0.02604
G1 X114.266 Y127.280 E0.02603
G1 X113.459 Y127.370 E0.02547
G1 X74.885 Y127.377 E1.20945
G1 X74.097 Y127.322 E0.02479
G1 X73.279 Y127.159 E0.02614
G1 X72.497 Y126.894 E0.02591
G1 X71.777 Y126.542 E0.02510
G1 X70.635 Y125.713 E0.04426
G1 X69.715 Y124.669 E0.04363
G1 X52.230 Y99.394 E0.96362
G1 X51.211 Y97.553 E0.06599
G1 X50.532 Y95.620 E0.06424
G1 X50.207 Y93.862 E0.05605
G1 X50.132 Y92.537 E0.04162
G1 X50.137 Y87.152 E0.16884
G1 X50.257 Y85.751 E0.04409
G1 X50.604 Y84.115 E0.05242
G1 X51.073 Y82.766 E0.04479
G1 X51.677 Y81.512 E0.04364
G1 X52.390 Y80.373 E0.04212
G1 X69.730 Y55.310 E0.95560
G1 X70.231 Y54.690 E0.02497
G1 X70.836 Y54.111 E0.02625
G1 X71.506 Y53.621 E0.02604
G1 X72.230 Y53.223 E0.02591
G1 X73.481 Y52.797 E0.04143
M204 S1250
G1 E-2.24000 F4200.00000
G1 F7200.000
G1 X74.891 Y52.623 E-0.78725
G1 X75.116 Y52.623 E-0.12475
G1 E-0.04800 F4200.00000
G1 Z0.400 F9000.000
G1 X80.616 Y105.730
G1 Z0.200
G1 E3.20000 F2400.00000
M204 S800
G1 F1200.000
G1 X83.810 Y105.730 E0.10013
G1 X83.810 Y109.550 E0.11977
G1 X80.616 Y109.550 E0.10013
G1 X80.616 Y105.790 E0.11789
M204 S1250
G1 X80.524 Y105.341 F9000.000
G1 E-2.24000 F4200.00000
G1 F7200.000
G1 X82.262 Y105.759 E-0.91200
G1 E-0.04800 F4200.00000
G1 Z0.400 F9000.000
G1 X112.616 Y105.790
G1 Z0.200
G1 E3.20000 F2400.00000
M204 S800
G1 F1200.000
G1 X112.616 Y105.730 E0.00188
G1 X115.810 Y105.730 E0.10013
G1 X115.810 Y109.550 E0.11977
G1 X112.616 Y109.550 E0.10013
G1 X112.616 Y105.850 E0.11601
M204 S1250
G1 X112.559 Y105.773 F9000.000
G1 E-2.24000 F4200.00000
G1 F7200.000
G1 X112.616 Y105.730 E-0.06650
G1 X114.142 Y105.730 E-0.84550
G1 E-0.04800 F4200.00000
G1 Z0.400 F9000.000
G1 X116.369 Y99.290
G1 Z0.200
G1 E3.20000 F2400.00000
M204 S800
G1 F1200.000
G1 X116.369 Y80.710 E0.58257
G1 X117.758 Y80.717 E0.04354
G1 X118.470 Y80.781 E0.02241
G1 X118.957 Y80.869 E0.01552
G1 X119.653 Y81.059 E0.02262
G1 X120.329 Y81.325 E0.02278
G1 X120.973 Y81.662 E0.02278
G1 X121.573 Y82.063 E0.02262
G1 X121.958 Y82.374 E0.01552
G1 X122.477 Y82.875 E0.02262
G1 X122.940 Y83.428 E0.02262
G1 X123.222 Y83.835 E0.01552
G1 X123.579 Y84.462 E0.02262
G1 X123.869 Y85.128 E0.02278
G1 X124.086 Y85.821 E0.02278
G1 X124.228 Y86.534 E0.02278
G1 X124.292 Y87.252 E0.02261
G1 X124.296 Y92.517 E0.16508
G1 X124.258 Y93.226 E0.02224
G1 X124.142 Y93.943 E0.02278
G1 X123.951 Y94.639 E0.02262
G1 X123.778 Y95.102 E0.01552
G1 X123.467 Y95.753 E0.02262
G1 X123.088 Y96.367 E0.02262
G1 X122.794 Y96.759 E0.01536
G1 X122.477 Y97.125 E0.01519
G1 X122.134 Y97.468 E0.01519
G1 X121.764 Y97.788 E0.01536
G1 X121.179 Y98.210 E0.02262
G1 X120.552 Y98.567 E0.02262
G1 X120.107 Y98.771 E0.01536
G1 X119.653 Y98.940 E0.01519
G1 X119.188 Y99.077 E0.01519
G1 X118.714 Y99.180 E0.01519
G1 X118.235 Y99.249 E0.01519
G1 X117.753 Y99.283 E0.01515
G1 X116.429 Y99.290 E0.04150
M204 S1250
G1 X116.746 Y98.911 F9000.000
M204 S800
G1 F1200.000
G1 X116.746 Y81.089 E0.55880
G1 X117.740 Y81.094 E0.03116
G1 X118.419 Y81.155 E0.02138
G1 X118.873 Y81.237 E0.01447
G1 X119.533 Y81.418 E0.02146
G1 X120.172 Y81.669 E0.02152
G1 X120.780 Y81.987 E0.02152
G1 X121.349 Y82.367 E0.02146
G1 X121.708 Y82.657 E0.01447
G1 X122.201 Y83.132 E0.02146
G1 X122.640 Y83.657 E0.02146
G1 X122.903 Y84.036 E0.01447
G1 X123.241 Y84.631 E0.02146
G1 X123.515 Y85.260 E0.02152
G1 X123.720 Y85.915 E0.02152
G1 X123.854 Y86.588 E0.02152
G1 X123.915 Y87.269 E0.02145
G1 X123.919 Y92.507 E0.16424
G1 X123.883 Y93.185 E0.02129
G1 X123.773 Y93.863 E0.02152
G1 X123.592 Y94.523 E0.02146
G1 X123.431 Y94.955 E0.01447
G1 X123.135 Y95.572 E0.02146
G1 X122.776 Y96.154 E0.02146
G1 X122.500 Y96.522 E0.01441
G1 X122.201 Y96.868 E0.01435
G1 X121.877 Y97.192 E0.01435
G1 X121.530 Y97.492 E0.01441
G1 X120.975 Y97.893 E0.02146
G1 X120.380 Y98.231 E0.02146
G1 X119.962 Y98.422 E0.01441
G1 X119.533 Y98.582 E0.01435
G1 X119.094 Y98.711 E0.01435
G1 X118.647 Y98.808 E0.01435
G1 X118.194 Y98.873 E0.01435
G1 X117.738 Y98.906 E0.01433
G1 X116.806 Y98.911 E0.02922
M204 S1250
G1 X116.346 Y98.915 F9000.000
G1 E-2.24000 F4200.00000
G1 F7200.000
G1 X116.801 Y97.265 E-0.91200
G1 E-0.04800 F4200.00000
G1 Z0.400 F9000.000
G1 X116.187 Y105.353
G1 Z0.200
G1 E3.20000 F2400.00000
M204 S800
G1 F1200.000
G1 X112.500 Y105.353 E0.11559
G1 X112.500 Y74.647 E0.96278
G1 X116.187 Y74.647 E0.11559
G1 X116.187 Y74.540 E0.00335
G1 X116.391 Y74.520 E0.00643
G1 X116.530 Y75.215 E0.02224
G1 X116.657 Y75.619 E0.01327
G1 X116.819 Y76.010 E0.01328
G1 X117.116 Y76.553 E0.01941
G1 X117.485 Y77.058 E0.01961
G1 X117.918 Y77.510 E0.01961
G1 X118.405 Y77.902 E0.01961
G1 X118.934 Y78.224 E0.01941
G1 X119.317 Y78.404 E0.01328
G1 X119.702 Y78.544 E0.01284
G1 X120.397 Y78.752 E0.02273
G1 X121.119 Y79.024 E0.02421
G1 X121.816 Y79.356 E0.02422
G1 X122.259 Y79.606 E0.01594
G1 X122.687 Y79.880 E0.01594
G1 X123.307 Y80.341 E0.02422
G1 X123.884 Y80.849 E0.02409
G1 X124.416 Y81.404 E0.02409
G1 X124.900 Y82.001 E0.02409
G1 X125.333 Y82.636 E0.02409
G1 X125.711 Y83.305 E0.02409
G1 X126.032 Y84.003 E0.02409
G1 X126.294 Y84.725 E0.02409
G1 X126.494 Y85.467 E0.02409
G1 X126.633 Y86.223 E0.02409
G1 X126.708 Y86.992 E0.02422
G1 X126.722 Y87.510 E0.01624
G1 X126.722 Y92.490 E0.15617
G1 X126.708 Y93.008 E0.01624
G1 X126.632 Y93.781 E0.02435
G1 X126.548 Y94.282 E0.01594
G1 X126.436 Y94.778 E0.01594
G1 X126.212 Y95.522 E0.02435
G1 X126.032 Y95.997 E0.01594
G1 X125.826 Y96.462 E0.01594
G1 X125.463 Y97.148 E0.02435
G1 X125.194 Y97.580 E0.01594
G1 X124.900 Y98.000 E0.01607
G1 X124.583 Y98.402 E0.01607
G1 X124.247 Y98.783 E0.01594
G1 X123.693 Y99.328 E0.02435
G1 X123.307 Y99.659 E0.01594
G1 X122.904 Y99.968 E0.01594
G1 X122.259 Y100.393 E0.02422
G1 X121.581 Y100.764 E0.02422
G1 X121.119 Y100.976 E0.01594
G1 X120.647 Y101.162 E0.01590
G1 X119.692 Y101.459 E0.03135
G1 X119.126 Y101.680 E0.01906
G1 X118.578 Y101.982 E0.01961
G1 X118.074 Y102.352 E0.01961
G1 X117.623 Y102.785 E0.01961
G1 X117.236 Y103.268 E0.01941
G1 X117.008 Y103.626 E0.01328
G1 X116.813 Y104.001 E0.01328
G1 X116.589 Y104.579 E0.01941
G1 X116.442 Y105.180 E0.01941
G1 X116.398 Y105.514 E0.01055
G1 X116.187 Y105.500 E0.00664
G1 X116.187 Y105.413 E0.00271
M204 S1250
G1 E-2.24000 F4200.00000
G1 F7200.000
G1 X114.541 Y105.386 E-0.91200
G1 E-0.04800 F4200.00000
G1 Z0.400 F9000.000
G1 X115.810 Y74.270
G1 Z0.200
G1 E3.20000 F2400.00000
M204 S800
G1 F1200.000
G1 X112.616 Y74.270 E0.10013
G1 X112.616 Y70.450 E0.11977
G1 X115.810 Y70.450 E0.10013
G1 X115.810 Y74.210 E0.11789
M204 S1250
G1 X115.902 Y74.659 F9000.000
G1 E-2.24000 F4200.00000
G1 F7200.000
G1 X114.164 Y74.241 E-0.91200
G1 E-0.04800 F4200.00000
G1 Z0.400 F9000.000
G1 X71.718 Y80.713
G1 Z0.200
G1 E3.20000 F2400.00000
M204 S800
G1 F1200.000
G1 X71.718 Y99.287 E0.58239
G1 X62.261 Y99.283 E0.29651
G1 X61.543 Y99.219 E0.02261
G1 X60.830 Y99.077 E0.02278
G1 X60.137 Y98.860 E0.02278
G1 X59.471 Y98.570 E0.02278
G1 X58.839 Y98.210 E0.02278
G1 X58.250 Y97.785 E0.02278
G1 X57.709 Y97.300 E0.02278
G1 X57.224 Y96.759 E0.02278
G1 X56.799 Y96.170 E0.02278
G1 X56.439 Y95.538 E0.02278
G1 X56.149 Y94.872 E0.02278
G1 X55.932 Y94.179 E0.02278
G1 X55.790 Y93.466 E0.02278
G1 X55.726 Y92.748 E0.02261
G1 X55.722 Y87.488 E0.16492
G1 X55.739 Y87.016 E0.01481
G1 X55.791 Y86.529 E0.01536
G1 X55.931 Y85.826 E0.02245
G1 X56.069 Y85.357 E0.01536
G1 X56.238 Y84.903 E0.01519
G1 X56.440 Y84.462 E0.01519
G1 X56.672 Y84.037 E0.01519
G1 X56.934 Y83.629 E0.01519
G1 X57.224 Y83.241 E0.01519
G1 X57.541 Y82.875 E0.01519
G1 X57.884 Y82.532 E0.01519
G1 X58.250 Y82.215 E0.01519
G1 X58.638 Y81.925 E0.01519
G1 X59.046 Y81.663 E0.01519
G1 X59.471 Y81.430 E0.01519
G1 X59.912 Y81.229 E0.01519
G1 X60.366 Y81.060 E0.01519
G1 X60.830 Y80.923 E0.01519
G1 X61.304 Y80.820 E0.01519
G1 X61.789 Y80.751 E0.01536
G1 X62.492 Y80.713 E0.02207
G1 X71.658 Y80.713 E0.28741
M204 S1250
G1 X71.341 Y81.090 F9000.000
M204 S800
G1 F1200.000
G1 X71.341 Y98.910 E0.55874
G1 X62.278 Y98.906 E0.28415
G1 X61.597 Y98.845 E0.02146
G1 X60.924 Y98.711 E0.02152
G1 X60.269 Y98.506 E0.02152
G1 X59.640 Y98.232 E0.02152
G1 X59.043 Y97.893 E0.02152
G1 X58.487 Y97.491 E0.02152
G1 X57.976 Y97.033 E0.02152
G1 X57.518 Y96.522 E0.02152
G1 X57.116 Y95.966 E0.02152
G1 X56.777 Y95.369 E0.02152
G1 X56.503 Y94.740 E0.02152
G1 X56.298 Y94.085 E0.02152
G1 X56.164 Y93.412 E0.02152
G1 X56.103 Y92.731 E0.02145
G1 X56.099 Y87.495 E0.16418
G1 X56.115 Y87.043 E0.01418
G1 X56.164 Y86.586 E0.01441
G1 X56.297 Y85.917 E0.02140
G1 X56.427 Y85.476 E0.01441
G1 X56.587 Y85.047 E0.01435
G1 X56.777 Y84.631 E0.01435
G1 X56.996 Y84.229 E0.01435
G1 X57.244 Y83.844 E0.01435
G1 X57.518 Y83.478 E0.01435
G1 X57.818 Y83.132 E0.01435
G1 X58.141 Y82.808 E0.01435
G1 X58.487 Y82.509 E0.01435
G1 X58.853 Y82.235 E0.01435
G1 X59.238 Y81.987 E0.01435
G1 X59.640 Y81.768 E0.01435
G1 X60.056 Y81.578 E0.01435
G1 X60.485 Y81.418 E0.01435
G1 X60.924 Y81.289 E0.01435
G1 X61.371 Y81.192 E0.01435
G1 X61.826 Y81.126 E0.01441
G1 X62.502 Y81.090 E0.02122
G1 X71.281 Y81.090 E0.27527
M204 S1250
G1 X71.741 Y81.089 F9000.000
G1 E-2.24000 F4200.00000
G1 F7200.000
G1 X71.287 Y82.736 E-0.91200
G1 E-0.04800 F4200.00000
G1 Z0.400 F9000.000
G1 X75.926 Y61.787
G1 Z0.200
G1 E3.20000 F2400.00000
M204 S800
G1 F1200.000
G1 X75.926 Y57.213 E0.14342
G1 X82.500 Y57.213 E0.20613
G1 X82.500 Y61.787 E0.14342
G1 X75.986 Y61.787 E0.20425
M204 S1250
G1 X76.303 Y61.410 F9000.000
M204 S800
G1 F1200.000
G1 X76.303 Y57.590 E0.11977
G1 X82.123 Y57.590 E0.18248
G1 X82.123 Y61.410 E0.11977
G1 X76.363 Y61.410 E0.18060
M204 S1250
G1 X75.911 Y61.487 F9000.000
G1 E-2.24000 F4200.00000
G1 F7200.000
G1 X76.337 Y59.764 E-0.91200
G1 E-0.04800 F4200.00000
G1 Z0.400 F9000.000
G1 X75.926 Y118.213
G1 Z0.200
G1 E3.20000 F2400.00000
M204 S800
G1 F1200.000
G1 X82.500 Y118.213 E0.20613
G1 X82.500 Y122.787 E0.14342
G1 X75.926 Y122.787 E0.20613
G1 X75.926 Y118.273 E0.14154
M204 S1250
G1 X76.303 Y118.590 F9000.000
M204 S800
G1 F1200.000
G1 X82.123 Y118.590 E0.18248
G1 X82.123 Y122.410 E0.11977
G1 X76.303 Y122.410 E0.18248
G1 X76.303 Y118.650 E0.11789
M204 S1250
G1 X76.173 Y118.212 F9000.000
G1 E-2.24000 F4200.00000
G1 F7200.000
G1 X77.949 Y118.633 E-0.91200
G1 E-0.04800 F4200.00000
G1 Z0.400 F9000.000
G1 X112.500 Y57.213
G1 Z0.200
G1 E3.20000 F2400.00000
M204 S800
G1 F1200.000
G1 X83.926 Y57.213 E0.89592
G1 X83.926 Y70.073 E0.40321
G1 X80.239 Y70.073 E0.11559
G1 X80.239 Y74.647 E0.14342
G1 X83.926 Y74.647 E0.11559
G1 X83.926 Y105.353 E0.96278
G1 X80.239 Y105.353 E0.11559
G1 X80.239 Y109.927 E0.14342
G1 X83.926 Y109.927 E0.11559
G1 X83.926 Y122.787 E0.40321
G1 X112.500 Y122.787 E0.89592
G1 X112.500 Y109.927 E0.40321
G1 X116.368 Y109.927 E0.12129
G1 X116.366 Y121.134 E0.35136
G1 X116.319 Y121.558 E0.01338
G1 X116.218 Y121.972 E0.01337
G1 X116.126 Y122.223 E0.00838
G1 X115.938 Y122.606 E0.01337
G1 X115.704 Y122.955 E0.01317
G1 X115.427 Y123.271 E0.01317
G1 X115.111 Y123.548 E0.01317
G1 X114.759 Y123.784 E0.01330
G1 X114.520 Y123.908 E0.00846
G1 X114.122 Y124.063 E0.01337
G1 X113.714 Y124.163 E0.01317
G1 X113.290 Y124.209 E0.01337
G1 X74.952 Y124.213 E1.20205
G1 X74.512 Y124.184 E0.01384
G1 X74.100 Y124.102 E0.01317
G1 X73.702 Y123.967 E0.01317
G1 X73.319 Y123.778 E0.01337
G1 X73.094 Y123.635 E0.00838
G1 X72.756 Y123.364 E0.01357
G1 X72.567 Y123.175 E0.00838
G1 X72.296 Y122.837 E0.01358
G1 X72.153 Y122.612 E0.00838
G1 X71.964 Y122.229 E0.01337
G1 X71.829 Y121.831 E0.01317
G1 X71.747 Y121.419 E0.01317
G1 X71.718 Y120.979 E0.01385
G1 X71.714 Y106.285 E0.46072
G1 X71.647 Y105.675 E0.01923
G1 X71.556 Y105.261 E0.01330
G1 X71.428 Y104.856 E0.01330
G1 X71.178 Y104.289 E0.01944
G1 X70.857 Y103.759 E0.01944
G1 X70.599 Y103.423 E0.01330
G1 X70.316 Y103.115 E0.01310
G1 X70.009 Y102.832 E0.01310
G1 X69.677 Y102.578 E0.01310
G1 X69.325 Y102.354 E0.01310
G1 X68.954 Y102.161 E0.01311
G1 X68.551 Y101.995 E0.01366
G1 X67.973 Y101.827 E0.01886
G1 X67.556 Y101.753 E0.01329
G1 X67.140 Y101.717 E0.01309
G1 X62.519 Y101.713 E0.14489
G1 X61.992 Y101.698 E0.01651
G1 X61.482 Y101.655 E0.01607
G1 X60.712 Y101.535 E0.02443
G1 X59.959 Y101.352 E0.02430
G1 X59.220 Y101.105 E0.02443
G1 X58.746 Y100.909 E0.01607
G1 X58.281 Y100.685 E0.01620
G1 X57.832 Y100.437 E0.01607
G1 X57.178 Y100.013 E0.02443
G1 X56.565 Y99.539 E0.02430
G1 X55.995 Y99.014 E0.02430
G1 X55.470 Y98.444 E0.02430
G1 X54.993 Y97.828 E0.02443
G1 X54.708 Y97.401 E0.01607
G1 X54.448 Y96.960 E0.01607
G1 X54.100 Y96.263 E0.02443
G1 X53.814 Y95.543 E0.02430
G1 X53.589 Y94.801 E0.02430
G1 X53.427 Y94.043 E0.02430
G1 X53.329 Y93.274 E0.02430
G1 X53.296 Y92.486 E0.02472
G1 X53.300 Y87.246 E0.16432
M73 P4 R26
G1 X53.354 Y86.473 E0.02431
G1 X53.427 Y85.957 E0.01633
G1 X53.527 Y85.450 E0.01620
G1 X53.656 Y84.950 E0.01620
G1 X53.812 Y84.461 E0.01607
G1 X54.102 Y83.733 E0.02456
G1 X54.324 Y83.272 E0.01607
G1 X54.572 Y82.823 E0.01607
G1 X54.996 Y82.169 E0.02443
G1 X55.470 Y81.556 E0.02430
G1 X55.998 Y80.983 E0.02443
G1 X56.367 Y80.633 E0.01594
G1 X56.970 Y80.139 E0.02443
G1 X57.608 Y79.700 E0.02430
G1 X58.281 Y79.315 E0.02430
G1 X58.984 Y78.989 E0.02430
G1 X59.711 Y78.723 E0.02430
G1 X60.459 Y78.519 E0.02430
G1 X61.225 Y78.377 E0.02443
G1 X61.731 Y78.320 E0.01594
G1 X62.523 Y78.287 E0.02486
G1 X66.953 Y78.287 E0.13889
G1 X67.550 Y78.248 E0.01876
G1 X67.967 Y78.174 E0.01330
G1 X68.371 Y78.066 E0.01310
G1 X68.763 Y77.923 E0.01310
G1 X69.142 Y77.746 E0.01311
G1 X69.519 Y77.528 E0.01366
G1 X70.004 Y77.172 E0.01886
G1 X70.316 Y76.885 E0.01329
G1 X70.599 Y76.577 E0.01310
G1 X70.857 Y76.241 E0.01330
G1 X71.178 Y75.711 E0.01944
G1 X71.428 Y75.144 E0.01944
G1 X71.556 Y74.739 E0.01330
G1 X71.647 Y74.325 E0.01330
G1 X71.714 Y73.715 E0.01923
G1 X71.718 Y59.021 E0.46072
G1 X71.747 Y58.581 E0.01385
G1 X71.829 Y58.169 E0.01317
G1 X71.964 Y57.771 E0.01317
G1 X72.150 Y57.394 E0.01317
G1 X72.387 Y57.040 E0.01337
G1 X72.559 Y56.835 E0.00838
G1 X72.867 Y56.540 E0.01337
G1 X73.205 Y56.291 E0.01317
G1 X73.579 Y56.086 E0.01337
G1 X73.826 Y55.984 E0.00838
