; generated by PrusaSlicer 2.2.0+win64 on 2020-11-07 at 17:10:48 UTC


;
;

;
;
; 

; external perimeters extrusion width = 0.45mm
; perimeters extrusion width = 0.45mm
; infill extrusion width = 0.45mm
; solid infill extrusion width = 0.45mm
; top infill extrusion width = 0.40mm
; first layer extrusion width = 0.42mm

M73 P0 R66
M201 X1250 Y1250 Z400 E5000 ; sets maximum accelerations, mm/sec^2
M203 X180 Y180 Z12 E80 ; sets maximum feedrates, mm/sec
M204 P1250 R1250 T1250 ; sets acceleration (P, T) and retract acceleration (R), mm/sec^2
M205 X8.00 Y8.00 Z2.00 E10.00 ; sets the jerk limits, mm/sec
M205 S0 T0 ; sets the minimum extruding and travel feed rate, mm/sec
M107
G90 ; use absolute coordinates
M83 ; extruder relative mode
M104 S170 ; set extruder temp for bed leveling
M140 S60 ; set bed temp
M109 R170 ; wait for bed leveling temp
M190 S60 ; wait for bed temp
G28 ; home all without mesh bed level
G29 ; mesh bed leveling 
M104 S215 ; set extruder temp
G92 E0.0
G1 Y-2.0 X179 F2400
G1 Z3 F720
M109 S215 ; wait for extruder temp

; intro line
G1 X170 F1000
G1 Z0.2 F720
G1 X110.0 E8.0 F900
M73 P0 R66
G1 X40.0 E10.0 F700
G92 E0.0

M221 S95 ; set flow
G21 ; set units to millimeters
G90 ; use absolute coordinates
M83 ; use relative distances for extrusion
M900 K0.2 ; Filament gcode LA 1.5
; ; Filament gcode LA 1.0
;BEFORE_LAYER_CHANGE
G92 E0.0
;0.2


G1 Z0.200 F9000.000
;AFTER_LAYER_CHANGE
;0.2
G1 E-3.20000 F4200.00000
G1 Z0.400 F9000.000
G1 X68.054 Y68.313
G1 Z0.200
G1 E3.20000 F2400.00000
M204 S800
G1 F1200.000
G1 X70.332 Y66.227 E0.09686
G1 X72.817 Y64.374 E0.09719
G1 X75.475 Y62.779 E0.09720
G1 X78.264 Y61.465 E0.09665
G1 X81.187 Y60.432 E0.09721
G1 X83.731 Y59.790 E0.08227
G1 X86.774 Y59.315 E0.09656
G1 X89.884 Y59.146 E0.09767
G1 X92.966 Y59.289 E0.09672
G1 X96.034 Y59.742 E0.09725
G1 X99.041 Y60.500 E0.09721
G1 X101.937 Y61.549 E0.09660
G1 X104.312 Y62.666 E0.08229
G1 X106.982 Y64.240 E0.09719
G1 X109.467 Y66.062 E0.09659
G1 X111.771 Y68.137 E0.09721
G1 X113.855 Y70.432 E0.09721
G1 X115.687 Y72.908 E0.09659
G1 X117.047 Y75.153 E0.08228
G1 X118.400 Y77.942 E0.09720
G1 X119.461 Y80.834 E0.09659
G1 X120.233 Y83.841 E0.09733
G1 X120.698 Y86.903 E0.09710
G1 X120.854 Y89.998 E0.09719
G1 X120.698 Y93.096 E0.09724
G1 X120.236 Y96.142 E0.09662
G1 X119.605 Y98.689 E0.08227
G1 X118.584 Y101.616 E0.09721
G1 X117.284 Y104.408 E0.09655
G1 X115.700 Y107.073 E0.09720
G1 X113.856 Y109.567 E0.09724
G1 X111.772 Y111.862 E0.09721
G1 X109.468 Y113.937 E0.09722
G1 X106.984 Y115.759 E0.09659
G1 X104.734 Y117.109 E0.08228
G1 X101.939 Y118.450 E0.09720
G1 X99.042 Y119.499 E0.09660
G1 X96.036 Y120.258 E0.09721
G1 X92.969 Y120.711 E0.09719
G1 X89.880 Y120.854 E0.09696
G1 X86.776 Y120.685 E0.09748
G1 X83.731 Y120.210 E0.09662
G1 X80.731 Y119.429 E0.09720
G1 X78.264 Y118.535 E0.08229
G1 X75.478 Y117.223 E0.09654
G1 X72.820 Y115.628 E0.09720
G1 X70.334 Y113.774 E0.09725
G1 X68.052 Y111.686 E0.09698
G1 X65.982 Y109.368 E0.09743
G1 X64.170 Y106.876 E0.09660
G1 X62.830 Y104.620 E0.08228
G1 X61.503 Y101.827 E0.09695
G1 X60.463 Y98.919 E0.09685
G1 X59.719 Y95.917 E0.09698
G1 X59.278 Y92.848 E0.09719
G1 X59.146 Y89.999 E0.08945
G1 X59.278 Y87.151 E0.08937
G1 X59.719 Y84.081 E0.09724
G1 X60.463 Y81.083 E0.09685
G1 X61.504 Y78.171 E0.09698
G1 X62.838 Y75.365 E0.09742
G1 X64.434 Y72.728 E0.09664
G1 X65.993 Y70.619 E0.08224
G1 X68.014 Y68.358 E0.09507
M204 S1250
G1 E-2.24000 F4200.00000
G1 F7200.000
G1 X69.225 Y67.244 E-0.91200
G1 E-0.04800 F4200.00000
G1 Z0.400 F9000.000
G1 X70.266 Y70.582
G1 Z0.200
G1 E3.20000 F2400.00000
M204 S800
G1 F1200.000
G1 X70.626 Y70.217 E0.01606
G1 X71.646 Y69.267 E0.04371
G1 X72.711 Y68.371 E0.04363
G1 X73.819 Y67.530 E0.04363
G1 X74.968 Y66.746 E0.04363
G1 X76.157 Y66.019 E0.04368
G1 X77.379 Y65.354 E0.04363
G1 X78.632 Y64.752 E0.04358
G1 X79.915 Y64.212 E0.04364
G1 X81.223 Y63.738 E0.04364
G1 X82.555 Y63.330 E0.04366
G1 X83.904 Y62.990 E0.04363
G1 X85.271 Y62.717 E0.04371
G1 X86.182 Y62.575 E0.02892
G1 X87.567 Y62.417 E0.04368
G1 X88.955 Y62.330 E0.04363
G1 X90.350 Y62.312 E0.04375
G1 X91.273 Y62.340 E0.02894
G1 X92.664 Y62.439 E0.04371
G1 X94.045 Y62.607 E0.04364
G1 X95.416 Y62.845 E0.04364
G1 X96.774 Y63.152 E0.04364
G1 X98.114 Y63.526 E0.04364
G1 X99.434 Y63.967 E0.04364
G1 X100.730 Y64.474 E0.04362
G1 X101.999 Y65.045 E0.04365
G1 X103.239 Y65.680 E0.04368
G1 X104.044 Y66.136 E0.02900
G1 X105.227 Y66.873 E0.04371
G1 X106.369 Y67.667 E0.04361
G1 X107.471 Y68.518 E0.04364
G1 X108.528 Y69.423 E0.04364
G1 X109.539 Y70.379 E0.04364
G1 X110.500 Y71.386 E0.04364
G1 X111.409 Y72.439 E0.04364
G1 X112.264 Y73.537 E0.04364
G1 X113.063 Y74.676 E0.04361
G1 X113.804 Y75.855 E0.04366
G1 X114.485 Y77.070 E0.04368
G1 X114.904 Y77.895 E0.02900
G1 X115.481 Y79.164 E0.04371
G1 X115.993 Y80.457 E0.04361
G1 X116.440 Y81.775 E0.04364
G1 X116.820 Y83.114 E0.04364
G1 X117.132 Y84.470 E0.04364
G1 X117.375 Y85.840 E0.04364
G1 X117.550 Y87.221 E0.04364
G1 X117.655 Y88.609 E0.04364
G1 X117.690 Y90.000 E0.04364
G1 X117.655 Y91.391 E0.04364
G1 X117.550 Y92.779 E0.04364
G1 X117.375 Y94.160 E0.04364
G1 X117.132 Y95.530 E0.04364
G1 X116.820 Y96.886 E0.04364
G1 X116.440 Y98.225 E0.04364
G1 X115.993 Y99.543 E0.04364
G1 X115.481 Y100.836 E0.04361
G1 X114.904 Y102.105 E0.04371
G1 X114.485 Y102.930 E0.02900
G1 X113.804 Y104.145 E0.04368
G1 X113.063 Y105.324 E0.04366
G1 X112.264 Y106.463 E0.04361
G1 X111.409 Y107.561 E0.04364
G1 X110.500 Y108.614 E0.04364
G1 X109.539 Y109.621 E0.04364
G1 X108.528 Y110.577 E0.04364
G1 X107.471 Y111.482 E0.04364
G1 X106.369 Y112.333 E0.04364
G1 X105.227 Y113.127 E0.04361
G1 X104.044 Y113.864 E0.04371
G1 X103.239 Y114.320 E0.02900
G1 X101.999 Y114.955 E0.04368
G1 X100.730 Y115.526 E0.04365
G1 X99.434 Y116.033 E0.04362
G1 X98.114 Y116.474 E0.04364
G1 X96.774 Y116.848 E0.04364
G1 X95.416 Y117.155 E0.04364
G1 X94.045 Y117.393 E0.04364
G1 X92.664 Y117.561 E0.04364
G1 X91.275 Y117.660 E0.04364
G1 X89.885 Y117.689 E0.04360
G1 X88.493 Y117.649 E0.04367
G1 X87.106 Y117.538 E0.04364
G1 X85.726 Y117.358 E0.04364
G1 X84.356 Y117.108 E0.04364
G1 X83.002 Y116.791 E0.04364
G1 X81.665 Y116.405 E0.04362
G1 X80.347 Y115.952 E0.04371
G1 X79.485 Y115.616 E0.02900
G1 X78.210 Y115.054 E0.04367
G1 X76.966 Y114.430 E0.04364
G1 X75.755 Y113.745 E0.04364
G1 X74.580 Y112.999 E0.04364
G1 X73.444 Y112.195 E0.04364
G1 X72.350 Y111.335 E0.04364
G1 X71.300 Y110.422 E0.04364
G1 X70.298 Y109.456 E0.04364
G1 X69.345 Y108.442 E0.04364
G1 X68.445 Y107.381 E0.04364
G1 X67.599 Y106.276 E0.04364
G1 X66.808 Y105.128 E0.04368
G1 X66.316 Y104.345 E0.02900
G1 X65.624 Y103.135 E0.04371
G1 X64.995 Y101.895 E0.04361
G1 X64.429 Y100.623 E0.04365
G1 X63.928 Y99.325 E0.04363
G1 X63.492 Y98.003 E0.04363
G1 X63.124 Y96.661 E0.04364
G1 X62.823 Y95.302 E0.04364
G1 X62.591 Y93.930 E0.04364
G1 X62.428 Y92.549 E0.04361
G1 X62.335 Y91.160 E0.04363
G1 X62.311 Y89.768 E0.04367
G1 X62.358 Y88.377 E0.04364
G1 X62.474 Y86.990 E0.04363
G1 X62.660 Y85.611 E0.04364
G1 X62.915 Y84.243 E0.04364
G1 X63.239 Y82.888 E0.04367
G1 X63.630 Y81.553 E0.04363
G1 X64.088 Y80.239 E0.04363
G1 X64.611 Y78.949 E0.04363
G1 X65.198 Y77.688 E0.04363
G1 X65.848 Y76.458 E0.04362
G1 X66.559 Y75.261 E0.04364
G1 X67.329 Y74.102 E0.04364
G1 X68.156 Y72.983 E0.04364
G1 X69.039 Y71.907 E0.04362
G1 X70.224 Y70.624 E0.05476
M204 S1250
G1 X69.955 Y70.359 F9000.000
M204 S800
G1 F1200.000
G1 X70.363 Y69.947 E0.01819
G1 X71.396 Y68.985 E0.04425
G1 X72.475 Y68.077 E0.04422
G1 X73.599 Y67.224 E0.04422
G1 X74.763 Y66.429 E0.04422
G1 X75.968 Y65.692 E0.04428
G1 X77.207 Y65.018 E0.04422
G1 X78.477 Y64.408 E0.04418
G1 X79.777 Y63.861 E0.04423
G1 X81.104 Y63.380 E0.04423
G1 X82.453 Y62.967 E0.04426
G1 X83.821 Y62.622 E0.04422
G1 X85.205 Y62.346 E0.04425
G1 X86.132 Y62.201 E0.02942
G1 X87.533 Y62.042 E0.04423
G1 X88.941 Y61.953 E0.04422
G1 X90.354 Y61.935 E0.04429
G1 X91.292 Y61.963 E0.02943
G1 X92.700 Y62.063 E0.04426
G1 X94.100 Y62.234 E0.04423
G1 X95.490 Y62.475 E0.04423
G1 X96.866 Y62.786 E0.04423
G1 X98.225 Y63.165 E0.04423
G1 X99.563 Y63.612 E0.04423
G1 X100.876 Y64.126 E0.04421
G1 X102.163 Y64.705 E0.04425
G1 X103.418 Y65.348 E0.04423
G1 X104.237 Y65.812 E0.02950
G1 X105.435 Y66.558 E0.04425
G1 X106.592 Y67.363 E0.04420
G1 X107.709 Y68.225 E0.04423
G1 X108.780 Y69.142 E0.04423
G1 X109.805 Y70.112 E0.04423
G1 X110.779 Y71.132 E0.04423
G1 X111.701 Y72.200 E0.04423
G1 X112.568 Y73.313 E0.04423
G1 X113.377 Y74.467 E0.04421
G1 X114.128 Y75.662 E0.04425
G1 X114.818 Y76.892 E0.04422
G1 X115.244 Y77.732 E0.02950
G1 X115.828 Y79.016 E0.04425
G1 X116.347 Y80.327 E0.04421
G1 X116.800 Y81.663 E0.04423
G1 X117.185 Y83.020 E0.04423
G1 X117.501 Y84.395 E0.04423
G1 X117.748 Y85.784 E0.04423
G1 X117.925 Y87.183 E0.04423
G1 X118.031 Y88.590 E0.04423
G1 X118.067 Y90.000 E0.04423
G1 X118.031 Y91.410 E0.04423
G1 X117.925 Y92.817 E0.04423
G1 X117.748 Y94.216 E0.04423
G1 X117.501 Y95.605 E0.04423
G1 X117.185 Y96.980 E0.04423
G1 X116.800 Y98.337 E0.04423
G1 X116.347 Y99.673 E0.04423
G1 X115.828 Y100.984 E0.04421
G1 X115.244 Y102.268 E0.04425
G1 X114.818 Y103.108 E0.02950
G1 X114.128 Y104.338 E0.04422
G1 X113.377 Y105.533 E0.04425
G1 X112.568 Y106.687 E0.04421
G1 X111.701 Y107.800 E0.04423
G1 X110.779 Y108.868 E0.04423
G1 X109.805 Y109.888 E0.04423
G1 X108.780 Y110.858 E0.04423
G1 X107.709 Y111.775 E0.04423
G1 X106.592 Y112.637 E0.04423
G1 X105.435 Y113.442 E0.04420
G1 X104.237 Y114.188 E0.04425
G1 X103.418 Y114.652 E0.02950
G1 X102.163 Y115.295 E0.04423
G1 X100.876 Y115.874 E0.04425
G1 X99.563 Y116.388 E0.04421
G1 X98.225 Y116.835 E0.04423
G1 X96.866 Y117.214 E0.04423
G1 X95.490 Y117.525 E0.04423
G1 X94.100 Y117.766 E0.04423
G1 X92.700 Y117.937 E0.04423
G1 X91.293 Y118.037 E0.04423
G1 X89.883 Y118.067 E0.04420
G1 X88.472 Y118.025 E0.04426
G1 X87.066 Y117.913 E0.04423
G1 X85.667 Y117.730 E0.04423
G1 X84.280 Y117.478 E0.04423
G1 X82.906 Y117.156 E0.04423
G1 X81.551 Y116.765 E0.04421
G1 X80.217 Y116.307 E0.04425
G1 X79.340 Y115.964 E0.02950
G1 X78.050 Y115.396 E0.04421
G1 X76.789 Y114.763 E0.04423
G1 X75.561 Y114.068 E0.04423
G1 X74.370 Y113.312 E0.04423
G1 X73.219 Y112.497 E0.04423
G1 X72.110 Y111.626 E0.04423
G1 X71.046 Y110.700 E0.04423
G1 X70.029 Y109.721 E0.04423
G1 X69.064 Y108.693 E0.04423
G1 X68.151 Y107.617 E0.04423
G1 X67.293 Y106.497 E0.04423
G1 X66.493 Y105.336 E0.04423
G1 X65.992 Y104.539 E0.02950
G1 X65.292 Y103.314 E0.04425
G1 X64.655 Y102.057 E0.04420
G1 X64.081 Y100.767 E0.04424
G1 X63.572 Y99.452 E0.04422
G1 X63.131 Y98.112 E0.04422
G1 X62.757 Y96.752 E0.04423
G1 X62.453 Y95.375 E0.04423
G1 X62.217 Y93.984 E0.04423
G1 X62.052 Y92.584 E0.04421
G1 X61.958 Y91.176 E0.04422
G1 X61.934 Y89.765 E0.04426
G1 X61.981 Y88.355 E0.04424
G1 X62.099 Y86.949 E0.04422
G1 X62.288 Y85.551 E0.04423
G1 X62.546 Y84.165 E0.04423
G1 X62.875 Y82.791 E0.04427
G1 X63.271 Y81.438 E0.04422
G1 X63.735 Y80.106 E0.04422
G1 X64.265 Y78.799 E0.04422
G1 X64.860 Y77.520 E0.04422
G1 X65.519 Y76.273 E0.04422
G1 X66.240 Y75.060 E0.04423
G1 X67.020 Y73.885 E0.04423
G1 X67.859 Y72.751 E0.04423
G1 X68.753 Y71.661 E0.04421
G1 X69.913 Y70.402 E0.05367
M204 S1250
G1 X70.344 Y70.453 F9000.000
G1 E-2.24000 F4200.00000
G1 F7200.000
G1 X70.363 Y69.947 E-0.35472
G1 X71.099 Y69.261 E-0.55728
G1 E-0.04800 F4200.00000
G1 Z0.400 F9000.000
G1 X111.505 Y72.747
G1 Z0.200
G1 E3.20000 F2400.00000
M204 S800
G1 F1200.000
G1 X109.327 Y70.568 E0.09682
G1 X108.339 Y69.633 E0.04277
G1 X107.292 Y68.737 E0.04330
G1 X106.202 Y67.895 E0.04330
G1 X105.929 Y67.705 E0.01044
G1 X112.289 Y74.066 E0.28272
G1 X112.827 Y74.833 E0.02945
G1 X113.345 Y75.656 E0.03055
G1 X104.347 Y66.658 E0.39994
G1 X103.900 Y66.379 E0.01658
G1 X103.062 Y65.907 E0.03023
G1 X114.080 Y76.926 E0.48980
G1 X114.658 Y78.038 E0.03939
G1 X101.966 Y65.346 E0.56418
G1 X100.983 Y64.898 E0.03394
G1 X115.105 Y79.019 E0.62772
G1 X115.480 Y79.929 E0.03094
G1 X100.070 Y64.519 E0.68500
G1 X99.205 Y64.189 E0.02913
G1 X115.808 Y80.792 E0.73805
G1 X116.082 Y81.601 E0.02684
G1 X98.402 Y63.920 E0.78592
G1 X97.632 Y63.685 E0.02531
G1 X116.314 Y82.367 E0.83045
G1 X116.526 Y83.113 E0.02439
G1 X96.890 Y63.478 E0.87283
G1 X96.187 Y63.309 E0.02273
G1 X116.690 Y83.813 E0.91141
G1 X116.850 Y84.507 E0.02240
G1 X95.496 Y63.153 E0.94921
G1 X94.841 Y63.032 E0.02095
G1 X116.967 Y85.158 E0.98353
G1 X117.083 Y85.809 E0.02076
G1 X94.194 Y62.920 E1.01742
G1 X93.574 Y62.835 E0.01967
G1 X117.164 Y86.425 E1.04861
G1 X117.242 Y87.037 E0.01939
G1 X92.965 Y62.760 E1.07912
G1 X92.372 Y62.701 E0.01875
G1 X117.297 Y87.627 E1.10797
G1 X117.341 Y88.205 E0.01823
G1 X91.796 Y62.660 E1.13550
G1 X91.222 Y62.621 E0.01808
G1 X117.376 Y88.775 E1.16258
M73 P1 R65
G1 X117.390 Y89.323 E0.01724
G1 X90.671 Y62.605 E1.18768
G1 X90.130 Y62.598 E0.01702
G1 X117.404 Y89.872 E1.21235
G1 X117.397 Y90.399 E0.01659
G1 X89.602 Y62.605 E1.23552
G1 X89.074 Y62.611 E0.01660
G1 X117.384 Y90.921 E1.25840
G1 X117.367 Y91.439 E0.01630
G1 X88.566 Y62.638 E1.28027
G1 X88.063 Y62.670 E0.01584
G1 X117.330 Y91.936 E1.30096
G1 X117.292 Y92.433 E0.01567
G1 X87.562 Y62.703 E1.32158
G1 X87.081 Y62.757 E0.01519
G1 X117.247 Y92.922 E1.34089
G1 X117.187 Y93.397 E0.01504
G1 X86.601 Y62.812 E1.35956
G1 X86.125 Y62.870 E0.01509
G1 X117.127 Y93.872 E1.37808
G1 X117.057 Y94.336 E0.01477
G1 X85.663 Y62.942 E1.39552
G1 X85.205 Y63.019 E0.01460
G1 X116.976 Y94.790 E1.41229
G1 X116.895 Y95.244 E0.01449
G1 X84.759 Y63.108 E1.42852
G1 X84.313 Y63.196 E0.01429
G1 X116.805 Y95.688 E1.44432
G1 X116.705 Y96.123 E0.01402
G1 X83.872 Y63.290 E1.45950
G1 X83.445 Y63.397 E0.01384
G1 X116.605 Y96.558 E1.47403
G1 X116.498 Y96.985 E0.01385
G1 X83.018 Y63.505 E1.48823
G1 X82.593 Y63.614 E0.01380
G1 X116.380 Y97.401 E1.50189
G1 X116.261 Y97.818 E0.01361
G1 X82.183 Y63.740 E1.51482
G1 X81.774 Y63.865 E0.01345
G1 X116.139 Y98.230 E1.52759
G1 X116.004 Y98.630 E0.01325
G1 X81.365 Y63.990 E1.53976
G1 X80.971 Y64.130 E0.01316
G1 X115.869 Y99.029 E1.55129
G1 X115.734 Y99.428 E0.01325
G1 X80.578 Y64.273 E1.56271
G1 X80.186 Y64.415 E0.01312
G1 X115.583 Y99.812 E1.57345
G1 X115.431 Y100.195 E0.01295
G1 X79.802 Y64.566 E1.58374
G1 X79.426 Y64.724 E0.01283
G1 X115.279 Y100.578 E1.59373
G1 X115.118 Y100.951 E0.01278
G1 X79.050 Y64.883 E1.60330
M73 P3 R64
G1 X78.676 Y65.044 E0.01278
G1 X114.951 Y101.319 E1.61246
G1 X114.784 Y101.686 E0.01269
G1 X78.315 Y65.218 E1.62107
G1 X77.954 Y65.391 E0.01259
G1 X114.614 Y102.051 E1.62958
G1 X114.434 Y102.406 E0.01250
G1 X77.593 Y65.565 E1.63763
G1 X77.244 Y65.750 E0.01243
G1 X114.254 Y102.760 E1.64518
G1 X114.064 Y103.104 E0.01236
G1 X76.897 Y65.938 E1.65209
G1 X76.551 Y66.126 E0.01239
G1 X113.872 Y103.447 E1.65894
G1 X113.679 Y103.789 E0.01234
G1 X76.209 Y66.319 E1.66562
G1 X75.877 Y66.521 E0.01222
G1 X113.482 Y104.126 E1.67159
G1 X113.276 Y104.454 E0.01219
G1 X75.545 Y66.724 E1.67716
G1 X75.214 Y66.927 E0.01222
G1 X113.069 Y104.783 E1.68274
G1 X112.863 Y105.111 E0.01219
G1 X74.892 Y67.140 E1.68786
G1 X74.574 Y67.357 E0.01209
G1 X112.645 Y105.427 E1.69229
G1 X112.424 Y105.742 E0.01206
G1 X74.257 Y67.574 E1.69662
G1 X73.941 Y67.793 E0.01208
G1 X112.204 Y106.056 E1.70086
G1 X111.980 Y106.367 E0.01204
G1 X73.637 Y68.023 E1.70443
G1 X73.333 Y68.254 E0.01199
G1 X111.746 Y106.667 E1.70753
G1 X111.512 Y106.968 E0.01197
G1 X73.029 Y68.485 E1.71063
G1 X72.732 Y68.723 E0.01195
G1 X111.278 Y107.268 E1.71342
G1 X111.036 Y107.560 E0.01193
G1 X72.442 Y68.967 E1.71554
G1 X72.152 Y69.211 E0.01193
G1 X110.788 Y107.847 E1.71743
G1 X110.540 Y108.134 E0.01191
G1 X71.862 Y69.455 E1.71933
G1 X71.583 Y69.712 E0.01189
G1 X110.293 Y108.421 E1.72068
M73 P4 R63
G1 X110.032 Y108.695 E0.01189
G1 X71.307 Y69.970 E1.72139
G1 X71.030 Y70.227 E0.01189
G1 X109.770 Y108.968 E1.72208
G1 X109.509 Y109.242 E0.01188
G1 X70.756 Y70.488 E1.72266
G1 X70.490 Y70.757 E0.01188
G1 X109.243 Y109.510 E1.72265
G1 X108.969 Y109.770 E0.01189
G1 X70.224 Y71.026 E1.72225
G1 X69.968 Y71.304 E0.01189
G1 X108.694 Y110.030 E1.72143
G1 X108.420 Y110.290 E0.01189
G1 X69.714 Y71.585 E1.72054
G1 X69.459 Y71.865 E0.01190
G1 X108.136 Y110.541 E1.71922
G1 X107.848 Y110.788 E0.01192
G1 X69.208 Y72.147 E1.71761
G1 X68.967 Y72.441 E0.01194
