; generated by PrusaSlicer 2.2.0+win64 on 2020-09-27 at 16:19:24 UTC


;
;

;
;
; 

; external perimeters extrusion width = 0.45mm
; perimeters extrusion width = 0.45mm
; infill extrusion width = 0.45mm
; solid infill extrusion width = 0.45mm
; top infill extrusion width = 0.40mm
; first layer extrusion width = 0.42mm

M73 P0 R138
M201 X1250 Y1250 Z400 E5000 ; sets maximum accelerations, mm/sec^2
M203 X180 Y180 Z12 E80 ; sets maximum feedrates, mm/sec
M204 P1250 R1250 T1250 ; sets acceleration (P, T) and retract acceleration (R), mm/sec^2
M205 X8.00 Y8.00 Z2.00 E10.00 ; sets the jerk limits, mm/sec
M205 S0 T0 ; sets the minimum extruding and travel feed rate, mm/sec
M107
G90 ; use absolute coordinates
M83 ; extruder relative mode
M104 S170 ; set extruder temp for bed leveling
M140 S60 ; set bed temp
M109 R170 ; wait for bed leveling temp
M190 S60 ; wait for bed temp
G28 ; home all without mesh bed level
G29 ; mesh bed leveling 
M104 S215 ; set extruder temp
G92 E0.0
G1 Y-2.0 X179 F2400
G1 Z3 F720
M109 S215 ; wait for extruder temp

; intro line
G1 X170 F1000
G1 Z0.2 F720
G1 X110.0 E8.0 F900
M73 P0 R138
G1 X40.0 E10.0 F700
G92 E0.0

M221 S95 ; set flow
G21 ; set units to millimeters
G90 ; use absolute coordinates
M83 ; use relative distances for extrusion
M900 K0.2 ; Filament gcode LA 1.5
; ; Filament gcode LA 1.0
;BEFORE_LAYER_CHANGE
G92 E0.0
;0.2


G1 Z0.200 F9000.000
;AFTER_LAYER_CHANGE
;0.2
G1 E-3.20000 F4200.00000
G1 Z0.400 F9000.000
G1 X21.651 Y60.501
G1 Z0.200
G1 E3.20000 F2400.00000
M204 S800
G1 F1200.000
G1 X21.779 Y59.985 E0.01668
G1 X21.993 Y59.534 E0.01564
G1 X22.303 Y59.123 E0.01613
G1 X22.684 Y58.790 E0.01587
G1 X23.128 Y58.539 E0.01600
G1 X23.612 Y58.383 E0.01593
G1 X120.632 Y38.223 E3.10698
G1 X128.656 Y37.239 E0.25349
G1 X134.613 Y37.122 E0.18679
G1 X149.202 Y37.652 E0.45774
G1 X151.343 Y37.894 E0.06756
G1 X153.702 Y38.487 E0.07628
G1 X157.089 Y39.660 E0.11238
G1 X157.575 Y39.993 E0.01846
G1 X157.961 Y40.432 E0.01835
G1 X158.230 Y40.956 E0.01846
G1 X158.361 Y41.526 E0.01835
G1 X158.355 Y109.622 E2.13510
G1 X158.242 Y110.103 E0.01550
G1 X147.985 Y139.268 E0.96935
G1 X147.678 Y139.833 E0.02014
G1 X146.654 Y141.183 E0.05314
G1 X146.066 Y141.621 E0.02298
G1 X145.368 Y141.879 E0.02335
G1 X144.623 Y141.959 E0.02348
G1 X99.023 Y142.877 E1.43006
G1 X90.859 Y142.352 E0.25650
G1 X89.479 Y142.017 E0.04452
G1 X88.381 Y141.476 E0.03839
G1 X87.347 Y140.587 E0.04276
G1 X28.193 Y72.451 E2.82914
G1 X25.825 Y69.473 E0.11930
G1 X24.223 Y67.111 E0.08946
G1 X22.810 Y64.421 E0.09529
G1 X21.992 Y62.460 E0.06662
G1 X21.704 Y61.565 E0.02948
G1 X21.654 Y60.561 E0.03151
M204 S1250
G1 E-2.24000 F4200.00000
G1 F7200.000
G1 X21.779 Y59.985 E-0.32678
G1 X21.993 Y59.534 E-0.27647
G1 X22.303 Y59.123 E-0.28513
G1 X22.335 Y59.095 E-0.02362
G1 E-0.04800 F4200.00000
G1 Z0.400 F9000.000
G1 X25.181 Y61.972
G1 Z0.200
G1 E3.20000 F2400.00000
M204 S800
G1 F1200.000
G1 X26.204 Y62.601 E0.03765
G1 X26.924 Y63.084 E0.02719
G1 X29.070 Y64.704 E0.08432
G1 X29.849 Y65.243 E0.02969
G1 X30.429 Y65.610 E0.02155
G1 X31.378 Y66.161 E0.03439
G1 X32.435 Y66.717 E0.03746
G1 X33.603 Y67.275 E0.04059
G1 X34.450 Y67.650 E0.02903
G1 X35.817 Y68.209 E0.04633
G1 X36.793 Y68.579 E0.03272
G1 X38.343 Y69.123 E0.05150
G1 X39.438 Y69.479 E0.03611
G1 X41.143 Y69.991 E0.05580
G1 X43.384 Y70.586 E0.07269
G1 X45.013 Y70.959 E0.05241
G1 X46.086 Y71.176 E0.03434
G1 X47.667 Y71.454 E0.05033
G1 X48.714 Y71.611 E0.03320
G1 X50.264 Y71.801 E0.04896
G1 X51.296 Y71.899 E0.03250
G1 X52.831 Y72.004 E0.04825
G1 X54.110 Y72.053 E0.04011
G1 X55.390 Y72.069 E0.04015
G1 X56.420 Y72.056 E0.03228
G1 X57.974 Y71.995 E0.04879
G1 X59.566 Y71.884 E0.05004
G1 X60.652 Y71.780 E0.03418
G1 X62.301 Y71.582 E0.05208
G1 X63.424 Y71.419 E0.03559
G1 X65.697 Y71.024 E0.07235
G1 X67.432 Y70.664 E0.05556
G1 X68.610 Y70.392 E0.03788
G1 X70.969 Y69.780 E0.07642
G1 X72.753 Y69.257 E0.05830
G1 X73.949 Y68.879 E0.03933
G1 X76.327 Y68.057 E0.07889
G1 X78.688 Y67.150 E0.07929
G1 X81.009 Y66.166 E0.07904
G1 X83.266 Y65.114 E0.07809
G1 X84.370 Y64.564 E0.03868
G1 X85.977 Y63.717 E0.05693
G1 X88.054 Y62.537 E0.07492
G1 X90.291 Y61.162 E0.08234
G1 X92.289 Y59.864 E0.07469
G1 X95.711 Y57.562 E0.12932
G1 X95.906 Y57.356 E0.00887
G1 X96.145 Y56.831 E0.01811
G1 X95.846 Y56.350 E0.01774
G1 X95.637 Y56.167 E0.00873
G1 X95.755 Y56.078 E0.00463
G1 X103.832 Y51.282 E0.29455
G1 X105.345 Y50.431 E0.05441
G1 X107.010 Y49.537 E0.05926
G1 X107.958 Y48.985 E0.03441
G1 X109.371 Y48.065 E0.05286
G1 X110.125 Y47.532 E0.02895
G1 X110.451 Y47.267 E0.01318
G1 X110.681 Y47.003 E0.01097
G1 X110.822 Y46.742 E0.00930
G1 X110.872 Y46.423 E0.01011
G1 X112.383 Y45.588 E0.05412
G1 X114.607 Y44.209 E0.08208
G1 X115.663 Y43.582 E0.03849
G1 X117.009 Y42.861 E0.04789
G1 X117.978 Y42.403 E0.03359
G1 X118.882 Y42.028 E0.03069
G1 X119.945 Y41.660 E0.03527
G1 X120.985 Y41.383 E0.03375
G1 X121.952 Y41.209 E0.03080
G1 X122.395 Y41.159 E0.01398
G1 X123.047 Y41.124 E0.02047
G1 X123.697 Y41.135 E0.02040
G1 X125.347 Y41.221 E0.05178
G1 X125.791 Y41.221 E0.01392
G1 X126.350 Y41.183 E0.01759
G1 X126.736 Y41.127 E0.01222
G1 X127.246 Y41.002 E0.01648
G1 X127.706 Y40.828 E0.01540
G1 X128.426 Y40.486 E0.02499
G1 X128.628 Y40.432 E0.00655
G1 X128.910 Y40.394 E0.00892
G1 X129.320 Y40.379 E0.01289
G1 X131.096 Y40.384 E0.05568
G1 X133.868 Y40.294 E0.08693
G1 X134.935 Y40.290 E0.03347
G1 X135.856 Y40.327 E0.02890
G1 X136.443 Y40.376 E0.01846
G1 X136.994 Y40.443 E0.01742
G1 X137.814 Y40.583 E0.02607
G1 X138.344 Y40.698 E0.01700
G1 X139.109 Y40.903 E0.02484
G1 X139.549 Y41.046 E0.01451
G1 X140.664 Y41.469 E0.03738
G1 X141.312 Y41.592 E0.02069
G1 X141.930 Y41.635 E0.01942
G1 X142.817 Y41.625 E0.02780
G1 X143.129 Y41.593 E0.00986
G1 X143.891 Y41.407 E0.02460
G1 X143.911 Y40.891 E0.01617
G1 X144.917 Y40.898 E0.03155
G1 X148.213 Y40.799 E0.10338
G1 X149.061 Y40.813 E0.02657
G1 X149.813 Y40.866 E0.02365
G1 X150.523 Y40.962 E0.02246
G1 X151.014 Y41.054 E0.01566
G1 X152.134 Y41.326 E0.03615
G1 X153.534 Y41.754 E0.04589
G1 X155.211 Y42.332 E0.05561
G1 X155.211 Y108.378 E2.07084
G1 X153.460 Y108.014 E0.05608
G1 X152.110 Y107.673 E0.04367
G1 X151.142 Y107.402 E0.03151
G1 X148.853 Y106.696 E0.07510
G1 X144.943 Y105.410 E0.12905
G1 X143.405 Y104.928 E0.05053
G1 X143.071 Y104.882 E0.01058
G1 X142.807 Y104.906 E0.00832
G1 X142.550 Y104.982 E0.00841
G1 X142.229 Y105.162 E0.01154
G1 X141.931 Y105.446 E0.01290
G1 X141.773 Y105.676 E0.00873
G1 X141.656 Y105.922 E0.00855
G1 X141.578 Y106.241 E0.01031
G1 X141.562 Y106.705 E0.01455
G1 X141.510 Y106.830 E0.00422
G1 X141.342 Y107.057 E0.00890
G1 X140.757 Y107.706 E0.02739
G1 X140.293 Y108.289 E0.02334
G1 X139.729 Y109.123 E0.03157
G1 X139.331 Y109.818 E0.02511
G1 X138.950 Y110.584 E0.02683
G1 X138.691 Y111.164 E0.01991
G1 X138.078 Y112.709 E0.05212
G1 X137.488 Y114.345 E0.05455
G1 X137.128 Y115.427 E0.03574
G1 X136.800 Y116.482 E0.03464
G1 X136.368 Y118.009 E0.04976
G1 X136.004 Y119.477 E0.04741
G1 X135.659 Y121.062 E0.05088
G1 X135.258 Y123.081 E0.06452
G1 X135.103 Y124.075 E0.03155
G1 X135.059 Y124.679 E0.01901
G1 X135.069 Y125.273 E0.01860
G1 X135.136 Y125.813 E0.01707
G1 X135.260 Y126.336 E0.01685
G1 X135.442 Y126.861 E0.01744
G1 X135.681 Y127.383 E0.01801
G1 X135.975 Y127.893 E0.01845
G1 X136.319 Y128.381 E0.01870
G1 X136.723 Y128.862 E0.01971
G1 X137.205 Y129.356 E0.02165
G1 X137.801 Y129.897 E0.02524
G1 X139.448 Y131.301 E0.06785
G1 X140.104 Y131.928 E0.02846
G1 X141.757 Y133.581 E0.07328
G1 X143.155 Y134.849 E0.05920
G1 X143.557 Y135.282 E0.01850
G1 X143.827 Y135.664 E0.01465
G1 X144.003 Y136.026 E0.01264
G1 X144.340 Y137.068 E0.03432
G1 X144.516 Y137.494 E0.01446
G1 X144.703 Y137.818 E0.01172
G1 X144.417 Y137.878 E0.00917
G1 X144.072 Y138.188 E0.01454
G1 X143.940 Y138.623 E0.01426
G1 X143.952 Y138.772 E0.00468
G1 X142.981 Y138.728 E0.03047
G1 X141.113 Y138.604 E0.05870
G1 X138.059 Y138.365 E0.09603
G1 X136.450 Y138.295 E0.05050
G1 X134.941 Y138.315 E0.04732
G1 X132.611 Y138.488 E0.07327
G1 X131.647 Y138.541 E0.03027
G1 X130.899 Y138.546 E0.02346
G1 X130.427 Y138.526 E0.01482
G1 X130.007 Y138.487 E0.01320
G1 X129.480 Y138.405 E0.01674
G1 X129.150 Y138.331 E0.01060
G1 X128.685 Y138.189 E0.01524
G1 X128.419 Y138.082 E0.00897
G1 X128.248 Y137.957 E0.00665
G1 X128.172 Y137.859 E0.00391
G1 X128.045 Y137.612 E0.00871
G1 X127.950 Y137.333 E0.00924
G1 X127.844 Y136.891 E0.01425
G1 X127.631 Y135.813 E0.03445
G1 X127.462 Y135.184 E0.02042
G1 X127.242 Y134.563 E0.02065
G1 X126.968 Y133.951 E0.02102
G1 X126.519 Y133.142 E0.02900
G1 X126.094 Y132.501 E0.02412
G1 X125.565 Y131.791 E0.02777
G1 X124.233 Y130.102 E0.06743
G1 X123.799 Y129.494 E0.02345
G1 X123.465 Y128.959 E0.01977
G1 X123.196 Y128.450 E0.01806
G1 X122.924 Y127.789 E0.02239
G1 X122.720 Y127.090 E0.02285
G1 X122.589 Y126.366 E0.02306
G1 X122.555 Y126.018 E0.01098
G1 X122.539 Y125.475 E0.01704
G1 X122.566 Y124.935 E0.01692
G1 X122.640 Y124.347 E0.01858
G1 X122.770 Y123.671 E0.02159
G1 X122.893 Y123.159 E0.01653
G1 X123.585 Y120.690 E0.08039
G1 X123.790 Y119.874 E0.02638
G1 X124.043 Y118.690 E0.03796
G1 X124.270 Y117.389 E0.04142
G1 X124.429 Y116.318 E0.03394
G1 X125.014 Y111.824 E0.14209
G1 X125.155 Y110.525 E0.04096
G1 X125.175 Y110.108 E0.01310
G1 X125.162 Y109.661 E0.01404
G1 X125.120 Y109.389 E0.00861
G1 X124.985 Y109.024 E0.01219
G1 X124.658 Y108.686 E0.01477
G1 X124.268 Y108.565 E0.01278
G1 X123.928 Y108.600 E0.01072
G1 X123.647 Y108.725 E0.00964
G1 X122.843 Y109.407 E0.03305
G1 X122.704 Y109.486 E0.00500
G1 X122.535 Y109.549 E0.00567
G1 X122.157 Y109.611 E0.01200
G1 X120.713 Y109.596 E0.04528
G1 X120.125 Y109.664 E0.01858
G1 X119.673 Y109.787 E0.01467
G1 X119.363 Y109.906 E0.01041
G1 X118.924 Y110.126 E0.01541
G1 X118.612 Y110.317 E0.01146
G1 X118.144 Y110.656 E0.01811
G1 X117.626 Y111.095 E0.02128
G1 X116.349 Y112.316 E0.05538
G1 X115.786 Y112.821 E0.02372
G1 X115.183 Y113.301 E0.02419
G1 X114.749 Y113.616 E0.01680
G1 X114.013 Y114.102 E0.02765
G1 X113.142 Y114.625 E0.03185
G1 X110.337 Y116.167 E0.10037
G1 X109.323 Y116.760 E0.03683
G1 X108.385 Y117.366 E0.03499
G1 X107.575 Y117.950 E0.03135
G1 X106.857 Y118.532 E0.02896
G1 X106.028 Y119.305 E0.03554
G1 X105.350 Y120.029 E0.03112
G1 X104.025 Y121.533 E0.06284
G1 X103.625 Y121.937 E0.01781
G1 X103.268 Y122.247 E0.01484
G1 X103.028 Y122.426 E0.00937
G1 X101.954 Y123.079 E0.03941
G1 X101.663 Y123.336 E0.01216
G1 X101.446 Y123.644 E0.01183
G1 X101.323 Y123.995 E0.01166
G1 X101.293 Y124.262 E0.00841
G1 X101.304 Y124.521 E0.00814
G1 X101.381 Y124.890 E0.01183
G1 X101.532 Y125.302 E0.01375
G1 X102.333 Y126.889 E0.05572
G1 X102.657 Y127.573 E0.02375
G1 X103.896 Y130.453 E0.09830
G1 X104.365 Y131.494 E0.03580
G1 X104.801 Y132.357 E0.03031
G1 X105.111 Y132.910 E0.01988
G1 X105.584 Y133.661 E0.02781
G1 X105.848 Y134.042 E0.01455
G1 X106.074 Y134.307 E0.01092
G1 X106.285 Y134.472 E0.00841
G1 X106.601 Y134.626 E0.01101
G1 X106.945 Y134.718 E0.01116
G1 X107.421 Y134.805 E0.01518
G1 X107.548 Y134.858 E0.00432
G1 X107.730 Y135.031 E0.00786
G1 X107.933 Y135.368 E0.01234
G1 X108.110 Y135.813 E0.01501
G1 X108.214 Y136.196 E0.01243
G1 X108.304 Y136.687 E0.01567
G1 X108.533 Y138.314 E0.05152
G1 X108.671 Y138.908 E0.01910
G1 X108.763 Y139.201 E0.00964
G1 X108.496 Y139.188 E0.00836
G1 X107.812 Y139.091 E0.02167
G1 X106.467 Y138.823 E0.04301
G1 X105.997 Y138.783 E0.01479
G1 X105.667 Y138.789 E0.01032
G1 X105.354 Y138.824 E0.00988
G1 X104.878 Y138.924 E0.01526
G1 X103.866 Y139.224 E0.03309
G1 X103.361 Y139.354 E0.01636
G1 X102.969 Y139.420 E0.01245
G1 X102.481 Y139.440 E0.01531
G1 X101.955 Y139.365 E0.01668
G1 X101.613 Y139.261 E0.01121
G1 X100.890 Y138.978 E0.02433
G1 X100.538 Y138.899 E0.01132
G1 X100.252 Y138.893 E0.00898
G1 X99.888 Y138.988 E0.01179
G1 X99.669 Y139.123 E0.00807
G1 X99.489 Y139.298 E0.00787
G1 X99.354 Y139.496 E0.00752
G1 X99.248 Y139.713 E0.00758
G1 X99.116 Y139.713 E0.00412
G1 X98.288 Y139.548 E0.02648
G1 X97.151 Y139.359 E0.03615
G1 X96.457 Y139.272 E0.02194
G1 X95.476 Y139.193 E0.03084
G1 X94.175 Y139.168 E0.04079
G1 X92.054 Y139.261 E0.06657
G1 X91.417 Y139.232 E0.01999
G1 X91.008 Y139.169 E0.01300
G1 X90.652 Y139.074 E0.01155
G1 X90.351 Y138.955 E0.01014
G1 X90.107 Y138.821 E0.00874
G1 X89.837 Y138.612 E0.01071
G1 X89.649 Y138.397 E0.00894
G1 X89.535 Y138.192 E0.00736
G1 X89.448 Y137.867 E0.01054
G1 X89.407 Y137.511 E0.01124
G1 X89.366 Y136.635 E0.02751
G1 X89.320 Y133.325 E0.10378
G1 X89.260 Y132.409 E0.02881
G1 X89.157 Y131.558 E0.02686
G1 X88.954 Y130.532 E0.03278
G1 X88.476 Y128.601 E0.06239
G1 X88.329 Y127.785 E0.02599
G1 X88.059 Y126.035 E0.05553
G1 X87.892 Y125.183 E0.02722
G1 X87.699 Y124.427 E0.02447
G1 X87.250 Y123.080 E0.04450
G1 X87.090 Y122.495 E0.01902
G1 X87.041 Y122.067 E0.01350
G1 X87.083 Y121.791 E0.00875
G1 X87.148 Y121.623 E0.00565
G1 X87.260 Y121.426 E0.00710
G1 X87.592 Y121.017 E0.01654
G1 X88.083 Y120.558 E0.02108
G1 X89.381 Y119.511 E0.05227
G1 X90.279 Y118.715 E0.03762
G1 X90.932 Y118.058 E0.02906
G1 X91.362 Y117.586 E0.02000
G1 X92.195 Y116.576 E0.04106
G1 X92.832 Y115.712 E0.03367
G1 X93.282 Y115.058 E0.02488
G1 X95.809 Y111.099 E0.14726
G1 X96.762 Y109.700 E0.05308
G1 X97.518 Y108.634 E0.04096
G1 X99.111 Y106.460 E0.08453
G1 X101.183 Y103.711 E0.10792
G1 X102.528 Y101.968 E0.06905
G1 X104.896 Y98.958 E0.12006
G1 X105.158 Y98.588 E0.01420
G1 X105.465 Y98.090 E0.01837
G1 X105.768 Y97.436 E0.02261
G1 X105.936 Y96.821 E0.01997
G1 X105.979 Y96.494 E0.01034
G1 X105.988 Y96.024 E0.01476
G1 X105.908 Y95.376 E0.02045
G1 X105.721 Y94.704 E0.02189
G1 X105.431 Y94.034 E0.02289
G1 X105.146 Y93.542 E0.01783
G1 X104.561 Y92.710 E0.03187
G1 X104.394 Y92.388 E0.01139
G1 X104.342 Y92.159 E0.00735
G1 X104.361 Y91.441 E0.02252
G1 X104.269 Y91.082 E0.01163
G1 X104.096 Y90.808 E0.01014
G1 X103.791 Y90.570 E0.01213
G1 X103.444 Y90.444 E0.01159
G1 X101.914 Y90.249 E0.04837
G1 X101.236 Y90.106 E0.02170
G1 X100.534 Y89.914 E0.02284
G1 X99.415 Y89.531 E0.03710
G1 X97.369 Y88.752 E0.06863
G1 X96.583 Y88.496 E0.02590
G1 X96.079 Y88.359 E0.01639
G1 X95.353 Y88.208 E0.02324
G1 X94.607 Y88.106 E0.02362
G1 X93.771 Y88.044 E0.02627
G1 X93.153 Y88.026 E0.01938
G1 X92.113 Y88.036 E0.03262
G1 X90.815 Y88.095 E0.04075
G1 X89.322 Y88.210 E0.04694
G1 X87.696 Y88.383 E0.05127
G1 X85.155 Y88.729 E0.08041
G1 X78.983 Y89.684 E0.19581
G1 X76.986 Y89.942 E0.06314
G1 X75.075 Y90.140 E0.06023
G1 X73.279 Y90.277 E0.05648
G1 X71.021 Y90.375 E0.07087
G1 X68.892 Y90.382 E0.06674
G1 X66.809 Y90.303 E0.06538
G1 X65.261 Y90.189 E0.04866
G1 X63.211 Y89.963 E0.06467
G1 X61.698 Y89.739 E0.04795
G1 X59.705 Y89.370 E0.06356
G1 X58.241 Y89.042 E0.04701
G1 X56.323 Y88.536 E0.06221
G1 X54.916 Y88.106 E0.04612
G1 X53.059 Y87.462 E0.06161
G1 X51.706 Y86.935 E0.04555
G1 X50.806 Y86.556 E0.03061
G1 X49.465 Y85.947 E0.04618
G1 X48.586 Y85.519 E0.03064
G1 X47.278 Y84.837 E0.04627
G1 X46.422 Y84.362 E0.03069
G1 X44.726 Y83.346 E0.06199
G1 X43.484 Y82.536 E0.04649
G1 X42.668 Y81.973 E0.03109
G1 X41.059 Y80.784 E0.06274
G1 X40.272 Y80.163 E0.03142
G1 X39.092 Y79.180 E0.04814
G1 X37.476 Y77.738 E0.06789
G1 X36.237 Y76.557 E0.05368
G1 X35.399 Y75.723 E0.03708
G1 X34.118 Y74.393 E0.05788
G1 X33.256 Y73.460 E0.03983
G1 X31.945 Y71.983 E0.06192
G1 X31.066 Y70.954 E0.04244
G1 X29.737 Y69.339 E0.06558
G1 X28.646 Y67.956 E0.05524
G1 X28.133 Y67.272 E0.02680
G1 X27.509 Y66.382 E0.03407
G1 X26.763 Y65.191 E0.04407
G1 X26.100 Y63.967 E0.04365
G1 X25.687 Y63.105 E0.02998
G1 X25.207 Y62.025 E0.03704
M204 S1250
G1 E-2.24000 F4200.00000
G1 F7200.000
G1 X26.204 Y62.601 E-0.63750
G1 X26.615 Y62.877 E-0.27450
G1 E-0.04800 F4200.00000
G1 Z0.400 F9000.000
G1 X143.525 Y41.108
G1 Z0.200
G1 E3.20000 F2400.00000
M204 S800
G1 F1200.000
G1 X143.549 Y40.502 E0.01899
G1 X144.912 Y40.521 E0.04274
G1 X148.210 Y40.422 E0.10348
G1 X149.077 Y40.436 E0.02717
G1 X149.852 Y40.491 E0.02435
G1 X150.583 Y40.590 E0.02313
G1 X151.093 Y40.685 E0.01627
G1 X152.234 Y40.962 E0.03682
G1 X153.651 Y41.395 E0.04645
G1 X155.588 Y42.063 E0.06425
G1 X155.588 Y108.830 E2.09344
G1 X154.668 Y108.663 E0.02932
G1 X153.373 Y108.381 E0.04153
G1 X152.013 Y108.037 E0.04402
G1 X151.035 Y107.763 E0.03181
