; generated by PrusaSlicer 2.3.0+win64 on 2021-08-10 at 15:45:11 UTC


;
;

;
;
; 

; external perimeters extrusion width = 0.45mm
; perimeters extrusion width = 0.45mm
; infill extrusion width = 0.45mm
; solid infill extrusion width = 0.45mm
; top infill extrusion width = 0.40mm
; first layer extrusion width = 0.42mm

M73 P0 R18
M201 X1250 Y1250 Z400 E5000 ; sets maximum accelerations, mm/sec^2
M203 X180 Y180 Z12 E80 ; sets maximum feedrates, mm/sec
M204 P1250 R1250 T1250 ; sets acceleration (P, T) and retract acceleration (R), mm/sec^2
M205 X8.00 Y8.00 Z2.00 E10.00 ; sets the jerk limits, mm/sec
M205 S0 T0 ; sets the minimum extruding and travel feed rate, mm/sec
M107
;TYPE:Custom
G90 ; use absolute coordinates
M83 ; extruder relative mode
M104 S170 ; set extruder temp for bed leveling
M140 S60 ; set bed temp
M109 R170 ; wait for bed leveling temp
M190 S60 ; wait for bed temp
G28 ; home all without mesh bed level
G29 ; mesh bed leveling 
M104 S215 ; set extruder temp
G92 E0.0
G1 Y-2.0 X179 F2400
G1 Z3 F720
M109 S215 ; wait for extruder temp

; intro line
G1 X170 F1000
G1 Z0.2 F720
G1 X110.0 E8.0 F900
M73 P0 R17
G1 X40.0 E10.0 F700
G92 E0.0

M221 S95 ; set flow
G21 ; set units to millimeters
G90 ; use absolute coordinates
M83 ; use relative distances for extrusion
M900 K0.2 ; Filament gcode LA 1.5
; ; Filament gcode LA 1.0
;LAYER_CHANGE
;Z:0.2
;HEIGHT:0.2
;BEFORE_LAYER_CHANGE
G92 E0.0
;0.2


M73 P1 R17
G1 E-3.20000 F4200.000
G1 Z0.200 F9000.000
;AFTER_LAYER_CHANGE
;0.2
G1 Z0.400
G1 X69.026 Y82.188
G1 Z0.200
G1 E3.20000 F2400.000
M204 S800
;TYPE:Skirt
;WIDTH:0.42
G1 F1200.000
G1 X69.558 Y81.595 E0.02498
G1 X73.249 Y78.763 E0.14587
G1 X74.811 Y77.810 E0.05735
G1 X76.200 Y77.180 E0.04782
G1 X77.909 Y76.641 E0.05620
G1 X79.681 Y76.328 E0.05642
G1 X81.184 Y76.246 E0.04721
G1 X101.025 Y77.886 E0.62421
G1 X102.431 Y78.185 E0.04505
G1 X103.761 Y78.634 E0.04402
G1 X105.026 Y79.230 E0.04386
G1 X106.200 Y79.956 E0.04329
G1 X110.445 Y82.886 E0.16170
G1 X110.988 Y83.496 E0.02562
G1 X111.327 Y84.239 E0.02562
G1 X111.434 Y84.971 E0.02320
G1 X111.433 Y95.082 E0.31701
G1 X111.300 Y95.851 E0.02447
G1 X110.956 Y96.552 E0.02447
G1 X110.276 Y97.245 E0.03044
G1 X105.964 Y100.205 E0.16401
G1 X105.048 Y100.758 E0.03353
G1 X103.069 Y101.620 E0.06768
G1 X101.786 Y101.974 E0.04173
G1 X100.725 Y102.156 E0.03377
G1 X82.277 Y103.710 E0.58048
G1 X80.814 Y103.749 E0.04587
G1 X78.960 Y103.574 E0.05840
G1 X76.884 Y103.066 E0.06701
M73 P2 R17
G1 X75.166 Y102.370 E0.05811
G1 X73.541 Y101.437 E0.05875
G1 X69.466 Y98.325 E0.16078
G1 X68.965 Y97.716 E0.02473
G1 X68.656 Y96.986 E0.02485
G1 X68.566 Y96.305 E0.02154
G1 X68.566 Y83.708 E0.39497
G1 X68.685 Y82.912 E0.02523
G1 X69.000 Y82.242 E0.02323
M204 S1250
G1 X69.338 Y82.401 F9000.000
M204 S800
G1 F1200.000
G1 X69.811 Y81.876 E0.02216
G1 X73.467 Y79.071 E0.14448
G1 X74.995 Y78.139 E0.05613
G1 X76.335 Y77.532 E0.04611
G1 X78.001 Y77.006 E0.05478
G1 X79.726 Y76.702 E0.05493
G1 X81.183 Y76.623 E0.04574
G1 X100.956 Y78.257 E0.62210
G1 X102.031 Y78.470 E0.03435
G1 X103.332 Y78.873 E0.04271
G1 X104.562 Y79.412 E0.04211
G1 X105.737 Y80.097 E0.04265
G1 X110.172 Y83.150 E0.16881
G1 X110.650 Y83.669 E0.02213
G1 X110.955 Y84.310 E0.02225
G1 X111.057 Y84.978 E0.02119
G1 X111.056 Y95.057 E0.31602
G1 X110.946 Y95.720 E0.02107
G1 X110.656 Y96.322 E0.02095
G1 X110.056 Y96.938 E0.02696
G1 X105.752 Y99.893 E0.16370
G1 X104.865 Y100.428 E0.03248
G1 X102.954 Y101.261 E0.06537
G1 X101.702 Y101.606 E0.04072
G1 X100.674 Y101.783 E0.03269
G1 X82.250 Y103.334 E0.57973
G1 X80.829 Y103.372 E0.04456
G1 X79.050 Y103.206 E0.05603
G1 X77.281 Y102.796 E0.05693
G1 X75.346 Y102.037 E0.06519
G1 X73.772 Y101.138 E0.05683
G1 X69.737 Y98.061 E0.15909
G1 X69.292 Y97.528 E0.02178
G1 X69.020 Y96.889 E0.02178
G1 X68.943 Y96.301 E0.01858
G1 X68.943 Y83.708 E0.39485
G1 X69.044 Y83.025 E0.02166
G1 X69.313 Y82.456 E0.01974
M204 S1250
; printing object TriplePotHolder_08_cutdown.stl id:0 copy 0
G1 E-2.24000 F4200.000
;WIPE_START
G1 F7200.000
G1 X69.811 Y81.876 E-0.42362
G1 X70.510 Y81.339 E-0.48838
;WIPE_END
G1 E-0.04800 F4200.000
G1 Z0.400 F9000.000
G1 X71.939 Y88.173
G1 Z0.200
G1 E3.20000 F2400.000
M204 S800
;TYPE:External perimeter
G1 F1200.000
G1 X72.651 Y88.023 E0.02282
G1 X73.182 Y87.984 E0.01671
G1 X73.717 Y88.035 E0.01685
G1 X74.390 Y88.214 E0.02183
G1 X74.390 Y88.700 E0.01526
G1 X74.597 Y88.718 E0.00650
G1 X74.724 Y88.175 E0.01748
G1 X74.757 Y87.711 E0.01458
G1 X74.804 Y87.456 E0.00815
G1 X74.881 Y87.209 E0.00810
G1 X75.079 Y86.761 E0.01537
G1 X75.320 Y86.339 E0.01525
G1 X75.591 Y85.937 E0.01520
G1 X76.045 Y85.376 E0.02262
G1 X76.554 Y84.866 E0.02260
G1 X77.118 Y84.409 E0.02276
G1 X77.725 Y84.015 E0.02268
G1 X78.369 Y83.687 E0.02268
G1 X79.045 Y83.428 E0.02268
G1 X79.743 Y83.241 E0.02268
G1 X80.456 Y83.128 E0.02262
G1 X80.941 Y83.094 E0.01524
G1 X81.662 Y83.107 E0.02262
G1 X82.380 Y83.195 E0.02268
G1 X83.085 Y83.357 E0.02268
G1 X83.769 Y83.593 E0.02268
G1 X84.424 Y83.899 E0.02268
G1 X85.041 Y84.269 E0.02254
G1 X85.436 Y84.556 E0.01532
G1 X85.980 Y85.029 E0.02262
G1 X86.474 Y85.558 E0.02268
G1 X86.909 Y86.136 E0.02268
G1 X87.281 Y86.754 E0.02262
G1 X87.494 Y87.191 E0.01524
G1 X87.752 Y87.863 E0.02256
G1 X87.886 Y88.330 E0.01524
G1 X88.023 Y89.036 E0.02254
G1 X88.086 Y89.759 E0.02276
G1 X88.074 Y90.482 E0.02268
G1 X87.985 Y91.200 E0.02268
G1 X87.823 Y91.903 E0.02262
G1 X87.673 Y92.365 E0.01524
G1 X87.391 Y93.029 E0.02262
G1 X87.040 Y93.662 E0.02268
G1 X86.626 Y94.254 E0.02268
G1 X86.154 Y94.797 E0.02254
G1 X85.803 Y95.137 E0.01532
G1 X85.242 Y95.591 E0.02262
G1 X84.635 Y95.985 E0.02268
G1 X83.992 Y96.312 E0.02262
G1 X83.542 Y96.494 E0.01524
G1 X82.852 Y96.705 E0.02262
G1 X82.142 Y96.843 E0.02268
G1 X81.421 Y96.906 E0.02268
G1 X80.698 Y96.893 E0.02268
G1 X79.980 Y96.805 E0.02268
G1 X79.275 Y96.643 E0.02268
G1 X78.593 Y96.408 E0.02262
G1 X78.149 Y96.210 E0.01524
G1 X77.518 Y95.860 E0.02262
G1 X76.928 Y95.447 E0.02260
G1 X76.380 Y94.971 E0.02276
G1 X75.888 Y94.443 E0.02262
G1 X75.589 Y94.060 E0.01524
G1 X75.196 Y93.455 E0.02260
G1 X74.970 Y93.018 E0.01544
G1 X74.805 Y92.548 E0.01563
G1 X74.757 Y92.289 E0.00827
G1 X74.724 Y91.825 E0.01458
G1 X74.597 Y91.282 E0.01748
G1 X74.390 Y91.300 E0.00650
G1 X74.390 Y91.786 E0.01526
G1 X73.717 Y91.965 E0.02183
G1 X73.182 Y92.016 E0.01685
G1 X72.651 Y91.977 E0.01671
G1 X71.939 Y91.827 E0.02282
G1 X71.939 Y88.233 E0.11269
M204 S1250
G1 X71.859 Y87.781 F9000.000
G1 E-2.24000 F4200.000
;WIPE_START
G1 F7200.000
G1 X72.651 Y88.023 E-0.41142
G1 X73.182 Y87.984 E-0.29539
G1 X73.551 Y88.019 E-0.20519
;WIPE_END
G1 E-0.04800 F4200.000
G1 Z0.400 F9000.000
G1 X91.911 Y89.487
M73 P3 R17
G1 Z0.200
G1 E3.20000 F2400.000
M204 S800
;TYPE:Perimeter
G1 F1200.000
G1 X92.003 Y88.734 E0.02376
G1 X92.175 Y87.991 E0.02392
G1 X92.423 Y87.270 E0.02392
G1 X92.745 Y86.579 E0.02392
G1 X93.132 Y85.935 E0.02354
G1 X93.440 Y85.509 E0.01648
G1 X93.938 Y84.937 E0.02376
G1 X94.495 Y84.417 E0.02392
G1 X95.095 Y83.965 E0.02354
G1 X95.541 Y83.686 E0.01648
G1 X96.216 Y83.342 E0.02376
G1 X96.928 Y83.069 E0.02392
G1 X97.665 Y82.871 E0.02392
G1 X98.418 Y82.752 E0.02392
G1 X99.168 Y82.712 E0.02354
G1 X99.693 Y82.730 E0.01648
G1 X100.446 Y82.823 E0.02376
G1 X101.189 Y82.994 E0.02392
G1 X101.910 Y83.243 E0.02392
G1 X102.601 Y83.565 E0.02392
G1 X103.245 Y83.952 E0.02354
G1 X103.671 Y84.260 E0.01648
G1 X104.243 Y84.758 E0.02376
G1 X104.763 Y85.315 E0.02392
G1 X105.222 Y85.925 E0.02392
G1 X105.615 Y86.578 E0.02392
G1 X105.932 Y87.259 E0.02354
G1 X106.113 Y87.753 E0.01648
G1 X106.309 Y88.485 E0.02376
G1 X106.428 Y89.238 E0.02392
G1 X106.468 Y90.000 E0.02392
G1 X106.428 Y90.762 E0.02392
G1 X106.310 Y91.510 E0.02376
G1 X106.184 Y92.014 E0.01627
G1 X105.939 Y92.725 E0.02360
G1 X105.728 Y93.199 E0.01627
G1 X105.361 Y93.862 E0.02376
G1 X104.923 Y94.487 E0.02392
G1 X104.423 Y95.063 E0.02392
G1 X103.865 Y95.583 E0.02392
G1 X103.255 Y96.042 E0.02392
G1 X102.602 Y96.435 E0.02392
G1 X101.910 Y96.757 E0.02392
G1 X101.189 Y97.006 E0.02392
G1 X100.451 Y97.176 E0.02376
G1 X99.937 Y97.248 E0.01627
G1 X99.180 Y97.288 E0.02376
G1 X98.423 Y97.248 E0.02376
G1 X97.910 Y97.176 E0.01627
G1 X97.171 Y97.006 E0.02376
G1 X96.450 Y96.757 E0.02392
G1 X95.759 Y96.435 E0.02392
G1 X95.105 Y96.042 E0.02392
G1 X94.496 Y95.583 E0.02392
G1 X93.938 Y95.063 E0.02392
G1 X93.441 Y94.491 E0.02376
G1 X93.136 Y94.071 E0.01627
G1 X92.745 Y93.421 E0.02376
G1 X92.423 Y92.730 E0.02392
G1 X92.175 Y92.009 E0.02392
G1 X92.005 Y91.277 E0.02354
G1 X91.932 Y90.757 E0.01648
G1 X91.892 Y90.005 E0.02360
G1 X91.908 Y89.546 E0.01439
M204 S1250
G1 X92.285 Y89.560 F9000.000
M204 S800
;TYPE:External perimeter
G1 F1200.000
G1 X92.375 Y88.800 E0.02398
G1 X92.537 Y88.095 E0.02268
G1 X92.773 Y87.411 E0.02268
G1 X93.079 Y86.756 E0.02268
G1 X93.447 Y86.143 E0.02241
G1 X93.736 Y85.744 E0.01545
G1 X94.209 Y85.200 E0.02262
G1 X94.738 Y84.706 E0.02268
G1 X95.309 Y84.276 E0.02241
G1 X95.727 Y84.015 E0.01545
G1 X96.369 Y83.687 E0.02262
G1 X97.045 Y83.428 E0.02268
G1 X97.743 Y83.241 E0.02268
G1 X98.458 Y83.128 E0.02268
G1 X99.172 Y83.090 E0.02241
G1 X99.664 Y83.107 E0.01545
G1 X100.380 Y83.195 E0.02262
G1 X101.085 Y83.357 E0.02268
G1 X101.769 Y83.593 E0.02268
G1 X102.424 Y83.899 E0.02268
G1 X103.037 Y84.266 E0.02241
G1 X103.436 Y84.556 E0.01545
G1 X103.980 Y85.029 E0.02262
G1 X104.474 Y85.558 E0.02268
G1 X104.909 Y86.136 E0.02268
G1 X105.282 Y86.756 E0.02268
G1 X105.584 Y87.403 E0.02241
G1 X105.753 Y87.866 E0.01545
G1 X105.939 Y88.563 E0.02262
G1 X106.053 Y89.278 E0.02268
G1 X106.090 Y90.000 E0.02268
G1 X106.053 Y90.722 E0.02268
G1 X105.940 Y91.435 E0.02262
G1 X105.822 Y91.906 E0.01524
G1 X105.588 Y92.587 E0.02256
G1 X105.390 Y93.031 E0.01524
G1 X105.040 Y93.662 E0.02262
G1 X104.626 Y94.254 E0.02268
G1 X104.151 Y94.800 E0.02268
G1 X103.622 Y95.294 E0.02268
G1 X103.044 Y95.729 E0.02268
G1 X102.424 Y96.101 E0.02268
G1 X101.769 Y96.407 E0.02268
G1 X101.085 Y96.643 E0.02268
G1 X100.382 Y96.805 E0.02262
G1 X99.901 Y96.873 E0.01524
G1 X99.180 Y96.910 E0.02262
G1 X98.460 Y96.873 E0.02262
G1 X97.978 Y96.805 E0.01524
G1 X97.275 Y96.643 E0.02262
G1 X96.591 Y96.407 E0.02268
G1 X95.936 Y96.101 E0.02268
G1 X95.316 Y95.729 E0.02268
G1 X94.738 Y95.294 E0.02268
G1 X94.209 Y94.800 E0.02268
G1 X93.736 Y94.256 E0.02262
G1 X93.450 Y93.863 E0.01524
G1 X93.079 Y93.244 E0.02262
G1 X92.773 Y92.589 E0.02268
G1 X92.537 Y91.905 E0.02268
G1 X92.376 Y91.208 E0.02241
G1 X92.308 Y90.721 E0.01545
G1 X92.270 Y90.002 E0.02257
G1 X92.283 Y89.620 E0.01199
M204 S1250
G1 X91.954 Y89.335 F9000.000
G1 E-2.24000 F4200.000
;WIPE_START
G1 F7200.000
G1 X92.375 Y88.800 E-0.45701
G1 X92.537 Y88.095 E-0.40084
G1 X92.569 Y88.003 E-0.05416
;WIPE_END
G1 E-0.04800 F4200.000
G1 Z0.400 F9000.000
G1 X89.815 Y84.505
G1 Z0.200
G1 E3.20000 F2400.000
M204 S800
;TYPE:Perimeter
G1 F1200.000
G1 X90.304 Y84.347 E0.01613
G1 X90.567 Y84.435 E0.00868
G1 X90.918 Y84.492 E0.01116
G1 X91.273 Y84.506 E0.01112
G1 X91.779 Y84.448 E0.01596
G1 X92.265 Y84.297 E0.01596
G1 X92.583 Y84.140 E0.01112
G1 X92.878 Y83.947 E0.01104
G1 X93.500 Y83.393 E0.02611
G1 X94.100 Y82.922 E0.02393
G1 X94.508 Y82.646 E0.01545
G1 X95.163 Y82.269 E0.02370
G1 X95.845 Y81.951 E0.02356
G1 X96.551 Y81.694 E0.02356
G1 X97.276 Y81.498 E0.02356
G1 X98.016 Y81.366 E0.02356
G1 X98.765 Y81.298 E0.02356
G1 X99.516 Y81.294 E0.02356
G1 X100.265 Y81.355 E0.02356
G1 X101.006 Y81.481 E0.02356
G1 X101.734 Y81.670 E0.02356
G1 X102.446 Y81.923 E0.02370
G1 X102.897 Y82.120 E0.01545
G1 X103.570 Y82.474 E0.02383
G1 X103.988 Y82.734 E0.01545
G1 X104.603 Y83.181 E0.02383
G1 X104.983 Y83.501 E0.01558
G1 X105.347 Y83.846 E0.01571
G1 X105.691 Y84.210 E0.01571
G1 X106.013 Y84.594 E0.01571
G1 X106.312 Y84.995 E0.01569
G1 X106.831 Y85.787 E0.02968
G1 X107.893 Y85.787 E0.03329
G1 X107.893 Y94.213 E0.26419
G1 X106.831 Y94.213 E0.03329
G1 X106.312 Y95.005 E0.02968
G1 X106.013 Y95.406 E0.01569
G1 X105.694 Y95.786 E0.01558
G1 X105.167 Y96.329 E0.02370
G1 X104.597 Y96.824 E0.02370
G1 X104.199 Y97.122 E0.01558
G1 X103.781 Y97.399 E0.01571
G1 X103.352 Y97.649 E0.01558
G1 X102.673 Y97.982 E0.02370
G1 X101.972 Y98.253 E0.02356
G1 X101.246 Y98.464 E0.02370
G1 X100.760 Y98.568 E0.01558
G1 X100.265 Y98.645 E0.01571
G1 X99.766 Y98.693 E0.01571
G1 X99.266 Y98.712 E0.01571
G1 X98.765 Y98.703 E0.01571
G1 X98.265 Y98.664 E0.01571
G1 X97.768 Y98.597 E0.01571
G1 X97.276 Y98.502 E0.01571
G1 X96.791 Y98.379 E0.01571
G1 X96.313 Y98.227 E0.01571
G1 X95.844 Y98.049 E0.01571
G1 X95.387 Y97.844 E0.01571
G1 X94.942 Y97.613 E0.01571
G1 X94.515 Y97.359 E0.01558
G1 X93.892 Y96.924 E0.02383
G1 X93.506 Y96.611 E0.01558
G1 X92.996 Y96.148 E0.02159
G1 X92.601 Y95.870 E0.01515
G1 X92.289 Y95.714 E0.01094
G1 X91.960 Y95.598 E0.01094
G1 X91.477 Y95.506 E0.01542
G1 X91.119 Y95.494 E0.01122
G1 X90.631 Y95.552 E0.01542
G1 X90.286 Y95.647 E0.01122
G1 X89.837 Y95.849 E0.01542
G1 X89.537 Y96.044 E0.01122
G1 X89.178 Y96.363 E0.01506
G1 X88.507 Y97.114 E0.03159
G1 X87.912 Y97.680 E0.02572
G1 X87.496 Y98.025 E0.01696
G1 X87.063 Y98.348 E0.01696
G1 X86.373 Y98.794 E0.02574
G1 X85.653 Y99.181 E0.02561
G1 X84.905 Y99.509 E0.02561
G1 X84.133 Y99.776 E0.02561
G1 X83.339 Y99.982 E0.02574
G1 X82.807 Y100.082 E0.01696
G1 X82.271 Y100.154 E0.01696
G1 X81.452 Y100.209 E0.02574
G1 X80.632 Y100.198 E0.02574
G1 X80.093 Y100.155 E0.01696
G1 X79.553 Y100.082 E0.01708
G1 X79.018 Y99.981 E0.01708
G1 X78.492 Y99.853 E0.01696
G1 X77.710 Y99.605 E0.02574
G1 X76.950 Y99.295 E0.02574
G1 X76.463 Y99.058 E0.01696
G1 X75.991 Y98.796 E0.01696
G1 X75.298 Y98.348 E0.02586
G1 X74.864 Y98.025 E0.01696
G1 X74.448 Y97.680 E0.01696
G1 X73.853 Y97.114 E0.02572
G1 X73.181 Y96.362 E0.03164
G1 X72.819 Y96.040 E0.01519
G1 X72.523 Y95.849 E0.01103
G1 X72.105 Y95.664 E0.01433
G1 X72.096 Y92.876 E0.08740
G1 X72.041 Y92.234 E0.02021
G1 X72.598 Y92.351 E0.01784
G1 X73.186 Y92.394 E0.01850
G1 X73.784 Y92.338 E0.01882
G1 X74.371 Y92.182 E0.01906
G1 X74.439 Y92.645 E0.01470
G1 X74.623 Y93.168 E0.01737
G1 X74.870 Y93.645 E0.01684
G1 X75.281 Y94.279 E0.02371
G1 X75.601 Y94.688 E0.01627
G1 X76.118 Y95.243 E0.02376
G1 X76.695 Y95.745 E0.02400
G1 X77.318 Y96.181 E0.02384
G1 X77.981 Y96.548 E0.02376
G1 X78.455 Y96.759 E0.01627
G1 X79.171 Y97.006 E0.02376
G1 X79.915 Y97.177 E0.02392
G1 X80.672 Y97.270 E0.02392
G1 X81.434 Y97.283 E0.02392
G1 X82.194 Y97.217 E0.02392
G1 X82.943 Y97.071 E0.02392
G1 X83.668 Y96.850 E0.02376
G1 X84.149 Y96.656 E0.01627
G1 X84.824 Y96.312 E0.02376
G1 X85.464 Y95.896 E0.02392
G1 X86.053 Y95.419 E0.02376
G1 X86.428 Y95.057 E0.01635
G1 X86.923 Y94.487 E0.02368
G1 X87.361 Y93.862 E0.02392
G1 X87.730 Y93.195 E0.02392
G1 X88.026 Y92.497 E0.02376
G1 X88.187 Y92.004 E0.01627
G1 X88.357 Y91.266 E0.02376
G1 X88.450 Y90.508 E0.02392
G1 X88.464 Y89.746 E0.02392
G1 X88.397 Y88.983 E0.02400
G1 X88.253 Y88.242 E0.02368
G1 X88.109 Y87.743 E0.01627
G1 X87.840 Y87.041 E0.02360
G1 X87.612 Y86.574 E0.01627
G1 X87.222 Y85.925 E0.02376
G1 X86.763 Y85.315 E0.02392
G1 X86.243 Y84.758 E0.02392
G1 X85.671 Y84.260 E0.02376
G1 X85.249 Y83.954 E0.01635
G1 X84.602 Y83.565 E0.02368
G1 X83.910 Y83.243 E0.02392
G1 X83.189 Y82.994 E0.02392
M73 P4 R17
G1 X82.446 Y82.823 E0.02392
G1 X81.688 Y82.730 E0.02392
G1 X80.931 Y82.717 E0.02376
G1 X80.413 Y82.753 E0.01627
G1 X79.665 Y82.871 E0.02376
G1 X78.928 Y83.069 E0.02392
G1 X78.216 Y83.342 E0.02392
G1 X77.536 Y83.688 E0.02392
G1 X76.896 Y84.104 E0.02392
G1 X76.302 Y84.586 E0.02400
G1 X75.764 Y85.123 E0.02384
G1 X75.287 Y85.712 E0.02376
G1 X74.999 Y86.139 E0.01615
G1 X74.741 Y86.591 E0.01630
G1 X74.527 Y87.077 E0.01665
G1 X74.437 Y87.365 E0.00948
G1 X74.371 Y87.818 E0.01435
G1 X73.784 Y87.662 E0.01906
G1 X73.186 Y87.606 E0.01882
G1 X72.598 Y87.649 E0.01850
G1 X72.041 Y87.766 E0.01784
G1 X72.096 Y87.124 E0.02021
G1 X72.105 Y84.363 E0.08658
G1 X72.545 Y84.505 E0.01449
G1 X73.149 Y83.692 E0.03176
G1 X73.496 Y83.273 E0.01704
G1 X73.862 Y82.877 E0.01692
G1 X74.456 Y82.313 E0.02569
G1 X75.094 Y81.799 E0.02569
G1 X75.532 Y81.491 E0.01680
G1 X76.236 Y81.064 E0.02581
G1 X76.715 Y80.815 E0.01692
G1 X77.210 Y80.591 E0.01704
G1 X77.716 Y80.393 E0.01704
G1 X78.229 Y80.223 E0.01692
