; generated by PrusaSlicer 2.3.0+win64 on 2021-07-25 at 16:53:11 UTC


;
;

;
;
; 

; external perimeters extrusion width = 0.45mm
; perimeters extrusion width = 0.45mm
; infill extrusion width = 0.45mm
; solid infill extrusion width = 0.45mm
; top infill extrusion width = 0.40mm
; first layer extrusion width = 0.42mm

M73 P0 R37
M201 X1250 Y1250 Z400 E5000 ; sets maximum accelerations, mm/sec^2
M203 X180 Y180 Z12 E80 ; sets maximum feedrates, mm/sec
M204 P1250 R1250 T1250 ; sets acceleration (P, T) and retract acceleration (R), mm/sec^2
M205 X8.00 Y8.00 Z2.00 E10.00 ; sets the jerk limits, mm/sec
M205 S0 T0 ; sets the minimum extruding and travel feed rate, mm/sec
M107
;TYPE:Custom
G90 ; use absolute coordinates
M83 ; extruder relative mode
M104 S170 ; set extruder temp for bed leveling
M140 S60 ; set bed temp
M109 R170 ; wait for bed leveling temp
M190 S60 ; wait for bed temp
G28 ; home all without mesh bed level
G29 ; mesh bed leveling 
M104 S215 ; set extruder temp
G92 E0.0
G1 Y-2.0 X179 F2400
M73 P0 R36
G1 Z3 F720
M109 S215 ; wait for extruder temp

; intro line
G1 X170 F1000
G1 Z0.2 F720
G1 X110.0 E8.0 F900
G1 X40.0 E10.0 F700
G92 E0.0

M221 S95 ; set flow
G21 ; set units to millimeters
G90 ; use absolute coordinates
M83 ; use relative distances for extrusion
M900 K0.2 ; Filament gcode LA 1.5
; ; Filament gcode LA 1.0
;LAYER_CHANGE
;Z:0.2
;HEIGHT:0.2
;BEFORE_LAYER_CHANGE
G92 E0.0
;0.2


G1 E-3.20000 F4200.000
G1 Z0.200 F9000.000
;AFTER_LAYER_CHANGE
;0.2
G1 Z0.400
G1 X64.856 Y80.512
G1 Z0.200
G1 E3.20000 F2400.000
M204 S800
;TYPE:Skirt
;WIDTH:0.42
G1 F1200.000
G1 X66.006 Y79.747 E0.04332
G1 X67.478 Y79.018 E0.05149
G1 X68.804 Y78.562 E0.04397
G1 X70.154 Y78.268 E0.04332
G1 X90.000 Y76.623 E0.62438
G1 X109.846 Y78.268 E0.62439
G1 X111.192 Y78.560 E0.04320
G1 X112.512 Y79.014 E0.04375
G1 X113.979 Y79.739 E0.05132
G1 X115.140 Y80.509 E0.04366
G1 X115.974 Y81.199 E0.03395
G1 X116.876 Y82.110 E0.04020
G1 X118.149 Y83.831 E0.06711
G1 X118.769 Y84.991 E0.04123
G1 X119.171 Y85.967 E0.03313
G1 X119.487 Y86.983 E0.03336
G1 X119.753 Y88.289 E0.04177
G1 X119.870 Y89.596 E0.04115
G1 X119.858 Y90.682 E0.03404
G1 X119.749 Y91.738 E0.03330
G1 X119.489 Y93.011 E0.04072
G1 X118.769 Y95.009 E0.06660
G1 X118.152 Y96.165 E0.04110
G1 X117.558 Y97.051 E0.03342
G1 X116.203 Y98.590 E0.06428
G1 X114.578 Y99.889 E0.06523
G1 X113.699 Y100.421 E0.03223
G1 X112.546 Y100.973 E0.04008
G1 X110.557 Y101.599 E0.06538
G1 X109.150 Y101.822 E0.04466
G1 X90.148 Y103.377 E0.59778
G1 X88.775 Y103.321 E0.04309
G1 X70.862 Y101.823 E0.56361
M73 P1 R36
G1 X69.451 Y101.601 E0.04481
G1 X68.453 Y101.335 E0.03237
G1 X67.242 Y100.883 E0.04052
G1 X65.423 Y99.890 E0.06499
G1 X63.801 Y98.593 E0.06510
G1 X62.445 Y97.055 E0.06428
G1 X61.848 Y96.165 E0.03360
G1 X61.231 Y95.010 E0.04106
G1 X60.513 Y93.018 E0.06642
G1 X60.251 Y91.738 E0.04094
G1 X60.143 Y90.687 E0.03313
G1 X60.129 Y89.624 E0.03336
G1 X60.246 Y88.293 E0.04189
G1 X60.511 Y86.990 E0.04167
G1 X60.827 Y85.973 E0.03340
G1 X61.231 Y84.992 E0.03326
G1 X61.848 Y83.836 E0.04110
G1 X62.453 Y82.935 E0.03402
G1 X63.271 Y81.947 E0.04020
G1 X64.812 Y80.553 E0.06516
M204 S1250
; printing object TriplePotHolder_01.stl id:0 copy 0
G1 E-2.24000 F4200.000
;WIPE_START
G1 F7200.000
G1 X66.006 Y79.747 E-0.79857
G1 X66.190 Y79.656 E-0.11343
;WIPE_END
G1 E-0.04800 F4200.000
G1 Z0.400 F9000.000
G1 X98.591 Y83.337
G1 Z0.200
G1 E3.20000 F2400.000
M204 S800
;TYPE:External perimeter
;WIDTH:0.305906
G1 F1200.000
G1 X98.848 Y83.682 E0.00940
G1 X98.883 Y83.669 E0.00081
M204 S1250
M204 S800
;WIDTH:0.177925
G1 X99.008 Y83.604 E0.00159
M204 S1250
G1 X98.591 Y83.337 F9000.000
M204 S800
;WIDTH:0.288769
G1 F1200.000
G1 X98.015 Y82.652 E0.01829
G1 X97.451 Y82.082 E0.01639
G1 X97.013 Y81.693 E0.01197
G1 X96.485 Y81.272 E0.01381
G1 X96.002 Y80.934 E0.01206
G1 X95.330 Y80.523 E0.01610
G1 X94.812 Y80.250 E0.01197
G1 X93.904 Y79.852 E0.02026
G1 X93.347 Y79.655 E0.01208
G1 X92.774 Y79.487 E0.01222
G1 X92.205 Y79.353 E0.01195
G1 X91.616 Y79.248 E0.01222
G1 X91.030 Y79.176 E0.01208
G1 X90.440 Y79.136 E0.01208
G1 X89.849 Y79.131 E0.01208
G1 X89.265 Y79.152 E0.01195
G1 X88.677 Y79.208 E0.01208
G1 X88.092 Y79.296 E0.01208
G1 X87.507 Y79.417 E0.01222
G1 X86.942 Y79.566 E0.01195
G1 X86.371 Y79.751 E0.01225
G1 X85.547 Y80.080 E0.01814
G1 X85.019 Y80.338 E0.01203
G1 X84.506 Y80.618 E0.01195
G1 X84.005 Y80.931 E0.01208
G1 X83.443 Y81.326 E0.01404
G1 X82.986 Y81.691 E0.01195
G1 X82.184 Y82.442 E0.02247
G1 X81.783 Y82.879 E0.01212
G1 X81.157 Y83.672 E0.02064
G1 X81.127 Y83.664 E0.00062
M204 S1250
M204 S800
;WIDTH:0.258633
G1 X81.098 Y83.657 E0.00054
M204 S1250
M204 S800
;WIDTH:0.219924
G1 X81.069 Y83.650 E0.00045
M204 S1250
M204 S800
;WIDTH:0.181216
G1 X81.053 Y83.613 E0.00046
M204 S1250
M204 S800
;WIDTH:0.153163
G1 X81.037 Y83.576 E0.00037
M204 S1250
G1 E-2.24000 F4200.000
;WIPE_START
G1 F7200.000
G1 X81.053 Y83.613 E-0.02234
;WIPE_END
G1 E-0.93766 F4200.000
G1 Z0.400 F9000.000
G1 X75.261 Y87.619
G1 Z0.200
G1 E3.20000 F2400.000
M204 S800
;TYPE:Perimeter
;WIDTH:0.42
G1 F1200.000
G1 X75.480 Y87.953 E0.01252
G1 X75.665 Y88.307 E0.01252
G1 X75.815 Y88.677 E0.01252
G1 X75.927 Y89.060 E0.01252
G1 X76.001 Y89.453 E0.01252
G1 X76.035 Y89.851 E0.01252
G1 X76.030 Y90.250 E0.01252
G1 X75.986 Y90.647 E0.01252
G1 X75.902 Y91.038 E0.01252
G1 X75.781 Y91.418 E0.01252
G1 X75.622 Y91.785 E0.01252
G1 X75.428 Y92.134 E0.01252
G1 X75.201 Y92.462 E0.01252
G1 X74.942 Y92.766 E0.01252
G1 X74.655 Y93.043 E0.01252
G1 X74.341 Y93.291 E0.01252
G1 X74.004 Y93.506 E0.01252
G1 X73.648 Y93.687 E0.01252
G1 X73.276 Y93.831 E0.01252
G1 X72.892 Y93.939 E0.01252
G1 X72.498 Y94.008 E0.01252
G1 X72.100 Y94.037 E0.01252
G1 X71.701 Y94.027 E0.01252
G1 X71.304 Y93.978 E0.01252
G1 X70.915 Y93.890 E0.01252
G1 X70.536 Y93.764 E0.01252
G1 X70.171 Y93.601 E0.01252
G1 X69.825 Y93.402 E0.01252
G1 X69.499 Y93.171 E0.01252
G1 X69.198 Y92.908 E0.01252
G1 X68.925 Y92.617 E0.01252
G1 X68.681 Y92.301 E0.01252
G1 X68.470 Y91.961 E0.01252
G1 X68.294 Y91.603 E0.01252
G1 X68.154 Y91.229 E0.01252
G1 X68.051 Y90.843 E0.01252
G1 X67.987 Y90.449 E0.01252
G1 X67.963 Y90.052 E0.01246
G1 X67.977 Y89.651 E0.01258
G1 X68.031 Y89.256 E0.01253
G1 X68.124 Y88.867 E0.01252
G1 X68.255 Y88.490 E0.01252
G1 X68.423 Y88.127 E0.01252
G1 X68.625 Y87.783 E0.01252
G1 X68.861 Y87.461 E0.01252
G1 X69.127 Y87.163 E0.01252
G1 X69.422 Y86.893 E0.01252
G1 X69.741 Y86.654 E0.01252
G1 X70.083 Y86.447 E0.01252
G1 X70.443 Y86.275 E0.01252
G1 X70.819 Y86.139 E0.01252
G1 X71.206 Y86.041 E0.01252
G1 X71.601 Y85.982 E0.01251
G1 X71.985 Y85.963 E0.01206
G1 X72.589 Y86.005 E0.01899
G1 X72.989 Y86.086 E0.01279
G1 X73.371 Y86.202 E0.01252
G1 X73.739 Y86.356 E0.01252
G1 X74.091 Y86.546 E0.01252
G1 X74.422 Y86.769 E0.01252
G1 X74.729 Y87.024 E0.01252
G1 X75.010 Y87.309 E0.01252
G1 X75.223 Y87.572 E0.01064
M204 S1250
G1 X74.930 Y87.810 F9000.000
M204 S800
;TYPE:External perimeter
G1 F1200.000
G1 X75.155 Y88.144 E0.01264
G1 X75.323 Y88.465 E0.01135
G1 X75.458 Y88.801 E0.01135
G1 X75.560 Y89.148 E0.01135
G1 X75.626 Y89.504 E0.01135
G1 X75.658 Y89.865 E0.01135
G1 X75.653 Y90.227 E0.01135
G1 X75.613 Y90.587 E0.01135
G1 X75.538 Y90.941 E0.01135
G1 X75.427 Y91.285 E0.01135
G1 X75.284 Y91.618 E0.01135
G1 X75.108 Y91.934 E0.01135
G1 X74.902 Y92.232 E0.01135
G1 X74.667 Y92.507 E0.01135
G1 X74.406 Y92.759 E0.01135
G1 X74.122 Y92.983 E0.01135
G1 X73.817 Y93.178 E0.01135
G1 X73.494 Y93.342 E0.01135
G1 X73.157 Y93.473 E0.01135
G1 X72.808 Y93.570 E0.01135
G1 X72.452 Y93.633 E0.01135
G1 X72.091 Y93.660 E0.01135
G1 X71.729 Y93.651 E0.01135
G1 X71.369 Y93.606 E0.01135
G1 X71.016 Y93.526 E0.01135
G1 X70.673 Y93.412 E0.01135
G1 X70.342 Y93.264 E0.01135
G1 X70.028 Y93.084 E0.01135
G1 X69.733 Y92.874 E0.01135
G1 X69.460 Y92.636 E0.01135
G1 X69.212 Y92.373 E0.01135
G1 X68.992 Y92.086 E0.01135
G1 X68.800 Y91.778 E0.01135
G1 X68.640 Y91.453 E0.01135
G1 X68.513 Y91.114 E0.01135
G1 X68.420 Y90.764 E0.01135
G1 X68.362 Y90.407 E0.01135
G1 X68.340 Y90.048 E0.01129
G1 X68.353 Y89.684 E0.01141
G1 X68.402 Y89.325 E0.01135
G1 X68.487 Y88.973 E0.01135
G1 X68.605 Y88.631 E0.01135
G1 X68.757 Y88.303 E0.01135
G1 X68.941 Y87.991 E0.01135
G1 X69.154 Y87.698 E0.01135
G1 X69.396 Y87.428 E0.01135
G1 X69.663 Y87.184 E0.01135
G1 X69.952 Y86.967 E0.01135
G1 X70.262 Y86.779 E0.01135
G1 X70.589 Y86.623 E0.01135
G1 X70.929 Y86.500 E0.01135
G1 X71.280 Y86.412 E0.01135
G1 X71.638 Y86.358 E0.01135
G1 X71.981 Y86.341 E0.01076
G1 X72.538 Y86.380 E0.01752
G1 X72.896 Y86.452 E0.01145
G1 X73.242 Y86.557 E0.01135
G1 X73.576 Y86.697 E0.01135
G1 X73.895 Y86.869 E0.01135
G1 X74.195 Y87.071 E0.01135
G1 X74.474 Y87.303 E0.01135
G1 X74.728 Y87.560 E0.01135
G1 X74.892 Y87.763 E0.00817
M204 S1250
G1 X75.327 Y87.764 F9000.000
G1 E-2.24000 F4200.000
;WIPE_START
G1 F7200.000
G1 X75.155 Y88.144 E-0.25656
G1 X75.323 Y88.465 E-0.20063
G1 X75.458 Y88.801 E-0.20063
G1 X75.560 Y89.148 E-0.20063
G1 X75.578 Y89.243 E-0.05356
;WIPE_END
G1 E-0.04800 F4200.000
G1 Z0.400 F9000.000
G1 X80.334 Y84.368
G1 Z0.200
G1 E3.20000 F2400.000
M204 S800
;TYPE:Perimeter
G1 F1200.000
G1 X80.242 Y85.011 E0.02039
G1 X80.217 Y85.525 E0.01612
G1 X80.213 Y86.844 E0.04135
G1 X80.005 Y87.565 E0.02355
G1 X79.831 Y88.441 E0.02800
G1 X79.734 Y89.330 E0.02801
G1 X79.715 Y90.218 E0.02788
G1 X79.745 Y90.818 E0.01881
G1 X79.810 Y91.414 E0.01881
G1 X79.969 Y92.285 E0.02775
G1 X80.120 Y92.865 E0.01881
G1 X80.303 Y93.436 E0.01881
G1 X80.636 Y94.261 E0.02788
G1 X81.040 Y95.056 E0.02796
G1 X81.451 Y95.716 E0.02437
G1 X81.337 Y95.848 E0.00545
G1 X81.028 Y95.698 E0.01079
G1 X80.567 Y95.556 E0.01513
G1 X80.222 Y95.504 E0.01093
G1 X79.881 Y95.495 E0.01068
G1 X79.525 Y95.531 E0.01122
G1 X79.058 Y95.650 E0.01513
G1 X78.729 Y95.789 E0.01121
G1 X78.305 Y96.051 E0.01562
G1 X77.676 Y96.611 E0.02641
G1 X77.282 Y96.929 E0.01586
G1 X76.874 Y97.222 E0.01577
G1 X76.449 Y97.492 E0.01577
G1 X76.013 Y97.734 E0.01563
G1 X75.322 Y98.055 E0.02391
G1 X74.856 Y98.232 E0.01563
G1 X74.376 Y98.383 E0.01577
G1 X73.888 Y98.506 E0.01577
G1 X73.395 Y98.601 E0.01577
G1 X72.896 Y98.667 E0.01577
G1 X72.395 Y98.704 E0.01577
G1 X71.892 Y98.712 E0.01577
G1 X71.394 Y98.692 E0.01563
G1 X70.636 Y98.606 E0.02391
G1 X70.146 Y98.514 E0.01563
G1 X69.658 Y98.393 E0.01577
G1 X69.182 Y98.245 E0.01563
G1 X68.476 Y97.968 E0.02378
G1 X67.796 Y97.632 E0.02378
G1 X67.367 Y97.379 E0.01563
G1 X66.952 Y97.102 E0.01563
G1 X66.351 Y96.633 E0.02391
G1 X65.980 Y96.299 E0.01563
G1 X65.627 Y95.942 E0.01577
G1 X65.295 Y95.564 E0.01577
G1 X64.988 Y95.171 E0.01563
G1 X64.563 Y94.538 E0.02391
G1 X64.315 Y94.106 E0.01563
G1 X64.093 Y93.659 E0.01563
G1 X63.805 Y92.958 E0.02378
G1 X63.579 Y92.234 E0.02378
G1 X63.465 Y91.749 E0.01563
G1 X63.379 Y91.258 E0.01563
G1 X63.302 Y90.499 E0.02391
G1 X63.287 Y90.001 E0.01563
G1 X63.302 Y89.502 E0.01563
G1 X63.379 Y88.743 E0.02391
G1 X63.465 Y88.252 E0.01563
G1 X63.578 Y87.769 E0.01555
G1 X63.805 Y87.043 E0.02386
G1 X64.091 Y86.346 E0.02364
G1 X64.439 Y85.672 E0.02378
G1 X64.699 Y85.246 E0.01563
G1 X64.985 Y84.833 E0.01577
G1 X65.295 Y84.437 E0.01577
G1 X65.623 Y84.064 E0.01555
G1 X66.168 Y83.528 E0.02399
G1 X66.548 Y83.205 E0.01563
G1 X66.945 Y82.904 E0.01563
G1 X67.582 Y82.492 E0.02378
G1 X68.247 Y82.138 E0.02364
G1 X68.941 Y81.843 E0.02364
G1 X69.658 Y81.609 E0.02364
G1 X70.393 Y81.438 E0.02364
G1 X71.139 Y81.331 E0.02364
G1 X71.892 Y81.289 E0.02364
G1 X72.646 Y81.312 E0.02364
G1 X73.399 Y81.401 E0.02378
G1 X73.884 Y81.494 E0.01550
G1 X74.617 Y81.690 E0.02378
G1 X75.330 Y81.949 E0.02378
G1 X75.781 Y82.151 E0.01550
G1 X76.449 Y82.510 E0.02378
G1 X77.080 Y82.922 E0.02364
G1 X77.676 Y83.391 E0.02378
G1 X78.187 Y83.855 E0.02161
G1 X78.592 Y84.138 E0.01550
G1 X78.918 Y84.294 E0.01134
G1 X79.281 Y84.409 E0.01193
G1 X79.823 Y84.452 E0.01705
G1 X80.275 Y84.377 E0.01437
M204 S1250
G1 E-2.24000 F4200.000
;WIPE_START
G1 F7200.000
G1 X80.242 Y85.011 E-0.35180
G1 X80.217 Y85.525 E-0.28497
G1 X80.216 Y86.022 E-0.27522
;WIPE_END
G1 E-0.04800 F4200.000
G1 Z0.400 F9000.000
G1 X104.031 Y89.256
G1 Z0.200
G1 E3.20000 F2400.000
M204 S800
G1 F1200.000
G1 X104.124 Y88.867 E0.01252
G1 X104.255 Y88.490 E0.01252
G1 X104.423 Y88.127 E0.01252
G1 X104.625 Y87.783 E0.01252
G1 X104.861 Y87.461 E0.01252
G1 X105.127 Y87.163 E0.01252
G1 X105.422 Y86.893 E0.01252
G1 X105.741 Y86.654 E0.01252
G1 X106.083 Y86.447 E0.01252
G1 X106.443 Y86.275 E0.01252
G1 X106.819 Y86.139 E0.01252
G1 X107.206 Y86.041 E0.01252
G1 X107.601 Y85.982 E0.01251
G1 X107.985 Y85.963 E0.01206
G1 X108.589 Y86.005 E0.01899
G1 X108.989 Y86.086 E0.01279
G1 X109.371 Y86.202 E0.01252
G1 X109.739 Y86.356 E0.01252
G1 X110.091 Y86.546 E0.01252
G1 X110.422 Y86.769 E0.01252
G1 X110.729 Y87.024 E0.01252
G1 X111.010 Y87.309 E0.01252
G1 X111.261 Y87.619 E0.01252
G1 X111.480 Y87.953 E0.01252
G1 X111.665 Y88.307 E0.01252
G1 X111.815 Y88.677 E0.01252
G1 X111.927 Y89.060 E0.01252
G1 X112.001 Y89.453 E0.01252
G1 X112.035 Y89.851 E0.01252
G1 X112.030 Y90.250 E0.01252
G1 X111.986 Y90.647 E0.01252
G1 X111.902 Y91.038 E0.01252
G1 X111.781 Y91.418 E0.01252
G1 X111.622 Y91.785 E0.01252
G1 X111.428 Y92.134 E0.01252
G1 X111.201 Y92.462 E0.01252
G1 X110.942 Y92.766 E0.01252
G1 X110.655 Y93.043 E0.01252
G1 X110.341 Y93.291 E0.01252
G1 X110.004 Y93.506 E0.01252
G1 X109.648 Y93.687 E0.01252
G1 X109.276 Y93.831 E0.01252
G1 X108.892 Y93.939 E0.01252
G1 X108.498 Y94.008 E0.01252
G1 X108.100 Y94.037 E0.01252
G1 X107.701 Y94.027 E0.01252
G1 X107.304 Y93.978 E0.01252
G1 X106.915 Y93.890 E0.01252
G1 X106.536 Y93.764 E0.01252
G1 X106.171 Y93.601 E0.01252
G1 X105.825 Y93.402 E0.01252
G1 X105.499 Y93.171 E0.01252
G1 X105.198 Y92.908 E0.01252
G1 X104.925 Y92.617 E0.01252
G1 X104.681 Y92.301 E0.01252
G1 X104.470 Y91.961 E0.01252
G1 X104.294 Y91.603 E0.01252
G1 X104.154 Y91.229 E0.01252
G1 X104.051 Y90.843 E0.01252
G1 X103.987 Y90.449 E0.01252
G1 X103.963 Y90.052 E0.01246
G1 X103.977 Y89.651 E0.01258
G1 X104.023 Y89.315 E0.01064
M204 S1250
G1 X104.397 Y89.366 F9000.000
M204 S800
;TYPE:External perimeter
G1 F1200.000
G1 X104.487 Y88.973 E0.01264
G1 X104.605 Y88.631 E0.01135
G1 X104.757 Y88.303 E0.01135
G1 X104.941 Y87.991 E0.01135
G1 X105.154 Y87.698 E0.01135
G1 X105.396 Y87.428 E0.01135
G1 X105.663 Y87.184 E0.01135
G1 X105.952 Y86.967 E0.01135
G1 X106.262 Y86.779 E0.01135
G1 X106.589 Y86.623 E0.01135
G1 X106.929 Y86.500 E0.01135
G1 X107.280 Y86.412 E0.01135
G1 X107.638 Y86.358 E0.01135
G1 X107.981 Y86.341 E0.01076
G1 X108.538 Y86.380 E0.01752
G1 X108.896 Y86.452 E0.01145
G1 X109.242 Y86.557 E0.01135
G1 X109.576 Y86.697 E0.01135
G1 X109.895 Y86.869 E0.01135
G1 X110.195 Y87.071 E0.01135
G1 X110.474 Y87.303 E0.01135
G1 X110.728 Y87.560 E0.01135
G1 X110.956 Y87.842 E0.01135
G1 X111.155 Y88.144 E0.01135
G1 X111.323 Y88.465 E0.01135
G1 X111.458 Y88.801 E0.01135
G1 X111.560 Y89.148 E0.01135
G1 X111.626 Y89.504 E0.01135
G1 X111.658 Y89.865 E0.01135
G1 X111.653 Y90.227 E0.01135
G1 X111.613 Y90.587 E0.01135
G1 X111.538 Y90.941 E0.01135
G1 X111.427 Y91.285 E0.01135
G1 X111.284 Y91.618 E0.01135
G1 X111.108 Y91.934 E0.01135
G1 X110.902 Y92.232 E0.01135
G1 X110.667 Y92.507 E0.01135
G1 X110.406 Y92.759 E0.01135
G1 X110.122 Y92.983 E0.01135
G1 X109.817 Y93.178 E0.01135
G1 X109.494 Y93.342 E0.01135
G1 X109.157 Y93.473 E0.01135
G1 X108.808 Y93.570 E0.01135
G1 X108.452 Y93.633 E0.01135
G1 X108.091 Y93.660 E0.01135
G1 X107.729 Y93.651 E0.01135
G1 X107.369 Y93.606 E0.01135
G1 X107.016 Y93.526 E0.01135
G1 X106.673 Y93.412 E0.01135
G1 X106.342 Y93.264 E0.01135
G1 X106.028 Y93.084 E0.01135
G1 X105.733 Y92.874 E0.01135
G1 X105.460 Y92.636 E0.01135
G1 X105.212 Y92.373 E0.01135
G1 X104.992 Y92.086 E0.01135
G1 X104.800 Y91.778 E0.01135
G1 X104.640 Y91.453 E0.01135
G1 X104.513 Y91.114 E0.01135
G1 X104.420 Y90.764 E0.01135
G1 X104.362 Y90.407 E0.01135
G1 X104.340 Y90.048 E0.01129
G1 X104.353 Y89.684 E0.01141
G1 X104.389 Y89.426 E0.00818
M204 S1250
G1 X104.091 Y89.108 F9000.000
G1 E-2.24000 F4200.000
;WIPE_START
G1 F7200.000
G1 X104.487 Y88.973 E-0.25657
G1 X104.605 Y88.631 E-0.20062
G1 X104.757 Y88.303 E-0.20063
G1 X104.941 Y87.991 E-0.20063
G1 X104.998 Y87.912 E-0.05355
;WIPE_END
G1 E-0.04800 F4200.000
