; generated by PrusaSlicer 2.3.0+win64 on 2021-08-01 at 08:16:56 UTC


;
;

;
;
; 

; external perimeters extrusion width = 0.45mm
; perimeters extrusion width = 0.45mm
; infill extrusion width = 0.45mm
; solid infill extrusion width = 0.45mm
; top infill extrusion width = 0.40mm
; first layer extrusion width = 0.42mm

M73 P0 R71
M201 X1250 Y1250 Z400 E5000 ; sets maximum accelerations, mm/sec^2
M203 X180 Y180 Z12 E80 ; sets maximum feedrates, mm/sec
M204 P1250 R1250 T1250 ; sets acceleration (P, T) and retract acceleration (R), mm/sec^2
M205 X8.00 Y8.00 Z2.00 E10.00 ; sets the jerk limits, mm/sec
M205 S0 T0 ; sets the minimum extruding and travel feed rate, mm/sec
M107
;TYPE:Custom
G90 ; use absolute coordinates
M83 ; extruder relative mode
M104 S170 ; set extruder temp for bed leveling
M140 S60 ; set bed temp
M109 R170 ; wait for bed leveling temp
M190 S60 ; wait for bed temp
G28 ; home all without mesh bed level
G29 ; mesh bed leveling 
M104 S215 ; set extruder temp
G92 E0.0
G1 Y-2.0 X179 F2400
M73 P0 R70
G1 Z3 F720
M109 S215 ; wait for extruder temp

; intro line
G1 X170 F1000
G1 Z0.2 F720
G1 X110.0 E8.0 F900
G1 X40.0 E10.0 F700
G92 E0.0

M221 S95 ; set flow
G21 ; set units to millimeters
G90 ; use absolute coordinates
M83 ; use relative distances for extrusion
M900 K0.2 ; Filament gcode LA 1.5
; ; Filament gcode LA 1.0
;LAYER_CHANGE
;Z:0.2
;HEIGHT:0.2
;BEFORE_LAYER_CHANGE
G92 E0.0
;0.2


G1 E-3.20000 F4200.000
G1 Z0.200 F9000.000
;AFTER_LAYER_CHANGE
;0.2
G1 Z0.400
G1 X55.723 Y69.237
G1 Z0.200
G1 E3.20000 F2400.000
M204 S800
;TYPE:Skirt
;WIDTH:0.42
G1 F1200.000
G1 X56.029 Y68.738 E0.01835
G1 X56.447 Y68.328 E0.01835
G1 X61.106 Y65.139 E0.17703
G1 X62.654 Y64.326 E0.05482
G1 X64.554 Y63.685 E0.06288
G1 X66.267 Y63.395 E0.05446
G1 X85.390 Y61.842 E0.60156
G1 X104.505 Y63.395 E0.60131
G1 X105.901 Y63.612 E0.04432
G1 X107.516 Y64.083 E0.05274
G1 X109.096 Y64.804 E0.05444
G1 X114.373 Y68.364 E0.19961
G1 X114.730 Y68.718 E0.01574
G1 X115.004 Y69.138 E0.01574
G1 X124.042 Y87.272 E0.63529
G1 X124.376 Y88.469 E0.03898
G1 X124.487 Y89.893 E0.04478
G1 X124.308 Y91.281 E0.04386
G1 X123.850 Y92.608 E0.04404
G1 X123.397 Y93.431 E0.02946
G1 X122.729 Y94.307 E0.03453
G1 X109.330 Y108.872 E0.62052
G1 X108.429 Y109.690 E0.03815
G1 X107.645 Y110.263 E0.03045
G1 X106.810 Y110.760 E0.03047
G1 X105.720 Y111.264 E0.03765
G1 X88.535 Y117.997 E0.57870
G1 X88.021 Y118.132 E0.01668
G1 X60.937 Y118.158 E0.84920
G1 X60.442 Y118.102 E0.01562
G1 X59.969 Y117.945 E0.01562
G1 X59.438 Y117.613 E0.01965
G1 X59.012 Y117.154 E0.01965
G1 X58.720 Y116.599 E0.01965
G1 X58.584 Y115.987 E0.01965
G1 X55.515 Y80.366 E1.12100
G1 X55.511 Y70.174 E0.31959
G1 X55.710 Y69.295 E0.02824
M204 S1250
; printing object PotPostE_01.stl id:2 copy 0
G1 E-2.24000 F4200.000
;WIPE_START
G1 F7200.000
G1 X56.029 Y68.738 E-0.35589
G1 X56.447 Y68.328 E-0.32424
G1 X56.792 Y68.092 E-0.23187
;WIPE_END
G1 E-0.04800 F4200.000
G1 Z0.400 F9000.000
G1 X114.021 Y88.678
G1 Z0.200
G1 E3.20000 F2400.000
M204 S800
;TYPE:External perimeter
G1 F1200.000
G1 X114.138 Y88.333 E0.01141
G1 X114.288 Y88.002 E0.01141
G1 X114.470 Y87.687 E0.01141
G1 X114.682 Y87.391 E0.01141
G1 X114.922 Y87.117 E0.01141
G1 X115.187 Y86.867 E0.01141
G1 X115.475 Y86.645 E0.01141
G1 X115.783 Y86.452 E0.01141
G1 X116.109 Y86.289 E0.01141
G1 X116.449 Y86.159 E0.01141
G1 X116.800 Y86.063 E0.01141
G1 X117.159 Y86.001 E0.01141
G1 X117.521 Y85.975 E0.01138
G1 X117.886 Y85.983 E0.01144
G1 X118.246 Y86.027 E0.01140
G1 X118.602 Y86.107 E0.01142
G1 X118.948 Y86.220 E0.01141
G1 X119.281 Y86.366 E0.01141
G1 X119.599 Y86.545 E0.01141
G1 X119.897 Y86.753 E0.01141
G1 X120.174 Y86.989 E0.01141
G1 X120.427 Y87.251 E0.01141
G1 X120.653 Y87.536 E0.01141
G1 X120.850 Y87.842 E0.01141
G1 X121.016 Y88.166 E0.01141
G1 X121.150 Y88.504 E0.01141
G1 X121.251 Y88.854 E0.01141
G1 X121.318 Y89.214 E0.01149
G1 X121.351 Y89.754 E0.01695
G1 X121.328 Y90.120 E0.01149
G1 X121.271 Y90.479 E0.01141
G1 X121.179 Y90.831 E0.01141
G1 X121.053 Y91.173 E0.01141
G1 X120.894 Y91.501 E0.01141
G1 X120.705 Y91.811 E0.01141
G1 X120.486 Y92.102 E0.01141
G1 X120.240 Y92.370 E0.01141
G1 X119.969 Y92.613 E0.01141
G1 X119.675 Y92.829 E0.01141
G1 X119.362 Y93.014 E0.01141
G1 X119.033 Y93.169 E0.01141
G1 X118.690 Y93.291 E0.01141
G1 X118.336 Y93.378 E0.01141
G1 X117.976 Y93.431 E0.01141
G1 X117.613 Y93.449 E0.01141
G1 X117.249 Y93.431 E0.01141
G1 X116.889 Y93.378 E0.01141
G1 X116.536 Y93.291 E0.01141
G1 X116.193 Y93.169 E0.01141
G1 X115.863 Y93.014 E0.01141
G1 X115.550 Y92.829 E0.01141
G1 X115.257 Y92.613 E0.01141
G1 X114.986 Y92.370 E0.01141
G1 X114.740 Y92.102 E0.01141
G1 X114.521 Y91.811 E0.01141
G1 X114.331 Y91.501 E0.01141
G1 X114.173 Y91.173 E0.01141
G1 X114.047 Y90.831 E0.01141
G1 X113.955 Y90.479 E0.01141
G1 X113.897 Y90.120 E0.01141
G1 X113.875 Y89.757 E0.01141
G1 X113.889 Y89.393 E0.01141
G1 X113.937 Y89.032 E0.01141
G1 X114.007 Y88.736 E0.00953
M204 S1250
G1 X113.768 Y88.416 F9000.000
G1 X113.650 Y88.628
M204 S800
G1 F1200.000
G1 X113.757 Y88.275 E0.01158
G1 X113.890 Y87.959 E0.01074
G1 X114.049 Y87.655 E0.01076
G1 X114.233 Y87.365 E0.01078
G1 X114.557 Y86.956 E0.01635
G1 X114.796 Y86.712 E0.01073
G1 X115.055 Y86.488 E0.01073
G1 X115.482 Y86.191 E0.01630
G1 X115.783 Y86.025 E0.01078
G1 X116.096 Y85.886 E0.01073
G1 X116.590 Y85.726 E0.01630
G1 X116.927 Y85.654 E0.01078
G1 X117.266 Y85.611 E0.01073
G1 X117.786 Y85.600 E0.01630
G1 X118.126 Y85.629 E0.01071
G1 X118.638 Y85.726 E0.01633
G1 X118.964 Y85.825 E0.01067
G1 X119.444 Y86.026 E0.01633
G1 X119.742 Y86.191 E0.01067
G1 X120.170 Y86.488 E0.01635
G1 X120.429 Y86.712 E0.01073
G1 X120.670 Y86.958 E0.01080
G1 X120.889 Y87.222 E0.01074
G1 X121.176 Y87.654 E0.01627
G1 X121.406 Y88.119 E0.01627
G1 X121.526 Y88.440 E0.01074
G1 X121.619 Y88.772 E0.01080
G1 X121.683 Y89.108 E0.01073
G1 X121.726 Y89.628 E0.01637
G1 X121.719 Y89.967 E0.01064
G1 X121.654 Y90.484 E0.01633
G1 X121.576 Y90.818 E0.01074
G1 X121.470 Y91.144 E0.01076
G1 X121.337 Y91.461 E0.01077
G1 X121.085 Y91.918 E0.01635
G1 X120.891 Y92.197 E0.01067
G1 X120.551 Y92.591 E0.01633
G1 X120.301 Y92.826 E0.01074
G1 X120.031 Y93.040 E0.01081
G1 X119.744 Y93.231 E0.01079
G1 X119.444 Y93.395 E0.01074
G1 X118.965 Y93.597 E0.01630
G1 X118.636 Y93.696 E0.01077
G1 X118.301 Y93.768 E0.01074
G1 X117.784 Y93.822 E0.01630
G1 X117.441 Y93.822 E0.01077
G1 X117.099 Y93.793 E0.01074
G1 X116.587 Y93.696 E0.01635
G1 X116.260 Y93.597 E0.01073
G1 X115.941 Y93.471 E0.01074
G1 X115.480 Y93.230 E0.01630
G1 X115.194 Y93.040 E0.01077
G1 X114.926 Y92.827 E0.01074
G1 X114.553 Y92.462 E0.01635
G1 X114.335 Y92.199 E0.01073
G1 X114.139 Y91.916 E0.01081
G1 X113.967 Y91.619 E0.01074
G1 X113.755 Y91.143 E0.01633
G1 X113.650 Y90.820 E0.01067
G1 X113.542 Y90.310 E0.01635
G1 X113.506 Y89.971 E0.01068
G1 X113.499 Y89.625 E0.01085
G1 X113.521 Y89.283 E0.01074
G1 X113.633 Y88.686 E0.01906
M204 S1250
G1 X114.005 Y88.527 F9000.000
; stop printing object PotPostE_01.stl id:2 copy 0
; printing object TriplePotHolder_05.stl id:1 copy 0
G1 E-2.24000 F4200.000
;WIPE_START
G1 F7200.000
G1 X113.757 Y88.275 E-0.23790
G1 X113.890 Y87.959 E-0.18986
G1 X114.049 Y87.655 E-0.19010
G1 X114.233 Y87.365 E-0.19045
G1 X114.349 Y87.218 E-0.10369
;WIPE_END
G1 E-0.04800 F4200.000
G1 Z0.400 F9000.000
G1 X78.491 Y76.948
G1 Z0.200
G1 E3.20000 F2400.000
M204 S800
;WIDTH:0.29292
G1 F1200.000
G1 X78.387 Y76.969 E0.00220
G1 X76.387 Y76.969 E0.04158
G1 X76.284 Y76.948 E0.00220
G1 X76.262 Y76.844 E0.00220
G1 X76.262 Y73.594 E0.06756
;WIDTH:0.335813
G1 X76.284 Y73.491 E0.00258
;WIDTH:0.29292
G1 X76.387 Y73.469 E0.00220
G1 X78.387 Y73.469 E0.04158
G1 X78.491 Y73.491 E0.00220
G1 X78.512 Y73.594 E0.00220
G1 X78.503 Y76.889 E0.06849
M204 S1250
G1 X78.505 Y77.053 F9000.000
G1 E-2.24000 F4200.000
;WIPE_START
G1 F7200.000
G1 X78.387 Y76.969 E-0.07802
G1 X76.882 Y76.969 E-0.83397
;WIPE_END
G1 E-0.04800 F4200.000
G1 Z0.400 F9000.000
G1 X76.424 Y68.794
G1 Z0.200
G1 E3.20000 F2400.000
M204 S800
;WIDTH:0.153163
G1 F1200.000
G1 X76.440 Y68.831 E0.00037
M204 S1250
M204 S800
;WIDTH:0.181216
G1 X76.456 Y68.868 E0.00046
M204 S1250
M204 S800
;WIDTH:0.219924
G1 X76.485 Y68.876 E0.00045
M204 S1250
M204 S800
;WIDTH:0.258633
G1 X76.515 Y68.883 E0.00054
M204 S1250
M204 S800
;WIDTH:0.288769
G1 X76.544 Y68.890 E0.00062
G1 X76.938 Y68.374 E0.01328
G1 X77.372 Y67.871 E0.01359
G1 X77.779 Y67.451 E0.01195
G1 X78.373 Y66.911 E0.01642
G1 X78.908 Y66.489 E0.01392
G1 X79.391 Y66.149 E0.01208
G1 X79.893 Y65.836 E0.01208
G1 X80.406 Y65.557 E0.01195
G1 X80.937 Y65.298 E0.01208
G1 X81.756 Y64.970 E0.01803
G1 X82.329 Y64.785 E0.01231
G1 X82.894 Y64.636 E0.01195
G1 X83.479 Y64.515 E0.01222
G1 X84.064 Y64.427 E0.01208
G1 X84.652 Y64.371 E0.01208
G1 X85.236 Y64.350 E0.01195
G1 X86.121 Y64.371 E0.01808
G1 X86.711 Y64.427 E0.01212
G1 X87.303 Y64.516 E0.01225
G1 X88.000 Y64.666 E0.01457
G1 X89.016 Y64.969 E0.02167
G1 X89.666 Y65.225 E0.01428
G1 X90.198 Y65.471 E0.01198
G1 X90.717 Y65.742 E0.01197
G1 X91.382 Y66.148 E0.01593
G1 X92.109 Y66.673 E0.01833
G1 X92.839 Y67.300 E0.01968
G1 X93.455 Y67.930 E0.01801
G1 X93.979 Y68.555 E0.01667
M204 S1250
M204 S800
;WIDTH:0.305906
G1 X94.235 Y68.900 E0.00940
G1 X94.270 Y68.888 E0.00081
M204 S1250
M204 S800
;WIDTH:0.177925
G1 X94.396 Y68.823 E0.00159
M204 S1250
G1 E-2.24000 F4200.000
;WIPE_START
G1 F7200.000
G1 X94.270 Y68.888 E-0.07854
;WIPE_END
G1 E-0.88146 F4200.000
G1 Z0.400 F9000.000
G1 X72.046 Y74.116
G1 Z0.200
G1 E3.20000 F2400.000
M204 S800
;TYPE:Perimeter
;WIDTH:0.42
G1 F1200.000
G1 X72.151 Y74.734 E0.01964
G1 X72.175 Y75.166 E0.01358
G1 X72.160 Y75.592 E0.01337
G1 X72.107 Y76.022 E0.01358
G1 X71.962 Y76.632 E0.01964
G1 X71.816 Y77.039 E0.01358
G1 X71.633 Y77.432 E0.01358
G1 X71.308 Y77.968 E0.01964
G1 X71.043 Y78.310 E0.01358
G1 X70.754 Y78.624 E0.01337
G1 X70.433 Y78.914 E0.01358
G1 X69.924 Y79.280 E0.01964
G1 X69.547 Y79.492 E0.01358
G1 X69.158 Y79.668 E0.01337
G1 X68.755 Y79.808 E0.01337
G1 X68.341 Y79.911 E0.01337
G1 X67.920 Y79.977 E0.01337
G1 X67.494 Y80.006 E0.01337
G1 X67.067 Y79.996 E0.01337
G1 X66.644 Y79.949 E0.01337
G1 X66.226 Y79.864 E0.01337
G1 X65.817 Y79.742 E0.01337
G1 X65.414 Y79.582 E0.01358
G1 X64.862 Y79.287 E0.01964
G1 X64.505 Y79.042 E0.01358
G1 X64.176 Y78.770 E0.01337
G1 X63.868 Y78.466 E0.01356
G1 X63.488 Y77.998 E0.01891
G1 X63.242 Y77.614 E0.01429
G1 X63.041 Y77.229 E0.01361
G1 X62.816 Y76.644 E0.01964
G1 X62.706 Y76.225 E0.01358
G1 X62.635 Y75.805 E0.01337
G1 X62.602 Y75.373 E0.01358
G1 X62.623 Y74.747 E0.01964
G1 X62.685 Y74.318 E0.01358
G1 X62.784 Y73.903 E0.01337
G1 X62.919 Y73.499 E0.01337
G1 X63.090 Y73.108 E0.01337
G1 X63.299 Y72.728 E0.01358
G1 X63.659 Y72.215 E0.01964
G1 X63.946 Y71.891 E0.01358
G1 X64.260 Y71.593 E0.01358
G1 X64.761 Y71.216 E0.01964
G1 X65.133 Y70.995 E0.01358
G1 X65.518 Y70.812 E0.01337
G1 X65.918 Y70.663 E0.01337
G1 X66.329 Y70.550 E0.01337
G1 X66.755 Y70.473 E0.01356
G1 X67.357 Y70.432 E0.01891
G1 X67.812 Y70.450 E0.01429
G1 X68.236 Y70.507 E0.01341
G1 X68.652 Y70.602 E0.01337
G1 X69.064 Y70.735 E0.01358
G1 X69.636 Y70.992 E0.01964
G1 X70.008 Y71.213 E0.01358
G1 X70.354 Y71.462 E0.01337
G1 X70.677 Y71.741 E0.01337
G1 X70.978 Y72.052 E0.01358
G1 X71.361 Y72.548 E0.01964
G1 X71.586 Y72.918 E0.01358
G1 X71.774 Y73.301 E0.01337
G1 X71.927 Y73.699 E0.01337
G1 X72.030 Y74.058 E0.01170
M204 S1250
G1 X71.667 Y74.162 F9000.000
M204 S800
;TYPE:External perimeter
G1 F1200.000
G1 X71.775 Y74.776 E0.01954
G1 X71.797 Y75.170 E0.01239
G1 X71.784 Y75.563 E0.01232
G1 X71.736 Y75.955 E0.01239
G1 X71.600 Y76.524 E0.01833
G1 X71.467 Y76.896 E0.01239
G1 X71.300 Y77.254 E0.01239
G1 X70.997 Y77.754 E0.01833
G1 X70.755 Y78.067 E0.01239
G1 X70.488 Y78.355 E0.01232
G1 X70.195 Y78.620 E0.01239
G1 X69.721 Y78.962 E0.01833
G1 X69.376 Y79.156 E0.01239
G1 X69.018 Y79.317 E0.01232
G1 X68.647 Y79.446 E0.01232
G1 X68.266 Y79.541 E0.01232
G1 X67.878 Y79.602 E0.01232
G1 X67.486 Y79.628 E0.01232
G1 X67.093 Y79.620 E0.01232
G1 X66.702 Y79.576 E0.01232
G1 X66.317 Y79.498 E0.01232
G1 X65.941 Y79.386 E0.01232
G1 X65.573 Y79.239 E0.01239
G1 X65.058 Y78.964 E0.01833
G1 X64.732 Y78.741 E0.01239
G1 X64.429 Y78.490 E0.01232
G1 X64.148 Y78.212 E0.01239
G1 X63.794 Y77.776 E0.01762
G1 X63.568 Y77.425 E0.01310
G1 X63.386 Y77.074 E0.01241
G1 X63.176 Y76.528 E0.01833
G1 X63.075 Y76.146 E0.01239
G1 X63.010 Y75.758 E0.01232
G1 X62.979 Y75.364 E0.01239
G1 X62.999 Y74.780 E0.01833
G1 X63.056 Y74.389 E0.01239
G1 X63.147 Y74.007 E0.01232
G1 X63.272 Y73.634 E0.01232
G1 X63.429 Y73.274 E0.01232
G1 X63.619 Y72.928 E0.01239
G1 X63.955 Y72.449 E0.01833
G1 X64.217 Y72.153 E0.01239
G1 X64.504 Y71.882 E0.01239
G1 X64.971 Y71.530 E0.01833
G1 X65.311 Y71.328 E0.01239
G1 X65.666 Y71.159 E0.01232
G1 X66.034 Y71.022 E0.01232
G1 X66.413 Y70.918 E0.01232
G1 X66.802 Y70.848 E0.01239
G1 X67.362 Y70.809 E0.01762
G1 X67.779 Y70.827 E0.01310
G1 X68.169 Y70.879 E0.01233
G1 X68.552 Y70.966 E0.01232
G1 X68.929 Y71.087 E0.01239
G1 X69.462 Y71.327 E0.01833
G1 X69.802 Y71.529 E0.01239
G1 X70.121 Y71.758 E0.01232
G1 X70.418 Y72.015 E0.01232
G1 X70.693 Y72.299 E0.01239
G1 X71.050 Y72.762 E0.01833
G1 X71.255 Y73.100 E0.01239
G1 X71.428 Y73.452 E0.01232
G1 X71.569 Y73.819 E0.01232
G1 X71.651 Y74.104 E0.00929
M204 S1250
G1 X72.050 Y74.280 F9000.000
G1 E-2.24000 F4200.000
;WIPE_START
G1 F7200.000
G1 X71.775 Y74.776 E-0.37846
G1 X71.797 Y75.170 E-0.21905
G1 X71.784 Y75.563 E-0.21775
G1 X71.763 Y75.736 E-0.09675
;WIPE_END
G1 E-0.04800 F4200.000
G1 Z0.400 F9000.000
G1 X59.731 Y79.432
G1 Z0.200
G1 E3.20000 F2400.000
M204 S800
;TYPE:Perimeter
G1 F1200.000
G1 X58.672 Y79.432 E0.03320
G1 X58.669 Y78.702 E0.02289
G1 X58.640 Y78.162 E0.01696
G1 X58.545 Y77.494 E0.02115
G1 X58.778 Y77.557 E0.00758
G1 X59.352 Y77.620 E0.01810
G1 X61.174 Y77.637 E0.05714
G1 X61.174 Y72.807 E0.15144
G1 X59.349 Y72.819 E0.05724
G1 X58.778 Y72.882 E0.01799
G1 X58.545 Y72.945 E0.00758
G1 X58.640 Y72.277 E0.02115
G1 X58.669 Y71.736 E0.01696
G1 X58.672 Y71.006 E0.02289
G1 X59.736 Y71.006 E0.03336
G1 X60.255 Y70.215 E0.02968
G1 X60.554 Y69.814 E0.01569
G1 X60.877 Y69.430 E0.01571
G1 X61.220 Y69.065 E0.01571
G1 X61.584 Y68.720 E0.01571
G1 X61.967 Y68.398 E0.01571
G1 X62.365 Y68.100 E0.01558
G1 X63.001 Y67.692 E0.02370
G1 X63.666 Y67.342 E0.02356
G1 X64.359 Y67.050 E0.02356
G1 X65.074 Y66.820 E0.02356
G1 X65.807 Y66.651 E0.02356
G1 X66.551 Y66.547 E0.02356
G1 X67.302 Y66.507 E0.02356
G1 X68.053 Y66.532 E0.02356
G1 X68.799 Y66.622 E0.02356
G1 X69.539 Y66.777 E0.02370
G1 X70.013 Y66.912 E0.01545
G1 X70.727 Y67.172 E0.02383
G1 X71.176 Y67.374 E0.01545
G1 X71.842 Y67.732 E0.02370
G1 X72.471 Y68.144 E0.02356
G1 X73.065 Y68.611 E0.02370
G1 X73.574 Y69.073 E0.02156
G1 X73.979 Y69.357 E0.01550
G1 X74.305 Y69.513 E0.01134
G1 X74.668 Y69.628 E0.01193
G1 X75.210 Y69.671 E0.01705
G1 X75.721 Y69.587 E0.01625
G1 X75.630 Y70.230 E0.02039
G1 X75.604 Y70.744 E0.01613
G1 X75.601 Y72.066 E0.04145
G1 X75.462 Y72.555 E0.01594
G1 X75.444 Y72.861 E0.00961
G1 X75.341 Y73.360 E0.01597
G1 X75.388 Y73.420 E0.00238
G1 X75.319 Y73.527 E0.00398
G1 X75.158 Y74.211 E0.02204
G1 X75.100 Y75.143 E0.02927
G1 X75.114 Y75.744 E0.01887
G1 X75.174 Y76.369 E0.01966
G1 X75.365 Y77.132 E0.02467
G1 X75.435 Y77.194 E0.00293
G1 X75.398 Y77.321 E0.00414
G1 X75.505 Y78.053 E0.02320
G1 X75.791 Y78.928 E0.02887
G1 X76.151 Y79.749 E0.02810
G1 X76.578 Y80.534 E0.02801
G1 X76.850 Y80.942 E0.01538
G1 X76.736 Y81.072 E0.00541
G1 X76.415 Y80.917 E0.01120
G1 X75.954 Y80.775 E0.01513
G1 X75.609 Y80.723 E0.01093
G1 X75.269 Y80.714 E0.01068
G1 X74.912 Y80.749 E0.01122
G1 X74.445 Y80.869 E0.01513
G1 X74.116 Y81.008 E0.01121
G1 X73.692 Y81.270 E0.01562
G1 X73.064 Y81.829 E0.02635
G1 X72.672 Y82.146 E0.01581
G1 X72.265 Y82.438 E0.01571
G1 X71.846 Y82.705 E0.01558
G1 X71.176 Y83.065 E0.02383
G1 X70.723 Y83.268 E0.01558
G1 X70.255 Y83.447 E0.01571
G1 X69.777 Y83.598 E0.01571
G1 X69.291 Y83.721 E0.01571
G1 X68.799 Y83.817 E0.01571
G1 X68.307 Y83.883 E0.01558
G1 X67.551 Y83.930 E0.02375
G1 X67.051 Y83.926 E0.01566
G1 X66.551 Y83.892 E0.01571
G1 X66.054 Y83.829 E0.01571
G1 X65.561 Y83.738 E0.01571
G1 X65.074 Y83.619 E0.01571
