; generated by PrusaSlicer 2.3.0+win64 on 2021-07-31 at 17:25:16 UTC


;
;

;
;
; 

; external perimeters extrusion width = 0.45mm
; perimeters extrusion width = 0.45mm
; infill extrusion width = 0.45mm
; solid infill extrusion width = 0.45mm
; top infill extrusion width = 0.40mm
; first layer extrusion width = 0.42mm

M73 P0 R40
M201 X1250 Y1250 Z400 E5000 ; sets maximum accelerations, mm/sec^2
M203 X180 Y180 Z12 E80 ; sets maximum feedrates, mm/sec
M204 P1250 R1250 T1250 ; sets acceleration (P, T) and retract acceleration (R), mm/sec^2
M205 X8.00 Y8.00 Z2.00 E10.00 ; sets the jerk limits, mm/sec
M205 S0 T0 ; sets the minimum extruding and travel feed rate, mm/sec
M107
;TYPE:Custom
G90 ; use absolute coordinates
M83 ; extruder relative mode
M104 S170 ; set extruder temp for bed leveling
M140 S60 ; set bed temp
M109 R170 ; wait for bed leveling temp
M190 S60 ; wait for bed temp
G28 ; home all without mesh bed level
G29 ; mesh bed leveling 
M104 S215 ; set extruder temp
G92 E0.0
G1 Y-2.0 X179 F2400
M73 P0 R39
G1 Z3 F720
M109 S215 ; wait for extruder temp

; intro line
G1 X170 F1000
G1 Z0.2 F720
G1 X110.0 E8.0 F900
G1 X40.0 E10.0 F700
G92 E0.0

M221 S95 ; set flow
G21 ; set units to millimeters
G90 ; use absolute coordinates
M83 ; use relative distances for extrusion
M900 K0.2 ; Filament gcode LA 1.5
; ; Filament gcode LA 1.0
;LAYER_CHANGE
;Z:0.2
;HEIGHT:0.2
;BEFORE_LAYER_CHANGE
G92 E0.0
;0.2


G1 E-3.20000 F4200.000
G1 Z0.200 F9000.000
;AFTER_LAYER_CHANGE
;0.2
G1 Z0.400
G1 X60.529 Y83.672
G1 Z0.200
G1 E3.20000 F2400.000
M204 S800
;TYPE:Skirt
;WIDTH:0.42
G1 F1200.000
G1 X61.006 Y83.152 E0.02213
G1 X65.431 Y80.105 E0.16847
G1 X66.617 Y79.413 E0.04306
G1 X67.840 Y78.876 E0.04187
G1 X69.129 Y78.476 E0.04231
G1 X70.213 Y78.259 E0.03467
G1 X90.000 Y76.623 E0.62252
G1 X109.786 Y78.259 E0.62250
G1 X111.113 Y78.539 E0.04253
G1 X112.154 Y78.874 E0.03426
G1 X113.377 Y79.410 E0.04188
G1 X114.564 Y80.102 E0.04310
G1 X118.995 Y83.152 E0.16866
G1 X119.472 Y83.673 E0.02213
G1 X119.775 Y84.311 E0.02213
G1 X119.877 Y84.978 E0.02119
G1 X119.876 Y95.058 E0.31602
G1 X119.765 Y95.720 E0.02107
G1 X119.476 Y96.322 E0.02095
G1 X118.885 Y96.932 E0.02661
G1 X114.023 Y100.237 E0.18435
G1 X112.450 Y101.012 E0.05497
G1 X110.807 Y101.541 E0.05411
G1 X109.118 Y101.825 E0.05371
G1 X90.941 Y103.344 E0.57193
G1 X89.852 Y103.377 E0.03415
G1 X70.879 Y101.824 E0.59686
G1 X69.185 Y101.539 E0.05386
G1 X67.530 Y101.004 E0.05453
G1 X65.762 Y100.107 E0.06216
G1 X61.108 Y96.927 E0.17674
G1 X60.524 Y96.322 E0.02637
G1 X60.234 Y95.720 E0.02095
G1 X60.124 Y95.061 E0.02095
G1 X60.123 Y84.978 E0.31614
M73 P1 R39
G1 X60.224 Y84.313 E0.02107
G1 X60.503 Y83.727 E0.02037
M204 S1250
; printing object TriplePotHolder_03.stl id:0 copy 0
G1 E-2.24000 F4200.000
;WIPE_START
G1 F7200.000
G1 X61.006 Y83.152 E-0.42305
G1 X61.732 Y82.652 E-0.48895
;WIPE_END
G1 E-0.04800 F4200.000
G1 Z0.400 F9000.000
G1 X80.896 Y88.272
G1 Z0.200
G1 E3.20000 F2400.000
M204 S800
;TYPE:External perimeter
;WIDTH:0.29292
G1 F1200.000
G1 X81.000 Y88.250 E0.00220
G1 X83.000 Y88.250 E0.04158
G1 X83.104 Y88.272 E0.00220
G1 X83.125 Y88.375 E0.00220
G1 X83.125 Y91.625 E0.06756
G1 X83.104 Y91.729 E0.00220
G1 X83.000 Y91.750 E0.00220
G1 X81.000 Y91.750 E0.04158
G1 X80.896 Y91.729 E0.00220
G1 X80.875 Y91.625 E0.00220
G1 X80.875 Y88.375 E0.06756
;WIDTH:0.335813
G1 X80.884 Y88.331 E0.00111
M204 S1250
G1 E-2.24000 F4200.000
;WIPE_START
G1 F7200.000
G1 X81.000 Y88.250 E-0.07802
G1 X82.505 Y88.250 E-0.83398
;WIPE_END
G1 E-0.04800 F4200.000
G1 Z0.400 F9000.000
G1 X81.037 Y83.576
G1 Z0.200
G1 E3.20000 F2400.000
M204 S800
;WIDTH:0.153163
G1 F1200.000
G1 X81.053 Y83.613 E0.00037
M204 S1250
M204 S800
;WIDTH:0.181216
G1 X81.069 Y83.650 E0.00046
M204 S1250
M204 S800
;WIDTH:0.219924
G1 X81.098 Y83.657 E0.00045
M204 S1250
M204 S800
;WIDTH:0.258633
G1 X81.127 Y83.664 E0.00054
M204 S1250
M204 S800
;WIDTH:0.288769
G1 X81.157 Y83.672 E0.00062
G1 X81.551 Y83.155 E0.01328
G1 X81.985 Y82.652 E0.01359
G1 X82.392 Y82.232 E0.01195
G1 X82.986 Y81.691 E0.01644
G1 X83.443 Y81.326 E0.01195
G1 X84.005 Y80.931 E0.01404
G1 X84.506 Y80.618 E0.01208
G1 X85.019 Y80.338 E0.01195
G1 X85.550 Y80.079 E0.01208
G1 X86.369 Y79.752 E0.01803
G1 X86.942 Y79.566 E0.01231
G1 X87.507 Y79.417 E0.01195
G1 X88.092 Y79.296 E0.01222
G1 X88.677 Y79.208 E0.01208
G1 X89.265 Y79.152 E0.01208
G1 X89.849 Y79.131 E0.01195
G1 X90.733 Y79.152 E0.01808
G1 X91.323 Y79.208 E0.01212
G1 X91.916 Y79.297 E0.01225
G1 X92.613 Y79.447 E0.01457
G1 X93.629 Y79.750 E0.02167
G1 X94.279 Y80.006 E0.01428
G1 X94.811 Y80.252 E0.01198
G1 X95.330 Y80.523 E0.01197
G1 X95.995 Y80.929 E0.01593
G1 X96.722 Y81.454 E0.01833
G1 X97.451 Y82.081 E0.01968
G1 X98.068 Y82.711 E0.01801
G1 X98.591 Y83.337 E0.01667
M204 S1250
M204 S800
;WIDTH:0.305906
G1 X98.848 Y83.682 E0.00940
G1 X98.883 Y83.669 E0.00081
M204 S1250
M204 S800
;WIDTH:0.177925
G1 X99.008 Y83.604 E0.00159
M204 S1250
G1 E-2.24000 F4200.000
;WIPE_START
G1 F7200.000
G1 X98.883 Y83.669 E-0.07854
;WIPE_END
G1 E-0.88146 F4200.000
G1 Z0.400 F9000.000
G1 X76.659 Y88.897
G1 Z0.200
G1 E3.20000 F2400.000
M204 S800
;TYPE:Perimeter
;WIDTH:0.42
G1 F1200.000
G1 X76.763 Y89.515 E0.01964
G1 X76.787 Y89.947 E0.01358
G1 X76.773 Y90.373 E0.01337
G1 X76.720 Y90.803 E0.01358
G1 X76.575 Y91.413 E0.01964
G1 X76.428 Y91.820 E0.01358
G1 X76.246 Y92.213 E0.01358
G1 X75.921 Y92.749 E0.01964
G1 X75.656 Y93.092 E0.01358
G1 X75.367 Y93.405 E0.01337
G1 X75.045 Y93.695 E0.01358
G1 X74.537 Y94.061 E0.01964
G1 X74.159 Y94.274 E0.01358
G1 X73.770 Y94.449 E0.01337
G1 X73.367 Y94.589 E0.01337
G1 X72.954 Y94.692 E0.01337
G1 X72.532 Y94.759 E0.01337
G1 X72.107 Y94.787 E0.01337
G1 X71.680 Y94.778 E0.01337
G1 X71.256 Y94.730 E0.01337
G1 X70.838 Y94.645 E0.01337
G1 X70.430 Y94.523 E0.01337
G1 X70.027 Y94.363 E0.01358
G1 X69.474 Y94.068 E0.01964
G1 X69.117 Y93.823 E0.01358
G1 X68.788 Y93.551 E0.01337
G1 X68.481 Y93.247 E0.01356
G1 X68.101 Y92.779 E0.01891
G1 X67.854 Y92.395 E0.01429
G1 X67.654 Y92.010 E0.01361
G1 X67.429 Y91.425 E0.01964
G1 X67.319 Y91.006 E0.01358
G1 X67.248 Y90.586 E0.01337
G1 X67.214 Y90.154 E0.01358
G1 X67.235 Y89.528 E0.01964
G1 X67.298 Y89.099 E0.01358
G1 X67.397 Y88.684 E0.01337
G1 X67.532 Y88.280 E0.01337
G1 X67.703 Y87.889 E0.01337
G1 X67.911 Y87.509 E0.01358
G1 X68.272 Y86.997 E0.01964
G1 X68.558 Y86.672 E0.01358
G1 X68.873 Y86.375 E0.01358
G1 X69.373 Y85.997 E0.01964
G1 X69.746 Y85.777 E0.01358
G1 X70.131 Y85.593 E0.01337
G1 X70.531 Y85.444 E0.01337
G1 X70.942 Y85.331 E0.01337
G1 X71.368 Y85.254 E0.01356
G1 X71.970 Y85.213 E0.01891
G1 X72.425 Y85.232 E0.01429
G1 X72.849 Y85.289 E0.01341
G1 X73.265 Y85.383 E0.01337
G1 X73.677 Y85.516 E0.01358
G1 X74.248 Y85.773 E0.01964
G1 X74.621 Y85.994 E0.01358
G1 X74.967 Y86.243 E0.01337
G1 X75.290 Y86.522 E0.01337
G1 X75.591 Y86.833 E0.01358
G1 X75.974 Y87.329 E0.01964
G1 X76.199 Y87.700 E0.01358
G1 X76.387 Y88.082 E0.01337
G1 X76.540 Y88.480 E0.01337
G1 X76.643 Y88.839 E0.01170
M204 S1250
G1 X76.280 Y88.943 F9000.000
M204 S800
;TYPE:External perimeter
G1 F1200.000
G1 X76.388 Y89.557 E0.01954
G1 X76.410 Y89.951 E0.01239
G1 X76.397 Y90.344 E0.01232
G1 X76.349 Y90.736 E0.01239
G1 X76.213 Y91.305 E0.01833
G1 X76.079 Y91.677 E0.01239
G1 X75.913 Y92.035 E0.01239
G1 X75.609 Y92.535 E0.01833
G1 X75.368 Y92.848 E0.01239
G1 X75.101 Y93.136 E0.01232
G1 X74.808 Y93.401 E0.01239
G1 X74.334 Y93.743 E0.01833
G1 X73.989 Y93.937 E0.01239
G1 X73.631 Y94.098 E0.01232
G1 X73.260 Y94.227 E0.01232
G1 X72.878 Y94.322 E0.01232
G1 X72.490 Y94.383 E0.01232
G1 X72.098 Y94.410 E0.01232
G1 X71.705 Y94.401 E0.01232
G1 X71.315 Y94.357 E0.01232
G1 X70.930 Y94.279 E0.01232
G1 X70.553 Y94.167 E0.01232
G1 X70.186 Y94.021 E0.01239
G1 X69.670 Y93.745 E0.01833
G1 X69.345 Y93.522 E0.01239
G1 X69.042 Y93.271 E0.01232
G1 X68.761 Y92.994 E0.01239
G1 X68.407 Y92.557 E0.01762
G1 X68.181 Y92.206 E0.01310
G1 X67.998 Y91.855 E0.01241
G1 X67.788 Y91.309 E0.01833
G1 X67.688 Y90.927 E0.01239
G1 X67.623 Y90.540 E0.01232
G1 X67.592 Y90.146 E0.01239
G1 X67.612 Y89.561 E0.01833
G1 X67.669 Y89.170 E0.01239
G1 X67.760 Y88.788 E0.01232
G1 X67.884 Y88.415 E0.01232
G1 X68.042 Y88.055 E0.01232
G1 X68.232 Y87.709 E0.01239
G1 X68.568 Y87.231 E0.01833
G1 X68.830 Y86.935 E0.01239
G1 X69.117 Y86.663 E0.01239
G1 X69.584 Y86.311 E0.01833
G1 X69.924 Y86.110 E0.01239
G1 X70.278 Y85.940 E0.01232
G1 X70.647 Y85.803 E0.01232
G1 X71.025 Y85.699 E0.01232
G1 X71.414 Y85.629 E0.01239
G1 X71.975 Y85.591 E0.01762
G1 X72.392 Y85.608 E0.01310
G1 X72.782 Y85.660 E0.01233
G1 X73.165 Y85.747 E0.01232
G1 X73.541 Y85.868 E0.01239
G1 X74.074 Y86.108 E0.01833
G1 X74.414 Y86.310 E0.01239
G1 X74.733 Y86.539 E0.01232
G1 X75.030 Y86.796 E0.01232
G1 X75.305 Y87.080 E0.01239
G1 X75.662 Y87.543 E0.01833
G1 X75.868 Y87.881 E0.01239
G1 X76.041 Y88.234 E0.01232
G1 X76.182 Y88.600 E0.01232
G1 X76.264 Y88.885 E0.00929
M204 S1250
G1 X76.662 Y89.061 F9000.000
G1 E-2.24000 F4200.000
;WIPE_START
G1 F7200.000
G1 X76.388 Y89.557 E-0.37846
G1 X76.410 Y89.951 E-0.21905
G1 X76.397 Y90.344 E-0.21775
G1 X76.376 Y90.517 E-0.09675
;WIPE_END
G1 E-0.04800 F4200.000
G1 Z0.400 F9000.000
G1 X64.344 Y94.213
G1 Z0.200
G1 E3.20000 F2400.000
M204 S800
;TYPE:Perimeter
G1 F1200.000
G1 X63.285 Y94.213 E0.03320
G1 X63.282 Y93.483 E0.02289
G1 X63.253 Y92.943 E0.01696
G1 X63.158 Y92.275 E0.02115
G1 X63.391 Y92.338 E0.00758
G1 X63.965 Y92.401 E0.01810
G1 X65.787 Y92.418 E0.05714
G1 X65.787 Y87.588 E0.15144
G1 X63.962 Y87.600 E0.05724
G1 X63.391 Y87.663 E0.01799
G1 X63.158 Y87.726 E0.00758
G1 X63.253 Y87.058 E0.02115
G1 X63.282 Y86.518 E0.01696
G1 X63.285 Y85.788 E0.02289
G1 X64.349 Y85.788 E0.03336
G1 X64.868 Y84.996 E0.02968
G1 X65.167 Y84.595 E0.01569
G1 X65.489 Y84.211 E0.01571
G1 X65.833 Y83.846 E0.01571
G1 X66.197 Y83.502 E0.01571
G1 X66.580 Y83.179 E0.01571
G1 X66.978 Y82.881 E0.01558
G1 X67.614 Y82.473 E0.02370
G1 X68.279 Y82.123 E0.02356
G1 X68.972 Y81.831 E0.02356
G1 X69.687 Y81.601 E0.02356
G1 X70.420 Y81.433 E0.02356
G1 X71.164 Y81.328 E0.02356
G1 X71.915 Y81.289 E0.02356
G1 X72.666 Y81.314 E0.02356
G1 X73.412 Y81.403 E0.02356
G1 X74.152 Y81.558 E0.02370
G1 X74.626 Y81.693 E0.01545
G1 X75.340 Y81.953 E0.02383
G1 X75.789 Y82.155 E0.01545
G1 X76.455 Y82.513 E0.02370
G1 X77.083 Y82.925 E0.02356
G1 X77.678 Y83.392 E0.02370
G1 X78.187 Y83.855 E0.02156
G1 X78.592 Y84.138 E0.01550
G1 X78.918 Y84.294 E0.01134
G1 X79.281 Y84.409 E0.01193
G1 X79.823 Y84.452 E0.01705
G1 X80.334 Y84.368 E0.01625
G1 X80.242 Y85.011 E0.02039
G1 X80.217 Y85.525 E0.01613
G1 X80.214 Y86.847 E0.04145
G1 X80.075 Y87.336 E0.01594
G1 X80.057 Y87.643 E0.00961
G1 X79.953 Y88.141 E0.01597
G1 X80.000 Y88.201 E0.00238
G1 X79.932 Y88.308 E0.00398
G1 X79.770 Y88.992 E0.02204
G1 X79.713 Y89.924 E0.02927
G1 X79.726 Y90.525 E0.01887
G1 X79.786 Y91.150 E0.01966
G1 X79.978 Y91.913 E0.02467
G1 X80.048 Y91.975 E0.00293
G1 X80.011 Y92.102 E0.00414
G1 X80.118 Y92.834 E0.02320
G1 X80.404 Y93.709 E0.02887
G1 X80.763 Y94.530 E0.02810
G1 X81.191 Y95.315 E0.02801
G1 X81.463 Y95.723 E0.01538
G1 X81.349 Y95.853 E0.00541
G1 X81.028 Y95.698 E0.01120
G1 X80.567 Y95.556 E0.01513
G1 X80.222 Y95.504 E0.01093
G1 X79.881 Y95.495 E0.01068
G1 X79.525 Y95.531 E0.01122
G1 X79.058 Y95.650 E0.01513
G1 X78.729 Y95.789 E0.01121
G1 X78.305 Y96.051 E0.01562
G1 X77.677 Y96.610 E0.02635
G1 X77.285 Y96.927 E0.01581
G1 X76.878 Y97.220 E0.01571
G1 X76.458 Y97.486 E0.01558
G1 X75.789 Y97.846 E0.02383
G1 X75.336 Y98.049 E0.01558
G1 X74.867 Y98.228 E0.01571
G1 X74.390 Y98.379 E0.01571
G1 X73.904 Y98.503 E0.01571
G1 X73.412 Y98.598 E0.01571
G1 X72.919 Y98.664 E0.01558
G1 X72.163 Y98.711 E0.02375
G1 X71.664 Y98.707 E0.01566
G1 X71.164 Y98.673 E0.01571
G1 X70.667 Y98.611 E0.01571
G1 X70.174 Y98.520 E0.01571
G1 X69.687 Y98.401 E0.01571
G1 X69.214 Y98.256 E0.01550
G1 X68.503 Y97.981 E0.02391
G1 X68.054 Y97.768 E0.01558
G1 X67.620 Y97.532 E0.01550
G1 X66.982 Y97.122 E0.02378
G1 X66.383 Y96.661 E0.02370
G1 X66.012 Y96.330 E0.01558
G1 X65.658 Y95.975 E0.01571
G1 X65.325 Y95.601 E0.01571
G1 X65.018 Y95.212 E0.01555
G1 X64.377 Y94.263 E0.03588
M204 S1250
G1 E-2.24000 F4200.000
;WIPE_START
G1 F7200.000
G1 X63.285 Y94.213 E-0.60610
G1 X63.283 Y93.661 E-0.30590
;WIPE_END
G1 E-0.04800 F4200.000
G1 Z0.400 F9000.000
G1 X103.732 Y90.408
G1 Z0.200
G1 E3.20000 F2400.000
M204 S800
G1 F1200.000
G1 X103.712 Y90.001 E0.01279
G1 X103.732 Y89.593 E0.01279
G1 X103.790 Y89.189 E0.01279
G1 X103.886 Y88.792 E0.01279
G1 X104.019 Y88.407 E0.01279
G1 X104.189 Y88.036 E0.01279
G1 X104.393 Y87.682 E0.01279
G1 X104.630 Y87.350 E0.01279
G1 X104.897 Y87.042 E0.01279
G1 X105.192 Y86.760 E0.01279
G1 X105.513 Y86.508 E0.01279
G1 X105.856 Y86.287 E0.01279
G1 X106.219 Y86.100 E0.01279
G1 X106.598 Y85.949 E0.01279
G1 X106.989 Y85.834 E0.01279
G1 X107.396 Y85.755 E0.01300
G1 X107.970 Y85.713 E0.01804
G1 X108.406 Y85.732 E0.01370
G1 X108.811 Y85.790 E0.01283
G1 X109.208 Y85.886 E0.01279
G1 X109.594 Y86.020 E0.01279
G1 X109.965 Y86.189 E0.01279
G1 X110.318 Y86.393 E0.01279
G1 X110.651 Y86.630 E0.01279
G1 X110.959 Y86.897 E0.01279
G1 X111.240 Y87.193 E0.01279
G1 X111.493 Y87.513 E0.01279
G1 X111.713 Y87.857 E0.01279
G1 X111.903 Y88.225 E0.01300
G1 X112.105 Y88.764 E0.01804
G1 X112.210 Y89.188 E0.01370
G1 X112.268 Y89.593 E0.01283
G1 X112.288 Y90.001 E0.01279
G1 X112.268 Y90.408 E0.01279
G1 X112.210 Y90.812 E0.01279
G1 X112.114 Y91.209 E0.01279
G1 X111.981 Y91.594 E0.01279
G1 X111.811 Y91.965 E0.01279
G1 X111.607 Y92.319 E0.01279
G1 X111.370 Y92.651 E0.01279
G1 X111.103 Y92.959 E0.01279
G1 X110.808 Y93.241 E0.01279
G1 X110.482 Y93.498 E0.01301
G1 X109.971 Y93.809 E0.01875
G1 X109.594 Y93.981 E0.01301
G1 X109.208 Y94.115 E0.01279
G1 X108.811 Y94.211 E0.01279
G1 X108.408 Y94.269 E0.01279
G1 X108.000 Y94.288 E0.01279
G1 X107.592 Y94.269 E0.01279
G1 X107.189 Y94.211 E0.01279
G1 X106.792 Y94.115 E0.01279
G1 X106.406 Y93.981 E0.01279
G1 X106.035 Y93.812 E0.01279
G1 X105.682 Y93.608 E0.01279
G1 X105.344 Y93.367 E0.01299
G1 X104.918 Y92.981 E0.01804
G1 X104.630 Y92.652 E0.01370
G1 X104.393 Y92.319 E0.01283
G1 X104.189 Y91.965 E0.01279
G1 X104.019 Y91.594 E0.01279
G1 X103.886 Y91.209 E0.01279
G1 X103.790 Y90.812 E0.01279
G1 X103.740 Y90.467 E0.01091
M204 S1250
G1 X104.113 Y90.414 F9000.000
M204 S800
;TYPE:External perimeter
G1 F1200.000
G1 X104.090 Y90.001 E0.01298
G1 X104.107 Y89.629 E0.01167
G1 X104.160 Y89.260 E0.01167
G1 X104.248 Y88.899 E0.01167
G1 X104.370 Y88.547 E0.01167
G1 X104.524 Y88.209 E0.01167
G1 X104.710 Y87.886 E0.01167
G1 X104.926 Y87.583 E0.01167
G1 X105.170 Y87.302 E0.01167
G1 X105.439 Y87.045 E0.01167
G1 X105.732 Y86.815 E0.01167
G1 X106.045 Y86.614 E0.01167
G1 X106.376 Y86.444 E0.01167
G1 X106.721 Y86.305 E0.01167
G1 X107.078 Y86.200 E0.01167
G1 X107.446 Y86.130 E0.01174
G1 X107.975 Y86.091 E0.01665
G1 X108.371 Y86.108 E0.01242
G1 X108.740 Y86.161 E0.01168
G1 X109.102 Y86.249 E0.01167
G1 X109.453 Y86.370 E0.01167
G1 X109.792 Y86.525 E0.01167
G1 X110.114 Y86.711 E0.01167
G1 X110.417 Y86.927 E0.01167
G1 X110.698 Y87.170 E0.01167
G1 X110.955 Y87.440 E0.01167
G1 X111.185 Y87.732 E0.01167
G1 X111.386 Y88.045 E0.01167
G1 X111.558 Y88.378 E0.01174
G1 X111.745 Y88.875 E0.01665
G1 X111.840 Y89.260 E0.01242
G1 X111.893 Y89.629 E0.01168
G1 X111.910 Y90.001 E0.01167
G1 X111.893 Y90.372 E0.01167
G1 X111.840 Y90.741 E0.01167
G1 X111.752 Y91.102 E0.01167
G1 X111.630 Y91.454 E0.01167
G1 X111.476 Y91.792 E0.01167
G1 X111.290 Y92.115 E0.01167
G1 X111.074 Y92.418 E0.01167
G1 X110.830 Y92.699 E0.01167
G1 X110.561 Y92.956 E0.01167
G1 X110.266 Y93.187 E0.01175
G1 X109.794 Y93.475 E0.01734
G1 X109.453 Y93.631 E0.01175
G1 X109.102 Y93.752 E0.01167
G1 X108.740 Y93.840 E0.01167
G1 X108.372 Y93.893 E0.01167
G1 X108.000 Y93.911 E0.01167
G1 X107.628 Y93.893 E0.01167
G1 X107.260 Y93.840 E0.01167
G1 X106.898 Y93.752 E0.01167
G1 X106.547 Y93.631 E0.01167
G1 X106.208 Y93.476 E0.01167
G1 X105.886 Y93.290 E0.01167
G1 X105.581 Y93.073 E0.01174
G1 X105.187 Y92.716 E0.01665
G1 X104.927 Y92.418 E0.01242
G1 X104.710 Y92.115 E0.01168
G1 X104.524 Y91.792 E0.01167
G1 X104.370 Y91.454 E0.01167
G1 X104.248 Y91.102 E0.01167
G1 X104.160 Y90.741 E0.01167
