; generated by PrusaSlicer 2.3.0+win64 on 2021-07-31 at 20:32:30 UTC


;
;

;
;
; 

; external perimeters extrusion width = 0.45mm
; perimeters extrusion width = 0.45mm
; infill extrusion width = 0.45mm
; solid infill extrusion width = 0.45mm
; top infill extrusion width = 0.40mm
; first layer extrusion width = 0.42mm

M73 P0 R25
M201 X1250 Y1250 Z400 E5000 ; sets maximum accelerations, mm/sec^2
M203 X180 Y180 Z12 E80 ; sets maximum feedrates, mm/sec
M204 P1250 R1250 T1250 ; sets acceleration (P, T) and retract acceleration (R), mm/sec^2
M205 X8.00 Y8.00 Z2.00 E10.00 ; sets the jerk limits, mm/sec
M205 S0 T0 ; sets the minimum extruding and travel feed rate, mm/sec
M107
;TYPE:Custom
G90 ; use absolute coordinates
M83 ; extruder relative mode
M104 S170 ; set extruder temp for bed leveling
M140 S60 ; set bed temp
M109 R170 ; wait for bed leveling temp
M190 S60 ; wait for bed temp
G28 ; home all without mesh bed level
G29 ; mesh bed leveling 
M104 S215 ; set extruder temp
G92 E0.0
G1 Y-2.0 X179 F2400
G1 Z3 F720
M109 S215 ; wait for extruder temp

; intro line
G1 X170 F1000
G1 Z0.2 F720
G1 X110.0 E8.0 F900
G1 X40.0 E10.0 F700
G92 E0.0

M221 S95 ; set flow
G21 ; set units to millimeters
G90 ; use absolute coordinates
M83 ; use relative distances for extrusion
M900 K0.2 ; Filament gcode LA 1.5
; ; Filament gcode LA 1.0
;LAYER_CHANGE
;Z:0.2
;HEIGHT:0.2
;BEFORE_LAYER_CHANGE
G92 E0.0
;0.2


M73 P1 R25
G1 E-3.20000 F4200.000
G1 Z0.200 F9000.000
;AFTER_LAYER_CHANGE
;0.2
G1 Z0.400
G1 X93.681 Y116.487
G1 Z0.200
G1 E3.20000 F2400.000
M204 S800
;TYPE:Skirt
;WIDTH:0.42
G1 F1200.000
G1 X66.481 Y116.532 E0.85285
G1 X65.897 Y116.454 E0.01846
G1 X65.350 Y116.236 E0.01846
G1 X64.858 Y115.873 E0.01917
G1 X64.474 Y115.398 E0.01917
G1 X64.224 Y114.839 E0.01917
G1 X64.124 Y114.236 E0.01917
G1 X64.123 Y89.728 E0.76842
G1 X64.202 Y89.148 E0.01835
G1 X64.419 Y88.605 E0.01835
G1 X64.803 Y88.091 E0.02012
G1 X85.504 Y67.129 E0.92372
G1 X86.092 Y66.768 E0.02166
G1 X93.631 Y63.645 E0.25584
G1 X94.527 Y63.471 E0.02860
G1 X95.687 Y63.549 E0.03646
G1 X97.035 Y63.780 E0.04288
G1 X98.342 Y64.156 E0.04266
G1 X99.378 Y64.570 E0.03497
G1 X100.588 Y65.200 E0.04276
G1 X101.742 Y65.976 E0.04361
G1 X102.856 Y66.929 E0.04596
G1 X103.300 Y67.553 E0.02402
G1 X115.767 Y94.488 E0.93061
G1 X115.877 Y95.182 E0.02201
G1 X115.877 Y105.274 E0.31643
G1 X115.797 Y105.846 E0.01811
G1 X115.581 Y106.385 E0.01823
G1 X114.891 Y107.233 E0.03425
G1 X113.950 Y108.086 E0.03982
G1 X112.931 Y108.805 E0.03913
G1 X111.830 Y109.398 E0.03918
G1 X93.737 Y116.466 E0.60905
M204 S1250
; printing object OnDiskCoupler04.stl id:1 copy 0
G1 E-2.24000 F4200.000
;WIPE_START
G1 F7200.000
G1 X92.091 Y116.470 E-0.91200
;WIPE_END
G1 E-0.04800 F4200.000
G1 Z0.400 F9000.000
G1 X93.236 Y85.005
G1 Z0.200
G1 E3.20000 F2400.000
M204 S800
;TYPE:Perimeter
G1 F1200.000
G1 X92.341 Y84.853 E0.02847
G1 X91.587 Y84.657 E0.02441
G1 X90.853 Y84.399 E0.02441
G1 X90.143 Y84.080 E0.02441
G1 X89.462 Y83.702 E0.02441
G1 X88.813 Y83.265 E0.02454
G1 X88.536 Y83.049 E0.01102
G1 X92.615 Y78.969 E0.18090
G1 X92.919 Y79.114 E0.01055
G1 X93.236 Y79.227 E0.01055
G1 X93.236 Y84.945 E0.17931
M204 S1250
G1 X93.613 Y85.405 F9000.000
M204 S800
;TYPE:External perimeter
G1 F1200.000
G1 X93.061 Y85.358 E0.01739
G1 X92.262 Y85.222 E0.02541
G1 X91.477 Y85.018 E0.02541
G1 X90.713 Y84.749 E0.02541
G1 X89.974 Y84.417 E0.02541
G1 X89.265 Y84.023 E0.02541
G1 X88.592 Y83.571 E0.02545
G1 X87.977 Y83.074 E0.02476
G1 X92.556 Y78.495 E0.20304
G1 X92.777 Y78.629 E0.00808
G1 X93.064 Y78.765 E0.00996
G1 X93.365 Y78.872 E0.01003
G1 X93.613 Y78.928 E0.00797
G1 X93.613 Y85.345 E0.20121
M204 S1250
G1 X93.276 Y85.190 F9000.000
G1 E-2.24000 F4200.000
;WIPE_START
G1 F7200.000
G1 X93.061 Y85.358 E-0.30626
G1 X92.262 Y85.222 E-0.44915
G1 X91.988 Y85.151 E-0.15659
;WIPE_END
G1 E-0.04800 F4200.000
G1 Z0.400 F9000.000
G1 X92.386 Y79.359
G1 Z0.200
G1 E3.20000 F2400.000
M204 S800
;TYPE:Solid infill
;WIDTH:0.430001
G1 F1200.000
G1 X92.953 Y79.926 E0.02581
G1 X92.953 Y80.473 E0.01762
G1 X92.232 Y79.752 E0.03281
G1 X91.959 Y80.026 E0.01246
G1 X92.953 Y81.021 E0.04527
G1 X92.953 Y81.568 E0.01762
G1 X91.685 Y80.300 E0.05773
G1 X91.411 Y80.573 E0.01246
G1 X92.953 Y82.115 E0.07018
G1 X92.953 Y82.663 E0.01762
G1 X91.138 Y80.847 E0.08264
G1 X90.864 Y81.121 E0.01246
G1 X92.953 Y83.210 E0.09510
G1 X92.953 Y83.758 E0.01762
G1 X90.590 Y81.395 E0.10756
G1 X90.316 Y81.668 E0.01246
G1 X92.953 Y84.305 E0.12002
G1 X92.953 Y84.670 E0.01175
G1 X92.733 Y84.633 E0.00718
G1 X90.043 Y81.942 E0.12247
G1 X89.769 Y82.216 E0.01246
G1 X92.034 Y84.481 E0.10311
M73 P2 R24
G1 X91.670 Y84.386 E0.01212
G1 X91.242 Y84.236 E0.01459
G1 X89.495 Y82.489 E0.07951
G1 X89.222 Y82.763 E0.01246
G1 X90.636 Y84.177 E0.06438
M204 S1250
G1 E-2.24000 F4200.000
;WIPE_START
G1 F7200.000
G1 X89.472 Y83.014 E-0.91200
;WIPE_END
G1 E-0.04800 F4200.000
G1 Z0.400 F9000.000
G1 X97.398 Y77.503
G1 Z0.200
G1 E3.20000 F2400.000
M204 S800
;TYPE:Perimeter
;WIDTH:0.42
G1 F1200.000
G1 X97.542 Y77.199 E0.01055
G1 X97.655 Y76.882 E0.01055
G1 X103.419 Y76.882 E0.18073
G1 X103.385 Y77.203 E0.01011
G1 X103.238 Y77.967 E0.02441
G1 X103.027 Y78.717 E0.02441
G1 X102.753 Y79.445 E0.02441
G1 X102.419 Y80.148 E0.02441
G1 X102.026 Y80.821 E0.02441
G1 X101.475 Y81.581 E0.02943
G1 X97.440 Y77.545 E0.17894
M204 S1250
G1 X96.920 Y77.558 F9000.000
M204 S800
;TYPE:External perimeter
G1 F1200.000
G1 X97.056 Y77.343 E0.00797
G1 X97.193 Y77.054 E0.01003
G1 X97.300 Y76.753 E0.01003
G1 X97.356 Y76.505 E0.00797
G1 X103.838 Y76.505 E0.20324
G1 X103.758 Y77.258 E0.02375
G1 X103.605 Y78.054 E0.02541
G1 X103.385 Y78.834 E0.02541
G1 X103.100 Y79.593 E0.02541
G1 X102.752 Y80.325 E0.02541
G1 X102.344 Y81.025 E0.02541
G1 X101.878 Y81.687 E0.02541
G1 X101.500 Y82.139 E0.01845
G1 X96.962 Y77.601 E0.20121
M204 S1250
G1 X97.150 Y77.450 F9000.000
G1 E-2.24000 F4200.000
;WIPE_START
G1 F7200.000
G1 X97.056 Y77.343 E-0.15173
G1 X97.193 Y77.054 E-0.17725
G1 X97.300 Y76.753 E-0.17725
G1 X97.356 Y76.505 E-0.14093
G1 X97.834 Y76.505 E-0.26484
;WIPE_END
G1 E-0.04800 F4200.000
G1 Z0.400 F9000.000
G1 X102.472 Y76.995
G1 Z0.200
G1 E3.20000 F2400.000
M204 S800
;TYPE:Solid infill
;WIDTH:0.448525
G1 F1200.000
G1 X103.030 Y77.552 E0.02657
G1 X102.928 Y78.024 E0.01628
G1 X102.069 Y77.165 E0.04099
G1 X101.495 Y77.165 E0.01935
G1 X102.802 Y78.472 E0.06233
G1 X102.656 Y78.899 E0.01524
G1 X100.921 Y77.165 E0.08273
G1 X100.348 Y77.165 E0.01935
G1 X102.499 Y79.316 E0.10262
G1 X102.316 Y79.706 E0.01454
G1 X99.774 Y77.165 E0.12122
G1 X99.200 Y77.165 E0.01935
G1 X102.125 Y80.090 E0.13951
G1 X101.914 Y80.452 E0.01414
G1 X98.627 Y77.165 E0.15678
G1 X98.053 Y77.165 E0.01935
G1 X101.690 Y80.802 E0.17348
G1 X101.449 Y81.135 E0.01385
G1 X97.618 Y77.303 E0.18276
M204 S1250
G1 E-2.24000 F4200.000
;WIPE_START
G1 F7200.000
G1 X98.781 Y78.467 E-0.91200
;WIPE_END
G1 E-0.04800 F4200.000
G1 Z0.400 F9000.000
G1 X90.892 Y74.808
G1 Z0.200
G1 E3.20000 F2400.000
M204 S800
;TYPE:Perimeter
;WIDTH:0.42
G1 F1200.000
G1 X85.126 Y74.808 E0.18078
G1 X85.143 Y74.615 E0.00607
G1 X85.279 Y73.849 E0.02439
G1 X85.480 Y73.097 E0.02441
G1 X85.743 Y72.365 E0.02441
G1 X86.069 Y71.653 E0.02454
G1 X86.316 Y71.201 E0.01615
G1 X86.591 Y70.761 E0.01628
G1 X87.069 Y70.108 E0.02538
G1 X91.149 Y74.187 E0.18088
G1 X91.005 Y74.491 E0.01055
G1 X90.912 Y74.751 E0.00866
M204 S1250
G1 X91.190 Y75.185 F9000.000
M204 S800
;TYPE:External perimeter
G1 F1200.000
G1 X84.713 Y75.185 E0.20307
G1 X84.769 Y74.565 E0.01951
G1 X84.911 Y73.768 E0.02540
G1 X85.120 Y72.985 E0.02541
G1 X85.394 Y72.222 E0.02541
G1 X85.732 Y71.484 E0.02545
G1 X85.991 Y71.011 E0.01690
G1 X86.276 Y70.552 E0.01694
G1 X86.587 Y70.110 E0.01694
G1 X87.043 Y69.549 E0.02270
G1 X91.626 Y74.132 E0.20323
G1 X91.490 Y74.347 E0.00797
G1 X91.353 Y74.636 E0.01003
G1 X91.246 Y74.937 E0.01003
G1 X91.203 Y75.127 E0.00609
M204 S1250
G1 X90.865 Y74.953 F9000.000
G1 X90.928 Y74.388
M204 S800
;TYPE:Solid infill
;WIDTH:0.449211
G1 F1200.000
G1 X87.094 Y70.553 E0.18321
G1 X86.851 Y70.884 E0.01389
G1 X90.491 Y74.525 E0.17395
G1 X89.917 Y74.525 E0.01941
G1 X86.628 Y71.236 E0.15714
G1 X86.419 Y71.602 E0.01424
G1 X89.342 Y74.525 E0.13964
G1 X88.768 Y74.525 E0.01941
G1 X86.228 Y71.986 E0.12133
G1 X86.048 Y72.380 E0.01464
G1 X88.193 Y74.525 E0.10250
G1 X87.618 Y74.525 E0.01941
G1 X85.889 Y72.796 E0.08263
G1 X85.740 Y73.221 E0.01523
G1 X87.044 Y74.525 E0.06231
G1 X86.469 Y74.525 E0.01941
G1 X85.619 Y73.675 E0.04064
G1 X85.514 Y74.145 E0.01627
G1 X86.064 Y74.695 E0.02629
M204 S1250
G1 E-2.24000 F4200.000
;WIPE_START
G1 F7200.000
G1 X85.514 Y74.145 E-0.43120
G1 X85.619 Y73.675 E-0.26683
G1 X85.892 Y73.948 E-0.21397
;WIPE_END
G1 E-0.04800 F4200.000
G1 Z0.400 F9000.000
G1 X95.310 Y72.464
G1 Z0.200
G1 E3.20000 F2400.000
M204 S800
;TYPE:Perimeter
;WIDTH:0.42
G1 F1200.000
G1 X95.310 Y66.699 E0.18076
G1 X95.567 Y66.724 E0.00808
G1 X96.332 Y66.866 E0.02441
G1 X97.083 Y67.072 E0.02441
G1 X97.814 Y67.340 E0.02441
G1 X98.519 Y67.669 E0.02441
G1 X99.194 Y68.057 E0.02441
G1 X99.833 Y68.500 E0.02437
G1 X100.007 Y68.645 E0.00710
G1 X95.931 Y72.721 E0.18074
G1 X95.627 Y72.576 E0.01055
G1 X95.367 Y72.484 E0.00866
M204 S1250
G1 X94.933 Y72.762 F9000.000
M204 S800
;TYPE:External perimeter
G1 F1200.000
G1 X94.933 Y66.282 E0.20317
G1 X95.620 Y66.350 E0.02163
G1 X96.416 Y66.498 E0.02541
G1 X97.198 Y66.712 E0.02541
G1 X97.959 Y66.992 E0.02541
G1 X98.693 Y67.334 E0.02541
G1 X99.396 Y67.738 E0.02541
G1 X100.061 Y68.199 E0.02539
G1 X100.566 Y68.619 E0.02058
G1 X95.986 Y73.198 E0.20305
G1 X95.771 Y73.062 E0.00797
G1 X95.483 Y72.925 E0.01003
G1 X95.181 Y72.818 E0.01003
G1 X94.992 Y72.775 E0.00609
M204 S1250
G1 X95.165 Y72.437 F9000.000
G1 E-2.24000 F4200.000
;WIPE_START
G1 F7200.000
G1 X94.977 Y71.130 E-0.91200
;WIPE_END
G1 E-0.04800 F4200.000
G1 Z0.400 F9000.000
G1 X97.927 Y67.518
G1 Z0.200
G1 E3.20000 F2400.000
M204 S800
;TYPE:Solid infill
;WIDTH:0.430612
G1 F1200.000
G1 X99.330 Y68.921 E0.06398
G1 X99.056 Y69.195 E0.01250
G1 X97.321 Y67.461 E0.07909
G1 X96.997 Y67.341 E0.01116
G1 X96.524 Y67.212 E0.01579
G1 X98.782 Y69.470 E0.10294
G1 X98.508 Y69.744 E0.01250
G1 X95.823 Y67.059 E0.12239
G1 X95.593 Y67.016 E0.00755
G1 X95.593 Y67.377 E0.01163
G1 X98.234 Y70.018 E0.12039
G1 X97.960 Y70.292 E0.01250
G1 X95.593 Y67.925 E0.10789
G1 X95.593 Y68.474 E0.01767
G1 X97.685 Y70.566 E0.09540
G1 X97.411 Y70.840 E0.01250
G1 X95.593 Y69.022 E0.08290
G1 X95.593 Y69.570 E0.01767
G1 X97.137 Y71.114 E0.07040
G1 X96.863 Y71.389 E0.01250
G1 X95.593 Y70.118 E0.05790
G1 X95.593 Y70.667 E0.01767
G1 X96.589 Y71.663 E0.04541
G1 X96.315 Y71.937 E0.01250
G1 X95.593 Y71.215 E0.03291
G1 X95.593 Y71.763 E0.01767
G1 X96.161 Y72.331 E0.02588
M204 S1250
; stop printing object OnDiskCoupler04.stl id:1 copy 0
; printing object TriplePotHolderShim_01.stl id:0 copy 0
G1 E-2.24000 F4200.000
;WIPE_START
G1 F7200.000
G1 X95.593 Y71.763 E-0.44488
G1 X95.593 Y71.215 E-0.30384
G1 X95.801 Y71.423 E-0.16328
;WIPE_END
G1 E-0.04800 F4200.000
G1 Z0.400 F9000.000
G1 X90.012 Y113.855
M73 P3 R24
G1 Z0.200
G1 E3.20000 F2400.000
M204 S800
;TYPE:External perimeter
;WIDTH:0.642556
G1 F1200.000
G1 X72.081 Y113.855 E0.89401
M204 S1250
G1 X71.383 Y113.523 F9000.000
M204 S800
;TYPE:Perimeter
;WIDTH:0.42
G1 F1200.000
G1 X71.059 Y113.439 E0.01049
G1 X70.491 Y113.378 E0.01791
G1 X67.287 Y113.369 E0.10046
G1 X67.287 Y90.542 E0.71574
G1 X79.045 Y90.542 E0.36865
G1 X75.912 Y98.472 E0.26732
G1 X75.732 Y98.948 E0.01597
G1 X75.602 Y99.384 E0.01427
G1 X75.248 Y98.863 E0.01977
G1 X74.816 Y98.421 E0.01937
G1 X74.487 Y98.162 E0.01311
G1 X74.144 Y97.942 E0.01280
G1 X73.781 Y97.755 E0.01279
G1 X73.402 Y97.603 E0.01279
G1 X73.011 Y97.488 E0.01279
G1 X72.610 Y97.411 E0.01279
G1 X72.204 Y97.372 E0.01279
G1 X71.796 Y97.372 E0.01279
G1 X71.390 Y97.411 E0.01279
G1 X70.982 Y97.489 E0.01301
G1 X70.413 Y97.671 E0.01875
G1 X70.035 Y97.844 E0.01301
G1 X69.676 Y98.051 E0.01301
G1 X69.197 Y98.410 E0.01875
G1 X68.897 Y98.696 E0.01301
G1 X68.625 Y99.010 E0.01301
G1 X68.290 Y99.505 E0.01875
G1 X68.100 Y99.874 E0.01301
G1 X67.948 Y100.253 E0.01279
G1 X67.831 Y100.651 E0.01301
G1 X67.732 Y101.240 E0.01875
G1 X67.712 Y101.655 E0.01301
G1 X67.732 Y102.070 E0.01301
G1 X67.831 Y102.659 E0.01875
G1 X67.950 Y103.064 E0.01323
G1 X68.185 Y103.614 E0.01875
G1 X68.393 Y103.973 E0.01301
G1 X68.634 Y104.311 E0.01301
G1 X69.036 Y104.754 E0.01875
G1 X69.355 Y105.030 E0.01323
G1 X69.856 Y105.369 E0.01897
G1 X70.400 Y105.633 E0.01897
G1 X70.792 Y105.769 E0.01301
G1 X71.214 Y105.871 E0.01361
G1 X71.224 Y112.600 E0.21097
G1 X71.288 Y113.171 E0.01801
G1 X71.367 Y113.465 E0.00955
M204 S1250
G1 X71.888 Y113.944 F9000.000
M204 S800
;TYPE:External perimeter
G1 F1200.000
G1 X71.477 Y113.937 E0.01287
G1 X70.991 Y113.811 E0.01573
G1 X70.470 Y113.755 E0.01643
G1 X66.910 Y113.746 E0.11164
G1 X66.910 Y90.165 E0.73935
G1 X79.599 Y90.165 E0.39786
G1 X76.090 Y99.069 E0.30007
G1 X75.945 Y99.553 E0.01586
G1 X75.861 Y100.042 E0.01555
G1 X75.735 Y100.489 E0.01457
G1 X75.612 Y100.800 E0.01047
G1 X75.405 Y100.151 E0.02135
G1 X75.386 Y99.975 E0.00556
G1 X75.264 Y99.597 E0.01245
G1 X75.169 Y99.418 E0.00635
G1 X74.955 Y99.102 E0.01196
G1 X74.563 Y98.702 E0.01755
G1 X74.268 Y98.470 E0.01178
G1 X73.955 Y98.269 E0.01167
G1 X73.624 Y98.098 E0.01167
G1 X73.279 Y97.960 E0.01167
G1 X72.922 Y97.855 E0.01167
G1 X72.556 Y97.784 E0.01167
G1 X72.186 Y97.749 E0.01167
G1 X71.814 Y97.749 E0.01167
G1 X71.444 Y97.784 E0.01167
G1 X71.076 Y97.855 E0.01175
G1 X70.549 Y98.024 E0.01734
G1 X70.208 Y98.179 E0.01175
G1 X69.884 Y98.367 E0.01175
G1 X69.441 Y98.698 E0.01734
G1 X69.170 Y98.957 E0.01175
G1 X68.925 Y99.240 E0.01175
G1 X68.615 Y99.698 E0.01734
G1 X68.443 Y100.031 E0.01175
G1 X68.305 Y100.376 E0.01167
G1 X68.199 Y100.735 E0.01175
G1 X68.108 Y101.281 E0.01734
G1 X68.090 Y101.655 E0.01175
G1 X68.108 Y102.029 E0.01175
G1 X68.199 Y102.574 E0.01734
G1 X68.305 Y102.936 E0.01182
G1 X68.523 Y103.445 E0.01734
G1 X68.710 Y103.769 E0.01175
G1 X68.928 Y104.074 E0.01175
G1 X69.300 Y104.483 E0.01734
G1 X69.585 Y104.730 E0.01182
G1 X70.045 Y105.042 E0.01742
G1 X70.544 Y105.284 E0.01742
G1 X70.898 Y105.407 E0.01175
G1 X71.262 Y105.495 E0.01174
G1 X71.590 Y105.535 E0.01036
G1 X71.601 Y112.579 E0.22085
G1 X71.659 Y113.100 E0.01646
G1 X71.872 Y113.886 E0.02552
M204 S1250
G1 X71.530 Y113.764 F9000.000
G1 E-2.24000 F4200.000
;WIPE_START
G1 F7200.000
G1 X71.477 Y113.937 E-0.22055
G1 X70.991 Y113.811 E-0.27800
G1 X70.470 Y113.755 E-0.29037
G1 X70.248 Y113.755 E-0.12308
;WIPE_END
G1 E-0.04800 F4200.000
G1 Z0.400 F9000.000
G1 X90.012 Y113.855
G1 Z0.200
G1 E3.20000 F2400.000
M204 S800
;WIDTH:0.658138
G1 F1200.000
G1 X90.722 Y113.841 E0.03636
M204 S1250
G1 E-2.24000 F4200.000
;WIPE_START
G1 F7200.000
G1 X90.012 Y113.855 E-0.39391
;WIPE_END
G1 E-0.56609 F4200.000
G1 Z0.400 F9000.000
G1 X98.556 Y111.020
G1 Z0.200
G1 E3.20000 F2400.000
M204 S800
;TYPE:Perimeter
;WIDTH:0.42
G1 F1200.000
G1 X105.357 Y105.033 E0.28411
G1 X105.709 Y105.280 E0.01350
G1 X106.064 Y105.481 E0.01276
G1 X106.435 Y105.647 E0.01276
G1 X106.821 Y105.777 E0.01276
G1 X107.217 Y105.871 E0.01276
G1 X107.627 Y105.927 E0.01298
G1 X108.224 Y105.937 E0.01870
G1 X108.643 Y105.895 E0.01320
G1 X109.225 Y105.764 E0.01870
G1 X109.615 Y105.627 E0.01298
G1 X109.991 Y105.453 E0.01298
G1 X110.499 Y105.140 E0.01870
G1 X110.823 Y104.882 E0.01298
G1 X111.116 Y104.600 E0.01276
G1 X111.382 Y104.291 E0.01276
G1 X111.616 Y103.959 E0.01276
G1 X111.822 Y103.599 E0.01298
G1 X112.055 Y103.050 E0.01870
G1 X112.172 Y102.645 E0.01320
G1 X112.269 Y102.057 E0.01870
G1 X112.288 Y101.636 E0.01320
G1 X112.244 Y101.041 E0.01870
G1 X112.163 Y100.628 E0.01320
G1 X111.978 Y100.054 E0.01892
G1 X111.711 Y99.505 E0.01914
G1 X111.368 Y99.000 E0.01914
G1 X110.957 Y98.549 E0.01914
G1 X110.486 Y98.160 E0.01914
G1 X109.964 Y97.843 E0.01914
G1 X109.403 Y97.602 E0.01914
G1 X109.287 Y97.571 E0.00376
G1 X109.287 Y95.954 E0.05072
G1 X112.713 Y95.984 E0.10742
G1 X112.713 Y104.918 E0.28011
G1 X112.294 Y105.342 E0.01867
G1 X111.971 Y105.617 E0.01332
G1 X111.629 Y105.874 E0.01342
G1 X111.075 Y106.228 E0.02062
G1 X110.698 Y106.431 E0.01342
