; generated by PrusaSlicer 2.3.0+win64 on 2022-04-10 at 09:46:32 UTC


;
;

;
;
; 

; external perimeters extrusion width = 0.45mm
; perimeters extrusion width = 0.45mm
; infill extrusion width = 0.45mm
; solid infill extrusion width = 0.45mm
; top infill extrusion width = 0.40mm
; first layer extrusion width = 0.42mm

M73 P0 R43
M201 X1250 Y1250 Z400 E5000 ; sets maximum accelerations, mm/sec^2
M203 X180 Y180 Z12 E80 ; sets maximum feedrates, mm/sec
M204 P1250 R1250 T1250 ; sets acceleration (P, T) and retract acceleration (R), mm/sec^2
M205 X8.00 Y8.00 Z2.00 E10.00 ; sets the jerk limits, mm/sec
M205 S0 T0 ; sets the minimum extruding and travel feed rate, mm/sec
M107
;TYPE:Custom
G90 ; use absolute coordinates
M83 ; extruder relative mode
M104 S170 ; set extruder temp for bed leveling
M140 S85 ; set bed temp
M109 R170 ; wait for bed leveling temp
M190 S85 ; wait for bed temp
G28 ; home all without mesh bed level
G29 ; mesh bed leveling 
M104 S240 ; set extruder temp
G92 E0.0
G1 Y-2.0 X179 F2400
G1 Z3 F720
M109 S240 ; wait for extruder temp

; intro line
G1 X170 F1000
G1 Z0.2 F720
G1 X110.0 E8.0 F900
G1 X40.0 E10.0 F700
G92 E0.0

M221 S95 ; set flow
G21 ; set units to millimeters
G90 ; use absolute coordinates
M83 ; use relative distances for extrusion
M900 K0.2 ; Filament gcode
;LAYER_CHANGE
;Z:0.2
;HEIGHT:0.2
;BEFORE_LAYER_CHANGE
G92 E0.0
;0.2


G1 E-3.20000 F2400.000
G1 Z0.200 F9000.000
;AFTER_LAYER_CHANGE
;0.2
G1 Z0.400
G1 X67.433 Y69.113
G1 Z0.200
G1 E3.20000 F1500.000
M204 S800
;TYPE:Skirt
;WIDTH:0.42
G1 F1200.000
G1 X68.120 Y68.742 E0.02449
G1 X68.894 Y68.614 E0.02461
G1 X116.725 Y74.492 E1.51097
G1 X117.316 Y74.740 E0.02012
G1 X117.823 Y75.141 E0.02024
G1 X118.203 Y75.662 E0.02024
G1 X118.428 Y76.263 E0.02012
G1 X118.487 Y76.762 E0.01574
G1 X118.487 Y81.279 E0.14162
G1 X118.406 Y81.885 E0.01917
G1 X118.020 Y82.686 E0.02790
G1 X117.369 Y83.287 E0.02778
G1 X71.414 Y111.212 E1.68604
G1 X70.898 Y111.415 E0.01740
G1 X70.352 Y111.493 E0.01728
G1 X63.864 Y111.493 E0.20344
G1 X63.276 Y111.413 E0.01858
G1 X62.632 Y111.133 E0.02201
G1 X62.098 Y110.678 E0.02201
G1 X61.720 Y110.086 E0.02201
G1 X61.531 Y109.410 E0.02201
G1 X61.533 Y97.418 E0.37599
G1 X66.587 Y70.401 E0.86180
G1 X66.903 Y69.687 E0.02449
G1 X67.392 Y69.157 E0.02261
M204 S1250
; printing object UpperLimitSwitchHolderForBoxEnd02 id:0 copy 0
G1 E-2.24000 F2400.000
;WIPE_START
G1 F7200.000
G1 X68.120 Y68.742 E-0.26539
G1 X68.894 Y68.614 E-0.24854
G1 X70.142 Y68.767 E-0.39807
;WIPE_END
G1 E-0.04800 F2400.000
G1 Z0.400 F9000.000
G1 X69.677 Y71.880
G1 Z0.200
G1 E3.20000 F1500.000
M204 S800
;TYPE:Perimeter
G1 F1200.000
G1 X115.323 Y77.485 E1.44193
M73 P1 R43
G1 X115.323 Y80.484 E0.09403
G1 X91.953 Y80.484 E0.73275
G1 X69.911 Y108.329 E1.11350
G1 X64.677 Y108.329 E0.16410
G1 X64.677 Y98.513 E0.30778
G1 X69.677 Y98.513 E0.15677
G1 X69.677 Y71.940 E0.83317
M204 S1250
G1 E-2.24000 F2400.000
;WIPE_START
G1 F7200.000
G1 X72.536 Y72.288 E-0.91200
;WIPE_END
G1 E-0.04800 F2400.000
G1 Z0.400 F9000.000
G1 X69.300 Y98.136
G1 Z0.200
G1 E3.20000 F1500.000
M204 S800
;TYPE:External perimeter
G1 F1200.000
G1 X69.300 Y71.454 E0.83659
G1 X115.700 Y77.151 E1.46575
G1 X115.700 Y80.861 E0.11631
G1 X92.135 Y80.861 E0.73885
G1 X70.093 Y108.706 E1.11350
G1 X64.300 Y108.706 E0.18164
G1 X64.300 Y98.136 E0.33142
G1 X69.240 Y98.136 E0.15489
M204 S1250
G1 X69.672 Y97.989 F9000.000
G1 E-2.24000 F2400.000
;WIPE_START
G1 F7200.000
G1 X69.247 Y95.256 E-0.91200
;WIPE_END
G1 E-0.04800 F2400.000
G1 Z0.400 F9000.000
G1 X114.337 Y77.478
G1 Z0.200
G1 E3.20000 F1500.000
M204 S800
;TYPE:Solid infill
;WIDTH:0.420308
G1 F1200.000
G1 X115.040 Y78.180 E0.03118
G1 X115.040 Y78.714 E0.01675
G1 X113.924 Y77.598 E0.04953
G1 X113.315 Y77.523 E0.01924
G1 X115.040 Y79.248 E0.07653
G1 X115.040 Y79.781 E0.01675
G1 X112.707 Y77.449 E0.10353
G1 X112.099 Y77.374 E0.01924
G1 X114.926 Y80.201 E0.12546
G1 X114.392 Y80.201 E0.01675
G1 X111.490 Y77.299 E0.12878
G1 X110.882 Y77.225 E0.01924
G1 X113.858 Y80.201 E0.13209
G1 X113.325 Y80.201 E0.01675
G1 X110.273 Y77.150 E0.13541
G1 X109.665 Y77.075 E0.01924
G1 X112.791 Y80.201 E0.13872
G1 X112.257 Y80.201 E0.01675
G1 X109.057 Y77.000 E0.14204
G1 X108.448 Y76.926 E0.01924
G1 X111.724 Y80.201 E0.14535
G1 X111.190 Y80.201 E0.01675
G1 X107.840 Y76.851 E0.14867
G1 X107.231 Y76.776 E0.01924
G1 X110.656 Y80.201 E0.15198
G1 X110.122 Y80.201 E0.01675
G1 X106.623 Y76.702 E0.15530
G1 X106.015 Y76.627 E0.01924
G1 X109.589 Y80.201 E0.15861
G1 X109.055 Y80.201 E0.01675
G1 X105.406 Y76.552 E0.16193
G1 X104.798 Y76.477 E0.01924
G1 X108.521 Y80.201 E0.16524
G1 X107.988 Y80.201 E0.01675
G1 X104.189 Y76.403 E0.16856
G1 X103.581 Y76.328 E0.01924
G1 X107.454 Y80.201 E0.17187
G1 X106.920 Y80.201 E0.01675
G1 X102.972 Y76.253 E0.17519
G1 X102.364 Y76.179 E0.01924
G1 X106.386 Y80.201 E0.17850
G1 X105.853 Y80.201 E0.01675
G1 X101.756 Y76.104 E0.18182
G1 X101.147 Y76.029 E0.01924
G1 X105.319 Y80.201 E0.18514
G1 X104.785 Y80.201 E0.01675
G1 X100.539 Y75.955 E0.18845
G1 X99.930 Y75.880 E0.01924
G1 X104.252 Y80.201 E0.19177
G1 X103.718 Y80.201 E0.01675
G1 X99.322 Y75.805 E0.19508
G1 X98.714 Y75.730 E0.01924
G1 X103.184 Y80.201 E0.19840
G1 X102.650 Y80.201 E0.01675
G1 X98.105 Y75.656 E0.20171
G1 X97.497 Y75.581 E0.01924
G1 X102.117 Y80.201 E0.20503
G1 X101.583 Y80.201 E0.01675
G1 X96.888 Y75.506 E0.20834
G1 X96.280 Y75.432 E0.01924
G1 X101.049 Y80.201 E0.21166
G1 X100.516 Y80.201 E0.01675
G1 X95.672 Y75.357 E0.21497
M73 P1 R42
G1 X95.063 Y75.282 E0.01924
G1 X99.982 Y80.201 E0.21829
M73 P2 R42
G1 X99.448 Y80.201 E0.01675
G1 X94.455 Y75.208 E0.22160
G1 X93.846 Y75.133 E0.01924
G1 X98.915 Y80.201 E0.22492
G1 X98.381 Y80.201 E0.01675
G1 X93.238 Y75.058 E0.22823
G1 X92.630 Y74.983 E0.01924
G1 X97.847 Y80.201 E0.23155
G1 X97.313 Y80.201 E0.01675
G1 X92.021 Y74.909 E0.23486
G1 X91.413 Y74.834 E0.01924
G1 X96.780 Y80.201 E0.23818
G1 X96.246 Y80.201 E0.01675
G1 X90.804 Y74.759 E0.24149
G1 X90.196 Y74.685 E0.01924
G1 X95.712 Y80.201 E0.24481
G1 X95.179 Y80.201 E0.01675
G1 X89.587 Y74.610 E0.24812
G1 X88.979 Y74.535 E0.01924
G1 X94.645 Y80.201 E0.25144
G1 X94.111 Y80.201 E0.01675
G1 X88.371 Y74.460 E0.25475
G1 X87.762 Y74.386 E0.01924
G1 X93.577 Y80.201 E0.25807
G1 X93.044 Y80.201 E0.01675
G1 X87.154 Y74.311 E0.26138
G1 X86.545 Y74.236 E0.01924
G1 X92.510 Y80.201 E0.26470
G1 X91.976 Y80.201 E0.01675
G1 X85.937 Y74.162 E0.26801
G1 X85.329 Y74.087 E0.01924
G1 X91.651 Y80.409 E0.28058
G1 X91.415 Y80.707 E0.01192
G1 X84.720 Y74.012 E0.29711
G1 X84.112 Y73.938 E0.01924
G1 X91.179 Y81.005 E0.31365
G1 X90.944 Y81.303 E0.01192
G1 X83.503 Y73.863 E0.33018
G1 X82.895 Y73.788 E0.01924
G1 X90.708 Y81.601 E0.34672
G1 X90.472 Y81.899 E0.01192
G1 X82.287 Y73.713 E0.36325
G1 X81.678 Y73.639 E0.01924
G1 X90.236 Y82.197 E0.37979
G1 X90.000 Y82.495 E0.01192
G1 X81.070 Y73.564 E0.39633
G1 X80.461 Y73.489 E0.01924
G1 X89.765 Y82.793 E0.41286
G1 X89.529 Y83.091 E0.01192
G1 X79.853 Y73.415 E0.42940
G1 X79.244 Y73.340 E0.01924
G1 X89.293 Y83.388 E0.44593
G1 X89.057 Y83.686 E0.01192
G1 X78.636 Y73.265 E0.46247
G1 X78.028 Y73.191 E0.01924
G1 X88.821 Y83.984 E0.47900
G1 X88.586 Y84.282 E0.01192
G1 X77.419 Y73.116 E0.49554
G1 X76.811 Y73.041 E0.01924
G1 X88.350 Y84.580 E0.51207
G1 X88.114 Y84.878 E0.01192
G1 X76.202 Y72.966 E0.52861
G1 X75.594 Y72.892 E0.01924
G1 X87.878 Y85.176 E0.54514
G1 X87.642 Y85.474 E0.01192
G1 X74.986 Y72.817 E0.56168
G1 X74.377 Y72.742 E0.01924
G1 X87.406 Y85.772 E0.57821
G1 X87.171 Y86.069 E0.01192
G1 X73.769 Y72.668 E0.59475
G1 X73.160 Y72.593 E0.01924
G1 X86.935 Y86.367 E0.61128
G1 X86.699 Y86.665 E0.01192
G1 X72.552 Y72.518 E0.62782
G1 X71.944 Y72.443 E0.01924
G1 X86.463 Y86.963 E0.64435
G1 X86.227 Y87.261 E0.01192
G1 X71.335 Y72.369 E0.66089
G1 X70.727 Y72.294 E0.01924
G1 X85.992 Y87.559 E0.67742
M73 P3 R42
G1 X85.756 Y87.857 E0.01192
G1 X70.118 Y72.219 E0.69396
G1 X69.960 Y72.200 E0.00500
G1 X69.960 Y72.595 E0.01239
G1 X85.520 Y88.155 E0.69052
G1 X85.284 Y88.453 E0.01192
G1 X69.960 Y73.129 E0.68005
G1 X69.960 Y73.662 E0.01675
G1 X85.048 Y88.751 E0.66959
G1 X84.813 Y89.048 E0.01192
G1 X69.960 Y74.196 E0.65912
G1 X69.960 Y74.730 E0.01675
G1 X84.577 Y89.346 E0.64866
G1 X84.341 Y89.644 E0.01192
G1 X69.960 Y75.263 E0.63819
G1 X69.960 Y75.797 E0.01675
G1 X84.105 Y89.942 E0.62773
G1 X83.869 Y90.240 E0.01192
G1 X69.960 Y76.331 E0.61726
G1 X69.960 Y76.865 E0.01675
G1 X83.634 Y90.538 E0.60680
G1 X83.398 Y90.836 E0.01192
G1 X69.960 Y77.398 E0.59633
G1 X69.960 Y77.932 E0.01675
G1 X83.162 Y91.134 E0.58587
G1 X82.926 Y91.432 E0.01192
G1 X69.960 Y78.466 E0.57540
G1 X69.960 Y78.999 E0.01675
G1 X82.690 Y91.730 E0.56494
G1 X82.454 Y92.027 E0.01192
G1 X69.960 Y79.533 E0.55447
G1 X69.960 Y80.067 E0.01675
G1 X82.219 Y92.325 E0.54401
G1 X81.983 Y92.623 E0.01192
G1 X69.960 Y80.600 E0.53355
G1 X69.960 Y81.134 E0.01675
G1 X81.747 Y92.921 E0.52308
G1 X81.511 Y93.219 E0.01192
G1 X69.960 Y81.668 E0.51262
G1 X69.960 Y82.202 E0.01675
G1 X81.275 Y93.517 E0.50215
G1 X81.040 Y93.815 E0.01192
G1 X69.960 Y82.735 E0.49169
G1 X69.960 Y83.269 E0.01675
G1 X80.804 Y94.113 E0.48122
G1 X80.568 Y94.411 E0.01192
G1 X69.960 Y83.803 E0.47076
G1 X69.960 Y84.336 E0.01675
G1 X80.332 Y94.709 E0.46029
G1 X80.096 Y95.006 E0.01192
G1 X69.960 Y84.870 E0.44983
G1 X69.960 Y85.404 E0.01675
G1 X79.861 Y95.304 E0.43936
G1 X79.625 Y95.602 E0.01192
G1 X69.960 Y85.938 E0.42890
G1 X69.960 Y86.471 E0.01675
G1 X79.389 Y95.900 E0.41843
M73 P4 R42
G1 X79.153 Y96.198 E0.01192
G1 X69.960 Y87.005 E0.40797
G1 X69.960 Y87.539 E0.01675
G1 X78.917 Y96.496 E0.39750
G1 X78.682 Y96.794 E0.01192
G1 X69.960 Y88.072 E0.38704
G1 X69.960 Y88.606 E0.01675
G1 X78.446 Y97.092 E0.37657
G1 X78.210 Y97.390 E0.01192
G1 X69.960 Y89.140 E0.36611
G1 X69.960 Y89.673 E0.01675
G1 X77.974 Y97.687 E0.35564
G1 X77.738 Y97.985 E0.01192
G1 X69.960 Y90.207 E0.34518
G1 X69.960 Y90.741 E0.01675
G1 X77.502 Y98.283 E0.33471
G1 X77.267 Y98.581 E0.01192
G1 X69.960 Y91.275 E0.32425
G1 X69.960 Y91.808 E0.01675
G1 X77.031 Y98.879 E0.31379
G1 X76.795 Y99.177 E0.01192
G1 X69.960 Y92.342 E0.30332
G1 X69.960 Y92.876 E0.01675
G1 X76.559 Y99.475 E0.29286
G1 X76.323 Y99.773 E0.01192
M73 P4 R41
G1 X69.960 Y93.409 E0.28239
G1 X69.960 Y93.943 E0.01675
G1 X76.088 Y100.071 E0.27193
G1 X75.852 Y100.369 E0.01192
G1 X69.960 Y94.477 E0.26146
G1 X69.960 Y95.011 E0.01675
G1 X75.616 Y100.666 E0.25100
G1 X75.380 Y100.964 E0.01192
G1 X69.960 Y95.544 E0.24053
G1 X69.960 Y96.078 E0.01675
G1 X75.144 Y101.262 E0.23007
G1 X74.909 Y101.560 E0.01192
G1 X69.960 Y96.612 E0.21960
G1 X69.960 Y97.145 E0.01675
G1 X74.673 Y101.858 E0.20914
G1 X74.437 Y102.156 E0.01192
G1 X69.960 Y97.679 E0.19867
G1 X69.960 Y98.213 E0.01675
G1 X74.201 Y102.454 E0.18821
G1 X73.965 Y102.752 E0.01192
G1 X69.960 Y98.747 E0.17774
G1 X69.960 Y98.796 E0.00155
G1 X69.476 Y98.796 E0.01520
G1 X73.729 Y103.050 E0.18878
G1 X73.494 Y103.348 E0.01192
G1 X68.942 Y98.796 E0.20200
G1 X68.408 Y98.796 E0.01675
G1 X73.258 Y103.645 E0.21522
G1 X73.022 Y103.943 E0.01192
G1 X67.875 Y98.796 E0.22844
G1 X67.341 Y98.796 E0.01675
G1 X72.786 Y104.241 E0.24166
G1 X72.550 Y104.539 E0.01192
G1 X66.807 Y98.796 E0.25488
G1 X66.273 Y98.796 E0.01675
G1 X72.315 Y104.837 E0.26810
G1 X72.079 Y105.135 E0.01192
G1 X65.740 Y98.796 E0.28132
G1 X65.206 Y98.796 E0.01675
G1 X71.843 Y105.433 E0.29454
G1 X71.607 Y105.731 E0.01192
G1 X64.960 Y99.084 E0.29499
G1 X64.960 Y99.617 E0.01675
G1 X71.371 Y106.029 E0.28452
G1 X71.136 Y106.327 E0.01192
G1 X64.960 Y100.151 E0.27406
G1 X64.960 Y100.685 E0.01675
G1 X70.900 Y106.624 E0.26359
G1 X70.664 Y106.922 E0.01192
G1 X64.960 Y101.218 E0.25313
G1 X64.960 Y101.752 E0.01675
G1 X70.428 Y107.220 E0.24266
G1 X70.192 Y107.518 E0.01192
G1 X64.960 Y102.286 E0.23220
G1 X64.960 Y102.820 E0.01675
G1 X69.957 Y107.816 E0.22173
G1 X69.774 Y108.046 E0.00922
G1 X69.653 Y108.046 E0.00380
G1 X64.960 Y103.353 E0.20827
G1 X64.960 Y103.887 E0.01675
G1 X69.119 Y108.046 E0.18459
G1 X68.586 Y108.046 E0.01675
G1 X64.960 Y104.421 E0.16090
G1 X64.960 Y104.954 E0.01675
G1 X68.052 Y108.046 E0.13722
G1 X67.518 Y108.046 E0.01675
G1 X64.960 Y105.488 E0.11353
G1 X64.960 Y106.022 E0.01675
G1 X66.985 Y108.046 E0.08985
G1 X66.451 Y108.046 E0.01675
G1 X64.960 Y106.555 E0.06616
G1 X64.960 Y107.089 E0.01675
G1 X65.917 Y108.046 E0.04248
G1 X65.384 Y108.046 E0.01675
G1 X64.790 Y107.453 E0.02632
M204 S1250
; stop printing object UpperLimitSwitchHolderForBoxEnd02 id:0 copy 0
;LAYER_CHANGE
;Z:0.4
;HEIGHT:0.2
;BEFORE_LAYER_CHANGE
G92 E0.0
;0.4


G1 E-2.24000 F2400.000
;WIPE_START
G1 F7200.000
G1 X65.384 Y108.046 E-0.26563
G1 X65.917 Y108.046 E-0.16901
G1 X64.960 Y107.089 E-0.42865
G1 X64.960 Y106.935 E-0.04872
;WIPE_END
G1 E-0.04800 F2400.000
G1 Z0.400 F9000.000
;AFTER_LAYER_CHANGE
;0.4
M104 S250 ; set temperature
M140 S90 ; set bed temperature
G1 Z0.600
G1 X61.720 Y110.086
G1 Z0.400
G1 E3.20000 F1500.000
;TYPE:Skirt
;WIDTH:0.42
G1 F2400.000
G1 X61.531 Y109.410 E0.02201
G1 X61.533 Y97.418 E0.37599
G1 X66.587 Y70.401 E0.86180
G1 X66.903 Y69.687 E0.02449
G1 X67.433 Y69.113 E0.02449
G1 X68.120 Y68.742 E0.02449
G1 X68.894 Y68.614 E0.02461
G1 X116.725 Y74.492 E1.51097
G1 X117.316 Y74.740 E0.02012
G1 X117.823 Y75.141 E0.02024
G1 X118.203 Y75.662 E0.02024
G1 X118.428 Y76.263 E0.02012
G1 X118.487 Y76.762 E0.01574
G1 X118.487 Y81.279 E0.14162
G1 X118.406 Y81.885 E0.01917
G1 X118.020 Y82.686 E0.02790
G1 X117.369 Y83.287 E0.02778
G1 X71.414 Y111.212 E1.68604
G1 X70.898 Y111.415 E0.01740
G1 X70.352 Y111.493 E0.01728
G1 X63.864 Y111.493 E0.20344
G1 X63.276 Y111.413 E0.01858
G1 X62.632 Y111.133 E0.02201
G1 X62.098 Y110.678 E0.02201
M73 P5 R41
G1 X61.752 Y110.137 E0.02013
; printing object UpperLimitSwitchHolderForBoxEnd02 id:0 copy 0
G1 E-2.24000
;WIPE_START
G1 F7200.000
G1 X61.531 Y109.410 E-0.24056
G1 X61.532 Y107.290 E-0.67144
;WIPE_END
G1 E-0.04800 F2400.000
G1 Z0.600 F9000.000
G1 X64.522 Y108.453
G1 Z0.400
G1 E3.20000 F1500.000
M204 S800
;TYPE:Perimeter
;WIDTH:0.45
G1 F2400.000
G1 X64.522 Y98.358 E0.34171
G1 X69.522 Y98.358 E0.16924
G1 X69.522 Y71.705 E0.90217
G1 X115.478 Y77.348 E1.56722
G1 X115.478 Y80.639 E0.11140
G1 X92.028 Y80.639 E0.79375
G1 X70.011 Y108.453 E1.20075
G1 X64.582 Y108.453 E0.18374
M204 S1250
G1 E-2.24000
;WIPE_START
G1 F7200.000
G1 X64.565 Y105.573 E-0.91200
;WIPE_END
G1 E-0.04800 F2400.000
G1 Z0.600 F9000.000
G1 X69.115 Y97.951
G1 Z0.400
G1 E3.20000 F1500.000
M204 S800
;TYPE:External perimeter
G1 F1800.000
G1 X69.115 Y71.245 E0.90396
G1 X115.885 Y76.988 E1.59498
G1 X115.885 Y81.046 E0.13737
G1 X92.225 Y81.046 E0.80086
G1 X70.207 Y108.860 E1.20075
G1 X64.115 Y108.860 E0.20622
G1 X64.115 Y97.951 E0.36927
G1 X69.055 Y97.951 E0.16721
M204 S1250
G1 X69.487 Y97.802 F9000.000
G1 E-2.24000 F2400.000
;WIPE_START
G1 F7200.000
G1 X69.062 Y95.071 E-0.91200
;WIPE_END
G1 E-0.04800 F2400.000
G1 Z0.600 F9000.000
G1 X64.644 Y99.109
G1 Z0.400
G1 E3.20000 F1500.000
M204 S1000
;TYPE:Solid infill
;WIDTH:0.452656
G1 F4800.000
G1 X65.090 Y98.663 E0.02146
G1 X65.669 Y98.663 E0.01974
G1 X64.828 Y99.505 E0.04056
G1 X64.828 Y100.085 E0.01974
G1 X66.249 Y98.663 E0.06848
G1 X66.828 Y98.663 E0.01974
G1 X64.828 Y100.664 E0.09640
G1 X64.828 Y101.243 E0.01974
G1 X67.408 Y98.663 E0.12431
G1 X67.987 Y98.663 E0.01974
G1 X64.828 Y101.823 E0.15223
G1 X64.828 Y102.402 E0.01974
G1 X68.567 Y98.663 E0.18015
G1 X69.146 Y98.663 E0.01974
G1 X64.644 Y103.165 E0.21690
M204 S1250
G1 E-2.24000 F2400.000
;WIPE_START
G1 F7200.000
G1 X66.681 Y101.129 E-0.91200
;WIPE_END
G1 E-0.04800 F2400.000
G1 Z0.600 F9000.000
G1 X64.644 Y107.221
G1 Z0.400
G1 E3.20000 F1500.000
M204 S1000
G1 F4800.000
G1 X96.536 Y75.330 E1.53659
G1 X96.020 Y75.266 E0.01771
G1 X64.828 Y106.459 E1.50290
G1 X64.828 Y105.879 E0.01974
G1 X95.504 Y75.203 E1.47804
G1 X94.988 Y75.139 E0.01771
G1 X64.828 Y105.300 E1.45317
G1 X64.828 Y104.720 E0.01974
G1 X94.472 Y75.076 E1.42830
G1 X93.956 Y75.013 E0.01771
G1 X64.828 Y104.141 E1.40344
G1 X64.828 Y103.561 E0.01974
G1 X93.439 Y74.949 E1.37857
G1 X92.923 Y74.886 E0.01771
G1 X69.828 Y97.982 E1.11280
G1 X69.828 Y97.402 E0.01974
G1 X92.407 Y74.823 E1.08793
G1 X91.891 Y74.759 E0.01771
G1 X69.828 Y96.823 E1.06306
