; generated by PrusaSlicer 2.3.0+win64 on 2022-05-18 at 07:22:48 UTC


;
;

;
;
; 

; external perimeters extrusion width = 0.45mm
; perimeters extrusion width = 0.45mm
; infill extrusion width = 0.45mm
; solid infill extrusion width = 0.45mm
; top infill extrusion width = 0.40mm
; first layer extrusion width = 0.42mm

M73 P0 R22
M201 X1250 Y1250 Z400 E5000 ; sets maximum accelerations, mm/sec^2
M203 X180 Y180 Z12 E80 ; sets maximum feedrates, mm/sec
M204 P1250 R1250 T1250 ; sets acceleration (P, T) and retract acceleration (R), mm/sec^2
M205 X8.00 Y8.00 Z2.00 E10.00 ; sets the jerk limits, mm/sec
M205 S0 T0 ; sets the minimum extruding and travel feed rate, mm/sec
M107
;TYPE:Custom
G90 ; use absolute coordinates
M83 ; extruder relative mode
M104 S170 ; set extruder temp for bed leveling
M140 S85 ; set bed temp
M109 R170 ; wait for bed leveling temp
M190 S85 ; wait for bed temp
G28 ; home all without mesh bed level
G29 ; mesh bed leveling 
M104 S240 ; set extruder temp
G92 E0.0
G1 Y-2.0 X179 F2400
G1 Z3 F720
M109 S240 ; wait for extruder temp

; intro line
G1 X170 F1000
G1 Z0.2 F720
G1 X110.0 E8.0 F900
G1 X40.0 E10.0 F700
G92 E0.0

M221 S95 ; set flow
G21 ; set units to millimeters
G90 ; use absolute coordinates
M83 ; use relative distances for extrusion
M900 K0.2 ; Filament gcode
;LAYER_CHANGE
;Z:0.2
;HEIGHT:0.2
;BEFORE_LAYER_CHANGE
G92 E0.0
;0.2


M73 P1 R22
G1 E-3.20000 F2400.000
G1 Z0.200 F9000.000
;AFTER_LAYER_CHANGE
;0.2
G1 Z0.400
G1 X80.029 Y63.672
G1 Z0.200
G1 E3.20000 F1500.000
M204 S800
;TYPE:Skirt
;WIDTH:0.42
G1 F1200.000
G1 X80.500 Y63.156 E0.02190
G1 X81.100 Y62.800 E0.02190
G1 X81.782 Y62.633 E0.02201
G1 X98.004 Y62.623 E0.50862
G1 X98.892 Y62.797 E0.02837
G1 X99.648 Y63.287 E0.02825
G1 X100.167 Y64.023 E0.02825
G1 X100.375 Y64.900 E0.02825
G1 X100.377 Y115.004 E1.57097
G1 X100.273 Y115.694 E0.02190
G1 X99.971 Y116.328 E0.02201
G1 X99.494 Y116.849 E0.02213
G1 X98.886 Y117.206 E0.02213
G1 X98.199 Y117.369 E0.02213
G1 X81.989 Y117.377 E0.50826
G1 X81.306 Y117.273 E0.02166
G1 X80.644 Y116.952 E0.02308
G1 X80.111 Y116.444 E0.02308
G1 X79.759 Y115.793 E0.02319
G1 X79.624 Y115.070 E0.02308
G1 X79.623 Y64.996 E1.57002
G1 X79.727 Y64.306 E0.02190
G1 X80.003 Y63.726 E0.02013
M204 S1250
; printing object WashingLineSupport1 id:0 copy 0
G1 E-2.24000 F2400.000
;WIPE_START
G1 F7200.000
G1 X80.500 Y63.156 E-0.23937
G1 X81.100 Y62.800 E-0.22113
G1 X81.782 Y62.633 E-0.22233
G1 X82.506 Y62.632 E-0.22916
;WIPE_END
G1 E-0.04800 F2400.000
G1 Z0.400 F9000.000
G1 X86.860 Y73.744
G1 Z0.200
G1 E3.20000 F1500.000
M204 S800
;TYPE:Perimeter
G1 F1200.000
G1 X87.235 Y73.492 E0.01418
G1 X87.804 Y73.189 E0.02023
G1 X88.221 Y73.020 E0.01408
G1 X88.646 Y72.887 E0.01397
G1 X89.281 Y72.760 E0.02032
G1 X89.731 Y72.718 E0.01417
G1 X90.379 Y72.725 E0.02032
G1 X90.834 Y72.777 E0.01435
G1 X91.460 Y72.917 E0.02013
G1 X91.883 Y73.058 E0.01398
G1 X92.293 Y73.234 E0.01398
G1 X92.852 Y73.546 E0.02007
G1 X93.223 Y73.807 E0.01422
G1 X93.566 Y74.094 E0.01402
G1 X94.015 Y74.557 E0.02022
G1 X94.292 Y74.909 E0.01406
G1 X94.530 Y75.271 E0.01360
G1 X94.744 Y75.662 E0.01397
G1 X94.925 Y76.071 E0.01401
G1 X95.123 Y76.687 E0.02029
G1 X95.216 Y77.126 E0.01407
G1 X95.272 Y77.574 E0.01417
G1 X95.284 Y78.216 E0.02011
G1 X95.247 Y78.659 E0.01394
G1 X95.174 Y79.098 E0.01398
G1 X95.002 Y79.717 E0.02013
G1 X94.838 Y80.137 E0.01415
G1 X94.640 Y80.538 E0.01400
G1 X94.295 Y81.086 E0.02029
G1 X94.020 Y81.437 E0.01400
G1 X93.720 Y81.759 E0.01380
G1 X93.390 Y82.059 E0.01399
G1 X92.869 Y82.443 E0.02030
G1 X92.484 Y82.669 E0.01399
G1 X92.077 Y82.864 E0.01412
G1 X91.472 Y83.080 E0.02016
G1 X91.030 Y83.188 E0.01426
G1 X90.391 Y83.274 E0.02021
G1 X89.936 Y83.288 E0.01426
G1 X89.293 Y83.241 E0.02022
G1 X88.854 Y83.163 E0.01401
G1 X88.415 Y83.046 E0.01423
G1 X87.817 Y82.817 E0.02006
G1 X87.419 Y82.616 E0.01398
G1 X87.040 Y82.383 E0.01398
G1 X86.530 Y81.991 E0.02014
G1 X86.203 Y81.681 E0.01415
G1 X85.904 Y81.346 E0.01408
G1 X85.527 Y80.823 E0.02021
G1 X85.302 Y80.430 E0.01419
G1 X85.041 Y79.838 E0.02029
G1 X84.904 Y79.413 E0.01400
G1 X84.802 Y78.979 E0.01399
G1 X84.722 Y78.336 E0.02030
G1 X84.713 Y77.890 E0.01399
G1 X84.740 Y77.451 E0.01380
G1 X84.805 Y77.009 E0.01399
G1 X84.965 Y76.382 E0.02030
G1 X85.123 Y75.954 E0.01430
G1 X85.407 Y75.377 E0.02018
G1 X85.650 Y74.992 E0.01426
G1 X86.048 Y74.485 E0.02022
G1 X86.365 Y74.159 E0.01425
G1 X86.814 Y73.783 E0.01836
M204 S1250
G1 X87.056 Y74.072 F9000.000
M204 S800
;TYPE:External perimeter
G1 F1200.000
G1 X87.429 Y73.815 E0.01421
G1 X87.964 Y73.531 E0.01900
G1 X88.348 Y73.375 E0.01298
G1 X88.739 Y73.253 E0.01286
G1 X89.336 Y73.134 E0.01909
G1 X89.747 Y73.095 E0.01293
G1 X90.356 Y73.102 E0.01909
G1 X90.771 Y73.150 E0.01311
G1 X91.359 Y73.281 E0.01891
G1 X91.749 Y73.411 E0.01287
G1 X92.126 Y73.573 E0.01288
G1 X92.651 Y73.866 E0.01884
G1 X92.993 Y74.106 E0.01311
G1 X93.309 Y74.370 E0.01290
G1 X93.730 Y74.805 E0.01899
G1 X93.985 Y75.130 E0.01295
G1 X94.207 Y75.466 E0.01262
G1 X94.405 Y75.829 E0.01298
G1 X94.572 Y76.205 E0.01289
G1 X94.758 Y76.784 E0.01906
G1 X94.844 Y77.188 E0.01295
G1 X94.895 Y77.601 E0.01305
G1 X94.907 Y78.204 E0.01889
G1 X94.873 Y78.611 E0.01283
G1 X94.805 Y79.016 E0.01287
G1 X94.644 Y79.598 E0.01891
G1 X94.492 Y79.985 E0.01304
G1 X94.311 Y80.354 E0.01289
G1 X93.987 Y80.868 E0.01906
G1 X93.733 Y81.191 E0.01289
G1 X93.455 Y81.491 E0.01281
G1 X93.151 Y81.767 E0.01288
M73 P2 R22
G1 X92.661 Y82.128 E0.01907
G1 X92.307 Y82.336 E0.01288
G1 X91.932 Y82.515 E0.01302
G1 X91.364 Y82.718 E0.01893
G1 X90.960 Y82.817 E0.01303
G1 X90.360 Y82.898 E0.01898
G1 X89.944 Y82.911 E0.01303
G1 X89.340 Y82.867 E0.01899
G1 X88.936 Y82.794 E0.01290
G1 X88.531 Y82.686 E0.01312
G1 X87.970 Y82.472 E0.01883
G1 X87.604 Y82.287 E0.01288
G1 X87.254 Y82.072 E0.01288
G1 X86.775 Y81.704 E0.01891
G1 X86.474 Y81.418 E0.01303
G1 X86.199 Y81.109 E0.01297
G1 X85.845 Y80.618 E0.01898
G1 X85.639 Y80.260 E0.01296
G1 X85.394 Y79.704 E0.01906
G1 X85.267 Y79.312 E0.01289
G1 X85.174 Y78.912 E0.01288
G1 X85.098 Y78.309 E0.01907
G1 X85.090 Y77.898 E0.01288
G1 X85.115 Y77.490 E0.01281
G1 X85.175 Y77.084 E0.01288
G1 X85.325 Y76.494 E0.01907
G1 X85.470 Y76.103 E0.01307
G1 X85.737 Y75.561 E0.01895
G1 X85.958 Y75.210 E0.01303
G1 X86.333 Y74.733 E0.01899
G1 X86.622 Y74.435 E0.01302
G1 X87.010 Y74.111 E0.01587
M204 S1250
G1 X87.006 Y73.675 F9000.000
G1 E-2.24000 F2400.000
;WIPE_START
G1 F7200.000
G1 X87.429 Y73.815 E-0.16242
G1 X87.964 Y73.531 E-0.19191
G1 X88.348 Y73.375 E-0.13105
G1 X88.739 Y73.253 E-0.12986
G1 X89.336 Y73.134 E-0.19277
G1 X89.663 Y73.103 E-0.10400
;WIPE_END
G1 E-0.04800 F2400.000
G1 Z0.400 F9000.000
G1 X82.787 Y65.787
G1 Z0.200
G1 E3.20000 F1500.000
M204 S800
;TYPE:Perimeter
G1 F1200.000
G1 X97.213 Y65.787 E0.45231
G1 X97.213 Y114.213 E1.51836
G1 X82.787 Y114.213 E0.45231
G1 X82.787 Y65.847 E1.51648
M204 S1250
G1 X82.410 Y65.410 F9000.000
M204 S800
;TYPE:External perimeter
G1 F1200.000
G1 X97.590 Y65.410 E0.47596
G1 X97.590 Y114.590 E1.54200
G1 X82.410 Y114.590 E0.47596
G1 X82.410 Y65.470 E1.54012
M204 S1250
M73 P3 R22
G1 X82.775 Y65.574 F9000.000
G1 E-2.24000 F2400.000
;WIPE_START
G1 F7200.000
G1 X85.290 Y65.459 E-0.91200
;WIPE_END
G1 E-0.04800 F2400.000
G1 Z0.400 F9000.000
G1 X97.100 Y66.664
G1 Z0.200
G1 E3.20000 F1500.000
M204 S800
;TYPE:Solid infill
;WIDTH:0.420494
G1 F1200.000
G1 X96.506 Y66.070 E0.02636
G1 X95.972 Y66.070 E0.01676
G1 X96.930 Y67.028 E0.04253
G1 X96.930 Y67.562 E0.01676
G1 X95.438 Y66.070 E0.06624
G1 X94.904 Y66.070 E0.01676
G1 X96.930 Y68.096 E0.08995
G1 X96.930 Y68.630 E0.01676
G1 X94.370 Y66.070 E0.11366
G1 X93.836 Y66.070 E0.01676
G1 X96.930 Y69.164 E0.13736
G1 X96.930 Y69.698 E0.01676
G1 X93.302 Y66.070 E0.16107
G1 X92.768 Y66.070 E0.01676
G1 X96.930 Y70.232 E0.18478
G1 X96.930 Y70.766 E0.01676
G1 X92.234 Y66.070 E0.20849
G1 X91.700 Y66.070 E0.01676
G1 X96.930 Y71.300 E0.23220
G1 X96.930 Y71.834 E0.01676
G1 X91.166 Y66.070 E0.25591
G1 X90.632 Y66.070 E0.01676
G1 X96.930 Y72.367 E0.27961
G1 X96.930 Y72.901 E0.01676
G1 X90.099 Y66.070 E0.30332
G1 X89.565 Y66.070 E0.01676
G1 X96.930 Y73.435 E0.32703
G1 X96.930 Y73.969 E0.01676
G1 X89.031 Y66.070 E0.35074
G1 X88.497 Y66.070 E0.01676
G1 X96.930 Y74.503 E0.37445
G1 X96.930 Y75.037 E0.01676
G1 X87.963 Y66.070 E0.39815
G1 X87.429 Y66.070 E0.01676
G1 X96.930 Y75.571 E0.42186
G1 X96.930 Y76.105 E0.01676
G1 X86.895 Y66.070 E0.44557
G1 X86.361 Y66.070 E0.01676
G1 X96.930 Y76.639 E0.46928
G1 X96.930 Y77.173 E0.01676
G1 X85.827 Y66.070 E0.49299
M73 P3 R21
G1 X85.293 Y66.070 E0.01676
G1 X92.041 Y72.818 E0.29962
G1 X91.536 Y72.644 E0.01677
G1 X91.275 Y72.586 E0.00841
G1 X84.759 Y66.070 E0.28930
G1 X84.225 Y66.070 E0.01676
G1 X90.623 Y72.468 E0.28409
G1 X90.397 Y72.442 E0.00715
G1 X90.060 Y72.439 E0.01059
G1 X83.691 Y66.070 E0.28277
G1 X83.157 Y66.070 E0.01676
G1 X89.539 Y72.452 E0.28336
G1 X89.068 Y72.515 E0.01493
G1 X83.070 Y66.517 E0.26630
M73 P4 R21
G1 X83.070 Y67.051 E0.01676
G1 X88.623 Y72.604 E0.24655
G1 X88.212 Y72.726 E0.01347
G1 X83.070 Y67.585 E0.22829
G1 X83.070 Y68.119 E0.01676
G1 X87.826 Y72.875 E0.21116
G1 X87.466 Y73.048 E0.01256
G1 X83.070 Y68.653 E0.19517
G1 X83.070 Y69.187 E0.01676
G1 X87.117 Y73.234 E0.17970
G1 X86.796 Y73.446 E0.01210
G1 X83.070 Y69.721 E0.16543
G1 X83.070 Y70.255 E0.01676
G1 X86.496 Y73.680 E0.15210
G1 X86.205 Y73.924 E0.01190
G1 X83.070 Y70.789 E0.13919
G1 X83.070 Y71.323 E0.01676
G1 X85.939 Y74.192 E0.12738
G1 X85.693 Y74.480 E0.01189
G1 X83.070 Y71.857 E0.11646
G1 X83.070 Y72.390 E0.01676
G1 X85.458 Y74.779 E0.10603
G1 X85.247 Y75.101 E0.01211
G1 X83.070 Y72.924 E0.09665
G1 X83.070 Y73.458 E0.01676
G1 X85.058 Y75.446 E0.08827
G1 X84.882 Y75.804 E0.01252
G1 X83.070 Y73.992 E0.08044
G1 X83.070 Y74.526 E0.01676
G1 X84.734 Y76.191 E0.07389
G1 X84.616 Y76.606 E0.01357
G1 X83.070 Y75.060 E0.06864
G1 X83.070 Y75.594 E0.01676
G1 X84.515 Y77.039 E0.06415
G1 X84.453 Y77.511 E0.01495
G1 X83.070 Y76.128 E0.06141
G1 X83.070 Y76.662 E0.01676
G1 X84.433 Y78.025 E0.06050
G1 X84.439 Y78.357 E0.01042
G1 X84.469 Y78.596 E0.00757
G1 X83.070 Y77.196 E0.06214
G1 X83.070 Y77.730 E0.01676
G1 X84.571 Y79.231 E0.06665
G1 X84.631 Y79.489 E0.00830
G1 X84.801 Y79.996 E0.01679
G1 X82.900 Y78.094 E0.08441
M204 S1250
G1 E-2.24000 F2400.000
;WIPE_START
G1 F7200.000
G1 X84.801 Y79.996 E-0.85135
G1 X84.740 Y79.814 E-0.06065
;WIPE_END
G1 E-0.04800 F2400.000
G1 Z0.400 F9000.000
G1 X94.854 Y75.631
G1 Z0.200
G1 E3.20000 F1500.000
M204 S800
G1 F1200.000
G1 X96.930 Y77.707 E0.09220
G1 X96.930 Y78.241 E0.01676
G1 X95.422 Y76.733 E0.06696
G1 X95.495 Y77.079 E0.01111
G1 X95.532 Y77.377 E0.00942
G1 X96.930 Y78.775 E0.06208
G1 X96.930 Y79.309 E0.01676
G1 X95.562 Y77.941 E0.06075
G1 X95.567 Y78.225 E0.00891
G1 X95.548 Y78.461 E0.00744
G1 X96.930 Y79.843 E0.06138
G1 X96.930 Y80.377 E0.01676
G1 X95.488 Y78.935 E0.06404
G1 X95.391 Y79.372 E0.01406
G1 X96.930 Y80.911 E0.06833
G1 X96.930 Y81.445 E0.01676
G1 X95.275 Y79.790 E0.07347
G1 X95.126 Y80.175 E0.01296
G1 X96.930 Y81.979 E0.08009
G1 X96.930 Y82.513 E0.01676
G1 X94.955 Y80.538 E0.08768
G1 X94.761 Y80.877 E0.01228
G1 X96.930 Y83.047 E0.09633
G1 X96.930 Y83.581 E0.01676
G1 X94.554 Y81.205 E0.10548
G1 X94.323 Y81.508 E0.01196
G1 X96.930 Y84.115 E0.11574
G1 X96.930 Y84.649 E0.01676
G1 X94.074 Y81.793 E0.12679
G1 X93.808 Y82.061 E0.01185
G1 X96.930 Y85.183 E0.13860
G1 X96.930 Y85.717 E0.01676
G1 X93.525 Y82.311 E0.15120
G1 X93.217 Y82.538 E0.01199
G1 X96.930 Y86.251 E0.16485
G1 X96.930 Y86.785 E0.01676
G1 X92.899 Y82.753 E0.17899
G1 X92.558 Y82.947 E0.01230
G1 X96.930 Y87.319 E0.19411
G1 X96.930 Y87.853 E0.01676
G1 X92.197 Y83.120 E0.21014
G1 X91.805 Y83.261 E0.01310
G1 X96.930 Y88.387 E0.22756
G1 X96.930 Y88.921 E0.01676
G1 X91.398 Y83.389 E0.24561
G1 X90.958 Y83.483 E0.01413
G1 X96.930 Y89.455 E0.26515
G1 X96.930 Y89.989 E0.01676
G1 X90.488 Y83.547 E0.28602
G1 X89.978 Y83.570 E0.01604
G1 X96.930 Y90.522 E0.30868
G1 X96.930 Y91.056 E0.01676
G1 X89.407 Y83.533 E0.33403
G1 X88.774 Y83.434 E0.02011
G1 X96.930 Y91.590 E0.36213
M73 P5 R21
G1 X96.930 Y92.124 E0.01676
G1 X87.681 Y82.875 E0.41066
M204 S1250
G1 E-2.24000 F2400.000
;WIPE_START
G1 F7200.000
G1 X89.717 Y84.912 E-0.91200
;WIPE_END
G1 E-0.04800 F2400.000
G1 Z0.400 F9000.000
G1 X82.900 Y78.628
G1 Z0.200
G1 E3.20000 F1500.000
M204 S800
G1 F1200.000
G1 X96.930 Y92.658 E0.62293
G1 X96.930 Y93.192 E0.01676
G1 X83.070 Y79.332 E0.61539
G1 X83.070 Y79.866 E0.01676
G1 X96.930 Y93.726 E0.61539
G1 X96.930 Y94.260 E0.01676
G1 X83.070 Y80.400 E0.61539
G1 X83.070 Y80.934 E0.01676
G1 X96.930 Y94.794 E0.61539
G1 X96.930 Y95.328 E0.01676
G1 X83.070 Y81.468 E0.61539
G1 X83.070 Y82.002 E0.01676
G1 X96.930 Y95.862 E0.61539
G1 X96.930 Y96.396 E0.01676
G1 X83.070 Y82.536 E0.61539
G1 X83.070 Y83.070 E0.01676
G1 X96.930 Y96.930 E0.61539
G1 X96.930 Y97.464 E0.01676
G1 X83.070 Y83.604 E0.61539
G1 X83.070 Y84.138 E0.01676
G1 X96.930 Y97.998 E0.61539
G1 X96.930 Y98.532 E0.01676
G1 X83.070 Y84.672 E0.61539
M73 P6 R21
G1 X83.070 Y85.206 E0.01676
G1 X96.930 Y99.066 E0.61539
G1 X96.930 Y99.600 E0.01676
G1 X83.070 Y85.740 E0.61539
G1 X83.070 Y86.274 E0.01676
G1 X96.930 Y100.134 E0.61539
G1 X96.930 Y100.668 E0.01676
G1 X83.070 Y86.808 E0.61539
G1 X83.070 Y87.342 E0.01676
G1 X96.930 Y101.202 E0.61539
G1 X96.930 Y101.736 E0.01676
G1 X83.070 Y87.876 E0.61539
G1 X83.070 Y88.410 E0.01676
G1 X96.930 Y102.270 E0.61539
G1 X96.930 Y102.804 E0.01676
G1 X83.070 Y88.944 E0.61539
G1 X83.070 Y89.478 E0.01676
G1 X96.930 Y103.338 E0.61539
G1 X96.930 Y103.872 E0.01676
G1 X83.070 Y90.011 E0.61539
G1 X83.070 Y90.545 E0.01676
G1 X96.930 Y104.406 E0.61539
G1 X96.930 Y104.940 E0.01676
G1 X83.070 Y91.079 E0.61539
G1 X83.070 Y91.613 E0.01676
G1 X96.930 Y105.474 E0.61539
M73 P7 R21
G1 X96.930 Y106.008 E0.01676
G1 X83.070 Y92.147 E0.61539
G1 X83.070 Y92.681 E0.01676
G1 X96.930 Y106.542 E0.61539
G1 X96.930 Y107.076 E0.01676
G1 X83.070 Y93.215 E0.61539
G1 X83.070 Y93.749 E0.01676
G1 X96.930 Y107.610 E0.61539
G1 X96.930 Y108.144 E0.01676
G1 X83.070 Y94.283 E0.61539
G1 X83.070 Y94.817 E0.01676
G1 X96.930 Y108.677 E0.61539
G1 X96.930 Y109.211 E0.01676
G1 X83.070 Y95.351 E0.61539
G1 X83.070 Y95.885 E0.01676
G1 X96.930 Y109.745 E0.61539
G1 X96.930 Y110.279 E0.01676
G1 X83.070 Y96.419 E0.61539
G1 X83.070 Y96.953 E0.01676
G1 X96.930 Y110.813 E0.61539
G1 X96.930 Y111.347 E0.01676
G1 X83.070 Y97.487 E0.61539
G1 X83.070 Y98.021 E0.01676
G1 X96.930 Y111.881 E0.61539
G1 X96.930 Y112.415 E0.01676
G1 X83.070 Y98.555 E0.61539
M73 P8 R21
G1 X83.070 Y99.089 E0.01676
G1 X96.930 Y112.949 E0.61539
G1 X96.930 Y113.483 E0.01676
G1 X83.070 Y99.623 E0.61539
G1 X83.070 Y100.157 E0.01676
G1 X96.843 Y113.930 E0.61153
M73 P8 R20
G1 X96.309 Y113.930 E0.01676
G1 X83.070 Y100.691 E0.58782
G1 X83.070 Y101.225 E0.01676
G1 X95.775 Y113.930 E0.56411
G1 X95.241 Y113.930 E0.01676
G1 X83.070 Y101.759 E0.54040
G1 X83.070 Y102.293 E0.01676
G1 X94.707 Y113.930 E0.51669
G1 X94.173 Y113.930 E0.01676
G1 X83.070 Y102.827 E0.49299
G1 X83.070 Y103.361 E0.01676
G1 X93.639 Y113.930 E0.46928
G1 X93.105 Y113.930 E0.01676
G1 X83.070 Y103.895 E0.44557
G1 X83.070 Y104.429 E0.01676
G1 X92.571 Y113.930 E0.42186
G1 X92.037 Y113.930 E0.01676
G1 X83.070 Y104.963 E0.39815
G1 X83.070 Y105.497 E0.01676
G1 X91.503 Y113.930 E0.37445
G1 X90.969 Y113.930 E0.01676
G1 X83.070 Y106.031 E0.35074
G1 X83.070 Y106.565 E0.01676
G1 X90.435 Y113.930 E0.32703
G1 X89.901 Y113.930 E0.01676
G1 X83.070 Y107.099 E0.30332
G1 X83.070 Y107.633 E0.01676
G1 X89.367 Y113.930 E0.27961
G1 X88.834 Y113.930 E0.01676
G1 X83.070 Y108.166 E0.25590
M73 P9 R20
G1 X83.070 Y108.700 E0.01676
G1 X88.300 Y113.930 E0.23220
G1 X87.766 Y113.930 E0.01676
G1 X83.070 Y109.234 E0.20849
G1 X83.070 Y109.768 E0.01676
G1 X87.232 Y113.930 E0.18478
G1 X86.698 Y113.930 E0.01676
G1 X83.070 Y110.302 E0.16107
G1 X83.070 Y110.836 E0.01676
G1 X86.164 Y113.930 E0.13736
G1 X85.630 Y113.930 E0.01676
G1 X83.070 Y111.370 E0.11366
G1 X83.070 Y111.904 E0.01676
G1 X85.096 Y113.930 E0.08995
G1 X84.562 Y113.930 E0.01676
G1 X83.070 Y112.438 E0.06624
G1 X83.070 Y112.972 E0.01676
G1 X84.028 Y113.930 E0.04253
G1 X83.494 Y113.930 E0.01676
G1 X82.900 Y113.337 E0.02636
