; generated by PrusaSlicer 2.3.0+win64 on 2021-04-17 at 08:22:39 UTC


;
;

;
;
; 

; external perimeters extrusion width = 0.45mm
; perimeters extrusion width = 0.45mm
; infill extrusion width = 0.45mm
; solid infill extrusion width = 0.45mm
; top infill extrusion width = 0.40mm
; first layer extrusion width = 0.42mm

M73 P0 R2
M201 X1250 Y1250 Z400 E5000 ; sets maximum accelerations, mm/sec^2
M203 X180 Y180 Z12 E80 ; sets maximum feedrates, mm/sec
M204 P1250 R1250 T1250 ; sets acceleration (P, T) and retract acceleration (R), mm/sec^2
M205 X8.00 Y8.00 Z2.00 E10.00 ; sets the jerk limits, mm/sec
M205 S0 T0 ; sets the minimum extruding and travel feed rate, mm/sec
M107
;TYPE:Custom
G90 ; use absolute coordinates
M83 ; extruder relative mode
M104 S170 ; set extruder temp for bed leveling
M140 S60 ; set bed temp
M109 R170 ; wait for bed leveling temp
M190 S60 ; wait for bed temp
G28 ; home all without mesh bed level
G29 ; mesh bed leveling 
M104 S215 ; set extruder temp
G92 E0.0
G1 Y-2.0 X179 F2400
M73 P3 R2
G1 Z3 F720
M109 S215 ; wait for extruder temp

; intro line
G1 X170 F1000
G1 Z0.2 F720
G1 X110.0 E8.0 F900
M73 P6 R2
G1 X40.0 E10.0 F700
G92 E0.0

M221 S95 ; set flow
G21 ; set units to millimeters
G90 ; use absolute coordinates
M83 ; use relative distances for extrusion
M900 K0.2 ; Filament gcode LA 1.5
; ; Filament gcode LA 1.0
;LAYER_CHANGE
;Z:0.2
;HEIGHT:0.2
;BEFORE_LAYER_CHANGE
G92 E0.0
;0.2


M73 P10 R2
G1 E-3.20000 F4200.000
G1 Z0.200 F9000.000
;AFTER_LAYER_CHANGE
;0.2
G1 Z0.400
G1 X78.098 Y78.098
G1 Z0.200
G1 E3.20000 F2400.000
M204 S800
;TYPE:Skirt
;WIDTH:0.42
M73 P11 R2
G1 F1200.000
G1 X79.287 Y77.018 E0.05035
G1 X80.589 Y76.045 E0.05099
G1 X81.962 Y75.211 E0.05035
G1 X83.714 Y74.386 E0.06071
G1 X85.254 Y73.851 E0.05112
G1 X86.811 Y73.473 E0.05022
G1 X88.400 Y73.244 E0.05035
G1 X90.004 Y73.168 E0.05035
G1 X91.604 Y73.245 E0.05022
G1 X93.218 Y73.479 E0.05112
G1 X95.094 Y73.958 E0.06071
G1 X96.596 Y74.514 E0.05022
G1 X98.063 Y75.225 E0.05112
G1 X99.431 Y76.058 E0.05022
G1 X100.717 Y77.021 E0.05035
G1 X101.902 Y78.098 E0.05022
G1 X102.982 Y79.287 E0.05035
G1 X103.955 Y80.589 E0.05099
M73 P12 R2
G1 X104.789 Y81.962 E0.05035
G1 X105.614 Y83.714 E0.06071
G1 X106.149 Y85.254 E0.05112
G1 X106.527 Y86.811 E0.05022
G1 X106.756 Y88.400 E0.05035
G1 X106.832 Y90.000 E0.05022
G1 X106.756 Y91.600 E0.05022
G1 X106.523 Y93.210 E0.05099
G1 X106.142 Y94.770 E0.05035
G1 X105.511 Y96.534 E0.05874
G1 X104.777 Y98.059 E0.05309
G1 X103.944 Y99.428 E0.05022
G1 X102.979 Y100.717 E0.05048
G1 X101.902 Y101.902 E0.05022
G1 X100.713 Y102.982 E0.05035
G1 X99.411 Y103.955 E0.05099
G1 X98.038 Y104.789 E0.05035
G1 X96.286 Y105.614 E0.06071
M73 P13 R2
G1 X94.746 Y106.149 E0.05112
G1 X93.189 Y106.527 E0.05022
G1 X91.600 Y106.756 E0.05035
G1 X90.000 Y106.832 E0.05022
G1 X88.400 Y106.756 E0.05022
G1 X86.790 Y106.523 E0.05099
G1 X85.230 Y106.142 E0.05035
G1 X83.466 Y105.511 E0.05874
G1 X81.941 Y104.777 E0.05309
G1 X80.572 Y103.944 E0.05022
G1 X79.283 Y102.979 E0.05048
G1 X78.098 Y101.902 E0.05022
G1 X77.018 Y100.713 E0.05035
G1 X76.045 Y99.411 E0.05099
G1 X75.211 Y98.038 E0.05035
G1 X74.386 Y96.286 E0.06071
G1 X73.851 Y94.746 E0.05112
G1 X73.473 Y93.189 E0.05022
M73 P14 R2
G1 X73.244 Y91.600 E0.05035
G1 X73.168 Y90.000 E0.05022
G1 X73.244 Y88.400 E0.05022
G1 X73.477 Y86.790 E0.05099
G1 X73.858 Y85.230 E0.05035
G1 X74.489 Y83.466 E0.05874
G1 X75.223 Y81.941 E0.05309
G1 X76.056 Y80.572 E0.05022
G1 X77.021 Y79.283 E0.05048
G1 X78.058 Y78.142 E0.04834
M204 S1250
G1 X78.337 Y78.396 F9000.000
M204 S800
G1 F1200.000
G1 X79.525 Y77.310 E0.05048
G1 X80.800 Y76.357 E0.04991
G1 X82.139 Y75.545 E0.04910
G1 X83.858 Y74.735 E0.05959
G1 X85.363 Y74.212 E0.04993
G1 X86.884 Y73.843 E0.04910
G1 X88.434 Y73.620 E0.04910
G1 X90.002 Y73.545 E0.04922
M73 P15 R2
G1 X91.566 Y73.620 E0.04910
G1 X93.139 Y73.847 E0.04981
G1 X94.663 Y74.220 E0.04920
G1 X96.451 Y74.863 E0.05959
G1 X97.885 Y75.557 E0.04993
G1 X99.222 Y76.372 E0.04910
G1 X100.475 Y77.310 E0.04910
G1 X101.637 Y78.366 E0.04922
G1 X102.690 Y79.525 E0.04910
G1 X103.643 Y80.800 E0.04991
G1 X104.455 Y82.139 E0.04910
G1 X105.265 Y83.858 E0.05959
G1 X105.788 Y85.363 E0.04993
G1 X106.157 Y86.884 E0.04910
G1 X106.380 Y88.434 E0.04910
G1 X106.455 Y89.998 E0.04910
G1 X106.380 Y91.566 E0.04922
G1 X106.157 Y93.116 E0.04910
G1 X105.788 Y94.638 E0.04910
M73 P16 R2
G1 X105.265 Y96.142 E0.04991
G1 X104.455 Y97.861 E0.05959
G1 X103.643 Y99.200 E0.04910
G1 X102.690 Y100.475 E0.04993
G1 X101.636 Y101.634 E0.04910
G1 X100.478 Y102.688 E0.04910
G1 X99.221 Y103.628 E0.04922
G1 X97.884 Y104.443 E0.04910
G1 X96.451 Y105.137 E0.04992
G1 X94.663 Y105.780 E0.05959
G1 X93.138 Y106.153 E0.04922
G1 X91.566 Y106.380 E0.04981
G1 X90.002 Y106.455 E0.04910
G1 X88.434 Y106.380 E0.04922
G1 X86.884 Y106.157 E0.04910
G1 X85.362 Y105.788 E0.04910
G1 X83.858 Y105.265 E0.04991
G1 X82.139 Y104.455 E0.05959
M73 P17 R2
G1 X80.800 Y103.643 E0.04910
G1 X79.525 Y102.690 E0.04993
G1 X78.366 Y101.636 E0.04910
G1 X77.312 Y100.478 E0.04910
G1 X76.372 Y99.221 E0.04922
G1 X75.557 Y97.884 E0.04910
G1 X74.863 Y96.451 E0.04992
G1 X74.220 Y94.663 E0.05959
G1 X73.847 Y93.138 E0.04922
G1 X73.620 Y91.566 E0.04981
G1 X73.545 Y90.002 E0.04910
G1 X73.620 Y88.434 E0.04922
G1 X73.847 Y86.861 E0.04981
G1 X74.220 Y85.337 E0.04920
G1 X74.863 Y83.549 E0.05959
G1 X75.557 Y82.115 E0.04993
G1 X76.372 Y80.778 E0.04910
G1 X77.310 Y79.525 E0.04910
G1 X78.296 Y78.440 E0.04595
M204 S1250
; printing object Washer.stl id:0 copy 0
M73 P18 R2
G1 E-2.24000 F4200.000
;WIPE_START
G1 F7200.000
G1 X79.507 Y77.326 E-0.91200
;WIPE_END
G1 E-0.04800 F4200.000
G1 Z0.400 F9000.000
G1 X89.992 Y79.218
G1 Z0.200
G1 E3.20000 F2400.000
M204 S800
;TYPE:Perimeter
G1 F1200.000
G1 X99.333 Y84.602 E0.33805
G1 X99.341 Y95.384 E0.33805
M73 P19 R2
G1 X90.008 Y100.782 E0.33805
G1 X80.667 Y95.398 E0.33805
G1 X80.659 Y84.616 E0.33805
M73 P20 R2
G1 X89.940 Y79.249 E0.33617
M204 S1250
G1 X89.992 Y79.654 F9000.000
M204 S800
;TYPE:External perimeter
G1 F1200.000
G1 X98.956 Y84.820 E0.32440
G1 X98.964 Y95.166 E0.32440
M73 P21 R2
G1 X90.008 Y100.346 E0.32440
G1 X81.044 Y95.180 E0.32440
G1 X81.036 Y84.834 E0.32440
M73 P22 R2
G1 X89.940 Y79.684 E0.32251
M204 S1250
G1 X90.192 Y79.307 F9000.000
G1 E-2.24000 F4200.000
;WIPE_START
G1 F7200.000
G1 X91.370 Y80.499 E-0.91200
;WIPE_END
G1 E-0.04800 F4200.000
G1 Z0.400 F9000.000
G1 X89.900 Y76.718
G1 Z0.200
G1 E3.20000 F2400.000
M204 S800
;TYPE:Perimeter
G1 F1200.000
G1 X90.257 Y76.713 E0.01118
G1 X90.949 Y76.744 E0.02173
G1 X91.578 Y76.804 E0.01980
M73 P23 R2
G1 X92.204 Y76.894 E0.01983
G1 X92.825 Y77.013 E0.01983
G1 X93.440 Y77.162 E0.01983
G1 X94.047 Y77.341 E0.01983
G1 X94.645 Y77.548 E0.01983
G1 X95.232 Y77.783 E0.01983
G1 X95.807 Y78.045 E0.01983
G1 X96.369 Y78.335 E0.01983
G1 X96.917 Y78.652 E0.01983
G1 X97.447 Y78.992 E0.01974
G1 X98.168 Y79.517 E0.02797
G1 X98.704 Y79.956 E0.02173
G1 X99.171 Y80.381 E0.01980
G1 X99.619 Y80.829 E0.01983
G1 X100.044 Y81.297 E0.01983
G1 X100.447 Y81.784 E0.01983
G1 X100.826 Y82.291 E0.01983
G1 X101.181 Y82.815 E0.01983
G1 X101.510 Y83.355 E0.01983
G1 X101.813 Y83.910 E0.01983
G1 X102.088 Y84.476 E0.01974
G1 X102.431 Y85.300 E0.02797
G1 X102.660 Y85.954 E0.02173
G1 X102.838 Y86.560 E0.01980
G1 X102.987 Y87.175 E0.01983
G1 X103.106 Y87.796 E0.01983
G1 X103.196 Y88.422 E0.01983
G1 X103.257 Y89.052 E0.01983
G1 X103.287 Y89.684 E0.01983
G1 X103.287 Y90.316 E0.01983
G1 X103.257 Y90.948 E0.01983
G1 X103.196 Y91.578 E0.01983
G1 X103.106 Y92.204 E0.01983
G1 X102.987 Y92.825 E0.01983
G1 X102.838 Y93.440 E0.01983
G1 X102.659 Y94.047 E0.01983
G1 X102.454 Y94.641 E0.01972
G1 X102.088 Y95.524 E0.02997
G1 X101.813 Y96.090 E0.01972
G1 X101.510 Y96.645 E0.01983
G1 X101.181 Y97.185 E0.01983
G1 X100.826 Y97.709 E0.01983
G1 X100.447 Y98.216 E0.01983
G1 X100.044 Y98.703 E0.01983
G1 X99.619 Y99.171 E0.01983
G1 X99.171 Y99.619 E0.01983
M73 P24 R2
G1 X98.703 Y100.044 E0.01983
G1 X98.216 Y100.447 E0.01983
G1 X97.709 Y100.826 E0.01983
G1 X97.185 Y101.181 E0.01983
G1 X96.645 Y101.510 E0.01983
G1 X96.090 Y101.813 E0.01983
G1 X95.524 Y102.088 E0.01974
G1 X94.700 Y102.431 E0.02797
G1 X94.046 Y102.660 E0.02173
G1 X93.440 Y102.838 E0.01980
G1 X92.825 Y102.987 E0.01983
G1 X92.204 Y103.106 E0.01983
G1 X91.578 Y103.196 E0.01983
G1 X90.948 Y103.257 E0.01983
G1 X90.316 Y103.287 E0.01983
G1 X89.684 Y103.287 E0.01983
G1 X89.052 Y103.257 E0.01983
G1 X88.422 Y103.196 E0.01983
G1 X87.796 Y103.106 E0.01983
G1 X87.175 Y102.987 E0.01983
G1 X86.560 Y102.838 E0.01983
G1 X85.953 Y102.659 E0.01983
G1 X85.355 Y102.452 E0.01983
G1 X84.768 Y102.217 E0.01983
G1 X84.193 Y101.955 E0.01983
G1 X83.631 Y101.665 E0.01983
G1 X83.083 Y101.348 E0.01983
G1 X82.553 Y101.008 E0.01974
G1 X81.832 Y100.483 E0.02797
G1 X81.296 Y100.044 E0.02173
G1 X80.829 Y99.619 E0.01980
G1 X80.381 Y99.171 E0.01983
G1 X79.956 Y98.703 E0.01983
G1 X79.553 Y98.216 E0.01983
G1 X79.174 Y97.709 E0.01983
G1 X78.819 Y97.185 E0.01983
G1 X78.490 Y96.645 E0.01983
G1 X78.187 Y96.090 E0.01983
G1 X77.912 Y95.524 E0.01974
G1 X77.569 Y94.700 E0.02797
G1 X77.340 Y94.046 E0.02173
G1 X77.162 Y93.440 E0.01980
G1 X77.013 Y92.825 E0.01983
G1 X76.894 Y92.204 E0.01983
G1 X76.804 Y91.578 E0.01983
G1 X76.743 Y90.948 E0.01983
M73 P25 R2
G1 X76.713 Y90.316 E0.01983
G1 X76.713 Y89.684 E0.01983
G1 X76.743 Y89.052 E0.01983
G1 X76.804 Y88.422 E0.01983
G1 X76.894 Y87.796 E0.01983
G1 X77.013 Y87.175 E0.01983
G1 X77.162 Y86.560 E0.01983
G1 X77.341 Y85.953 E0.01983
G1 X77.548 Y85.355 E0.01983
G1 X77.783 Y84.768 E0.01983
G1 X78.045 Y84.193 E0.01983
G1 X78.335 Y83.631 E0.01983
G1 X78.652 Y83.083 E0.01983
G1 X78.992 Y82.553 E0.01974
G1 X79.517 Y81.832 E0.02797
G1 X79.956 Y81.296 E0.02173
G1 X80.381 Y80.829 E0.01980
G1 X80.829 Y80.381 E0.01983
G1 X81.297 Y79.956 E0.01983
G1 X81.784 Y79.553 E0.01983
G1 X82.291 Y79.174 E0.01983
G1 X82.815 Y78.819 E0.01983
G1 X83.355 Y78.490 E0.01983
G1 X83.910 Y78.187 E0.01983
G1 X84.479 Y77.911 E0.01983
G1 X85.060 Y77.662 E0.01983
G1 X85.653 Y77.441 E0.01983
G1 X86.256 Y77.248 E0.01983
G1 X86.867 Y77.084 E0.01983
G1 X87.485 Y76.950 E0.01983
G1 X88.109 Y76.845 E0.01983
G1 X88.737 Y76.770 E0.01983
G1 X89.365 Y76.725 E0.01974
G1 X89.840 Y76.718 E0.01491
M204 S1250
G1 X89.835 Y76.341 F9000.000
M204 S800
;TYPE:External perimeter
G1 F1200.000
G1 X90.262 Y76.336 E0.01340
G1 X90.975 Y76.367 E0.02238
G1 X91.623 Y76.429 E0.02039
G1 X92.267 Y76.522 E0.02040
G1 X92.905 Y76.645 E0.02040
G1 X93.537 Y76.798 E0.02040
G1 X94.162 Y76.981 E0.02040
G1 X94.776 Y77.194 E0.02040
G1 X95.380 Y77.436 E0.02040
G1 X95.972 Y77.706 E0.02040
G1 X96.550 Y78.004 E0.02040
G1 X97.114 Y78.329 E0.02040
M73 P26 R2
G1 X97.660 Y78.681 E0.02036
G1 X98.399 Y79.218 E0.02865
G1 X98.951 Y79.671 E0.02238
G1 X99.432 Y80.108 E0.02039
G1 X99.892 Y80.568 E0.02040
G1 X100.329 Y81.050 E0.02040
G1 X100.743 Y81.551 E0.02040
G1 X101.133 Y82.072 E0.02040
G1 X101.498 Y82.611 E0.02040
G1 X101.837 Y83.166 E0.02040
G1 X102.148 Y83.737 E0.02040
G1 X102.432 Y84.321 E0.02036
G1 X102.783 Y85.165 E0.02865
G1 X103.019 Y85.839 E0.02238
G1 X103.202 Y86.463 E0.02039
G1 X103.355 Y87.095 E0.02040
G1 X103.478 Y87.733 E0.02040
G1 X103.571 Y88.377 E0.02040
G1 X103.633 Y89.025 E0.02040
G1 X103.664 Y89.675 E0.02040
G1 X103.664 Y90.325 E0.02040
G1 X103.633 Y90.975 E0.02040
G1 X103.571 Y91.623 E0.02040
G1 X103.478 Y92.267 E0.02040
G1 X103.355 Y92.905 E0.02040
G1 X103.202 Y93.537 E0.02040
G1 X103.019 Y94.162 E0.02040
G1 X102.806 Y94.775 E0.02036
G1 X102.432 Y95.679 E0.03067
G1 X102.148 Y96.263 E0.02036
G1 X101.837 Y96.834 E0.02040
G1 X101.498 Y97.389 E0.02040
G1 X101.133 Y97.928 E0.02040
G1 X100.743 Y98.449 E0.02040
G1 X100.329 Y98.950 E0.02040
G1 X99.892 Y99.432 E0.02040
G1 X99.432 Y99.892 E0.02040
G1 X98.950 Y100.329 E0.02040
G1 X98.449 Y100.743 E0.02040
G1 X97.928 Y101.133 E0.02040
G1 X97.389 Y101.498 E0.02040
G1 X96.834 Y101.837 E0.02040
G1 X96.263 Y102.148 E0.02040
G1 X95.679 Y102.432 E0.02036
M73 P27 R2
G1 X94.835 Y102.783 E0.02865
G1 X94.161 Y103.019 E0.02238
G1 X93.537 Y103.202 E0.02039
G1 X92.905 Y103.355 E0.02040
G1 X92.267 Y103.478 E0.02040
G1 X91.623 Y103.571 E0.02040
G1 X90.975 Y103.633 E0.02040
G1 X90.325 Y103.664 E0.02040
G1 X89.675 Y103.664 E0.02040
G1 X89.025 Y103.633 E0.02040
G1 X88.377 Y103.571 E0.02040
G1 X87.733 Y103.478 E0.02040
G1 X87.095 Y103.355 E0.02040
G1 X86.463 Y103.202 E0.02040
G1 X85.838 Y103.019 E0.02040
G1 X85.224 Y102.806 E0.02040
G1 X84.620 Y102.564 E0.02040
G1 X84.028 Y102.294 E0.02040
G1 X83.450 Y101.996 E0.02040
G1 X82.886 Y101.671 E0.02040
G1 X82.340 Y101.319 E0.02036
G1 X81.601 Y100.782 E0.02865
G1 X81.049 Y100.329 E0.02238
G1 X80.568 Y99.892 E0.02039
G1 X80.108 Y99.432 E0.02040
G1 X79.671 Y98.950 E0.02040
G1 X79.257 Y98.449 E0.02040
G1 X78.867 Y97.928 E0.02040
G1 X78.502 Y97.389 E0.02040
G1 X78.163 Y96.834 E0.02040
G1 X77.852 Y96.263 E0.02040
G1 X77.568 Y95.679 E0.02036
G1 X77.217 Y94.835 E0.02865
G1 X76.981 Y94.161 E0.02238
G1 X76.798 Y93.537 E0.02039
G1 X76.645 Y92.905 E0.02040
G1 X76.522 Y92.267 E0.02040
G1 X76.429 Y91.623 E0.02040
G1 X76.367 Y90.975 E0.02040
G1 X76.336 Y90.325 E0.02040
G1 X76.336 Y89.675 E0.02040
G1 X76.367 Y89.025 E0.02040
G1 X76.429 Y88.377 E0.02040
G1 X76.522 Y87.733 E0.02040
G1 X76.645 Y87.095 E0.02040
M73 P28 R2
G1 X76.798 Y86.463 E0.02040
G1 X76.981 Y85.838 E0.02040
G1 X77.194 Y85.224 E0.02040
G1 X77.436 Y84.620 E0.02040
G1 X77.706 Y84.028 E0.02040
G1 X78.004 Y83.450 E0.02040
G1 X78.329 Y82.886 E0.02040
G1 X78.681 Y82.340 E0.02036
G1 X79.218 Y81.601 E0.02865
G1 X79.671 Y81.049 E0.02238
G1 X80.108 Y80.568 E0.02039
G1 X80.568 Y80.108 E0.02040
G1 X81.050 Y79.671 E0.02040
G1 X81.551 Y79.257 E0.02040
G1 X82.072 Y78.867 E0.02040
G1 X82.611 Y78.502 E0.02040
G1 X83.166 Y78.163 E0.02040
G1 X83.737 Y77.852 E0.02040
G1 X84.322 Y77.567 E0.02040
G1 X84.920 Y77.311 E0.02040
G1 X85.530 Y77.084 E0.02040
G1 X86.149 Y76.886 E0.02040
G1 X86.778 Y76.718 E0.02040
G1 X87.413 Y76.579 E0.02040
G1 X88.055 Y76.471 E0.02040
G1 X88.701 Y76.394 E0.02040
G1 X89.349 Y76.348 E0.02036
G1 X89.775 Y76.342 E0.01337
M204 S1250
G1 X90.044 Y76.683 F9000.000
G1 E-2.24000 F4200.000
;WIPE_START
G1 F7200.000
G1 X90.262 Y76.336 E-0.27008
G1 X90.975 Y76.367 E-0.39550
G1 X91.418 Y76.409 E-0.24642
;WIPE_END
G1 E-0.04800 F4200.000
G1 Z0.400 F9000.000
G1 X97.709 Y79.322
G1 Z0.200
G1 E3.20000 F2400.000
M204 S800
;TYPE:Solid infill
;WIDTH:0.425308
G1 F1200.000
G1 X99.452 Y81.066 E0.07839
M73 P29 R2
G1 X99.830 Y81.482 E0.01788
G1 X100.225 Y81.959 E0.01968
G1 X100.596 Y82.455 E0.01968
G1 X101.145 Y83.299 E0.03202
G1 X96.696 Y78.850 E0.20004
G1 X96.234 Y78.584 E0.01697
G1 X95.538 Y78.234 E0.02475
G1 X101.767 Y84.462 E0.28006
G1 X102.167 Y85.403 E0.03254
G1 X94.597 Y77.833 E0.34040
M73 P30 R2
G1 X93.781 Y77.557 E0.02742
G1 X102.443 Y86.219 E0.38951
G1 X102.644 Y86.961 E0.02444
G1 X93.039 Y77.356 E0.43191
M73 P31 R2
G1 X92.352 Y77.210 E0.02233
G1 X102.790 Y87.648 E0.46936
G1 X102.892 Y88.291 E0.02069
G1 X99.616 Y85.015 E0.14729
G1 X99.617 Y85.556 E0.01721
G1 X102.958 Y88.898 E0.15024
G1 X102.994 Y89.474 E0.01837
G1 X99.617 Y86.098 E0.15183
M73 P32 R2
G1 X99.617 Y86.639 E0.01721
G1 X103.004 Y90.025 E0.15228
G1 X103.004 Y90.310 E0.00904
G1 X102.992 Y90.554 E0.00779
G1 X99.618 Y87.180 E0.15173
G1 X99.618 Y87.721 E0.01721
G1 X102.961 Y91.064 E0.15033
G1 X102.914 Y91.557 E0.01575
G1 X99.619 Y88.262 E0.14817
G1 X99.619 Y88.803 E0.01721
G1 X102.846 Y92.030 E0.14509
M73 P33 R2
G1 X102.764 Y92.489 E0.01481
G1 X99.619 Y89.345 E0.14138
G1 X99.620 Y89.886 E0.01721
G1 X102.669 Y92.935 E0.13711
G1 X102.563 Y93.370 E0.01424
G1 X99.620 Y90.427 E0.13234
G1 X99.621 Y90.968 E0.01721
G1 X102.441 Y93.788 E0.12680
G1 X102.308 Y94.197 E0.01365
G1 X99.621 Y91.509 E0.12083
G1 X99.621 Y92.051 E0.01721
G1 X102.166 Y94.596 E0.11444
G1 X102.008 Y94.978 E0.01316
G1 X99.622 Y92.592 E0.10730
M73 P34 R2
G1 X99.622 Y93.133 E0.01721
G1 X101.850 Y95.360 E0.10016
G1 X101.675 Y95.727 E0.01290
G1 X99.623 Y93.674 E0.09229
G1 X99.623 Y94.215 E0.01721
G1 X101.493 Y96.086 E0.08410
G1 X101.302 Y96.435 E0.01267
G1 X99.623 Y94.756 E0.07549
G1 X99.624 Y95.298 E0.01721
G1 X101.100 Y96.774 E0.06639
