; generated by PrusaSlicer 2.2.0+win64 on 2020-11-16 at 00:22:06 UTC


;
;

;
;
; 

; external perimeters extrusion width = 0.45mm
; perimeters extrusion width = 0.45mm
; infill extrusion width = 0.45mm
; solid infill extrusion width = 0.45mm
; top infill extrusion width = 0.40mm
; first layer extrusion width = 0.42mm

M73 P0 R97
M201 X1250 Y1250 Z400 E5000 ; sets maximum accelerations, mm/sec^2
M203 X180 Y180 Z12 E80 ; sets maximum feedrates, mm/sec
M204 P1250 R1250 T1250 ; sets acceleration (P, T) and retract acceleration (R), mm/sec^2
M205 X8.00 Y8.00 Z2.00 E10.00 ; sets the jerk limits, mm/sec
M205 S0 T0 ; sets the minimum extruding and travel feed rate, mm/sec
M107
G90 ; use absolute coordinates
M83 ; extruder relative mode
M104 S170 ; set extruder temp for bed leveling
M140 S60 ; set bed temp
M109 R170 ; wait for bed leveling temp
M190 S60 ; wait for bed temp
G28 ; home all without mesh bed level
G29 ; mesh bed leveling 
M104 S215 ; set extruder temp
G92 E0.0
G1 Y-2.0 X179 F2400
G1 Z3 F720
M109 S215 ; wait for extruder temp

; intro line
G1 X170 F1000
G1 Z0.2 F720
G1 X110.0 E8.0 F900
M73 P0 R97
G1 X40.0 E10.0 F700
G92 E0.0

M221 S95 ; set flow
G21 ; set units to millimeters
G90 ; use absolute coordinates
M83 ; use relative distances for extrusion
M900 K0.2 ; Filament gcode LA 1.5
; ; Filament gcode LA 1.0
;BEFORE_LAYER_CHANGE
G92 E0.0
;0.2


G1 Z0.200 F9000.000
;AFTER_LAYER_CHANGE
;0.2
G1 E-3.20000 F4200.00000
G1 Z0.400 F9000.000
G1 X49.407 Y52.576
G1 Z0.200
G1 E3.20000 F2400.00000
M204 S800
G1 F1200.000
G1 X50.828 Y51.313 E0.05960
G1 X52.823 Y49.808 E0.07837
G1 X54.073 Y49.000 E0.04665
G1 X55.710 Y48.080 E0.05889
G1 X57.600 Y47.191 E0.06548
G1 X59.776 Y46.374 E0.07290
G1 X61.727 Y45.815 E0.06361
G1 X63.191 Y45.494 E0.04700
G1 X65.046 Y45.207 E0.05886
G1 X66.657 Y45.063 E0.05072
G1 X68.518 Y45.014 E0.05838
G1 X69.994 Y45.066 E0.04629
G1 X72.487 Y45.336 E0.07864
G1 X74.354 Y45.691 E0.05957
G1 X76.368 Y46.230 E0.06537
G1 X78.584 Y47.019 E0.07377
G1 X80.838 Y48.055 E0.07776
G1 X82.151 Y48.776 E0.04698
G1 X83.772 Y49.806 E0.06021
G1 X85.413 Y51.022 E0.06405
G1 X129.178 Y86.548 E1.76741
G1 X130.586 Y87.800 E0.05908
G1 X132.018 Y89.270 E0.06433
G1 X132.967 Y90.379 E0.04578
G1 X134.106 Y91.888 E0.05926
G1 X135.463 Y94.023 E0.07934
G1 X136.576 Y96.189 E0.07636
G1 X137.185 Y97.618 E0.04869
G1 X137.804 Y99.366 E0.05813
G1 X138.549 Y102.266 E0.09387
G1 X138.917 Y104.654 E0.07578
G1 X139.075 Y107.214 E0.08041
G1 X138.973 Y110.014 E0.08784
G1 X138.632 Y112.543 E0.08001
G1 X137.980 Y115.295 E0.08868
G1 X137.145 Y117.724 E0.08054
G1 X136.169 Y119.901 E0.07482
G1 X134.679 Y122.504 E0.09401
G1 X133.555 Y124.109 E0.06144
G1 X132.585 Y125.322 E0.04869
G1 X131.326 Y126.709 E0.05873
G1 X129.121 Y128.740 E0.09399
G1 X127.219 Y130.174 E0.07470
G1 X124.200 Y131.978 E0.11028
G1 X122.500 Y132.778 E0.05890
G1 X120.572 Y133.520 E0.06478
G1 X118.776 Y134.067 E0.05886
G1 X117.351 Y134.408 E0.04595
G1 X115.344 Y134.754 E0.06386
G1 X113.450 Y134.942 E0.05966
G1 X110.947 Y134.987 E0.07849
G1 X109.517 Y134.910 E0.04490
G1 X107.621 Y134.692 E0.05984
G1 X106.032 Y134.404 E0.05064
G1 X104.215 Y133.954 E0.05870
G1 X102.811 Y133.514 E0.04612
G1 X100.902 Y132.778 E0.06417
G1 X99.187 Y131.970 E0.05942
G1 X96.963 Y130.692 E0.08044
G1 X94.667 Y129.053 E0.08844
G1 X50.901 Y93.528 E1.76743
G1 X49.355 Y92.155 E0.06485
G1 X48.045 Y90.810 E0.05886
G1 X45.841 Y88.047 E0.11080
G1 X44.817 Y86.465 E0.05911
G1 X43.833 Y84.675 E0.06405
G1 X43.043 Y82.956 E0.05931
G1 X42.512 Y81.584 E0.04611
G1 X41.897 Y79.632 E0.06417
G1 X41.460 Y77.791 E0.05933
G1 X41.079 Y75.317 E0.07849
G1 X40.962 Y73.875 E0.04536
G1 X40.925 Y71.979 E0.05945
G1 X40.997 Y70.364 E0.05069
G1 X41.200 Y68.498 E0.05885
G1 X41.451 Y67.038 E0.04644
G1 X41.919 Y65.070 E0.06343
G1 X42.489 Y63.262 E0.05945
G1 X43.431 Y60.942 E0.07851
G1 X44.079 Y59.627 E0.04596
G1 X45.011 Y57.997 E0.05886
G1 X45.901 Y56.648 E0.05069
G1 X47.032 Y55.150 E0.05885
G1 X47.998 Y54.023 E0.04655
G1 X49.366 Y52.619 E0.06144
M204 S1250
G1 E-2.24000 F4200.00000
G1 F7200.000
G1 X50.593 Y51.523 E-0.91200
G1 E-0.04800 F4200.00000
G1 Z0.400 F9000.000
G1 X60.163 Y63.861
G1 Z0.200
G1 E3.20000 F2400.00000
M204 S800
G1 F1200.000
G1 X60.620 Y63.448 E0.01934
G1 X61.380 Y62.847 E0.03035
G1 X61.908 Y62.486 E0.02007
G1 X62.451 Y62.156 E0.01993
G1 X63.011 Y61.856 E0.01993
G1 X63.587 Y61.586 E0.01993
G1 X64.176 Y61.348 E0.01993
G1 X64.760 Y61.147 E0.01934
G1 X65.694 Y60.894 E0.03035
G1 X66.322 Y60.770 E0.02007
G1 X66.951 Y60.680 E0.01993
G1 X67.584 Y60.625 E0.01993
G1 X68.200 Y60.604 E0.01934
G1 X69.168 Y60.635 E0.03035
G1 X69.805 Y60.700 E0.02007
G1 X70.433 Y60.798 E0.01993
G1 X71.055 Y60.930 E0.01993
G1 X71.672 Y61.096 E0.02005
G1 X72.570 Y61.404 E0.02977
G1 X73.440 Y61.783 E0.02977
G1 X74.008 Y62.078 E0.02005
G1 X74.556 Y62.401 E0.01993
G1 X75.085 Y62.753 E0.01993
G1 X75.595 Y63.132 E0.01993
G1 X76.083 Y63.539 E0.01993
G1 X76.549 Y63.972 E0.01993
G1 X76.991 Y64.429 E0.01993
G1 X77.395 Y64.894 E0.01934
G1 X77.980 Y65.666 E0.03035
G1 X78.331 Y66.201 E0.02007
G1 X78.652 Y66.754 E0.02005
G1 X79.070 Y67.602 E0.02964
G1 X79.314 Y68.193 E0.02005
G1 X79.525 Y68.797 E0.02005
G1 X79.777 Y69.708 E0.02964
G1 X79.906 Y70.335 E0.02005
G1 X80.000 Y70.964 E0.01993
G1 X80.060 Y71.596 E0.01993
G1 X80.085 Y72.235 E0.02003
G1 X80.060 Y73.181 E0.02966
G1 X80.000 Y73.817 E0.02005
G1 X79.906 Y74.446 E0.01993
G1 X79.778 Y75.069 E0.01993
G1 X79.616 Y75.687 E0.02005
G1 X79.315 Y76.584 E0.02964
G1 X79.072 Y77.175 E0.02005
G1 X78.796 Y77.752 E0.02005
G1 X78.333 Y78.576 E0.02964
G1 X77.982 Y79.112 E0.02005
G1 X77.606 Y79.624 E0.01993
G1 X77.203 Y80.115 E0.01993
G1 X76.773 Y80.584 E0.01993
G1 X76.319 Y81.028 E0.01993
G1 X75.856 Y81.436 E0.01934
G1 X75.089 Y82.026 E0.03035
G1 X74.556 Y82.380 E0.02007
G1 X74.008 Y82.703 E0.01993
G1 X73.444 Y82.996 E0.01993
G1 X72.865 Y83.258 E0.01993
G1 X72.272 Y83.488 E0.01993
G1 X71.665 Y83.687 E0.02005
G1 X70.748 Y83.921 E0.02964
G1 X70.119 Y84.036 E0.02005
G1 X69.485 Y84.118 E0.02005
G1 X68.537 Y84.176 E0.02977
G1 X67.588 Y84.156 E0.02977
G1 X66.951 Y84.100 E0.02005
G1 X66.322 Y84.011 E0.01993
G1 X65.698 Y83.887 E0.01993
G1 X65.101 Y83.735 E0.01934
G1 X64.177 Y83.434 E0.03048
G1 X63.301 Y83.066 E0.02978
G1 X62.729 Y82.779 E0.02005
G1 X62.177 Y82.464 E0.01993
G1 X61.643 Y82.119 E0.01993
G1 X61.129 Y81.746 E0.01993
G1 X60.635 Y81.346 E0.01993
G1 X60.163 Y80.920 E0.01993
G1 X59.715 Y80.469 E0.01993
G1 X59.290 Y79.991 E0.02005
G1 X58.709 Y79.245 E0.02964
G1 X58.352 Y78.714 E0.02005
G1 X58.025 Y78.169 E0.01993
G1 X57.729 Y77.607 E0.01993
G1 X57.461 Y77.026 E0.02005
G1 X57.125 Y76.142 E0.02964
G1 X56.938 Y75.531 E0.02005
G1 X56.785 Y74.914 E0.01993
G1 X56.666 Y74.289 E0.01993
G1 X56.580 Y73.656 E0.02005
G1 X56.516 Y72.712 E0.02964
G1 X56.516 Y72.073 E0.02005
G1 X56.550 Y71.434 E0.02005
G1 X56.665 Y70.495 E0.02964
G1 X56.785 Y69.867 E0.02005
G1 X56.939 Y69.246 E0.02005
G1 X57.228 Y68.342 E0.02977
G1 X57.590 Y67.465 E0.02977
G1 X57.873 Y66.891 E0.02005
G1 X58.185 Y66.337 E0.01993
G1 X58.526 Y65.801 E0.01993
G1 X58.895 Y65.283 E0.01993
G1 X59.292 Y64.787 E0.01993
G1 X59.715 Y64.312 E0.01993
G1 X60.121 Y63.904 E0.01804
M204 S1250
G1 X60.388 Y64.170 F9000.000
M204 S800
G1 F1200.000
G1 X60.864 Y63.736 E0.02019
G1 X61.603 Y63.151 E0.02955
G1 X62.113 Y62.803 E0.01934
G1 X62.638 Y62.483 E0.01929
G1 X63.181 Y62.193 E0.01929
G1 X63.738 Y61.932 E0.01929
G1 X64.308 Y61.701 E0.01929
G1 X64.870 Y61.508 E0.01863
G1 X65.780 Y61.262 E0.02955
G1 X66.385 Y61.142 E0.01934
G1 X66.994 Y61.055 E0.01929
G1 X67.607 Y61.001 E0.01929
G1 X68.201 Y60.981 E0.01863
G1 X69.143 Y61.012 E0.02955
G1 X69.757 Y61.074 E0.01934
G1 X70.364 Y61.169 E0.01929
G1 X70.966 Y61.297 E0.01929
G1 X71.562 Y61.457 E0.01934
G1 X72.433 Y61.756 E0.02889
G1 X73.278 Y62.124 E0.02889
G1 X73.825 Y62.408 E0.01934
G1 X74.356 Y62.720 E0.01929
G1 X74.868 Y63.061 E0.01929
G1 X75.361 Y63.429 E0.01929
G1 X75.834 Y63.822 E0.01929
G1 X76.285 Y64.241 E0.01929
G1 X76.713 Y64.683 E0.01929
G1 X77.102 Y65.132 E0.01863
G1 X77.672 Y65.883 E0.02955
G1 X78.010 Y66.399 E0.01934
G1 X78.319 Y66.933 E0.01934
G1 X78.726 Y67.758 E0.02885
G1 X78.961 Y68.328 E0.01934
G1 X79.165 Y68.910 E0.01934
G1 X79.410 Y69.797 E0.02885
G1 X79.534 Y70.401 E0.01934
G1 X79.625 Y71.009 E0.01929
G1 X79.683 Y71.622 E0.01929
G1 X79.708 Y72.237 E0.01932
G1 X79.683 Y73.158 E0.02887
G1 X79.625 Y73.772 E0.01934
G1 X79.534 Y74.380 E0.01929
G1 X79.411 Y74.983 E0.01929
G1 X79.254 Y75.580 E0.01934
G1 X78.962 Y76.452 E0.02885
G1 X78.727 Y77.022 E0.01934
G1 X78.461 Y77.579 E0.01934
G1 X78.010 Y78.381 E0.02885
G1 X77.672 Y78.896 E0.01934
G1 X77.308 Y79.392 E0.01929
G1 X76.918 Y79.868 E0.01929
G1 X76.502 Y80.321 E0.01929
G1 X76.063 Y80.752 E0.01929
G1 X75.617 Y81.145 E0.01863
G1 X74.869 Y81.719 E0.02955
G1 X74.356 Y82.060 E0.01934
G1 X73.825 Y82.373 E0.01929
G1 X73.279 Y82.656 E0.01929
G1 X72.719 Y82.910 E0.01929
G1 X72.145 Y83.133 E0.01929
G1 X71.559 Y83.325 E0.01934
G1 X70.668 Y83.552 E0.02885
G1 X70.061 Y83.664 E0.01934
G1 X69.449 Y83.742 E0.01934
G1 X68.530 Y83.798 E0.02889
G1 X67.609 Y83.780 E0.02889
G1 X66.994 Y83.726 E0.01934
G1 X66.385 Y83.639 E0.01929
G1 X65.782 Y83.519 E0.01929
G1 X65.206 Y83.373 E0.01863
G1 X64.308 Y83.080 E0.02960
G1 X63.459 Y82.723 E0.02889
G1 X62.908 Y82.446 E0.01934
G1 X62.373 Y82.141 E0.01929
G1 X61.856 Y81.808 E0.01929
G1 X61.358 Y81.447 E0.01929
G1 X60.880 Y81.059 E0.01929
G1 X60.423 Y80.647 E0.01929
G1 X59.990 Y80.210 E0.01929
G1 X59.579 Y79.750 E0.01934
G1 X59.015 Y79.023 E0.02885
G1 X58.670 Y78.512 E0.01934
G1 X58.354 Y77.984 E0.01929
G1 X58.067 Y77.440 E0.01929
G1 X57.809 Y76.880 E0.01934
G1 X57.482 Y76.020 E0.02885
G1 X57.301 Y75.430 E0.01934
G1 X57.153 Y74.833 E0.01929
G1 X57.038 Y74.229 E0.01929
G1 X56.955 Y73.617 E0.01934
G1 X56.893 Y72.700 E0.02885
G1 X56.893 Y72.083 E0.01934
G1 X56.926 Y71.467 E0.01934
G1 X57.038 Y70.554 E0.02885
G1 X57.153 Y69.948 E0.01934
G1 X57.302 Y69.349 E0.01934
G1 X57.583 Y68.472 E0.02889
G1 X57.934 Y67.620 E0.02889
G1 X58.207 Y67.067 E0.01934
G1 X58.509 Y66.531 E0.01929
G1 X58.839 Y66.011 E0.01929
G1 X59.196 Y65.511 E0.01929
G1 X59.580 Y65.030 E0.01929
G1 X59.990 Y64.571 E0.01929
G1 X60.346 Y64.212 E0.01584
M204 S1250
G1 X60.292 Y63.781 F9000.000
G1 E-2.24000 F4200.00000
G1 F7200.000
G1 X60.864 Y63.736 E-0.39009
G1 X61.603 Y63.152 E-0.52191
G1 E-0.04800 F4200.00000
G1 Z0.400 F9000.000
G1 X73.788 Y59.396
G1 Z0.200
G1 E3.20000 F2400.00000
M204 S800
G1 F1200.000
G1 X74.697 Y55.236 E0.13349
G1 X78.753 Y53.943 E0.13349
G1 X81.901 Y56.810 E0.13349
G1 X80.993 Y60.969 E0.13349
G1 X76.936 Y62.262 E0.13349
G1 X73.833 Y59.436 E0.13161
M204 S1250
G1 X74.203 Y59.263 F9000.000
M204 S800
G1 F1200.000
G1 X75.019 Y55.529 E0.11984
G1 X78.660 Y54.369 E0.11984
G1 X81.486 Y56.942 E0.11984
G1 X80.671 Y60.676 E0.11984
G1 X77.029 Y61.837 E0.11984
G1 X74.248 Y59.304 E0.11796
M204 S1250
G1 X73.812 Y59.178 F9000.000
G1 E-2.24000 F4200.00000
G1 F7200.000
G1 X74.577 Y57.691 E-0.91200
G1 E-0.04800 F4200.00000
G1 Z0.400 F9000.000
G1 X59.667 Y82.523
G1 Z0.200
G1 E3.20000 F2400.00000
M204 S800
G1 F1200.000
G1 X62.816 Y85.388 E0.13349
G1 X61.910 Y89.548 E0.13349
G1 X57.855 Y90.843 E0.13349
G1 X54.705 Y87.978 E0.13349
G1 X55.611 Y83.819 E0.13349
G1 X59.610 Y82.542 E0.13161
M204 S1250
G1 X59.574 Y82.949 F9000.000
M204 S800
G1 F1200.000
G1 X62.402 Y85.521 E0.11984
G1 X61.588 Y89.255 E0.11984
G1 X57.947 Y90.418 E0.11984
G1 X55.120 Y87.846 E0.11984
G1 X55.933 Y84.112 E0.11984
G1 X59.517 Y82.967 E0.11796
M204 S1250
G1 X59.843 Y82.653 F9000.000
G1 E-2.24000 F4200.00000
G1 F7200.000
G1 X60.749 Y84.058 E-0.91200
G1 E-0.04800 F4200.00000
G1 Z0.400 F9000.000
G1 X68.863 Y49.144
G1 Z0.200
G1 E3.20000 F2400.00000
M204 S800
G1 F1200.000
G1 X71.894 Y49.417 E0.09542
G1 X71.980 Y48.465 E0.02997
G1 X72.414 Y48.530 E0.01376
G1 X73.258 Y48.703 E0.02700
G1 X73.005 Y49.619 E0.02980
G1 X75.939 Y50.428 E0.09542
G1 X76.193 Y49.507 E0.02997
G1 X76.609 Y49.648 E0.01376
G1 X77.408 Y49.969 E0.02700
G1 X76.995 Y50.825 E0.02980
G1 X79.737 Y52.146 E0.09542
G1 X80.152 Y51.284 E0.02998
G1 X80.532 Y51.495 E0.01362
G1 X81.265 Y51.956 E0.02714
G1 X80.706 Y52.724 E0.02980
G1 X83.168 Y54.513 E0.09542
G1 X83.727 Y53.744 E0.02980
G1 X84.385 Y54.293 E0.02686
G1 X84.709 Y54.595 E0.01390
G1 X84.018 Y55.256 E0.02997
G1 X86.122 Y57.456 E0.09542
G1 X86.809 Y56.799 E0.02980
G1 X87.360 Y57.460 E0.02700
G1 X87.623 Y57.811 E0.01376
G1 X86.825 Y58.338 E0.02997
G1 X88.502 Y60.878 E0.09542
G1 X89.295 Y60.354 E0.02980
G1 X89.720 Y61.103 E0.02700
G1 X89.916 Y61.496 E0.01376
G1 X89.037 Y61.872 E0.02997
G1 X90.233 Y64.670 E0.09542
G1 X91.117 Y64.292 E0.03015
G1 X91.514 Y65.531 E0.04078
G1 X90.582 Y65.744 E0.02997
G1 X91.259 Y68.711 E0.09542
G1 X92.191 Y68.498 E0.02997
G1 X92.263 Y68.931 E0.01376
G1 X92.360 Y69.787 E0.02700
G1 X91.410 Y69.829 E0.02980
G1 X91.547 Y72.870 E0.09542
G1 X92.502 Y72.827 E0.02997
G1 X92.496 Y73.266 E0.01376
G1 X92.438 Y74.125 E0.02700
G1 X91.496 Y73.997 E0.02980
G1 X91.088 Y77.013 E0.09542
G1 X92.035 Y77.141 E0.02997
G1 X91.951 Y77.572 E0.01376
G1 X91.740 Y78.407 E0.02700
G1 X90.837 Y78.113 E0.02980
G1 X89.896 Y81.008 E0.09542
G1 X90.805 Y81.303 E0.02997
G1 X90.309 Y82.480 E0.04005
G1 X90.299 Y82.501 E0.00073
G1 X89.452 Y82.046 E0.03015
G1 X88.010 Y84.726 E0.09542
G1 X88.847 Y85.176 E0.02980
G1 X88.392 Y85.901 E0.02686
G1 X88.136 Y86.264 E0.01390
G1 X87.389 Y85.668 E0.02997
G1 X85.491 Y88.047 E0.09542
G1 X86.238 Y88.643 E0.02997
G1 X85.945 Y88.970 E0.01376
G1 X85.336 Y89.579 E0.02700
G1 X84.711 Y88.863 E0.02980
G1 X82.419 Y90.865 E0.09542
G1 X83.048 Y91.585 E0.02998
G1 X82.705 Y91.851 E0.01362
G1 X81.993 Y92.344 E0.02714
G1 X81.506 Y91.529 E0.02980
G1 X78.894 Y93.089 E0.09542
G1 X79.381 Y93.905 E0.02980
G1 X78.614 Y94.296 E0.02700
G1 X78.212 Y94.474 E0.01376
G1 X77.877 Y93.579 E0.02997
G1 X75.027 Y94.649 E0.09542
G1 X75.361 Y95.538 E0.02980
G1 X74.537 Y95.786 E0.02700
G1 X74.110 Y95.889 E0.01376
G1 X73.939 Y94.949 E0.02997
G1 X70.945 Y95.492 E0.09542
G1 X71.116 Y96.433 E0.02997
G1 X70.680 Y96.486 E0.01376
G1 X69.821 Y96.544 E0.02700
G1 X69.821 Y95.593 E0.02980
G1 X66.777 Y95.593 E0.09542
G1 X66.777 Y96.544 E0.02980
G1 X65.923 Y96.486 E0.02686
G1 X65.482 Y96.433 E0.01390
G1 X65.653 Y95.492 E0.02997
G1 X62.659 Y94.949 E0.09542
G1 X62.488 Y95.889 E0.02997
G1 X62.061 Y95.786 E0.01376
G1 X61.237 Y95.538 E0.02700
G1 X61.571 Y94.649 E0.02980
G1 X58.721 Y93.579 E0.09542
G1 X58.384 Y94.480 E0.03015
G1 X58.362 Y94.470 E0.00073
G1 X57.214 Y93.910 E0.04005
G1 X57.704 Y93.089 E0.02997
G1 X55.092 Y91.529 E0.09542
G1 X54.604 Y92.344 E0.02980
G1 X53.900 Y91.857 E0.02686
G1 X53.550 Y91.585 E0.01390
G1 X54.179 Y90.865 E0.02997
G1 X51.887 Y88.863 E0.09542
G1 X51.262 Y89.579 E0.02980
G1 X50.653 Y88.970 E0.02700
G1 X50.360 Y88.643 E0.01376
G1 X51.107 Y88.047 E0.02997
G1 X49.209 Y85.668 E0.09542
G1 X48.462 Y86.264 E0.02997
G1 X48.209 Y85.905 E0.01376
G1 X47.751 Y85.176 E0.02700
G1 X48.588 Y84.726 E0.02980
G1 X47.146 Y82.046 E0.09542
G1 X46.304 Y82.499 E0.02997
G1 X45.796 Y81.327 E0.04005
G1 X45.787 Y81.305 E0.00073
G1 X46.702 Y81.008 E0.03015
G1 X45.761 Y78.113 E0.09542
G1 X44.858 Y78.407 E0.02980
G1 X44.647 Y77.572 E0.02700
G1 X44.563 Y77.141 E0.01376
G1 X45.510 Y77.013 E0.02997
G1 X45.102 Y73.997 E0.09542
G1 X44.160 Y74.125 E0.02980
G1 X44.102 Y73.266 E0.02700
G1 X44.096 Y72.827 E0.01376
G1 X45.051 Y72.870 E0.02997
G1 X45.188 Y69.829 E0.09542
G1 X44.233 Y69.786 E0.02997
G1 X44.278 Y69.350 E0.01376
G1 X44.413 Y68.499 E0.02700
G1 X45.339 Y68.711 E0.02980
G1 X46.016 Y65.744 E0.09542
G1 X45.090 Y65.532 E0.02980
G1 X45.336 Y64.712 E0.02686
G1 X45.486 Y64.295 E0.01390
G1 X46.365 Y64.670 E0.02997
G1 X47.561 Y61.872 E0.09542
G1 X46.682 Y61.496 E0.02997
G1 X46.878 Y61.103 E0.01376
G1 X47.303 Y60.354 E0.02700
G1 X48.096 Y60.878 E0.02980
G1 X49.773 Y58.338 E0.09542
G1 X48.975 Y57.811 E0.02997
G1 X49.238 Y57.460 E0.01376
G1 X49.789 Y56.799 E0.02700
G1 X50.476 Y57.456 E0.02980
G1 X52.580 Y55.256 E0.09542
G1 X51.889 Y54.596 E0.02994
G1 X52.527 Y54.019 E0.02696
G1 X52.868 Y53.740 E0.01381
G1 X53.430 Y54.513 E0.02997
G1 X55.892 Y52.724 E0.09542
