; generated by PrusaSlicer 2.3.0+win64 on 2021-06-15 at 07:51:51 UTC


;
;

;
;
; 

; external perimeters extrusion width = 0.45mm
; perimeters extrusion width = 0.45mm
; infill extrusion width = 0.45mm
; solid infill extrusion width = 0.45mm
; top infill extrusion width = 0.40mm
; first layer extrusion width = 0.42mm

M73 P0 R54
M201 X1250 Y1250 Z400 E5000 ; sets maximum accelerations, mm/sec^2
M203 X180 Y180 Z12 E80 ; sets maximum feedrates, mm/sec
M204 P1250 R1250 T1250 ; sets acceleration (P, T) and retract acceleration (R), mm/sec^2
M205 X8.00 Y8.00 Z2.00 E10.00 ; sets the jerk limits, mm/sec
M205 S0 T0 ; sets the minimum extruding and travel feed rate, mm/sec
M107
;TYPE:Custom
G90 ; use absolute coordinates
M83 ; extruder relative mode
M104 S170 ; set extruder temp for bed leveling
M140 S60 ; set bed temp
M109 R170 ; wait for bed leveling temp
M190 S60 ; wait for bed temp
G28 ; home all without mesh bed level
G29 ; mesh bed leveling 
M104 S215 ; set extruder temp
G92 E0.0
G1 Y-2.0 X179 F2400
G1 Z3 F720
M109 S215 ; wait for extruder temp

; intro line
G1 X170 F1000
G1 Z0.2 F720
G1 X110.0 E8.0 F900
G1 X40.0 E10.0 F700
G92 E0.0

M221 S95 ; set flow
G21 ; set units to millimeters
G90 ; use absolute coordinates
M83 ; use relative distances for extrusion
M900 K0.2 ; Filament gcode LA 1.5
; ; Filament gcode LA 1.0
;LAYER_CHANGE
;Z:0.2
;HEIGHT:0.2
;BEFORE_LAYER_CHANGE
G92 E0.0
;0.2


G1 E-3.20000 F4200.000
G1 Z0.200 F9000.000
;AFTER_LAYER_CHANGE
;0.2
G1 Z0.400
G1 X79.429 Y51.219
G1 Z0.200
G1 E3.20000 F2400.000
M204 S800
;TYPE:Skirt
;WIDTH:0.42
G1 F1200.000
G1 X79.569 Y50.651 E0.01835
G1 X82.282 Y43.743 E0.23269
G1 X82.827 Y42.674 E0.03763
G1 X83.546 Y41.660 E0.03897
G1 X84.309 Y40.853 E0.03481
G1 X85.016 Y40.267 E0.02879
G1 X86.577 Y39.354 E0.05671
G1 X87.455 Y39.019 E0.02946
G1 X88.335 Y38.790 E0.02851
G1 X90.110 Y38.624 E0.05591
G1 X91.049 Y38.689 E0.02951
G1 X91.939 Y38.851 E0.02836
G1 X93.650 Y39.460 E0.05693
G1 X95.188 Y40.423 E0.05691
G1 X96.486 Y41.698 E0.05703
G1 X97.179 Y42.684 E0.03779
G1 X97.726 Y43.762 E0.03790
G1 X100.440 Y50.674 E0.23284
G1 X100.588 Y51.491 E0.02602
G1 X100.573 Y128.762 E2.42279
G1 X98.232 Y135.977 E0.23781
G1 X97.711 Y137.092 E0.03862
G1 X96.904 Y138.281 E0.04504
G1 X96.278 Y138.970 E0.02919
G1 X95.598 Y139.571 E0.02844
G1 X94.056 Y140.538 E0.05705
G1 X92.345 Y141.149 E0.05698
G1 X91.451 Y141.311 E0.02849
G1 X90.524 Y141.376 E0.02914
G1 X88.748 Y141.212 E0.05591
G1 X87.016 Y140.662 E0.05698
G1 X85.451 Y139.758 E0.05668
G1 X84.749 Y139.183 E0.02844
G1 X84.099 Y138.518 E0.02915
G1 X83.383 Y137.573 E0.03719
G1 X82.804 Y136.529 E0.03743
G1 X79.600 Y129.425 E0.24434
G1 X79.412 Y128.509 E0.02931
G1 X79.429 Y51.279 E2.42151
M204 S1250
; printing object WireSpacing02.stl id:0 copy 0
G1 E-2.24000 F4200.000
;WIPE_START
G1 F7200.000
G1 X79.569 Y50.651 E-0.35661
G1 X79.935 Y49.718 E-0.55539
;WIPE_END
G1 E-0.04800 F4200.000
G1 Z0.400 F9000.000
G1 X89.949 Y130.755
G1 Z0.200
G1 E3.20000 F2400.000
M204 S800
;TYPE:Perimeter
G1 F1200.000
G1 X90.421 Y130.711 E0.01486
G1 X90.781 Y130.742 E0.01134
G1 X91.249 Y130.872 E0.01523
G1 X91.687 Y131.104 E0.01553
G1 X92.056 Y131.418 E0.01520
G1 X92.279 Y131.690 E0.01103
G1 X92.514 Y132.114 E0.01520
G1 X92.653 Y132.584 E0.01537
G1 X92.691 Y133.000 E0.01311
G1 X92.653 Y133.416 E0.01311
G1 X92.514 Y133.886 E0.01537
G1 X92.279 Y134.310 E0.01520
G1 X92.056 Y134.582 E0.01103
G1 X91.687 Y134.896 E0.01520
G1 X91.259 Y135.123 E0.01519
G1 X90.924 Y135.229 E0.01103
G1 X90.443 Y135.290 E0.01520
G1 X89.950 Y135.246 E0.01551
G1 X89.498 Y135.103 E0.01486
G1 X89.178 Y134.935 E0.01134
G1 X88.797 Y134.635 E0.01521
G1 X88.496 Y134.268 E0.01487
G1 X88.319 Y133.953 E0.01133
G1 X88.164 Y133.492 E0.01523
G1 X88.111 Y133.000 E0.01553
G1 X88.164 Y132.508 E0.01553
G1 X88.319 Y132.048 E0.01520
G1 X88.489 Y131.741 E0.01103
G1 X88.796 Y131.366 E0.01519
G1 X89.177 Y131.065 E0.01520
G1 X89.488 Y130.901 E0.01103
G1 X89.892 Y130.773 E0.01330
M204 S1250
G1 X90.006 Y131.132 F9000.000
M204 S800
;TYPE:External perimeter
G1 F1200.000
G1 X90.422 Y131.089 E0.01313
G1 X90.714 Y131.115 E0.00918
G1 X91.109 Y131.224 E0.01285
G1 X91.474 Y131.418 E0.01296
G1 X91.786 Y131.683 E0.01284
G1 X91.966 Y131.902 E0.00888
G1 X92.164 Y132.261 E0.01284
G1 X92.281 Y132.655 E0.01290
G1 X92.312 Y133.000 E0.01086
G1 X92.281 Y133.345 E0.01086
G1 X92.164 Y133.739 E0.01290
G1 X91.966 Y134.098 E0.01284
G1 X91.786 Y134.317 E0.00888
G1 X91.474 Y134.582 E0.01284
G1 X91.112 Y134.774 E0.01284
G1 X90.842 Y134.859 E0.00888
G1 X90.436 Y134.911 E0.01284
G1 X90.025 Y134.874 E0.01295
G1 X89.643 Y134.754 E0.01253
G1 X89.384 Y134.618 E0.00918
G1 X89.062 Y134.364 E0.01285
G1 X88.808 Y134.055 E0.01253
G1 X88.666 Y133.799 E0.00918
G1 X88.535 Y133.411 E0.01285
G1 X88.490 Y133.000 E0.01296
G1 X88.535 Y132.589 E0.01296
G1 X88.666 Y132.201 E0.01284
G1 X88.803 Y131.953 E0.00889
G1 X89.062 Y131.636 E0.01284
G1 X89.384 Y131.383 E0.01284
G1 X89.634 Y131.250 E0.00889
G1 X89.948 Y131.150 E0.01034
M204 S1250
G1 X90.135 Y130.753 F9000.000
G1 E-2.24000 F4200.000
;WIPE_START
G1 F7200.000
G1 X90.422 Y131.089 E-0.26463
G1 X90.714 Y131.115 E-0.16232
G1 X91.109 Y131.224 E-0.22716
G1 X91.474 Y131.418 E-0.22904
G1 X91.514 Y131.452 E-0.02886
;WIPE_END
G1 E-0.04800 F4200.000
G1 Z0.400 F9000.000
G1 X90.032 Y49.289
G1 Z0.200
G1 E3.20000 F2400.000
M204 S800
;TYPE:Perimeter
G1 F1200.000
G1 X89.549 Y49.246 E0.01521
G1 X89.096 Y49.103 E0.01486
G1 X88.776 Y48.935 E0.01134
G1 X88.395 Y48.634 E0.01523
G1 X88.081 Y48.251 E0.01553
G1 X87.862 Y47.819 E0.01519
G1 X87.762 Y47.482 E0.01103
G1 X87.709 Y47.000 E0.01520
G1 X87.762 Y46.518 E0.01520
G1 X87.862 Y46.181 E0.01103
G1 X88.081 Y45.749 E0.01519
G1 X88.395 Y45.366 E0.01553
G1 X88.775 Y45.065 E0.01520
G1 X89.086 Y44.901 E0.01103
G1 X89.548 Y44.755 E0.01518
G1 X90.020 Y44.711 E0.01486
G1 X90.380 Y44.742 E0.01134
G1 X90.848 Y44.872 E0.01523
G1 X91.285 Y45.104 E0.01553
G1 X91.655 Y45.418 E0.01520
G1 X91.878 Y45.690 E0.01103
G1 X92.112 Y46.114 E0.01520
G1 X92.252 Y46.584 E0.01537
G1 X92.289 Y47.000 E0.01311
G1 X92.252 Y47.416 E0.01311
G1 X92.112 Y47.886 E0.01537
G1 X91.878 Y48.310 E0.01520
G1 X91.655 Y48.582 E0.01103
G1 X91.285 Y48.896 E0.01520
G1 X90.848 Y49.128 E0.01551
G1 X90.392 Y49.255 E0.01487
G1 X90.092 Y49.284 E0.00945
M204 S1250
G1 X89.623 Y48.874 F9000.000
M204 S800
;TYPE:External perimeter
G1 F1200.000
G1 X89.242 Y48.754 E0.01253
G1 X88.983 Y48.618 E0.00918
G1 X88.661 Y48.364 E0.01285
G1 X88.399 Y48.044 E0.01296
G1 X88.214 Y47.679 E0.01284
G1 X88.133 Y47.407 E0.00889
G1 X88.089 Y47.000 E0.01284
G1 X88.133 Y46.593 E0.01284
G1 X88.214 Y46.321 E0.00889
G1 X88.399 Y45.956 E0.01284
G1 X88.661 Y45.636 E0.01296
G1 X88.982 Y45.383 E0.01284
G1 X89.233 Y45.250 E0.00888
G1 X89.623 Y45.126 E0.01283
G1 X90.021 Y45.089 E0.01253
G1 X90.313 Y45.115 E0.00918
G1 X90.707 Y45.224 E0.01285
G1 X91.073 Y45.418 E0.01296
G1 X91.385 Y45.683 E0.01284
G1 X91.564 Y45.902 E0.00888
G1 X91.763 Y46.261 E0.01284
G1 X91.880 Y46.655 E0.01290
G1 X91.911 Y47.000 E0.01086
G1 X91.880 Y47.345 E0.01086
G1 X91.763 Y47.739 E0.01290
G1 X91.564 Y48.098 E0.01284
G1 X91.385 Y48.317 E0.00888
G1 X91.073 Y48.582 E0.01284
G1 X90.708 Y48.776 E0.01295
G1 X90.323 Y48.883 E0.01253
G1 X90.031 Y48.911 E0.00918
G1 X89.683 Y48.879 E0.01096
M204 S1250
G1 X89.356 Y49.171 F9000.000
G1 E-2.24000 F4200.000
;WIPE_START
G1 F7200.000
G1 X89.242 Y48.754 E-0.25409
G1 X88.983 Y48.618 E-0.16231
G1 X88.661 Y48.364 E-0.22716
G1 X88.399 Y48.044 E-0.22904
G1 X88.367 Y47.980 E-0.03940
;WIPE_END
G1 E-0.04800 F4200.000
G1 Z0.400 F9000.000
G1 X95.213 Y52.287
M73 P1 R54
G1 Z0.200
G1 E3.20000 F2400.000
M204 S800
;TYPE:Perimeter
G1 F1200.000
G1 X97.424 Y52.287 E0.06932
G1 X97.424 Y127.713 E2.36492
G1 X95.521 Y127.713 E0.05967
G1 X95.614 Y129.105 E0.04373
G1 X95.614 Y132.982 E0.12158
G1 X95.583 Y133.569 E0.01842
G1 X95.529 Y133.936 E0.01163
G1 X95.449 Y134.298 E0.01163
G1 X95.277 Y134.841 E0.01786
G1 X95.048 Y135.363 E0.01786
G1 X94.868 Y135.687 E0.01163
G1 X94.665 Y135.998 E0.01163
G1 X94.309 Y136.450 E0.01803
G1 X94.054 Y136.719 E0.01163
G1 X93.780 Y136.969 E0.01163
G1 X93.326 Y137.314 E0.01786
G1 X92.843 Y137.605 E0.01769
G1 X92.331 Y137.842 E0.01769
G1 X91.796 Y138.022 E0.01769
G1 X91.239 Y138.145 E0.01786
G1 X90.871 Y138.191 E0.01163
G1 X90.501 Y138.211 E0.01163
G1 X89.932 Y138.191 E0.01786
G1 X89.373 Y138.110 E0.01769
G1 X88.827 Y137.968 E0.01769
G1 X88.299 Y137.769 E0.01769
G1 X87.795 Y137.514 E0.01769
G1 X87.318 Y137.203 E0.01786
G1 X87.027 Y136.973 E0.01163
G1 X86.753 Y136.723 E0.01163
G1 X86.365 Y136.298 E0.01803
G1 X86.141 Y136.003 E0.01163
G1 X85.935 Y135.687 E0.01180
G1 X85.753 Y135.358 E0.01180
G1 X85.595 Y135.016 E0.01180
G1 X85.462 Y134.664 E0.01180
G1 X85.356 Y134.309 E0.01163
G1 X85.243 Y133.745 E0.01803
G1 X85.203 Y133.376 E0.01163
G1 X85.189 Y132.988 E0.01219
G1 X85.189 Y127.713 E0.16538
G1 X82.576 Y127.713 E0.08190
G1 X82.576 Y52.287 E2.36492
G1 X84.881 Y52.287 E0.07226
G1 X84.787 Y50.895 E0.04373
G1 X84.787 Y47.012 E0.12175
G1 X84.801 Y46.624 E0.01219
G1 X84.841 Y46.255 E0.01163
G1 X84.955 Y45.691 E0.01803
G1 X85.060 Y45.336 E0.01163
G1 X85.193 Y44.984 E0.01180
G1 X85.351 Y44.642 E0.01180
G1 X85.534 Y44.313 E0.01180
G1 X85.739 Y43.997 E0.01180
G1 X85.964 Y43.702 E0.01163
G1 X86.352 Y43.277 E0.01803
G1 X86.625 Y43.027 E0.01163
G1 X86.917 Y42.797 E0.01163
G1 X87.394 Y42.486 E0.01786
G1 X87.897 Y42.231 E0.01769
G1 X88.425 Y42.032 E0.01769
G1 X88.972 Y41.890 E0.01769
G1 X89.535 Y41.808 E0.01786
G1 X89.906 Y41.788 E0.01163
G1 X90.276 Y41.795 E0.01161
G1 X90.843 Y41.857 E0.01788
G1 X91.394 Y41.978 E0.01769
G1 X91.929 Y42.158 E0.01769
G1 X92.441 Y42.395 E0.01769
G1 X92.925 Y42.686 E0.01769
G1 X93.374 Y43.028 E0.01769
G1 X93.784 Y43.416 E0.01769
G1 X94.149 Y43.846 E0.01769
G1 X94.469 Y44.317 E0.01786
G1 X94.649 Y44.642 E0.01163
G1 X94.807 Y44.984 E0.01180
G1 X94.940 Y45.336 E0.01180
G1 X95.045 Y45.691 E0.01163
G1 X95.159 Y46.255 E0.01803
G1 X95.199 Y46.624 E0.01163
G1 X95.213 Y47.012 E0.01219
G1 X95.213 Y52.227 E0.16350
M204 S1250
G1 X95.590 Y51.910 F9000.000
M204 S800
;TYPE:External perimeter
G1 F1200.000
G1 X97.801 Y51.910 E0.06932
G1 X97.801 Y128.090 E2.38857
M73 P1 R53
G1 X95.924 Y128.090 E0.05885
G1 X95.991 Y129.092 E0.03149
G1 X95.991 Y132.993 E0.12230
G1 X95.958 Y133.606 E0.01927
G1 X95.900 Y134.004 E0.01260
G1 X95.814 Y134.396 E0.01260
G1 X95.631 Y134.975 E0.01904
G1 X95.386 Y135.530 E0.01904
G1 X95.191 Y135.882 E0.01260
G1 X94.972 Y136.218 E0.01260
G1 X94.594 Y136.696 E0.01910
G1 X94.318 Y136.988 E0.01260
G1 X94.022 Y137.259 E0.01260
G1 X93.538 Y137.626 E0.01904
G1 X93.020 Y137.939 E0.01898
G1 X92.470 Y138.193 E0.01898
G1 X91.897 Y138.386 E0.01898
G1 X91.304 Y138.516 E0.01904
G1 X90.905 Y138.567 E0.01260
G1 X90.504 Y138.589 E0.01260
G1 X89.898 Y138.567 E0.01904
G1 X89.299 Y138.480 E0.01898
G1 X88.713 Y138.328 E0.01898
G1 X88.146 Y138.115 E0.01898
G1 X87.607 Y137.841 E0.01898
G1 X87.098 Y137.509 E0.01904
G1 X86.783 Y137.260 E0.01260
G1 X86.486 Y136.989 E0.01260
G1 X86.075 Y136.540 E0.01910
G1 X85.832 Y136.220 E0.01260
G1 X85.612 Y135.882 E0.01265
G1 X85.416 Y135.529 E0.01265
G1 X85.247 Y135.162 E0.01265
G1 X85.104 Y134.785 E0.01266
G1 X84.990 Y134.400 E0.01260
G1 X84.870 Y133.803 E0.01910
G1 X84.826 Y133.403 E0.01260
G1 X84.811 Y132.994 E0.01283
G1 X84.811 Y128.090 E0.15377
G1 X82.199 Y128.090 E0.08190
G1 X82.199 Y51.910 E2.38857
G1 X84.478 Y51.910 E0.07144
G1 X84.410 Y50.908 E0.03149
G1 X84.410 Y47.006 E0.12236
G1 X84.425 Y46.597 E0.01283
G1 X84.468 Y46.197 E0.01260
G1 X84.588 Y45.600 E0.01910
G1 X84.703 Y45.215 E0.01260
G1 X84.845 Y44.838 E0.01266
G1 X85.015 Y44.471 E0.01266
G1 X85.210 Y44.118 E0.01265
G1 X85.431 Y43.780 E0.01266
G1 X85.674 Y43.460 E0.01260
G1 X86.085 Y43.011 E0.01910
G1 X86.381 Y42.740 E0.01260
G1 X86.697 Y42.491 E0.01260
G1 X87.205 Y42.159 E0.01904
G1 X87.745 Y41.885 E0.01898
G1 X88.311 Y41.672 E0.01898
G1 X88.897 Y41.520 E0.01898
G1 X89.498 Y41.433 E0.01904
G1 X89.899 Y41.411 E0.01260
G1 X90.300 Y41.418 E0.01257
G1 X90.904 Y41.484 E0.01906
G1 X91.495 Y41.614 E0.01898
G1 X92.069 Y41.807 E0.01898
G1 X92.618 Y42.061 E0.01898
G1 X93.137 Y42.374 E0.01898
G1 X93.619 Y42.740 E0.01898
G1 X94.058 Y43.156 E0.01898
G1 X94.450 Y43.617 E0.01898
G1 X94.791 Y44.120 E0.01904
G1 X94.985 Y44.471 E0.01260
G1 X95.155 Y44.838 E0.01265
G1 X95.297 Y45.215 E0.01266
G1 X95.412 Y45.600 E0.01260
G1 X95.532 Y46.197 E0.01910
G1 X95.575 Y46.597 E0.01260
G1 X95.590 Y47.006 E0.01283
G1 X95.590 Y51.850 E0.15189
M204 S1250
G1 X95.590 Y52.310 F9000.000
G1 E-2.24000 F4200.000
;WIPE_START
G1 F7200.000
G1 X97.235 Y51.895 E-0.91200
;WIPE_END
G1 E-0.04800 F4200.000
G1 Z0.400 F9000.000
G1 X94.408 Y44.441
G1 Z0.200
G1 E3.20000 F2400.000
M204 S800
;TYPE:Solid infill
;WIDTH:0.421319
G1 F1200.000
G1 X93.191 Y43.243 E0.05373
G1 X92.766 Y42.920 E0.01679
G1 X92.309 Y42.645 E0.01679
G1 X91.878 Y42.446 E0.01493
G1 X94.558 Y45.126 E0.11926
G1 X94.671 Y45.426 E0.01008
G1 X94.799 Y45.903 E0.01552
G1 X91.099 Y42.203 E0.16464
G1 X90.797 Y42.136 E0.00973
G1 X90.461 Y42.100 E0.01064
G1 X94.906 Y46.544 E0.19776
G1 X94.930 Y47.104 E0.01762
G1 X89.899 Y42.072 E0.22389
G1 X89.405 Y42.113 E0.01559
G1 X94.930 Y47.639 E0.24587
G1 X94.930 Y48.174 E0.01684
G1 X88.946 Y42.189 E0.26629
G1 X88.520 Y42.299 E0.01382
G1 X90.781 Y44.560 E0.10060
G1 X90.953 Y44.608 E0.00562
G1 X91.445 Y44.869 E0.01752
G1 X91.857 Y45.219 E0.01702
G1 X92.113 Y45.530 E0.01267
G1 X92.375 Y46.004 E0.01702
G1 X92.438 Y46.217 E0.00699
G1 X94.930 Y48.709 E0.11089
G1 X94.930 Y49.244 E0.01684
G1 X92.562 Y46.876 E0.10536
G1 X92.573 Y47.000 E0.00391
G1 X92.538 Y47.388 E0.01224
G1 X94.930 Y49.779 E0.10642
G1 X94.930 Y50.314 E0.01684
G1 X92.429 Y47.813 E0.11129
G1 X92.375 Y47.996 E0.00600
G1 X92.269 Y48.188 E0.00689
G1 X94.930 Y50.849 E0.11843
G1 X94.930 Y51.385 E0.01684
G1 X92.069 Y48.523 E0.12732
G1 X91.822 Y48.811 E0.01194
G1 X95.100 Y52.089 E0.14586
M204 S1250
G1 X96.481 Y52.400 F9000.000
M204 S800
G1 F1200.000
G1 X97.141 Y53.060 E0.02937
G1 X97.141 Y53.595 E0.01684
G1 X96.115 Y52.570 E0.04563
G1 X95.580 Y52.570 E0.01684
G1 X97.141 Y54.131 E0.06945
G1 X97.141 Y54.666 E0.01684
G1 X91.532 Y49.057 E0.24956
G1 X91.445 Y49.131 E0.00360
G1 X91.201 Y49.261 E0.00870
G1 X97.141 Y55.201 E0.26431
G1 X97.141 Y55.736 E0.01684
G1 X90.831 Y49.426 E0.28077
G1 X90.408 Y49.538 E0.01378
G1 X97.141 Y56.271 E0.29960
G1 X97.141 Y56.806 E0.01684
G1 X89.708 Y49.374 E0.33072
M204 S1250
G1 E-2.24000 F4200.000
;WIPE_START
G1 F7200.000
G1 X90.872 Y50.537 E-0.91200
;WIPE_END
G1 E-0.04800 F4200.000
G1 Z0.400 F9000.000
G1 X90.308 Y44.622
G1 Z0.200
G1 E3.20000 F2400.000
M204 S800
G1 F1200.000
G1 X88.131 Y42.445 E0.09689
G1 X87.766 Y42.615 E0.01268
G1 X89.615 Y44.464 E0.08230
G1 X89.491 Y44.476 E0.00392
G1 X89.188 Y44.572 E0.01002
G1 X87.422 Y42.806 E0.07858
G1 X87.098 Y43.017 E0.01217
G1 X88.808 Y44.728 E0.07613
G1 X88.620 Y44.828 E0.00670
G1 X88.482 Y44.937 E0.00554
G1 X86.798 Y43.253 E0.07494
G1 X86.521 Y43.511 E0.01191
G1 X88.185 Y45.175 E0.07405
G1 X87.945 Y45.469 E0.01196
G1 X86.266 Y43.791 E0.07470
G1 X86.027 Y44.087 E0.01197
G1 X87.739 Y45.799 E0.07619
G1 X87.598 Y46.076 E0.00978
G1 X87.571 Y46.166 E0.00296
G1 X85.811 Y44.406 E0.07834
G1 X85.617 Y44.747 E0.01235
G1 X87.469 Y46.599 E0.08241
G1 X87.425 Y47.000 E0.01270
G1 X87.436 Y47.101 E0.00320
G1 X85.447 Y45.112 E0.08850
G1 X85.305 Y45.505 E0.01315
G1 X87.545 Y47.746 E0.09968
G1 X87.598 Y47.924 E0.00586
G1 X87.843 Y48.406 E0.01702
G1 X88.196 Y48.837 E0.01752
G1 X88.622 Y49.173 E0.01708
G1 X88.987 Y49.365 E0.01299
G1 X89.247 Y49.447 E0.00855
G1 X97.141 Y57.341 E0.35127
G1 X97.141 Y57.877 E0.01684
G1 X85.195 Y45.931 E0.53156
M73 P2 R53
G1 X85.112 Y46.383 E0.01446
G1 X97.141 Y58.412 E0.53526
G1 X97.141 Y58.947 E0.01684
G1 X85.075 Y46.881 E0.53690
G1 X85.070 Y47.411 E0.01668
G1 X97.141 Y59.482 E0.53712
G1 X97.141 Y60.017 E0.01684
G1 X85.070 Y47.946 E0.53712
G1 X85.070 Y48.481 E0.01684
G1 X97.141 Y60.552 E0.53712
G1 X97.141 Y61.087 E0.01684
G1 X85.070 Y49.016 E0.53712
G1 X85.070 Y49.551 E0.01684
G1 X97.141 Y61.622 E0.53712
G1 X97.141 Y62.158 E0.01684
G1 X85.070 Y50.087 E0.53712
G1 X85.070 Y50.622 E0.01684
