; generated by PrusaSlicer 2.3.0+win64 on 2021-06-14 at 18:12:28 UTC


;
;

;
;
; 

; external perimeters extrusion width = 0.45mm
; perimeters extrusion width = 0.45mm
; infill extrusion width = 0.45mm
; solid infill extrusion width = 0.45mm
; top infill extrusion width = 0.40mm
; first layer extrusion width = 0.42mm

M73 P0 R53
M201 X1250 Y1250 Z400 E5000 ; sets maximum accelerations, mm/sec^2
M203 X180 Y180 Z12 E80 ; sets maximum feedrates, mm/sec
M204 P1250 R1250 T1250 ; sets acceleration (P, T) and retract acceleration (R), mm/sec^2
M205 X8.00 Y8.00 Z2.00 E10.00 ; sets the jerk limits, mm/sec
M205 S0 T0 ; sets the minimum extruding and travel feed rate, mm/sec
M107
;TYPE:Custom
G90 ; use absolute coordinates
M83 ; extruder relative mode
M104 S170 ; set extruder temp for bed leveling
M140 S60 ; set bed temp
M109 R170 ; wait for bed leveling temp
M190 S60 ; wait for bed temp
G28 ; home all without mesh bed level
G29 ; mesh bed leveling 
M104 S215 ; set extruder temp
G92 E0.0
G1 Y-2.0 X179 F2400
G1 Z3 F720
M109 S215 ; wait for extruder temp

; intro line
G1 X170 F1000
G1 Z0.2 F720
G1 X110.0 E8.0 F900
G1 X40.0 E10.0 F700
G92 E0.0

M221 S95 ; set flow
G21 ; set units to millimeters
G90 ; use absolute coordinates
M83 ; use relative distances for extrusion
M900 K0.2 ; Filament gcode LA 1.5
; ; Filament gcode LA 1.0
;LAYER_CHANGE
;Z:0.2
;HEIGHT:0.2
;BEFORE_LAYER_CHANGE
G92 E0.0
;0.2


G1 E-3.20000 F4200.000
G1 Z0.200 F9000.000
;AFTER_LAYER_CHANGE
;0.2
G1 Z0.400
G1 X79.429 Y51.219
G1 Z0.200
G1 E3.20000 F2400.000
M204 S800
;TYPE:Skirt
;WIDTH:0.42
G1 F1200.000
G1 X79.569 Y50.651 E0.01835
G1 X82.282 Y43.743 E0.23269
G1 X82.827 Y42.674 E0.03763
G1 X83.546 Y41.660 E0.03897
G1 X84.309 Y40.853 E0.03481
G1 X85.016 Y40.267 E0.02879
G1 X86.577 Y39.354 E0.05671
G1 X87.455 Y39.019 E0.02946
G1 X88.335 Y38.790 E0.02851
G1 X90.110 Y38.624 E0.05591
G1 X91.049 Y38.689 E0.02951
G1 X91.939 Y38.851 E0.02836
G1 X93.650 Y39.460 E0.05693
G1 X95.188 Y40.423 E0.05691
G1 X96.486 Y41.698 E0.05703
G1 X97.179 Y42.684 E0.03779
G1 X97.726 Y43.762 E0.03790
G1 X100.440 Y50.674 E0.23284
G1 X100.588 Y51.491 E0.02602
G1 X100.573 Y128.762 E2.42279
G1 X98.232 Y135.977 E0.23781
G1 X97.711 Y137.092 E0.03862
G1 X96.904 Y138.281 E0.04504
G1 X96.278 Y138.970 E0.02919
G1 X95.598 Y139.571 E0.02844
G1 X94.056 Y140.538 E0.05705
G1 X92.345 Y141.149 E0.05698
G1 X91.451 Y141.311 E0.02849
G1 X90.524 Y141.376 E0.02914
G1 X88.748 Y141.212 E0.05591
G1 X87.016 Y140.662 E0.05698
G1 X85.451 Y139.758 E0.05668
G1 X84.749 Y139.183 E0.02844
G1 X84.099 Y138.518 E0.02915
G1 X83.383 Y137.573 E0.03719
G1 X82.804 Y136.529 E0.03743
G1 X79.600 Y129.425 E0.24434
G1 X79.412 Y128.509 E0.02931
G1 X79.429 Y51.279 E2.42151
M204 S1250
; printing object WireSpacing01.stl id:0 copy 0
G1 E-2.24000 F4200.000
;WIPE_START
G1 F7200.000
G1 X79.569 Y50.651 E-0.35661
G1 X79.935 Y49.718 E-0.55539
;WIPE_END
G1 E-0.04800 F4200.000
G1 Z0.400 F9000.000
G1 X89.915 Y129.243
G1 Z0.200
G1 E3.20000 F2400.000
M204 S800
;TYPE:Perimeter
G1 F1200.000
G1 X90.311 Y129.213 E0.01247
G1 X90.880 Y129.242 E0.01786
G1 X91.271 Y129.313 E0.01247
G1 X91.646 Y129.422 E0.01223
G1 X92.007 Y129.569 E0.01223
G1 X92.351 Y129.753 E0.01223
G1 X92.675 Y129.970 E0.01223
G1 X92.974 Y130.220 E0.01223
G1 X93.247 Y130.499 E0.01223
G1 X93.489 Y130.805 E0.01223
G1 X93.698 Y131.134 E0.01223
G1 X93.876 Y131.490 E0.01247
G1 X94.063 Y132.028 E0.01786
G1 X94.144 Y132.417 E0.01247
G1 X94.184 Y132.805 E0.01223
G1 X94.184 Y133.195 E0.01223
G1 X94.144 Y133.583 E0.01223
G1 X94.064 Y133.965 E0.01223
G1 X93.946 Y134.336 E0.01223
G1 X93.790 Y134.694 E0.01223
G1 X93.594 Y135.040 E0.01247
G1 X93.252 Y135.495 E0.01786
G1 X92.974 Y135.780 E0.01247
G1 X92.675 Y136.030 E0.01223
G1 X92.351 Y136.247 E0.01223
G1 X92.007 Y136.431 E0.01223
G1 X91.646 Y136.578 E0.01223
G1 X91.271 Y136.687 E0.01223
G1 X90.888 Y136.757 E0.01223
G1 X90.493 Y136.787 E0.01242
G1 X89.923 Y136.758 E0.01790
G1 X89.531 Y136.687 E0.01247
G1 X89.157 Y136.578 E0.01223
G1 X88.796 Y136.431 E0.01223
G1 X88.451 Y136.247 E0.01223
G1 X88.128 Y136.030 E0.01223
G1 X87.828 Y135.780 E0.01223
G1 X87.556 Y135.501 E0.01223
G1 X87.314 Y135.195 E0.01223
G1 X87.105 Y134.866 E0.01223
G1 X86.927 Y134.510 E0.01247
G1 X86.740 Y133.972 E0.01786
G1 X86.659 Y133.583 E0.01247
G1 X86.619 Y133.195 E0.01223
G1 X86.619 Y132.805 E0.01223
G1 X86.659 Y132.417 E0.01223
G1 X86.738 Y132.035 E0.01223
G1 X86.857 Y131.664 E0.01223
G1 X87.013 Y131.306 E0.01223
G1 X87.205 Y130.967 E0.01223
G1 X87.431 Y130.649 E0.01223
G1 X87.694 Y130.351 E0.01247
G1 X88.122 Y129.974 E0.01786
G1 X88.451 Y129.753 E0.01247
G1 X88.796 Y129.569 E0.01223
G1 X89.157 Y129.422 E0.01223
G1 X89.531 Y129.313 E0.01223
G1 X89.856 Y129.254 E0.01035
M204 S1250
G1 X89.924 Y129.625 F9000.000
M204 S800
;TYPE:External perimeter
G1 F1200.000
G1 X90.316 Y129.591 E0.01236
G1 X90.837 Y129.617 E0.01634
G1 X91.185 Y129.681 E0.01109
G1 X91.522 Y129.779 E0.01101
G1 X91.847 Y129.911 E0.01101
G1 X92.157 Y130.076 E0.01101
G1 X92.448 Y130.272 E0.01101
G1 X92.718 Y130.497 E0.01101
G1 X92.963 Y130.749 E0.01101
G1 X93.181 Y131.024 E0.01101
G1 X93.369 Y131.320 E0.01101
G1 X93.528 Y131.637 E0.01109
G1 X93.699 Y132.129 E0.01634
G1 X93.771 Y132.475 E0.01109
G1 X93.807 Y132.824 E0.01101
G1 X93.807 Y133.176 E0.01101
G1 X93.771 Y133.525 E0.01101
G1 X93.699 Y133.869 E0.01101
G1 X93.593 Y134.203 E0.01101
G1 X93.452 Y134.525 E0.01101
G1 X93.278 Y134.833 E0.01109
G1 X92.965 Y135.249 E0.01634
G1 X92.718 Y135.503 E0.01109
G1 X92.448 Y135.728 E0.01101
G1 X92.157 Y135.924 E0.01101
G1 X91.847 Y136.089 E0.01101
G1 X91.522 Y136.221 E0.01101
G1 X91.185 Y136.319 E0.01101
G1 X90.839 Y136.382 E0.01101
G1 X90.488 Y136.409 E0.01105
G1 X89.966 Y136.383 E0.01638
G1 X89.618 Y136.319 E0.01110
G1 X89.281 Y136.221 E0.01101
G1 X88.956 Y136.089 E0.01101
G1 X88.646 Y135.924 E0.01101
G1 X88.355 Y135.728 E0.01101
G1 X88.085 Y135.503 E0.01101
G1 X87.840 Y135.251 E0.01101
G1 X87.622 Y134.976 E0.01101
G1 X87.433 Y134.680 E0.01101
G1 X87.275 Y134.363 E0.01109
G1 X87.104 Y133.871 E0.01634
G1 X87.032 Y133.525 E0.01109
G1 X86.996 Y133.176 E0.01101
G1 X86.996 Y132.824 E0.01101
G1 X87.032 Y132.475 E0.01101
G1 X87.104 Y132.131 E0.01101
G1 X87.210 Y131.797 E0.01101
G1 X87.351 Y131.475 E0.01101
G1 X87.524 Y131.170 E0.01101
G1 X87.727 Y130.884 E0.01101
G1 X87.961 Y130.618 E0.01109
G1 X88.352 Y130.274 E0.01634
G1 X88.646 Y130.076 E0.01109
G1 X88.956 Y129.911 E0.01101
G1 X89.281 Y129.779 E0.01101
G1 X89.618 Y129.681 E0.01101
G1 X89.865 Y129.636 E0.00786
M204 S1250
G1 X90.072 Y129.260 F9000.000
G1 E-2.24000 F4200.000
;WIPE_START
G1 F7200.000
G1 X90.316 Y129.591 E-0.25158
G1 X90.837 Y129.617 E-0.28873
G1 X91.185 Y129.681 E-0.19608
G1 X91.489 Y129.769 E-0.17561
;WIPE_END
G1 E-0.04800 F4200.000
G1 Z0.400 F9000.000
G1 X90.091 Y50.787
G1 Z0.200
G1 E3.20000 F2400.000
M204 S800
;TYPE:Perimeter
G1 F1200.000
G1 X89.521 Y50.758 E0.01790
G1 X89.130 Y50.687 E0.01247
G1 X88.756 Y50.578 E0.01223
G1 X88.394 Y50.431 E0.01223
G1 X88.050 Y50.247 E0.01223
G1 X87.726 Y50.030 E0.01223
M73 P1 R53
G1 X87.427 Y49.780 E0.01223
G1 X87.155 Y49.501 E0.01223
G1 X86.913 Y49.195 E0.01223
G1 X86.703 Y48.866 E0.01223
G1 X86.526 Y48.510 E0.01247
G1 X86.339 Y47.972 E0.01786
G1 X86.257 Y47.583 E0.01247
G1 X86.217 Y47.195 E0.01223
G1 X86.217 Y46.805 E0.01223
G1 X86.257 Y46.417 E0.01223
G1 X86.337 Y46.035 E0.01223
G1 X86.456 Y45.664 E0.01223
G1 X86.612 Y45.306 E0.01223
G1 X86.804 Y44.967 E0.01223
G1 X87.030 Y44.649 E0.01223
G1 X87.287 Y44.356 E0.01223
G1 X87.573 Y44.091 E0.01223
G1 X87.885 Y43.857 E0.01223
G1 X88.220 Y43.657 E0.01222
G1 X88.572 Y43.492 E0.01219
G1 X89.122 Y43.315 E0.01812
G1 X89.514 Y43.243 E0.01248
G1 X89.902 Y43.213 E0.01223
G1 X90.292 Y43.223 E0.01223
G1 X90.679 Y43.273 E0.01223
G1 X91.059 Y43.363 E0.01223
G1 X91.434 Y43.494 E0.01247
G1 X91.944 Y43.748 E0.01786
G1 X92.274 Y43.970 E0.01247
G1 X92.573 Y44.220 E0.01223
G1 X92.845 Y44.499 E0.01223
G1 X93.087 Y44.805 E0.01223
G1 X93.297 Y45.134 E0.01223
G1 X93.474 Y45.490 E0.01247
G1 X93.661 Y46.028 E0.01786
G1 X93.743 Y46.417 E0.01247
G1 X93.784 Y46.813 E0.01247
G1 X93.769 Y47.382 E0.01786
G1 X93.708 Y47.775 E0.01247
G1 X93.609 Y48.152 E0.01223
G1 X93.471 Y48.517 E0.01223
G1 X93.297 Y48.866 E0.01223
G1 X93.087 Y49.195 E0.01223
G1 X92.845 Y49.501 E0.01223
G1 X92.573 Y49.780 E0.01223
G1 X92.274 Y50.030 E0.01223
G1 X91.950 Y50.247 E0.01223
G1 X91.606 Y50.431 E0.01223
G1 X91.244 Y50.578 E0.01223
G1 X90.870 Y50.687 E0.01223
G1 X90.486 Y50.757 E0.01223
G1 X90.151 Y50.783 E0.01054
M204 S1250
G1 X90.122 Y50.407 F9000.000
M204 S800
;TYPE:External perimeter
G1 F1200.000
G1 X89.565 Y50.383 E0.01749
G1 X89.217 Y50.319 E0.01109
G1 X88.880 Y50.221 E0.01101
G1 X88.554 Y50.089 E0.01101
G1 X88.244 Y49.924 E0.01101
G1 X87.953 Y49.728 E0.01101
G1 X87.683 Y49.503 E0.01101
G1 X87.438 Y49.251 E0.01101
G1 X87.220 Y48.976 E0.01101
G1 X87.032 Y48.680 E0.01101
G1 X86.874 Y48.363 E0.01109
G1 X86.703 Y47.871 E0.01634
G1 X86.630 Y47.525 E0.01109
G1 X86.594 Y47.176 E0.01101
G1 X86.594 Y46.824 E0.01101
G1 X86.630 Y46.475 E0.01101
G1 X86.702 Y46.131 E0.01101
G1 X86.809 Y45.797 E0.01101
G1 X86.949 Y45.475 E0.01101
G1 X87.122 Y45.170 E0.01101
G1 X87.326 Y44.884 E0.01101
G1 X87.558 Y44.620 E0.01101
G1 X87.815 Y44.381 E0.01101
G1 X88.096 Y44.171 E0.01101
G1 X88.397 Y43.990 E0.01101
G1 X88.710 Y43.843 E0.01083
G1 X89.214 Y43.681 E0.01659
G1 X89.562 Y43.618 E0.01110
G1 X89.912 Y43.591 E0.01101
G1 X90.263 Y43.600 E0.01101
G1 X90.611 Y43.645 E0.01101
G1 X90.953 Y43.726 E0.01101
G1 X91.287 Y43.842 E0.01109
G1 X91.753 Y44.075 E0.01634
G1 X92.047 Y44.272 E0.01109
G1 X92.317 Y44.497 E0.01101
G1 X92.562 Y44.749 E0.01101
G1 X92.780 Y45.024 E0.01101
G1 X92.968 Y45.320 E0.01101
G1 X93.126 Y45.637 E0.01109
G1 X93.297 Y46.129 E0.01634
G1 X93.370 Y46.475 E0.01109
G1 X93.406 Y46.827 E0.01109
G1 X93.393 Y47.348 E0.01634
G1 X93.338 Y47.698 E0.01109
G1 X93.249 Y48.037 E0.01101
G1 X93.125 Y48.366 E0.01101
G1 X92.968 Y48.680 E0.01101
G1 X92.780 Y48.976 E0.01101
G1 X92.562 Y49.251 E0.01101
G1 X92.317 Y49.503 E0.01101
G1 X92.047 Y49.728 E0.01101
G1 X91.756 Y49.924 E0.01101
G1 X91.446 Y50.089 E0.01101
G1 X91.120 Y50.221 E0.01101
G1 X90.783 Y50.319 E0.01101
G1 X90.438 Y50.382 E0.01101
G1 X90.182 Y50.402 E0.00805
M204 S1250
G1 X89.927 Y50.756 F9000.000
G1 E-2.24000 F4200.000
;WIPE_START
G1 F7200.000
G1 X89.565 Y50.383 E-0.34212
G1 X89.217 Y50.319 E-0.19610
G1 X88.880 Y50.221 E-0.19458
G1 X88.580 Y50.099 E-0.17920
;WIPE_END
G1 E-0.04800 F4200.000
G1 Z0.400 F9000.000
G1 X95.213 Y52.287
G1 Z0.200
G1 E3.20000 F2400.000
M204 S800
;TYPE:Perimeter
G1 F1200.000
G1 X97.424 Y52.287 E0.06932
G1 X97.424 Y127.713 E2.36492
G1 X95.521 Y127.713 E0.05967
G1 X95.614 Y129.105 E0.04373
G1 X95.614 Y132.982 E0.12158
G1 X95.583 Y133.569 E0.01842
G1 X95.529 Y133.936 E0.01163
G1 X95.449 Y134.298 E0.01163
G1 X95.277 Y134.841 E0.01786
G1 X95.048 Y135.363 E0.01786
G1 X94.868 Y135.687 E0.01163
G1 X94.665 Y135.998 E0.01163
G1 X94.309 Y136.450 E0.01803
G1 X94.054 Y136.719 E0.01163
G1 X93.780 Y136.969 E0.01163
G1 X93.326 Y137.314 E0.01786
G1 X92.843 Y137.605 E0.01769
G1 X92.331 Y137.842 E0.01769
G1 X91.796 Y138.022 E0.01769
G1 X91.239 Y138.145 E0.01786
G1 X90.871 Y138.191 E0.01163
G1 X90.501 Y138.211 E0.01163
G1 X89.932 Y138.191 E0.01786
G1 X89.373 Y138.110 E0.01769
G1 X88.827 Y137.968 E0.01769
G1 X88.299 Y137.769 E0.01769
G1 X87.795 Y137.514 E0.01769
G1 X87.318 Y137.203 E0.01786
G1 X87.027 Y136.973 E0.01163
G1 X86.753 Y136.723 E0.01163
G1 X86.365 Y136.298 E0.01803
G1 X86.141 Y136.003 E0.01163
G1 X85.935 Y135.687 E0.01180
G1 X85.753 Y135.358 E0.01180
G1 X85.595 Y135.016 E0.01180
G1 X85.462 Y134.664 E0.01180
G1 X85.356 Y134.309 E0.01163
G1 X85.243 Y133.745 E0.01803
G1 X85.203 Y133.376 E0.01163
G1 X85.189 Y132.988 E0.01219
G1 X85.189 Y127.713 E0.16538
G1 X82.576 Y127.713 E0.08190
G1 X82.576 Y52.287 E2.36492
G1 X84.881 Y52.287 E0.07226
G1 X84.787 Y50.895 E0.04373
G1 X84.787 Y47.012 E0.12175
G1 X84.801 Y46.624 E0.01219
G1 X84.841 Y46.255 E0.01163
G1 X84.955 Y45.691 E0.01803
G1 X85.060 Y45.336 E0.01163
G1 X85.193 Y44.984 E0.01180
G1 X85.351 Y44.642 E0.01180
G1 X85.534 Y44.313 E0.01180
G1 X85.739 Y43.997 E0.01180
G1 X85.964 Y43.702 E0.01163
G1 X86.352 Y43.277 E0.01803
G1 X86.625 Y43.027 E0.01163
G1 X86.917 Y42.797 E0.01163
G1 X87.394 Y42.486 E0.01786
G1 X87.897 Y42.231 E0.01769
G1 X88.425 Y42.032 E0.01769
G1 X88.972 Y41.890 E0.01769
G1 X89.535 Y41.808 E0.01786
G1 X89.906 Y41.788 E0.01163
G1 X90.276 Y41.795 E0.01161
G1 X90.843 Y41.857 E0.01788
G1 X91.394 Y41.978 E0.01769
G1 X91.929 Y42.158 E0.01769
G1 X92.441 Y42.395 E0.01769
G1 X92.925 Y42.686 E0.01769
G1 X93.374 Y43.028 E0.01769
G1 X93.784 Y43.416 E0.01769
G1 X94.149 Y43.846 E0.01769
G1 X94.469 Y44.317 E0.01786
G1 X94.649 Y44.642 E0.01163
G1 X94.807 Y44.984 E0.01180
G1 X94.940 Y45.336 E0.01180
G1 X95.045 Y45.691 E0.01163
G1 X95.159 Y46.255 E0.01803
G1 X95.199 Y46.624 E0.01163
G1 X95.213 Y47.012 E0.01219
G1 X95.213 Y52.227 E0.16350
M204 S1250
G1 X95.590 Y51.910 F9000.000
M204 S800
;TYPE:External perimeter
G1 F1200.000
G1 X97.801 Y51.910 E0.06932
G1 X97.801 Y128.090 E2.38857
G1 X95.924 Y128.090 E0.05885
G1 X95.991 Y129.092 E0.03149
G1 X95.991 Y132.993 E0.12230
G1 X95.958 Y133.606 E0.01927
G1 X95.900 Y134.004 E0.01260
G1 X95.814 Y134.396 E0.01260
G1 X95.631 Y134.975 E0.01904
G1 X95.386 Y135.530 E0.01904
G1 X95.191 Y135.882 E0.01260
G1 X94.972 Y136.218 E0.01260
G1 X94.594 Y136.696 E0.01910
G1 X94.318 Y136.988 E0.01260
G1 X94.022 Y137.259 E0.01260
G1 X93.538 Y137.626 E0.01904
G1 X93.020 Y137.939 E0.01898
G1 X92.470 Y138.193 E0.01898
G1 X91.897 Y138.386 E0.01898
G1 X91.304 Y138.516 E0.01904
G1 X90.905 Y138.567 E0.01260
G1 X90.504 Y138.589 E0.01260
G1 X89.898 Y138.567 E0.01904
G1 X89.299 Y138.480 E0.01898
G1 X88.713 Y138.328 E0.01898
G1 X88.146 Y138.115 E0.01898
G1 X87.607 Y137.841 E0.01898
G1 X87.098 Y137.509 E0.01904
G1 X86.783 Y137.260 E0.01260
G1 X86.486 Y136.989 E0.01260
G1 X86.075 Y136.540 E0.01910
G1 X85.832 Y136.220 E0.01260
G1 X85.612 Y135.882 E0.01265
G1 X85.416 Y135.529 E0.01265
G1 X85.247 Y135.162 E0.01265
G1 X85.104 Y134.785 E0.01266
G1 X84.990 Y134.400 E0.01260
G1 X84.870 Y133.803 E0.01910
G1 X84.826 Y133.403 E0.01260
G1 X84.811 Y132.994 E0.01283
G1 X84.811 Y128.090 E0.15377
M73 P1 R52
G1 X82.199 Y128.090 E0.08190
G1 X82.199 Y51.910 E2.38857
G1 X84.478 Y51.910 E0.07144
G1 X84.410 Y50.908 E0.03149
G1 X84.410 Y47.006 E0.12236
G1 X84.425 Y46.597 E0.01283
G1 X84.468 Y46.197 E0.01260
G1 X84.588 Y45.600 E0.01910
G1 X84.703 Y45.215 E0.01260
G1 X84.845 Y44.838 E0.01266
G1 X85.015 Y44.471 E0.01266
G1 X85.210 Y44.118 E0.01265
G1 X85.431 Y43.780 E0.01266
G1 X85.674 Y43.460 E0.01260
G1 X86.085 Y43.011 E0.01910
G1 X86.381 Y42.740 E0.01260
G1 X86.697 Y42.491 E0.01260
G1 X87.205 Y42.159 E0.01904
G1 X87.745 Y41.885 E0.01898
G1 X88.311 Y41.672 E0.01898
G1 X88.897 Y41.520 E0.01898
G1 X89.498 Y41.433 E0.01904
G1 X89.899 Y41.411 E0.01260
G1 X90.300 Y41.418 E0.01257
G1 X90.904 Y41.484 E0.01906
G1 X91.495 Y41.614 E0.01898
G1 X92.069 Y41.807 E0.01898
G1 X92.618 Y42.061 E0.01898
G1 X93.137 Y42.374 E0.01898
G1 X93.619 Y42.740 E0.01898
G1 X94.058 Y43.156 E0.01898
G1 X94.450 Y43.617 E0.01898
G1 X94.791 Y44.120 E0.01904
G1 X94.985 Y44.471 E0.01260
G1 X95.155 Y44.838 E0.01265
G1 X95.297 Y45.215 E0.01266
G1 X95.412 Y45.600 E0.01260
G1 X95.532 Y46.197 E0.01910
G1 X95.575 Y46.597 E0.01260
G1 X95.590 Y47.006 E0.01283
G1 X95.590 Y51.850 E0.15189
M204 S1250
G1 X95.590 Y52.310 F9000.000
G1 E-2.24000 F4200.000
;WIPE_START
G1 F7200.000
G1 X97.235 Y51.895 E-0.91200
;WIPE_END
G1 E-0.04800 F4200.000
G1 Z0.400 F9000.000
G1 X94.408 Y44.441
G1 Z0.200
G1 E3.20000 F2400.000
M204 S800
;TYPE:Solid infill
;WIDTH:0.421319
G1 F1200.000
G1 X93.191 Y43.243 E0.05373
G1 X92.766 Y42.920 E0.01679
G1 X92.309 Y42.645 E0.01679
G1 X91.878 Y42.446 E0.01493
G1 X94.558 Y45.126 E0.11926
G1 X94.671 Y45.426 E0.01008
G1 X94.799 Y45.903 E0.01552
G1 X91.099 Y42.203 E0.16464
G1 X90.797 Y42.136 E0.00973
G1 X90.461 Y42.100 E0.01064
G1 X91.644 Y43.282 E0.05263
G1 X92.086 Y43.504 E0.01556
G1 X92.444 Y43.744 E0.01354
G1 X92.765 Y44.012 E0.01319
G1 X93.058 Y44.312 E0.01319
