; generated by PrusaSlicer 2.2.0+win64 on 2020-07-05 at 15:59:09 UTC

; 

; external perimeters extrusion width = 0.45mm
; perimeters extrusion width = 0.45mm
; infill extrusion width = 0.45mm
; solid infill extrusion width = 0.45mm
; top infill extrusion width = 0.40mm
; first layer extrusion width = 0.42mm

M107
M190 S60 ; set bed temperature and wait for it to be reached
M104 S200 ; set temperature
G28 ; home all axes
G1 Z5 F5000 ; lift nozzle
M109 S200 ; set temperature and wait for it to be reached
G21 ; set units to millimeters
G90 ; use absolute coordinates
M82 ; use absolute distances for extrusion
G92 E0
; Filament gcode
G1 Z0.350 F7800.000
G1 E-2.00000 F2400.00000
G92 E0
G1 X59.644 Y78.848 F7800.000
G1 E2.00000 F2400.00000
G1 F1800.000
G1 X61.448 Y78.656 E2.09108
G1 X138.477 Y78.655 E5.95683
G1 X139.550 Y78.718 E6.01078
G1 X140.733 Y78.933 E6.07112
G1 X141.738 Y79.246 E6.12397
G1 X142.797 Y79.718 E6.18212
G1 X143.718 Y80.268 E6.23598
G1 X144.578 Y80.927 E6.29034
G1 X145.323 Y81.647 E6.34233
G1 X146.062 Y82.551 E6.40092
G1 X148.422 Y86.190 E6.61860
G1 X149.765 Y88.576 E6.75601
G1 X150.728 Y90.476 E6.86290
G1 X151.893 Y93.049 E7.00468
G1 X156.045 Y103.073 E7.54919
G1 X156.264 Y103.992 E7.59661
G1 X156.345 Y104.940 E7.64435
G1 X156.344 Y114.356 E8.11688
G1 X156.167 Y115.829 E8.19132
G1 X155.915 Y116.681 E8.23594
G1 X155.593 Y117.428 E8.27674
G1 X155.170 Y118.161 E8.31922
G1 X154.667 Y118.832 E8.36132
G1 X154.088 Y119.439 E8.40341
G1 X153.391 Y120.010 E8.44862
G1 X151.925 Y120.821 E8.53271
G1 X150.628 Y121.210 E8.60068
G1 X149.281 Y121.345 E8.66861
G1 X50.520 Y121.341 E13.62502
G1 X49.506 Y121.235 E13.67617
G1 X48.561 Y120.998 E13.72507
G1 X47.600 Y120.607 E13.77713
G1 X46.719 Y120.088 E13.82844
G1 X45.916 Y119.442 E13.88018
G1 X45.233 Y118.710 E13.93041
G1 X44.632 Y117.842 E13.98340
G1 X44.178 Y116.924 E14.03476
G1 X43.794 Y115.646 E14.10176
G1 X43.656 Y114.322 E14.16854
G1 X43.659 Y104.789 E14.64699
G1 X43.773 Y103.782 E14.69784
G1 X44.044 Y102.812 E14.74838
G1 X48.673 Y91.756 E15.34989
G1 X49.910 Y89.198 E15.49251
G1 X51.588 Y86.172 E15.66616
G1 X53.486 Y83.200 E15.84314
G1 X54.729 Y81.591 E15.94516
G1 X55.450 Y80.903 E15.99517
G1 X56.223 Y80.308 E16.04416
G1 X57.051 Y79.798 E16.09293
G1 X57.963 Y79.363 E16.14366
G1 X59.586 Y78.866 E16.22886
G1 E14.22886 F2400.00000
G92 E0
G1 X144.136 Y105.663 F7800.000
G1 E2.00000 F2400.00000
G1 F1800.000
G1 X143.670 Y105.951 E2.02750
G1 X143.293 Y106.067 E2.04732
G1 X142.975 Y106.100 E2.06334
G1 X57.002 Y106.100 E6.37797
G1 X56.548 Y106.030 E6.40103
G1 X56.160 Y105.866 E6.42217
G1 X55.752 Y105.553 E6.44800
G1 X55.492 Y105.219 E6.46921
G1 X55.291 Y104.763 E6.49421
G1 X55.220 Y104.336 E6.51593
G1 X55.264 Y103.866 E6.53964
G1 X55.595 Y102.615 E6.60457
G1 X55.940 Y101.438 E6.66611
G1 X56.317 Y100.268 E6.72781
G1 X56.938 Y98.543 E6.81982
G1 X57.392 Y97.401 E6.88151
G1 X57.876 Y96.271 E6.94321
G1 X58.655 Y94.608 E7.03537
G1 X59.500 Y92.978 E7.12753
G1 X60.103 Y91.904 E7.18933
G1 X60.847 Y90.670 E7.26164
G1 X61.229 Y90.197 E7.29213
G1 X61.538 Y89.900 E7.31368
G1 X61.868 Y89.643 E7.33465
G1 X62.222 Y89.420 E7.35563
G1 X62.597 Y89.235 E7.37660
G1 X62.988 Y89.089 E7.39757
G1 X63.393 Y88.984 E7.41855
G1 X63.805 Y88.920 E7.43952
G1 X64.197 Y88.900 E7.45921
G1 X135.803 Y88.900 E11.05279
G1 X136.195 Y88.920 E11.07248
G1 X136.607 Y88.984 E11.09345
G1 X137.011 Y89.089 E11.11436
G1 X137.381 Y89.226 E11.13417
G1 X137.956 Y89.524 E11.16670
G1 X138.463 Y89.899 E11.19829
G1 X138.904 Y90.344 E11.22974
G1 X139.254 Y90.826 E11.25967
G1 X139.898 Y91.906 E11.32274
G1 X140.498 Y92.975 E11.38429
G1 X141.070 Y94.060 E11.44583
G1 X141.612 Y95.160 E11.50737
G1 X142.125 Y96.274 E11.56892
G1 X142.609 Y97.403 E11.63061
G1 X143.275 Y99.112 E11.72262
G1 X143.685 Y100.274 E11.78447
G1 X144.237 Y102.026 E11.87663
G1 X144.730 Y103.841 E11.97102
G1 X144.777 Y104.170 E11.98775
G1 X144.755 Y104.546 E12.00662
G1 X144.660 Y104.903 E12.02516
G1 X144.498 Y105.233 E12.04361
G1 X144.175 Y105.617 E12.06881
G1 X143.908 Y105.398 F7800.000
G1 F1800.000
G1 X143.526 Y105.634 E12.09133
G1 X143.223 Y105.728 E12.10724
G1 X142.958 Y105.755 E12.12065
G1 X57.028 Y105.755 E16.43309
G1 X56.643 Y105.696 E16.45266
G1 X56.335 Y105.565 E16.46943
G1 X55.997 Y105.306 E16.49084
G1 X55.790 Y105.041 E16.50769
G1 X55.624 Y104.664 E16.52835
G1 X55.568 Y104.324 E16.54566
G1 X55.605 Y103.926 E16.56570
G1 X55.927 Y102.708 E16.62895
G1 X56.270 Y101.540 E16.69004
G1 X56.644 Y100.380 E16.75121
G1 X57.260 Y98.665 E16.84265
G1 X57.711 Y97.532 E16.90383
G1 X58.191 Y96.412 E16.96500
G1 X58.965 Y94.761 E17.05653
G1 X59.804 Y93.141 E17.14806
G1 X60.401 Y92.077 E17.20930
G1 X61.130 Y90.868 E17.28016
G1 X61.483 Y90.431 E17.30837
G1 X61.764 Y90.161 E17.32793
G1 X62.066 Y89.925 E17.34714
G1 X62.390 Y89.722 E17.36634
G1 X62.733 Y89.552 E17.38555
G1 X63.092 Y89.419 E17.40476
G1 X63.462 Y89.322 E17.42396
G1 X63.841 Y89.264 E17.44317
G1 X64.206 Y89.245 E17.46154
G1 X135.794 Y89.245 E21.05423
G1 X136.159 Y89.264 E21.07260
G1 X136.538 Y89.322 E21.09180
G1 X136.907 Y89.418 E21.11097
G1 X137.241 Y89.542 E21.12885
G1 X137.773 Y89.818 E21.15892
G1 X138.236 Y90.160 E21.18781
G1 X138.640 Y90.568 E21.21661
G1 X138.966 Y91.016 E21.24444
G1 X139.599 Y92.078 E21.30650
G1 X140.195 Y93.140 E21.36758
G1 X140.762 Y94.217 E21.42866
G1 X141.301 Y95.308 E21.48975
G1 X141.810 Y96.414 E21.55083
G1 X142.290 Y97.534 E21.61201
G1 X142.952 Y99.232 E21.70344
G1 X143.357 Y100.383 E21.76471
G1 X143.906 Y102.123 E21.85624
G1 X144.391 Y103.911 E21.94923
G1 X144.431 Y104.185 E21.96314
G1 X144.413 Y104.491 E21.97850
G1 X144.335 Y104.782 E21.99361
G1 X144.207 Y105.043 E22.00824
G1 X143.947 Y105.353 E22.02853
G1 X143.680 Y105.134 F7800.000
G1 F1800.000
G1 X143.382 Y105.318 E22.04608
G1 X143.154 Y105.388 E22.05806
G1 X142.940 Y105.410 E22.06887
G1 X57.055 Y105.410 E26.37911
G1 X56.738 Y105.361 E26.39520
G1 X56.510 Y105.265 E26.40760
G1 X56.242 Y105.059 E26.42459
G1 X56.089 Y104.863 E26.43707
G1 X55.958 Y104.565 E26.45341
G1 X55.915 Y104.311 E26.46631
G1 X55.946 Y103.987 E26.48267
G1 X56.259 Y102.800 E26.54425
G1 X56.599 Y101.641 E26.60487
G1 X56.970 Y100.491 E26.66553
G1 X57.583 Y98.787 E26.75639
G1 X58.029 Y97.664 E26.81705
G1 X58.506 Y96.553 E26.87771
G1 X59.274 Y94.913 E26.96860
G1 X60.108 Y93.305 E27.05950
G1 X60.699 Y92.251 E27.12018
G1 X61.413 Y91.066 E27.18959
G1 X61.738 Y90.664 E27.21551
G1 X61.991 Y90.422 E27.23309
G1 X62.265 Y90.208 E27.25053
G1 X62.559 Y90.023 E27.26797
G1 X62.870 Y89.869 E27.28541
G1 X63.196 Y89.748 E27.30285
G1 X63.532 Y89.660 E27.32029
G1 X63.876 Y89.607 E27.33773
G1 X64.215 Y89.590 E27.35478
G1 X135.785 Y89.590 E30.94658
G1 X136.124 Y89.607 E30.96363
G1 X136.468 Y89.660 E30.98107
G1 X136.804 Y89.748 E30.99849
G1 X137.102 Y89.858 E31.01444
G1 X137.590 Y90.111 E31.04206
G1 X138.010 Y90.422 E31.06824
G1 X138.376 Y90.792 E31.09439
G1 X138.677 Y91.206 E31.12011
G1 X139.301 Y92.251 E31.18116
G1 X139.892 Y93.305 E31.24179
G1 X140.455 Y94.373 E31.30241
G1 X140.989 Y95.457 E31.36303
G1 X141.495 Y96.554 E31.42365
G1 X141.971 Y97.665 E31.48431
G1 X142.629 Y99.352 E31.57517
G1 X143.030 Y100.492 E31.63587
G1 X143.574 Y102.220 E31.72676
G1 X144.053 Y103.981 E31.81835
G1 X144.085 Y104.200 E31.82945
G1 X144.071 Y104.435 E31.84129
G1 X144.011 Y104.660 E31.85298
G1 X143.916 Y104.854 E31.86379
G1 X143.719 Y105.088 E31.87916
G1 X143.738 Y105.479 F7800.000
G1 E29.87916 F2400.00000
G92 E0
G1 X148.750 Y105.902 F7800.000
G1 E2.00000 F2400.00000
G1 F1800.000
G1 X148.900 Y105.954 E2.00796
G1 X148.900 Y113.900 E2.40675
G1 X146.089 Y113.900 E2.54786
G1 X146.038 Y112.600 E2.61318
G1 X145.988 Y112.286 E2.62909
G1 X145.867 Y111.952 E2.64693
G1 X145.641 Y111.587 E2.66847
G1 X145.252 Y111.220 E2.69531
G1 X144.745 Y110.974 E2.72358
G1 X144.267 Y110.900 E2.74790
G1 X55.729 Y110.900 E7.19126
G1 X55.253 Y110.975 E7.21543
G1 X54.745 Y111.222 E7.24376
G1 X54.350 Y111.597 E7.27110
G1 X54.131 Y111.958 E7.29228
G1 X54.013 Y112.284 E7.30970
G1 X53.962 Y112.610 E7.32625
G1 X53.911 Y113.900 E7.39104
G1 X51.100 Y113.898 E7.53214
G1 X51.100 Y105.955 E7.93077
G1 X51.248 Y105.903 E7.93863
G1 X51.566 Y105.693 E7.95778
G1 X51.839 Y105.426 E7.97693
G1 X52.098 Y105.004 E8.00175
G1 X52.197 Y104.697 E8.01793
G1 X52.630 Y102.864 E8.11248
G1 X53.116 Y101.103 E8.20416
G1 X53.669 Y99.359 E8.29598
G1 X54.071 Y98.215 E8.35682
G1 X54.731 Y96.509 E8.44865
G1 X55.453 Y94.830 E8.54035
G1 X56.192 Y93.274 E8.62680
G1 X56.794 Y92.100 E8.69303
G1 X57.682 Y90.498 E8.78495
G1 X58.303 Y89.454 E8.84594
G1 X58.951 Y88.425 E8.90692
G1 X59.959 Y86.931 E8.99736
G1 X60.158 Y86.688 E9.01315
G1 X60.372 Y86.496 E9.02755
G1 X60.621 Y86.333 E9.04253
G1 X60.952 Y86.191 E9.06059
G1 X61.243 Y86.124 E9.07556
G1 X61.566 Y86.100 E9.09181
G1 X138.548 Y86.103 E12.95521
G1 X138.945 Y86.161 E12.97537
G1 X139.304 Y86.294 E12.99457
G1 X139.472 Y86.386 E13.00419
G1 X139.775 Y86.620 E13.02339
G1 X139.895 Y86.745 E13.03213
G1 X140.374 Y87.411 E13.07328
G1 X141.377 Y88.939 E13.16499
G1 X142.011 Y89.975 E13.22597
G1 X142.620 Y91.026 E13.28695
G1 X143.487 Y92.638 E13.37877
G1 X144.292 Y94.278 E13.47045
G1 X145.035 Y95.946 E13.56214
G1 X145.716 Y97.642 E13.65382
G1 X146.332 Y99.362 E13.74550
G1 X146.884 Y101.103 E13.83718
G1 X147.370 Y102.864 E13.92886
G1 X147.803 Y104.697 E14.02341
G1 X147.903 Y105.008 E14.03978
G1 X148.173 Y105.439 E14.06530
G1 X148.432 Y105.691 E14.08345
G1 X148.700 Y105.869 E14.09958
G1 X149.245 Y105.709 F7800.000
G1 F1800.000
G1 X149.245 Y114.245 E14.52799
G1 X145.757 Y114.245 E14.70305
G1 X145.694 Y112.634 E14.78399
G1 X145.652 Y112.373 E14.79723
G1 X145.555 Y112.103 E14.81163
G1 X145.372 Y111.807 E14.82910
G1 X145.054 Y111.508 E14.85103
G1 X144.641 Y111.307 E14.87404
G1 X144.240 Y111.245 E14.89441
G1 X55.755 Y111.245 E19.33511
G1 X55.357 Y111.307 E19.35532
G1 X54.944 Y111.509 E19.37838
G1 X54.621 Y111.816 E19.40075
G1 X54.444 Y112.108 E19.41790
G1 X54.348 Y112.371 E19.43194
G1 X54.305 Y112.643 E19.44579
G1 X54.243 Y114.245 E19.52624
G1 X50.755 Y114.242 E19.70130
G1 X50.755 Y105.710 E20.12948
G1 X51.093 Y105.591 E20.14748
G1 X51.349 Y105.423 E20.16282
G1 X51.567 Y105.209 E20.17818
G1 X51.782 Y104.859 E20.19879
G1 X51.864 Y104.605 E20.21219
G1 X52.296 Y102.778 E20.30638
G1 X52.785 Y101.005 E20.39871
G1 X53.342 Y99.250 E20.49113
G1 X53.747 Y98.096 E20.55251
G1 X54.412 Y96.378 E20.64492
G1 X55.139 Y94.688 E20.73726
G1 X55.882 Y93.122 E20.82429
G1 X56.489 Y91.937 E20.89106
G1 X57.383 Y90.326 E20.98355
G1 X58.009 Y89.273 E21.04501
G1 X58.662 Y88.237 E21.10648
G1 X59.682 Y86.725 E21.19801
G1 X59.908 Y86.449 E21.21593
G1 X60.161 Y86.222 E21.23296
G1 X60.450 Y86.032 E21.25034
G1 X60.853 Y85.860 E21.27233
G1 X61.191 Y85.782 E21.28971
G1 X61.553 Y85.755 E21.30792
G1 X138.564 Y85.758 E25.17281
G1 X138.811 Y85.782 E25.18525
G1 X139.031 Y85.827 E25.19653
G1 X139.455 Y85.983 E25.21923
G1 X139.654 Y86.093 E25.23060
G1 X140.012 Y86.369 E25.25329
G1 X140.161 Y86.524 E25.26411
G1 X140.658 Y87.216 E25.30685
G1 X141.668 Y88.754 E25.39919
G1 X142.308 Y89.798 E25.46066
G1 X142.921 Y90.858 E25.52213
G1 X143.794 Y92.480 E25.61454
G1 X144.605 Y94.131 E25.70687
G1 X145.353 Y95.812 E25.79920
G1 X146.038 Y97.519 E25.89153
G1 X146.659 Y99.251 E25.98386
G1 X147.215 Y101.005 E26.07619
G1 X147.704 Y102.778 E26.16851
G1 X148.136 Y104.605 E26.26271
G1 X148.218 Y104.861 E26.27622
G1 X148.444 Y105.221 E26.29751
G1 X148.650 Y105.422 E26.31196
G1 X148.905 Y105.590 E26.32729
G1 X149.188 Y105.689 E26.34237
G1 X149.590 Y105.401 F7800.000
G1 F1800.000
G1 X149.590 Y114.230 E26.78544
G1 X149.573 Y114.348 E26.79144
G1 X149.531 Y114.437 E26.79640
G1 X149.464 Y114.511 E26.80137
G1 X149.384 Y114.559 E26.80605
G1 X149.225 Y114.590 E26.81420
G1 X145.759 Y114.590 E26.98814
G1 X145.581 Y114.547 E26.99730
G1 X145.469 Y114.444 E27.00495
G1 X145.415 Y114.318 E27.01184
G1 X145.350 Y112.667 E27.09474
G1 X145.317 Y112.460 E27.10529
G1 X145.242 Y112.254 E27.11626
G1 X145.102 Y112.027 E27.12967
G1 X144.855 Y111.795 E27.14668
G1 X144.537 Y111.640 E27.16443
G1 X144.214 Y111.590 E27.18085
G1 X55.782 Y111.590 E31.61889
G1 X55.462 Y111.640 E31.63515
G1 X55.143 Y111.795 E31.65294
G1 X54.892 Y112.034 E31.67033
G1 X54.756 Y112.258 E31.68346
G1 X54.684 Y112.457 E31.69410
G1 X54.649 Y112.677 E31.70527
G1 X54.585 Y114.318 E31.78769
G1 X54.531 Y114.444 E31.79459
G1 X54.419 Y114.547 E31.80223
G1 X54.241 Y114.590 E31.81139
G1 X50.722 Y114.587 E31.98801
G1 X50.621 Y114.562 E31.99325
G1 X50.536 Y114.511 E31.99822
G1 X50.469 Y114.437 E32.00319
G1 X50.427 Y114.348 E32.00814
G1 X50.410 Y114.230 E32.01414
G1 X50.410 Y105.401 E32.45724
G1 X50.623 Y105.391 E32.46795
G1 X50.939 Y105.280 E32.48475
G1 X51.131 Y105.154 E32.49629
G1 X51.295 Y104.992 E32.50785
G1 X51.467 Y104.714 E32.52425
G1 X51.531 Y104.512 E32.53488
G1 X51.962 Y102.693 E32.62871
G1 X52.455 Y100.907 E32.72168
G1 X53.015 Y99.140 E32.81469
G1 X53.424 Y97.976 E32.87661
G1 X54.092 Y96.248 E32.96962
G1 X54.825 Y94.546 E33.06260
G1 X55.573 Y92.969 E33.15021
G1 X56.185 Y91.775 E33.21753
G1 X57.083 Y90.154 E33.31056
G1 X57.715 Y89.093 E33.37251
G1 X58.373 Y88.049 E33.43447
G1 X59.405 Y86.519 E33.52708
G1 X59.658 Y86.210 E33.54713
G1 X59.950 Y85.948 E33.56678
G1 X60.280 Y85.732 E33.58657
G1 X60.512 Y85.619 E33.59955
G1 X60.755 Y85.529 E33.61253
G1 X61.139 Y85.440 E33.63232
G1 X61.540 Y85.410 E33.65250
G1 X138.581 Y85.413 E37.51886
G1 X138.862 Y85.440 E37.53305
G1 X139.117 Y85.492 E37.54613
G1 X139.367 Y85.570 E37.55924
G1 X139.607 Y85.673 E37.57236
G1 X139.836 Y85.799 E37.58547
G1 X140.050 Y85.948 E37.59858
G1 X140.249 Y86.118 E37.61169
G1 X140.427 Y86.303 E37.62460
G1 X140.943 Y87.020 E37.66892
G1 X141.959 Y88.569 E37.76190
G1 X142.604 Y89.622 E37.82385
G1 X143.223 Y90.690 E37.88580
G1 X144.101 Y92.322 E37.97881
G1 X144.917 Y93.985 E38.07179
G1 X145.671 Y95.678 E38.16476
G1 X146.361 Y97.397 E38.25774
G1 X146.986 Y99.141 E38.35071
G1 X147.545 Y100.907 E38.44369
G1 X148.038 Y102.693 E38.53666
G1 X148.469 Y104.512 E38.63049
G1 X148.534 Y104.715 E38.64116
G1 X148.714 Y105.003 E38.65821
G1 X148.867 Y105.152 E38.66895
G1 X149.059 Y105.279 E38.68048
G1 X149.386 Y105.393 E38.69789
G1 X149.530 Y105.399 E38.70510
G1 X149.364 Y105.732 F7800.000
G1 E36.70510 F2400.00000
G92 E0
G1 X144.599 Y110.847 F7800.000
G1 E2.00000 F2400.00000
G1 F1800.000
G1 X140.111 Y106.358 E2.31870
G1 X139.623 Y106.358 E2.34320
G1 X143.906 Y110.642 E2.64734
G1 X143.418 Y110.642 E2.67184
G1 X139.135 Y106.358 E2.97598
G1 X138.647 Y106.358 E3.00048
G1 X142.930 Y110.642 E3.30462
G1 X142.442 Y110.642 E3.32912
G1 X138.159 Y106.358 E3.63326
G1 X137.671 Y106.358 E3.65777
G1 X141.954 Y110.642 E3.96191
G1 X141.466 Y110.642 E3.98641
G1 X137.183 Y106.358 E4.29055
G1 X136.695 Y106.358 E4.31505
G1 X140.978 Y110.642 E4.61919
G1 X140.490 Y110.642 E4.64369
G1 X136.207 Y106.358 E4.94783
G1 X135.719 Y106.358 E4.97233
G1 X140.002 Y110.642 E5.27647
G1 X139.514 Y110.642 E5.30097
G1 X135.231 Y106.358 E5.60511
G1 X134.743 Y106.358 E5.62962
G1 X139.026 Y110.642 E5.93376
G1 X138.538 Y110.642 E5.95826
G1 X134.255 Y106.358 E6.26240
G1 X133.767 Y106.358 E6.28690
G1 X138.050 Y110.642 E6.59104
G1 X137.562 Y110.642 E6.61554
G1 X133.279 Y106.358 E6.91968
G1 X132.791 Y106.358 E6.94418
G1 X137.074 Y110.642 E7.24832
G1 X136.586 Y110.642 E7.27282
G1 X132.303 Y106.358 E7.57696
G1 X131.815 Y106.358 E7.60147
G1 X136.098 Y110.642 E7.90561
G1 X135.610 Y110.642 E7.93011
G1 X131.327 Y106.358 E8.23425
G1 X130.839 Y106.358 E8.25875
G1 X135.122 Y110.642 E8.56289
G1 X134.634 Y110.642 E8.58739
G1 X130.351 Y106.358 E8.89153
G1 X129.863 Y106.358 E8.91603
G1 X134.146 Y110.642 E9.22017
G1 X133.658 Y110.642 E9.24468
G1 X129.375 Y106.358 E9.54882
G1 X128.887 Y106.358 E9.57332
G1 X133.170 Y110.642 E9.87746
G1 X132.682 Y110.642 E9.90196
G1 X128.399 Y106.358 E10.20610
G1 X127.911 Y106.358 E10.23060
G1 X132.194 Y110.642 E10.53474
G1 X131.706 Y110.642 E10.55925
G1 X127.423 Y106.358 E10.86339
G1 X126.935 Y106.358 E10.88789
G1 X131.218 Y110.642 E11.19203
G1 X130.730 Y110.642 E11.21653
G1 X126.447 Y106.358 E11.52067
G1 X125.959 Y106.358 E11.54517
G1 X130.242 Y110.642 E11.84931
G1 X129.754 Y110.642 E11.87381
G1 X125.471 Y106.358 E12.17795
