; generated by PrusaSlicer 2.2.0+win64 on 2020-07-25 at 17:40:48 UTC

; 

; external perimeters extrusion width = 0.45mm
; perimeters extrusion width = 0.45mm
; infill extrusion width = 0.45mm
; solid infill extrusion width = 0.45mm
; top infill extrusion width = 0.40mm
; first layer extrusion width = 0.42mm

M107
M190 S60 ; set bed temperature and wait for it to be reached
M104 S200 ; set temperature
G28 ; home all axes
G1 Z5 F5000 ; lift nozzle
M109 S200 ; set temperature and wait for it to be reached
G21 ; set units to millimeters
G90 ; use absolute coordinates
M82 ; use absolute distances for extrusion
G92 E0
; Filament gcode
G1 Z0.350 F7800.000
G1 E-2.00000 F2400.00000
G92 E0
G1 X77.210 Y77.307 F7800.000
G1 E2.00000 F2400.00000
G1 F1800.000
G1 X80.659 Y74.303 E2.22955
G1 X83.656 Y72.297 E2.41053
G1 X86.631 Y70.748 E2.57885
G1 X88.982 Y69.784 E2.70636
G1 X91.197 Y69.077 E2.82308
G1 X94.764 Y68.271 E3.00659
G1 X98.890 Y67.868 E3.21468
G1 X102.545 Y67.948 E3.39814
G1 X106.179 Y68.453 E3.58224
G1 X109.929 Y69.430 E3.77674
G1 X111.169 Y69.858 E3.84258
G1 X114.004 Y71.066 E3.99725
G1 X117.360 Y72.947 E4.19030
G1 X120.459 Y75.211 E4.38292
G1 X123.078 Y77.644 E4.56233
G1 X126.004 Y81.120 E4.79033
G1 X127.957 Y84.151 E4.97130
G1 X129.260 Y86.718 E5.11577
G1 X130.214 Y89.055 E5.24243
G1 X131.048 Y91.729 E5.38301
G1 X131.794 Y95.332 E5.56769
G1 X132.118 Y99.049 E5.75491
G1 X132.116 Y100.980 E5.85184
G1 X131.779 Y104.762 E6.04238
G1 X131.015 Y108.407 E6.22928
G1 X130.171 Y111.061 E6.36906
G1 X129.164 Y113.498 E6.50138
G1 X127.874 Y115.986 E6.64204
G1 X125.866 Y119.075 E6.82693
G1 X123.451 Y121.975 E7.01633
G1 X120.187 Y125.000 E7.23967
G1 X117.281 Y127.103 E7.41970
G1 X113.870 Y129.000 E7.61555
G1 X110.268 Y130.464 E7.81069
G1 X106.953 Y131.374 E7.98322
G1 X106.112 Y131.558 E8.02645
G1 X102.388 Y132.063 E8.21504
G1 X98.621 Y132.126 E8.40412
G1 X94.900 Y131.749 E8.59181
G1 X91.088 Y130.898 E8.78783
G1 X89.018 Y130.229 E8.89703
G1 X86.448 Y129.169 E9.03653
G1 X83.548 Y127.638 E9.20109
G1 X80.436 Y125.534 E9.38960
G1 X77.728 Y123.201 E9.56901
G1 X74.625 Y119.765 E9.80135
G1 X72.565 Y116.805 E9.98233
G1 X70.787 Y113.481 E10.17153
G1 X69.786 Y111.056 E10.30317
G1 X69.213 Y109.314 E10.39522
G1 X68.358 Y105.830 E10.57523
G1 X67.882 Y101.922 E10.77281
G1 X67.883 Y98.056 E10.96684
G1 X68.322 Y94.391 E11.15209
G1 X69.240 Y90.582 E11.34873
G1 X69.789 Y88.935 E11.43582
G1 X70.838 Y86.412 E11.57295
G1 X72.630 Y83.092 E11.76233
G1 X74.813 Y79.985 E11.95289
G1 X77.170 Y77.352 E12.13023
G1 E10.13023 F2400.00000
G92 E0
G1 X107.695 Y123.464 F7800.000
G1 E2.00000 F2400.00000
G1 F1800.000
G1 X104.943 Y124.205 E2.14301
G1 X101.953 Y124.629 E2.29459
G1 X98.933 Y124.686 E2.44617
G1 X95.934 Y124.375 E2.59746
G1 X92.970 Y123.694 E2.75012
G1 X92.264 Y123.462 E2.78739
G1 X92.264 Y121.561 E2.88280
G1 X95.047 Y122.375 E3.02830
G1 X98.112 Y122.836 E3.18385
G1 X101.211 Y122.879 E3.33940
G1 X104.288 Y122.504 E3.49495
G1 X107.271 Y121.720 E3.64977
G1 X107.695 Y121.556 E3.67257
G1 X107.695 Y123.404 E3.76531
G1 X107.964 Y123.749 F7800.000
G1 F1800.000
G1 X105.012 Y124.543 E3.91870
G1 X101.980 Y124.974 E4.07240
G1 X98.918 Y125.031 E4.22610
G1 X95.878 Y124.716 E4.37950
G1 X92.877 Y124.027 E4.53402
G1 X91.919 Y123.712 E4.58461
G1 X91.919 Y121.069 E4.71725
G1 X92.207 Y121.185 E4.73281
G1 X95.121 Y122.037 E4.88520
G1 X98.140 Y122.492 E5.03840
G1 X101.192 Y122.534 E5.19161
G1 X104.223 Y122.164 E5.34481
G1 X107.165 Y121.391 E5.49747
G1 X108.040 Y121.052 E5.54457
G1 X108.040 Y123.722 E5.67857
G1 X108.020 Y123.729 E5.67960
G1 X108.384 Y123.967 F7800.000
G1 F1800.000
G1 X108.065 Y124.078 E5.69656
G1 X105.082 Y124.882 E5.85163
G1 X102.008 Y125.318 E6.00744
G1 X98.904 Y125.376 E6.16326
G1 X95.821 Y125.057 E6.31878
G1 X92.784 Y124.359 E6.47516
G1 X91.574 Y123.961 E6.53908
G1 X91.574 Y120.558 E6.70990
G1 X92.320 Y120.858 E6.75025
G1 X95.195 Y121.700 E6.90061
G1 X98.168 Y122.147 E7.05146
G1 X101.174 Y122.189 E7.20232
G1 X104.158 Y121.825 E7.35318
G1 X107.058 Y121.063 E7.50369
G1 X108.384 Y120.548 E7.57508
G1 X108.384 Y123.907 E7.74365
G1 X108.051 Y123.914 F7800.000
G1 E5.74365 F2400.00000
G92 E0
G1 X93.382 Y123.683 F7800.000
G1 E2.00000 F2400.00000
G1 F1800.000
G1 X92.523 Y122.823 E2.06245
G1 X92.523 Y122.324 E2.08810
G1 X93.824 Y123.625 E2.18263
G1 X94.472 Y123.774 E2.21680
G1 X92.638 Y121.940 E2.35006
G1 X93.344 Y122.146 E2.38784
G1 X95.120 Y123.923 E2.51691
G1 X95.768 Y124.072 E2.55108
G1 X94.050 Y122.353 E2.67595
G1 X94.755 Y122.559 E2.71374
G1 X96.355 Y124.159 E2.82994
G1 X96.912 Y124.216 E2.85871
G1 X95.383 Y122.687 E2.96982
G1 X95.970 Y122.775 E3.00035
G1 X97.469 Y124.274 E3.10924
G1 X98.026 Y124.332 E3.13801
G1 X96.558 Y122.864 E3.24467
G1 X97.146 Y122.952 E3.27520
G1 X98.583 Y124.390 E3.37964
G1 X98.944 Y124.427 E3.39827
G1 X99.117 Y124.424 E3.40715
G1 X97.733 Y123.041 E3.50764
G1 X98.091 Y123.094 E3.52620
G1 X98.289 Y123.097 E3.53640
G1 X99.607 Y124.415 E3.63213
G1 X100.097 Y124.405 E3.65731
G1 X98.795 Y123.104 E3.75185
G1 X99.302 Y123.111 E3.77786
G1 X100.587 Y124.396 E3.87122
G1 X101.077 Y124.387 E3.89640
G1 X99.808 Y123.118 E3.98858
G1 X100.314 Y123.125 E4.01459
G1 X101.567 Y124.378 E4.10559
G1 X101.932 Y124.371 E4.12435
G1 X102.044 Y124.355 E4.13013
G1 X100.821 Y123.132 E4.21897
G1 X101.315 Y123.127 E4.24434
G1 X102.481 Y124.293 E4.32905
G1 X102.918 Y124.231 E4.35174
G1 X101.760 Y123.073 E4.43589
G1 X102.205 Y123.018 E4.45892
G1 X103.355 Y124.169 E4.54250
G1 X103.792 Y124.107 E4.56518
G1 X102.650 Y122.964 E4.64820
G1 X103.095 Y122.910 E4.67123
G1 X104.230 Y124.045 E4.75368
G1 X104.667 Y123.983 E4.77636
G1 X103.540 Y122.855 E4.85825
G1 X103.985 Y122.801 E4.88128
G1 X105.083 Y123.899 E4.96105
G1 X105.476 Y123.793 E4.98198
G1 X104.419 Y122.736 E5.05875
G1 X104.815 Y122.633 E5.07976
G1 X105.869 Y123.687 E5.15638
G1 X106.263 Y123.581 E5.17731
G1 X105.210 Y122.529 E5.25379
G1 X105.606 Y122.425 E5.27480
G1 X106.656 Y123.476 E5.35113
G1 X107.050 Y123.370 E5.37206
G1 X106.001 Y122.321 E5.44824
G1 X106.396 Y122.217 E5.46925
G1 X107.436 Y123.257 E5.54478
G1 X107.436 Y122.757 E5.57043
G1 X106.792 Y122.113 E5.61723
G1 X107.187 Y122.009 E5.63823
G1 X107.591 Y122.413 E5.66758
G1 E3.66758 F2400.00000
G92 E0
G1 X84.449 Y101.810 F7800.000
G1 E2.00000 F2400.00000
G1 F1800.000
G1 X83.861 Y101.779 E2.02955
G1 X83.319 Y101.811 E2.05676
G1 X80.736 Y102.202 E2.18788
G1 X80.659 Y101.362 E2.23022
G1 X84.350 Y101.361 E2.41544
G1 X84.436 Y101.751 E2.43547
G1 E0.43547 F2400.00000
G92 E0
G1 X87.666 Y110.300 F7800.000
G1 E2.00000 F2400.00000
G1 F1800.000
G1 X87.896 Y110.579 E2.01816
G1 X89.321 Y112.068 E2.12162
G1 X89.684 Y112.307 E2.14341
G1 X89.237 Y112.808 E2.17708
G1 X85.541 Y117.834 E2.49014
G1 X86.691 Y118.660 E2.56118
G1 X88.065 Y119.541 E2.64310
G1 X88.065 Y121.619 E2.74741
G1 X87.465 Y121.305 E2.78137
G1 X84.953 Y119.614 E2.93334
G1 X82.673 Y117.635 E3.08487
G1 X80.651 Y115.392 E3.23640
G1 X78.916 Y112.917 E3.38810
G1 X78.380 Y111.915 E3.44515
G1 X80.417 Y111.915 E3.54735
G1 X82.112 Y114.463 E3.70095
G1 X87.172 Y110.741 E4.01617
G1 X87.621 Y110.340 E4.04642
G1 E2.04642 F2400.00000
G92 E0
G1 X86.026 Y117.757 F7800.000
G1 E2.00000 F2400.00000
G1 F1800.000
G1 X86.884 Y118.374 E2.05308
G1 X88.410 Y119.352 E2.14400
G1 X88.410 Y122.189 E2.28638
G1 X87.288 Y121.602 E2.34990
G1 X84.743 Y119.888 E2.50389
G1 X82.431 Y117.881 E2.65754
G1 X80.381 Y115.608 E2.81119
G1 X78.622 Y113.098 E2.96498
G1 X77.805 Y111.570 E3.05196
G1 X80.607 Y111.570 E3.19262
G1 X82.199 Y113.971 E3.33719
G1 X86.954 Y110.473 E3.63343
G1 X87.344 Y110.125 E3.65970
G1 X87.698 Y109.725 E3.68649
G1 X87.769 Y109.882 E3.69512
G1 X88.154 Y110.350 E3.72556
G1 X89.544 Y111.802 E3.82641
G1 X90.074 Y112.152 E3.85829
G1 X90.275 Y112.258 E3.86972
G1 X89.853 Y112.636 E3.89820
G1 X89.506 Y113.026 E3.92438
G1 X86.061 Y117.709 E4.21612
G1 E2.21612 F2400.00000
G92 E0
G1 X98.171 Y118.945 F7800.000
G1 E2.00000 F2400.00000
G1 F1800.000
G1 X98.511 Y116.698 E2.11408
G1 X98.553 Y116.027 E2.14778
G1 X100.235 Y116.051 E2.23219
G1 X101.405 Y116.020 E2.29096
G1 X101.448 Y116.698 E2.32501
G1 X101.788 Y118.945 E2.43909
G1 X100.950 Y119.031 E2.48135
G1 X99.009 Y119.031 E2.57876
G1 X98.231 Y118.951 E2.61801
G1 X97.776 Y119.252 F7800.000
G1 F1800.000
G1 X98.168 Y116.661 E2.74949
G1 X98.202 Y116.121 E2.77664
G1 X98.174 Y115.544 E2.80564
G1 X98.679 Y115.684 E2.83194
G1 X100.233 Y115.706 E2.90991
G1 X101.329 Y115.677 E2.96493
G1 X101.784 Y115.537 E2.98888
G1 X101.757 Y116.122 E3.01826
G1 X101.791 Y116.661 E3.04539
G1 X102.183 Y119.252 E3.17688
G1 X100.967 Y119.376 E3.23819
G1 X98.991 Y119.376 E3.33735
G1 X97.836 Y119.258 E3.39565
G1 E1.39565 F2400.00000
G92 E0
G1 X111.894 Y119.551 F7800.000
G1 E2.00000 F2400.00000
G1 F1800.000
G1 X112.790 Y118.993 E2.05299
G1 X114.425 Y117.843 E2.15327
G1 X110.721 Y112.808 E2.46696
G1 X110.276 Y112.309 E2.50053
G1 X110.596 Y112.099 E2.51973
G1 X111.730 Y110.936 E2.60125
G1 X112.294 Y110.300 E2.64388
G1 X112.787 Y110.742 E2.67711
G1 X117.834 Y114.454 E2.99151
G1 X119.274 Y112.354 E3.11928
G1 X119.539 Y111.915 E3.14503
G1 X121.617 Y111.915 E3.24934
G1 X121.519 Y112.107 E3.26017
G1 X119.873 Y114.655 E3.41240
G1 X117.937 Y116.972 E3.56393
G1 X115.732 Y119.035 E3.71546
G1 X113.292 Y120.815 E3.86704
G1 X111.894 Y121.591 E3.94729
G1 X111.894 Y119.611 E4.04665
G1 E2.04665 F2400.00000
G92 E0
G1 X117.751 Y113.965 F7800.000
G1 E2.00000 F2400.00000
G1 F1800.000
G1 X118.984 Y112.167 E2.10938
G1 X119.345 Y111.570 E2.14440
G1 X122.181 Y111.570 E2.28676
G1 X121.818 Y112.280 E2.32677
G1 X120.151 Y114.860 E2.48094
G1 X118.188 Y117.209 E2.63459
G1 X115.953 Y119.301 E2.78823
G1 X113.478 Y121.106 E2.94194
G1 X111.549 Y122.177 E3.05267
G1 X111.549 Y119.360 E3.19406
G1 X112.600 Y118.705 E3.25617
G1 X113.938 Y117.764 E3.33829
G1 X110.453 Y113.026 E3.63348
G1 X110.106 Y112.636 E3.65967
G1 X109.688 Y112.262 E3.68782
G1 X110.376 Y111.832 E3.72856
G1 X111.820 Y110.331 E3.83310
G1 X112.190 Y109.886 E3.86212
G1 X112.261 Y109.726 E3.87090
G1 X112.615 Y110.125 E3.89764
G1 X113.005 Y110.473 E3.92389
G1 X117.703 Y113.929 E4.21657
G1 E2.21657 F2400.00000
G92 E0
G1 X119.223 Y102.202 F7800.000
G1 E2.00000 F2400.00000
G1 F1800.000
G1 X116.639 Y101.811 E2.13112
G1 X116.098 Y101.779 E2.15835
G1 X115.512 Y101.810 E2.18778
G1 X115.610 Y101.361 E2.21083
G1 X119.300 Y101.362 E2.39600
G1 X119.228 Y102.142 E2.43533
G1 E0.43533 F2400.00000
G92 E0
G1 X115.382 Y102.162 F7800.000
G1 E2.00000 F2400.00000
G1 F1800.000
G1 X115.263 Y102.962 E2.04059
G1 X114.632 Y105.265 E2.16040
G1 X113.654 Y107.443 E2.28025
G1 X113.448 Y107.793 E2.30061
G1 X112.406 Y109.370 E2.39546
G1 X112.860 Y109.881 E2.42976
G1 X113.223 Y110.205 E2.45418
G1 X117.668 Y113.475 E2.73115
G1 X118.694 Y111.980 E2.82215
G1 X119.150 Y111.225 E2.86643
G1 X122.745 Y111.225 E3.04686
G1 X122.117 Y112.452 E3.11604
G1 X120.429 Y115.064 E3.27214
G1 X118.439 Y117.446 E3.42791
G1 X116.173 Y119.568 E3.58367
G1 X113.664 Y121.397 E3.73951
G1 X111.204 Y122.763 E3.88071
G1 X111.204 Y119.168 E4.06112
G1 X112.409 Y118.418 E4.13236
G1 X113.452 Y117.685 E4.19631
G1 X110.185 Y113.243 E4.47301
G1 X109.861 Y112.880 E4.49741
G1 X109.346 Y112.419 E4.53213
G1 X108.532 Y112.986 E4.58191
G1 X108.129 Y113.237 E4.60572
G1 X106.883 Y113.947 E4.67771
G1 X106.013 Y114.327 E4.72534
G1 X104.673 Y114.836 E4.79729
G1 X103.754 Y115.080 E4.84502
G1 X102.136 Y115.411 E4.92791
G1 X102.103 Y116.119 E4.96345
G1 X102.134 Y116.625 E4.98888
G1 X102.578 Y119.558 E5.13777
G1 X100.985 Y119.721 E5.21812
G1 X98.974 Y119.721 E5.31906
G1 X97.381 Y119.558 E5.39941
G1 X97.825 Y116.624 E5.54830
G1 X97.856 Y116.119 E5.57373
G1 X97.823 Y115.412 E5.60925
G1 X96.205 Y115.080 E5.69211
G1 X95.286 Y114.836 E5.73983
G1 X93.946 Y114.327 E5.81178
G1 X93.076 Y113.947 E5.85942
G1 X91.830 Y113.237 E5.93140
G1 X91.428 Y112.985 E5.95521
G1 X90.613 Y112.418 E6.00503
G1 X90.097 Y112.880 E6.03977
G1 X89.774 Y113.243 E6.06416
G1 X86.510 Y117.681 E6.34061
G1 X87.078 Y118.089 E6.37573
G1 X88.754 Y119.164 E6.47566
G1 X88.754 Y122.759 E6.65611
G1 X87.112 Y121.899 E6.74919
G1 X84.533 Y120.163 E6.90519
G1 X82.189 Y118.128 E7.06096
G1 X80.111 Y115.823 E7.21673
G1 X78.328 Y113.279 E7.37263
G1 X77.229 Y111.225 E7.48953
G1 X80.805 Y111.225 E7.66899
G1 X80.942 Y111.459 E7.68261
G1 X82.286 Y113.479 E7.80436
G1 X86.736 Y110.205 E8.08163
G1 X87.099 Y109.881 E8.10606
G1 X87.552 Y109.369 E8.14034
G1 X86.510 Y107.793 E8.23516
G1 X86.305 Y107.443 E8.25552
G1 X85.327 Y105.265 E8.37537
G1 X84.696 Y102.962 E8.49517
G1 X84.577 Y102.162 E8.53580
G1 X83.862 Y102.124 E8.57172
G1 X83.356 Y102.155 E8.59719
G1 X80.426 Y102.598 E8.74587
G1 X80.281 Y101.017 E8.82554
G1 X84.639 Y101.016 E9.04424
G1 X84.770 Y101.667 E9.07759
G1 X84.910 Y102.121 E9.10140
G1 X85.067 Y103.052 E9.14881
G1 X85.751 Y105.398 E9.27142
G1 X86.367 Y106.730 E9.34506
G1 X86.802 Y107.609 E9.39429
G1 X87.849 Y109.221 E9.49075
G1 X88.064 Y109.698 E9.51702
G1 X88.412 Y110.121 E9.54450
G1 X89.766 Y111.535 E9.64276
G1 X90.249 Y111.854 E9.67183
G1 X90.676 Y112.078 E9.69601
G1 X91.070 Y112.320 E9.71919
G1 X91.853 Y112.858 E9.76689
G1 X93.137 Y113.561 E9.84034
G1 X94.019 Y113.994 E9.88966
G1 X95.400 Y114.484 E9.96321
G1 X96.340 Y114.768 E10.01246
G1 X97.756 Y115.045 E10.08490
G1 X98.202 Y115.194 E10.10849
G1 X98.728 Y115.340 E10.13591
G1 X100.231 Y115.361 E10.21130
G1 X101.272 Y115.334 E10.26359
G1 X102.229 Y115.039 E10.31383
G1 X103.619 Y114.768 E10.38493
G1 X104.559 Y114.484 E10.43419
G1 X105.940 Y113.994 E10.50774
G1 X106.822 Y113.561 E10.55705
G1 X108.106 Y112.858 E10.63051
G1 X108.905 Y112.309 E10.67915
G1 X109.732 Y111.841 E10.72683
G1 X110.155 Y111.564 E10.75224
G1 X111.230 Y110.461 E10.82953
G1 X111.561 Y110.103 E10.85398
G1 X111.894 Y109.701 E10.88019
G1 X112.126 Y109.188 E10.90842
G1 X113.156 Y107.610 E11.00302
G1 X113.382 Y107.166 E11.02803
G1 X114.207 Y105.400 E11.12584
G1 X114.892 Y103.052 E11.24858
G1 X115.053 Y102.106 E11.29677
G1 X115.194 Y101.652 E11.32062
G1 X115.321 Y101.016 E11.35315
G1 X119.678 Y101.017 E11.57179
G1 X119.533 Y102.598 E11.65145
G1 X116.603 Y102.155 E11.80014
G1 X116.097 Y102.125 E11.82561
G1 X115.442 Y102.159 E11.85850
G1 X114.984 Y102.124 F7800.000
G1 X115.739 Y101.579
G1 F1800.000
G1 X116.097 Y101.570 E11.86314
G1 X116.101 Y101.570 E11.86319
G1 X116.661 Y101.587 E11.87183
G1 X116.666 Y101.587 E11.87191
G1 X117.012 Y101.613 E11.87968
G1 X117.358 Y101.639 E11.88984
G1 X117.704 Y101.665 E11.90240
G1 X118.051 Y101.691 E11.91734
G1 X118.397 Y101.717 E11.93468
G1 X118.743 Y101.744 E11.95441
G1 X119.089 Y101.770 E11.97652
G1 E9.97652 F2400.00000
G92 E0
G1 X121.179 Y112.443 F7800.000
G1 E2.00000 F2400.00000
G1 F1800.000
G1 X120.909 Y112.173 E2.01955
G1 X120.411 Y112.173 E2.04513
G1 X120.871 Y112.634 E2.07852
G1 X120.675 Y112.936 E2.09702
G1 X119.912 Y112.173 E2.15238
G1 X119.685 Y112.173 E2.16403
G1 X119.583 Y112.343 E2.17418
G1 X120.479 Y113.239 E2.23924
G1 X120.284 Y113.542 E2.25774
G1 X119.387 Y112.646 E2.32279
G1 X119.184 Y112.941 E2.34120
G1 X120.088 Y113.845 E2.40676
G1 X119.892 Y114.148 E2.42526
G1 X118.981 Y113.237 E2.49133
G1 X118.779 Y113.533 E2.50974
G1 X119.696 Y114.451 E2.57632
G1 X119.474 Y114.728 E2.59452
G1 X118.576 Y113.829 E2.65973
G1 X118.373 Y114.125 E2.67813
G1 X119.248 Y114.999 E2.74158
G1 X119.021 Y115.271 E2.75974
G1 X118.170 Y114.421 E2.82144
G1 X117.967 Y114.716 E2.83984
G1 X118.794 Y115.543 E2.89979
G1 X118.567 Y115.814 E2.91795
G1 X116.673 Y113.921 E3.05534
G1 X114.787 Y112.534 E3.17545
G1 X118.340 Y116.086 E3.43320
G1 X118.113 Y116.358 E3.45136
G1 X112.902 Y111.147 E3.82947
G1 X112.624 Y110.943 E3.84712
G1 X112.315 Y110.666 E3.86840
G1 X112.131 Y110.874 E3.88266
G1 X117.886 Y116.629 E4.30024
G1 X117.647 Y116.889 E4.31835
G1 X111.895 Y111.137 E4.73567
G1 X111.649 Y111.390 E4.75376
G1 X117.389 Y117.130 E5.17026
G1 X117.132 Y117.371 E5.18836
G1 X111.403 Y111.642 E5.60402
G1 X111.157 Y111.895 E5.62211
G1 X116.874 Y117.612 E6.03694
G1 X116.616 Y117.853 E6.05504
G1 X110.911 Y112.147 E6.46905
G1 X110.762 Y112.300 E6.47998
G1 X110.669 Y112.361 E6.48568
G1 X110.958 Y112.693 E6.50826
G1 X116.359 Y118.094 E6.90016
G1 X116.101 Y118.335 E6.91826
G1 X112.345 Y114.579 E7.19085
