; generated by PrusaSlicer 2.2.0+win64 on 2020-07-10 at 23:03:58 UTC

; 

; external perimeters extrusion width = 0.45mm
; perimeters extrusion width = 0.45mm
; infill extrusion width = 0.45mm
; solid infill extrusion width = 0.45mm
; top infill extrusion width = 0.40mm
; support material extrusion width = 0.35mm
; first layer extrusion width = 0.42mm

M107
M190 S60 ; set bed temperature and wait for it to be reached
M104 S200 ; set temperature
G28 ; home all axes
G1 Z5 F5000 ; lift nozzle
M109 S200 ; set temperature and wait for it to be reached
G21 ; set units to millimeters
G90 ; use absolute coordinates
M82 ; use absolute distances for extrusion
G92 E0
; Filament gcode
G1 Z0.350 F7800.000
G1 E-2.00000 F2400.00000
G92 E0
G1 X53.625 Y48.737 F7800.000
G1 E2.00000 F2400.00000
G1 F1800.000
G1 X55.193 Y47.976 E2.08746
G1 X56.252 Y47.647 E2.14310
G1 X57.602 Y47.394 E2.21201
G1 X59.696 Y47.241 E2.31740
G1 X100.180 Y48.421 E4.34998
G1 X101.838 Y48.659 E4.43403
G1 X103.647 Y49.226 E4.52918
G1 X105.260 Y50.036 E4.61977
G1 X106.328 Y50.769 E4.68480
G1 X107.001 Y51.360 E4.72973
G1 X107.616 Y52.086 E4.77747
G1 X116.691 Y64.578 E5.55237
G1 X117.144 Y65.297 E5.59503
G1 X139.428 Y108.011 E8.01284
G1 X139.767 Y109.103 E8.07023
G1 X139.904 Y110.232 E8.12730
G1 X139.889 Y122.575 E8.74675
G1 X139.704 Y123.691 E8.80352
G1 X139.320 Y124.762 E8.86059
G1 X138.752 Y125.747 E8.91767
G1 X138.021 Y126.610 E8.97443
G1 X137.170 Y127.316 E9.02995
G1 X136.214 Y127.861 E9.08516
G1 X135.178 Y128.232 E9.14037
G1 X134.094 Y128.419 E9.19558
G1 X122.482 Y128.284 E9.77839
G1 X120.936 Y128.047 E9.85689
G1 X53.818 Y104.292 E13.43001
G1 X52.506 Y103.712 E13.50200
G1 X51.086 Y102.940 E13.58311
G1 X49.902 Y102.075 E13.65668
G1 X49.304 Y101.541 E13.69694
G1 X48.216 Y100.330 E13.77865
G1 X44.699 Y95.498 E14.07856
G1 X43.972 Y94.293 E14.14919
G1 X43.388 Y93.040 E14.21858
G1 X42.781 Y91.135 E14.31893
G1 X41.796 Y85.185 E14.62159
G1 X40.778 Y67.971 E15.48699
G1 X40.883 Y66.466 E15.56270
G1 X41.258 Y65.217 E15.62817
G1 X41.882 Y64.071 E15.69364
G1 X51.624 Y50.584 E16.52863
G1 X52.309 Y49.789 E16.58128
G1 X53.579 Y48.774 E16.66285
G1 E14.66285 F2400.00000
G92 E0
G1 X119.767 Y110.494 F7800.000
G1 E2.00000 F2400.00000
G1 F1800.000
G1 X119.767 Y113.689 E2.16035
G1 X119.985 Y113.863 E2.17437
G1 X120.161 Y114.049 E2.18719
G1 X120.324 Y114.303 E2.20236
G1 X120.457 Y114.576 E2.21757
G1 X120.457 Y105.126 E2.69184
G1 X120.486 Y104.858 E2.70534
G1 X121.146 Y104.858 E2.73851
G1 X121.146 Y119.156 E3.45604
G1 X121.836 Y119.156 E3.49065
G1 X121.836 Y104.858 E4.20818
G1 X122.526 Y104.858 E4.24280
G1 X122.526 Y119.156 E4.96033
G1 X122.659 Y119.156 E4.96703
G1 X122.659 Y121.941 E5.10682
G1 X123.216 Y121.941 E5.13475
G1 X123.216 Y104.858 E5.99208
G1 X123.905 Y104.858 E6.02669
G1 X123.905 Y121.941 E6.88402
G1 X124.595 Y121.941 E6.91864
G1 X124.595 Y104.858 E7.77597
G1 X125.285 Y104.858 E7.81058
G1 X125.285 Y121.941 E8.66791
G1 X125.975 Y121.941 E8.70253
G1 X125.975 Y107.644 E9.42006
G1 X126.665 Y107.644 E9.45468
G1 X126.665 Y121.941 E10.17221
G1 X127.354 Y121.941 E10.20682
G1 X127.354 Y107.644 E10.92435
G1 X128.044 Y107.644 E10.95897
G1 X128.044 Y121.941 E11.67650
G1 X128.734 Y121.941 E11.71112
G1 X128.734 Y107.644 E12.42865
G1 X129.424 Y107.644 E12.46327
G1 X129.424 Y121.941 E13.18080
G1 X130.113 Y121.941 E13.21541
G1 X130.113 Y107.644 E13.93294
G1 X130.803 Y107.644 E13.96756
G1 X130.803 Y121.941 E14.68509
G1 X131.493 Y121.941 E14.71971
G1 X131.493 Y110.429 E15.29744
G1 X132.183 Y110.429 E15.33205
G1 X132.183 Y121.941 E15.90979
G1 X132.873 Y121.941 E15.94440
G1 X132.873 Y110.429 E16.52213
G1 X133.562 Y110.429 E16.55675
G1 X133.562 Y122.096 E17.14227
G1 E15.14227 F2400.00000
G92 E0
G1 X120.457 Y119.311 F7800.000
G1 E2.00000 F2400.00000
G1 F1800.000
G1 X120.457 Y116.571 E2.13750
G1 X120.074 Y116.571 E2.15671
G1 X120.162 Y117.008 E2.17909
G1 X119.877 Y117.308 E2.19982
G1 X119.767 Y117.291 E2.20541
G1 X119.767 Y119.156 E2.29897
G1 X119.077 Y119.156 E2.33359
G1 X119.077 Y117.188 E2.43231
G1 X118.387 Y117.061 E2.46751
G1 X118.387 Y119.156 E2.57262
G1 X117.697 Y119.156 E2.60724
G1 X117.697 Y116.827 E2.72408
G1 X117.053 Y116.458 E2.76137
G1 X117.008 Y116.515 E2.76504
G1 X117.008 Y119.156 E2.89753
G1 X116.318 Y119.156 E2.93215
G1 X116.318 Y117.395 E3.02049
G1 X115.628 Y118.275 E3.07660
G1 X115.628 Y119.156 E3.12079
G1 X114.938 Y119.156 E3.15541
G1 X114.938 Y118.903 E3.16807
G1 E1.16807 F2400.00000
G92 E0
G1 X118.881 Y115.075 F7800.000
G1 E2.00000 F2400.00000
G1 F1800.000
G1 X118.246 Y115.075 E2.03185
G1 X118.324 Y115.461 E2.05160
G1 X117.556 Y115.023 E2.09599
G1 X117.175 Y114.877 E2.11645
G1 X116.801 Y114.801 E2.13557
G1 X116.454 Y114.791 E2.15303
G1 X116.099 Y114.836 E2.17098
G1 X115.690 Y114.955 E2.19238
G1 X115.186 Y115.192 E2.22033
G1 X114.732 Y115.437 E2.24618
G1 X114.522 Y115.525 E2.25764
G1 X113.820 Y115.617 E2.29316
G1 X113.416 Y115.694 E2.31380
G1 X113.187 Y115.813 E2.32674
G1 X112.163 Y115.868 E2.37822
G1 X111.083 Y115.849 E2.43243
G1 X110.015 Y115.743 E2.48628
G1 X109.047 Y115.557 E2.53577
G1 X108.127 Y115.291 E2.58381
G1 X107.216 Y114.936 E2.63285
G1 X106.674 Y114.672 E2.66313
G1 X109.616 Y108.936 E2.98663
G1 X106.349 Y107.261 E3.17089
G1 X106.458 Y107.048 E3.18287
G1 X109.725 Y108.724 E3.36713
G1 X112.147 Y104.002 E3.63347
G1 X112.515 Y103.974 E3.65200
G1 X112.865 Y103.908 E3.66989
G1 X113.244 Y103.755 E3.69039
G1 X113.541 Y103.547 E3.70858
G1 X113.923 Y103.184 E3.73502
G1 X114.503 Y102.480 E3.78078
G1 X115.458 Y101.119 E3.86421
G1 X115.758 Y100.846 E3.88459
G1 X116.008 Y100.297 E3.91491
G1 X116.602 Y98.570 E4.00655
G1 X116.815 Y98.107 E4.03210
G1 X117.004 Y97.806 E4.04993
G1 X117.067 Y97.730 E4.05493
G1 X117.415 Y97.729 E4.07239
G1 X117.747 Y97.653 E4.08946
G1 X118.046 Y97.526 E4.10579
G1 X118.153 Y97.459 E4.11212
G1 X118.465 Y97.514 E4.12800
G1 X118.929 Y97.659 E4.15237
G1 X119.231 Y97.803 E4.16919
G1 X119.411 Y97.927 E4.18016
G1 X119.534 Y98.044 E4.18866
G1 X119.640 Y98.184 E4.19748
G1 X119.728 Y98.351 E4.20694
G1 X119.807 Y98.576 E4.21890
G1 X119.890 Y99.021 E4.24163
G1 X119.923 Y99.585 E4.26998
G1 X119.895 Y100.340 E4.30789
G1 X119.856 Y100.541 E4.31820
G1 X119.348 Y102.126 E4.40171
G1 X119.233 Y102.578 E4.42513
G1 X118.862 Y105.943 E4.59503
G1 X118.758 Y107.381 E4.66740
G1 X118.824 Y108.894 E4.74341
G1 X118.803 Y109.183 E4.75791
G1 X118.737 Y109.466 E4.77251
G1 X118.554 Y109.919 E4.79704
G1 X118.191 Y110.667 E4.83876
G1 X117.931 Y111.309 E4.87352
G1 X117.788 Y111.870 E4.90256
G1 X117.748 Y112.315 E4.92499
G1 X117.782 Y112.839 E4.95136
G1 X117.929 Y113.473 E4.98404
G1 X118.219 Y114.207 E5.02359
G1 X118.408 Y114.475 E5.04006
G1 X118.625 Y114.694 E5.05555
G1 X118.929 Y114.936 E5.07507
G1 X118.901 Y115.018 E5.07943
G1 X118.667 Y115.420 F7800.000
G1 F1800.000
G1 X118.777 Y115.967 E5.10741
G1 X118.450 Y115.895 E5.12422
G1 X118.266 Y115.825 E5.13411
G1 X117.408 Y115.335 E5.18369
G1 X117.078 Y115.209 E5.20139
G1 X116.762 Y115.145 E5.21761
G1 X116.470 Y115.136 E5.23224
G1 X116.169 Y115.175 E5.24745
G1 X115.812 Y115.279 E5.26614
G1 X115.341 Y115.500 E5.29226
G1 X114.881 Y115.749 E5.31848
G1 X114.629 Y115.854 E5.33219
G1 X114.482 Y115.890 E5.33979
G1 X113.872 Y115.959 E5.37062
G1 X113.530 Y116.024 E5.38807
G1 X113.280 Y116.154 E5.40222
G1 X112.169 Y116.213 E5.45806
G1 X111.063 Y116.193 E5.51358
G1 X109.965 Y116.085 E5.56892
G1 X108.966 Y115.893 E5.61999
G1 X108.016 Y115.618 E5.66960
G1 X107.078 Y115.253 E5.72013
G1 X106.207 Y114.827 E5.76880
G1 X109.152 Y109.086 E6.09264
G1 X105.885 Y107.410 E6.27690
G1 X106.309 Y106.584 E6.32350
G1 X109.575 Y108.260 E6.50776
G1 X111.928 Y103.673 E6.76647
G1 X112.470 Y103.631 E6.79375
G1 X112.768 Y103.575 E6.80898
G1 X113.079 Y103.450 E6.82578
G1 X113.322 Y103.280 E6.84069
G1 X113.670 Y102.948 E6.86478
G1 X114.228 Y102.271 E6.90884
G1 X115.197 Y100.890 E6.99352
G1 X115.474 Y100.639 E7.01225
G1 X115.688 Y100.169 E7.03818
G1 X116.281 Y98.441 E7.12986
G1 X116.511 Y97.943 E7.15740
G1 X116.724 Y97.603 E7.17751
G1 X116.916 Y97.385 E7.19211
G1 X117.376 Y97.385 E7.21519
G1 X117.640 Y97.324 E7.22878
G1 X117.886 Y97.220 E7.24220
G1 X118.082 Y97.096 E7.25383
G1 X118.546 Y97.179 E7.27748
G1 X119.055 Y97.337 E7.30420
G1 X119.404 Y97.504 E7.32363
G1 X119.629 Y97.659 E7.33732
G1 X119.792 Y97.814 E7.34860
G1 X119.931 Y97.998 E7.36022
G1 X120.045 Y98.212 E7.37238
G1 X120.141 Y98.486 E7.38695
G1 X120.234 Y98.979 E7.41211
G1 X120.268 Y99.581 E7.44238
G1 X120.239 Y100.379 E7.48246
G1 X120.191 Y100.627 E7.49514
G1 X119.680 Y102.221 E7.57913
G1 X119.573 Y102.640 E7.60082
G1 X119.206 Y105.975 E7.76919
G1 X119.103 Y107.386 E7.84024
G1 X119.169 Y108.900 E7.91625
G1 X119.145 Y109.235 E7.93312
G1 X119.066 Y109.570 E7.95041
G1 X118.869 Y110.059 E7.97687
G1 X118.506 Y110.807 E8.01861
G1 X118.259 Y111.417 E8.05160
G1 X118.129 Y111.928 E8.07809
G1 X118.094 Y112.319 E8.09779
G1 X118.124 Y112.789 E8.12139
G1 X118.260 Y113.371 E8.15138
G1 X118.524 Y114.042 E8.18758
G1 X118.673 Y114.252 E8.20053
G1 X118.856 Y114.437 E8.21357
G1 X119.243 Y114.751 E8.23857
G1 X119.313 Y114.860 E8.24510
G1 X119.585 Y115.419 E8.27630
G1 X118.727 Y115.420 E8.31937
G1 X119.088 Y115.765 F7800.000
G1 F1800.000
G1 X119.214 Y116.393 E8.35151
G1 X118.891 Y116.344 E8.36794
G1 X118.351 Y116.227 E8.39566
G1 X118.118 Y116.138 E8.40818
G1 X117.260 Y115.648 E8.45776
G1 X116.982 Y115.542 E8.47271
G1 X116.722 Y115.489 E8.48602
G1 X116.487 Y115.482 E8.49781
G1 X116.240 Y115.513 E8.51031
G1 X115.935 Y115.602 E8.52627
G1 X115.497 Y115.808 E8.55056
G1 X115.030 Y116.060 E8.57716
G1 X114.737 Y116.183 E8.59311
G1 X114.542 Y116.230 E8.60317
G1 X113.923 Y116.300 E8.63442
G1 X113.644 Y116.353 E8.64868
G1 X113.476 Y116.441 E8.65822
G1 X113.434 Y116.491 E8.66148
G1 X112.175 Y116.558 E8.72477
G1 X111.043 Y116.538 E8.78161
G1 X109.916 Y116.426 E8.83844
G1 X108.885 Y116.228 E8.89110
G1 X107.906 Y115.945 E8.94228
G1 X106.940 Y115.569 E8.99430
G1 X105.745 Y114.972 E9.06133
G1 X108.688 Y109.235 E9.38492
G1 X105.421 Y107.560 E9.56918
G1 X106.159 Y106.120 E9.65040
G1 X109.426 Y107.795 E9.83465
G1 X111.680 Y103.401 E10.08249
G1 X111.771 Y103.357 E10.08758
G1 X111.917 Y103.328 E10.09504
G1 X112.425 Y103.289 E10.12062
G1 X112.671 Y103.243 E10.13319
G1 X112.913 Y103.145 E10.14630
G1 X113.103 Y103.012 E10.15792
G1 X113.417 Y102.713 E10.17967
G1 X113.953 Y102.062 E10.22201
G1 X114.937 Y100.660 E10.30795
G1 X115.189 Y100.431 E10.32504
G1 X115.367 Y100.041 E10.34656
G1 X115.961 Y98.313 E10.43829
G1 X116.207 Y97.778 E10.46782
G1 X116.444 Y97.400 E10.49020
G1 X116.629 Y97.179 E10.50467
G1 X116.802 Y97.056 E10.51535
G1 X116.903 Y97.040 E10.52044
G1 X117.337 Y97.040 E10.54224
G1 X117.534 Y96.995 E10.55236
G1 X117.726 Y96.913 E10.56286
G1 X117.990 Y96.729 E10.57898
G1 X118.628 Y96.843 E10.61151
G1 X119.181 Y97.015 E10.64058
G1 X119.577 Y97.205 E10.66263
G1 X119.847 Y97.390 E10.67905
G1 X120.050 Y97.583 E10.69310
G1 X120.223 Y97.812 E10.70752
G1 X120.362 Y98.074 E10.72238
G1 X120.475 Y98.397 E10.73955
G1 X120.577 Y98.937 E10.76715
G1 X120.613 Y99.577 E10.79934
G1 X120.583 Y100.419 E10.84158
G1 X120.525 Y100.713 E10.85664
G1 X120.011 Y102.316 E10.94112
G1 X119.914 Y102.701 E10.96107
G1 X119.549 Y106.006 E11.12791
G1 X119.449 Y107.391 E11.19763
G1 X119.515 Y108.905 E11.27364
G1 X119.487 Y109.287 E11.29289
G1 X119.396 Y109.675 E11.31287
G1 X119.185 Y110.199 E11.34126
G1 X118.821 Y110.948 E11.38300
G1 X118.588 Y111.524 E11.41424
G1 X118.470 Y111.987 E11.43818
G1 X118.439 Y112.324 E11.45515
G1 X118.467 Y112.738 E11.47599
G1 X118.590 Y113.268 E11.50329
G1 X118.830 Y113.876 E11.53612
G1 X118.938 Y114.030 E11.54557
G1 X119.087 Y114.180 E11.55614
G1 X119.514 Y114.536 E11.58408
G1 X119.614 Y114.690 E11.59330
G1 X119.866 Y115.208 E11.62220
G1 X120.058 Y115.764 E11.65170
G1 X119.148 Y115.765 E11.69736
G1 X118.711 Y115.898 F7800.000
G1 X118.562 Y114.886
G1 F1800.000
G1 X118.516 Y114.870 E11.69782
G1 X118.492 Y114.844 E11.69816
G1 X118.490 Y114.842 E11.69818
G1 X118.456 Y114.802 E11.69860
G1 E9.69860 F2400.00000
G92 E0
G1 X108.050 Y115.150 F7800.000
G1 E2.00000 F2400.00000
G1 F1800.000
G1 X107.171 Y114.270 E2.06337
G1 X107.339 Y113.943 E2.08211
G1 X108.535 Y115.140 E2.16832
G1 X109.217 Y115.326 E2.20433
G1 X107.506 Y113.616 E2.32756
G1 X107.674 Y113.289 E2.34630
G1 X109.830 Y115.444 E2.50159
G1 X110.052 Y115.487 E2.51312
G1 X110.402 Y115.522 E2.53105
G1 X107.842 Y112.961 E2.71549
G1 X108.010 Y112.634 E2.73422
G1 X110.952 Y115.576 E2.94615
G1 X111.468 Y115.597 E2.97246
G1 X108.178 Y112.307 E3.20946
G1 X108.346 Y111.980 E3.22820
G1 X111.972 Y115.606 E3.48941
G1 X112.454 Y115.593 E3.51400
G1 X108.514 Y111.652 E3.79789
G1 X108.681 Y111.325 E3.81662
G1 X112.924 Y115.568 E4.12229
G1 X113.118 Y115.558 E4.13214
G1 X113.310 Y115.458 E4.14316
G1 X108.849 Y110.998 E4.46448
G1 X109.017 Y110.671 E4.48321
G1 X113.720 Y115.373 E4.82198
G1 X114.154 Y115.313 E4.84433
G1 X109.185 Y110.344 E5.20231
G1 X109.353 Y110.016 E5.22104
G1 X114.564 Y115.227 E5.59644
G1 X114.890 Y115.058 E5.61514
G1 X109.521 Y109.689 E6.00193
G1 X109.689 Y109.362 E6.02067
G1 X115.218 Y114.891 E6.41901
G1 X115.555 Y114.733 E6.43796
G1 X109.856 Y109.035 E6.84846
G1 X110.024 Y108.707 E6.86720
G1 X115.932 Y114.615 E7.29278
G1 X116.046 Y114.582 E7.29884
G1 X116.355 Y114.543 E7.31468
G1 X110.192 Y108.380 E7.75862
G1 X110.360 Y108.053 E7.77736
G1 X116.855 Y114.548 E8.24527
G1 X117.247 Y114.628 E8.26565
G1 X117.543 Y114.741 E8.28178
G1 X110.528 Y107.726 E8.78715
G1 X110.696 Y107.398 E8.80588
G1 X118.078 Y114.781 E9.33772
G1 X118.225 Y114.658 E9.34750
G1 X117.989 Y114.331 E9.36805
G1 X117.903 Y114.110 E9.38011
G1 X110.863 Y107.071 E9.88721
G1 X111.031 Y106.744 E9.90594
G1 X117.635 Y113.347 E10.38165
G1 X117.525 Y112.877 E10.40623
G1 X117.516 Y112.734 E10.41356
G1 X111.199 Y106.417 E10.86863
G1 X111.367 Y106.089 E10.88736
G1 X117.497 Y112.219 E11.32895
G1 X117.546 Y111.773 E11.35180
G1 X111.535 Y105.762 E11.78483
G1 X111.703 Y105.435 E11.80357
G1 X117.646 Y111.379 E12.23174
G1 X117.684 Y111.228 E12.23964
G1 X117.773 Y111.010 E12.25164
G1 X111.870 Y105.108 E12.67684
G1 X112.038 Y104.780 E12.69557
G1 X117.915 Y110.658 E13.11896
G1 X118.072 Y110.319 E13.13795
G1 X112.206 Y104.453 E13.56054
G1 X112.311 Y104.249 E13.57225
G1 X112.483 Y104.235 E13.58106
G1 X118.234 Y109.986 E13.99533
G1 X118.386 Y109.643 E14.01444
G1 X112.906 Y104.163 E14.40921
G1 X113.264 Y104.026 E14.42873
G1 X118.515 Y109.277 E14.80702
G1 X118.546 Y109.144 E14.81400
G1 X118.562 Y108.829 E14.83005
G1 X113.573 Y103.840 E15.18943
G1 X113.706 Y103.748 E15.19764
G1 X113.844 Y103.616 E15.20739
G1 X118.540 Y108.311 E15.54565
G1 X118.517 Y107.794 E15.57205
G1 X114.098 Y103.374 E15.89042
G1 X114.323 Y103.105 E15.90833
G1 X118.505 Y107.287 E16.20963
G1 X118.539 Y106.826 E16.23321
G1 X114.547 Y102.833 E16.52081
G1 X114.765 Y102.557 E16.53876
G1 X118.572 Y106.364 E16.81304
G1 X118.606 Y105.903 E16.83659
G1 X114.969 Y102.266 E17.09861
G1 X115.173 Y101.975 E17.11672
G1 X118.655 Y105.457 E17.36757
G1 X118.705 Y105.011 E17.39043
G1 X115.377 Y101.684 E17.63012
G1 X115.582 Y101.393 E17.64822
G1 X118.754 Y104.565 E17.87675
G1 X118.803 Y104.119 E17.89960
G1 X115.822 Y101.138 E18.11437
G1 X115.971 Y101.002 E18.12466
G1 X116.037 Y100.858 E18.13272
G1 X118.852 Y103.673 E18.33553
G1 X118.901 Y103.228 E18.35838
G1 X116.192 Y100.518 E18.55359
G1 X116.329 Y100.160 E18.57312
G1 X118.951 Y102.782 E18.76199
G1 X118.978 Y102.532 E18.77479
G1 X119.022 Y102.358 E18.78392
G1 X116.455 Y99.791 E18.96883
G1 X116.582 Y99.423 E18.98868
G1 X119.127 Y101.968 E19.17202
G1 X119.247 Y101.593 E19.19207
G1 X116.709 Y99.054 E19.37495
G1 X116.835 Y98.686 E19.39479
G1 X119.367 Y101.218 E19.57720
G1 X119.488 Y100.843 E19.59725
G1 X116.990 Y98.345 E19.77719
G1 X117.041 Y98.234 E19.78344
G1 X117.174 Y98.035 E19.79564
G1 X119.607 Y100.467 E19.97087
G1 X119.638 Y100.310 E19.97905
G1 X119.648 Y100.014 E19.99414
G1 X117.589 Y97.955 E20.14246
G1 X117.827 Y97.900 E20.15487
G1 X117.970 Y97.840 E20.16276
G1 X119.660 Y99.531 E20.28458
G1 X119.623 Y98.998 E20.31177
G1 X118.388 Y97.764 E20.40072
G1 X118.834 Y97.900 E20.42446
G1 X119.101 Y98.028 E20.43954
G1 X119.247 Y98.129 E20.44860
