; generated by PrusaSlicer 2.2.0+win64 on 2021-01-01 at 18:38:41 UTC


;
;

;
;
; 

; external perimeters extrusion width = 0.45mm
; perimeters extrusion width = 0.45mm
; infill extrusion width = 0.45mm
; solid infill extrusion width = 0.45mm
; top infill extrusion width = 0.40mm
; first layer extrusion width = 0.42mm

M73 P0 R20
M201 X1250 Y1250 Z400 E5000 ; sets maximum accelerations, mm/sec^2
M203 X180 Y180 Z12 E80 ; sets maximum feedrates, mm/sec
M204 P1250 R1250 T1250 ; sets acceleration (P, T) and retract acceleration (R), mm/sec^2
M205 X8.00 Y8.00 Z2.00 E10.00 ; sets the jerk limits, mm/sec
M205 S0 T0 ; sets the minimum extruding and travel feed rate, mm/sec
M107
G90 ; use absolute coordinates
M83 ; extruder relative mode
M104 S170 ; set extruder temp for bed leveling
M140 S60 ; set bed temp
M109 R170 ; wait for bed leveling temp
M190 S60 ; wait for bed temp
G28 ; home all without mesh bed level
G29 ; mesh bed leveling 
M104 S215 ; set extruder temp
G92 E0.0
G1 Y-2.0 X179 F2400
G1 Z3 F720
M109 S215 ; wait for extruder temp

; intro line
G1 X170 F1000
G1 Z0.2 F720
G1 X110.0 E8.0 F900
M73 P0 R20
G1 X40.0 E10.0 F700
G92 E0.0

M221 S95 ; set flow
G21 ; set units to millimeters
G90 ; use absolute coordinates
M83 ; use relative distances for extrusion
M900 K0.2 ; Filament gcode LA 1.5
; ; Filament gcode LA 1.0
;BEFORE_LAYER_CHANGE
G92 E0.0
;0.2


G1 Z0.200 F9000.000
;AFTER_LAYER_CHANGE
;0.2
G1 E-3.20000 F4200.00000
G1 Z0.400 F9000.000
G1 X63.057 Y79.549
G1 Z0.200
G1 E3.20000 F2400.00000
M204 S800
G1 F1200.000
G1 X63.559 Y79.272 E0.01799
G1 X64.113 Y79.123 E0.01799
G1 X68.096 Y78.884 E0.12511
G1 X73.543 Y78.812 E0.17081
G1 X111.329 Y79.099 E1.18477
G1 X112.215 Y79.282 E0.02837
G1 X116.757 Y81.235 E0.15502
G1 X117.417 Y81.810 E0.02743
G1 X117.823 Y82.584 E0.02743
G1 X117.929 Y83.267 E0.02166
G1 X117.929 Y96.346 E0.41009
G1 X117.745 Y97.252 E0.02896
G1 X117.286 Y97.961 E0.02649
G1 X116.604 Y98.466 E0.02661
G1 X111.699 Y100.233 E0.16347
G1 X95.185 Y101.096 E0.51849
G1 X89.267 Y101.184 E0.18558
G1 X83.589 Y100.987 E0.17815
G1 X64.242 Y99.470 E0.60845
G1 X63.389 Y99.230 E0.02778
G1 X62.870 Y98.879 E0.01965
G1 X62.463 Y98.408 E0.01953
G1 X62.191 Y97.847 E0.01953
G1 X62.075 Y97.235 E0.01953
G1 X62.072 Y81.442 E0.49520
G1 X62.138 Y80.918 E0.01657
G1 X62.320 Y80.418 E0.01668
G1 X62.636 Y79.938 E0.01799
G1 X63.013 Y79.590 E0.01611
M204 S1250
G1 E-2.24000 F4200.00000
G1 F7200.000
G1 X63.559 Y79.272 E-0.35033
G1 X64.113 Y79.123 E-0.31796
G1 X64.552 Y79.096 E-0.24371
G1 E-0.04800 F4200.00000
G1 Z0.400 F9000.000
G1 X65.613 Y82.557
G1 Z0.200
G1 E3.20000 F2400.00000
M204 S800
G1 F1200.000
G1 X66.285 Y82.508 E0.02114
G1 X68.961 Y82.402 E0.08396
G1 X71.544 Y82.359 E0.08102
G1 X73.958 Y82.355 E0.07567
G1 X77.153 Y82.384 E0.10018
G1 X79.965 Y82.437 E0.08818
G1 X86.553 Y82.628 E0.20666
G1 X94.798 Y82.961 E0.25872
G1 X101.975 Y83.308 E0.22529
G1 X111.102 Y82.657 E0.28690
G1 X114.156 Y83.956 E0.10407
G1 X114.012 Y84.487 E0.01725
G1 X113.840 Y85.287 E0.02566
G1 X113.699 Y86.085 E0.02542
G1 X113.590 Y86.889 E0.02542
G1 X113.512 Y87.696 E0.02542
G1 X113.464 Y88.505 E0.02542
G1 X113.448 Y89.311 E0.02529
G1 X113.467 Y91.368 E0.06449
G1 X113.505 Y92.028 E0.02073
G1 X113.601 Y92.966 E0.02955
G1 X113.697 Y93.597 E0.02003
G1 X113.873 Y94.474 E0.02805
G1 X114.162 Y95.603 E0.03654
G1 X111.067 Y96.735 E0.10332
G1 X107.535 Y96.898 E0.11088
G1 X97.964 Y97.435 E0.30056
G1 X94.984 Y97.560 E0.09350
G1 X91.582 Y97.640 E0.10670
G1 X89.301 Y97.643 E0.07153
G1 X87.101 Y97.600 E0.06899
G1 X84.675 Y97.500 E0.07613
G1 X82.964 Y97.400 E0.05375
G1 X79.085 Y97.111 E0.12194
G1 X69.433 Y96.262 E0.30383
G1 X65.613 Y96.000 E0.12006
G1 X65.613 Y82.617 E0.41963
M204 S1250
G1 X65.235 Y82.206 F9000.000
M204 S800
G1 F1200.000
G1 X66.264 Y82.132 E0.03233
G1 X68.950 Y82.025 E0.08429
G1 X71.541 Y81.982 E0.08124
G1 X73.959 Y81.977 E0.07582
G1 X77.158 Y82.007 E0.10031
G1 X79.974 Y82.060 E0.08830
G1 X86.566 Y82.251 E0.20679
G1 X94.815 Y82.584 E0.25883
G1 X101.970 Y82.930 E0.22463
G1 X111.166 Y82.275 E0.28905
G1 X114.606 Y83.737 E0.11723
G1 X114.378 Y84.576 E0.02725
G1 X114.210 Y85.359 E0.02511
G1 X114.072 Y86.143 E0.02497
G1 X113.965 Y86.932 E0.02497
G1 X113.888 Y87.725 E0.02497
G1 X113.841 Y88.520 E0.02497
G1 X113.825 Y89.314 E0.02489
G1 X113.844 Y91.356 E0.06403
G1 X113.880 Y91.998 E0.02018
G1 X113.976 Y92.918 E0.02900
G1 X114.069 Y93.532 E0.01947
G1 X114.241 Y94.391 E0.02745
G1 X114.612 Y95.840 E0.04693
G1 X111.143 Y97.109 E0.11583
G1 X107.554 Y97.275 E0.11263
G1 X97.982 Y97.812 E0.30059
G1 X94.997 Y97.937 E0.09369
G1 X91.587 Y98.017 E0.10694
G1 X89.297 Y98.020 E0.07179
G1 X87.090 Y97.977 E0.06924
G1 X84.656 Y97.876 E0.07636
G1 X82.939 Y97.777 E0.05395
G1 X79.055 Y97.487 E0.12211
G1 X69.402 Y96.638 E0.30382
G1 X66.629 Y96.436 E0.08720
G1 X65.235 Y96.357 E0.04375
G1 X65.235 Y82.266 E0.44180
M204 S1250
G1 X64.858 Y81.855 F9000.000
M204 S800
G1 F1200.000
G1 X66.243 Y81.755 E0.04352
G1 X68.939 Y81.648 E0.08462
G1 X71.537 Y81.605 E0.08146
G1 X73.960 Y81.600 E0.07598
G1 X77.163 Y81.630 E0.10043
G1 X79.983 Y81.683 E0.08842
G1 X86.579 Y81.875 E0.20692
G1 X94.831 Y82.207 E0.25895
G1 X101.966 Y82.552 E0.22397
G1 X111.230 Y81.892 E0.29119
G1 X115.057 Y83.519 E0.13039
G1 X114.745 Y84.665 E0.03724
G1 X114.580 Y85.431 E0.02457
G1 X114.445 Y86.201 E0.02452
G1 X114.339 Y86.976 E0.02452
G1 X114.264 Y87.754 E0.02452
G1 X114.218 Y88.535 E0.02452
G1 X114.202 Y89.316 E0.02449
G1 X114.221 Y91.343 E0.06358
G1 X114.256 Y91.968 E0.01962
G1 X114.350 Y92.870 E0.02845
G1 X114.440 Y93.467 E0.01891
G1 X114.608 Y94.307 E0.02686
G1 X115.062 Y96.077 E0.05732
G1 X111.218 Y97.483 E0.12834
G1 X107.573 Y97.652 E0.11439
G1 X98.001 Y98.188 E0.30061
G1 X95.009 Y98.314 E0.09389
G1 X91.592 Y98.394 E0.10718
G1 X89.294 Y98.397 E0.07204
G1 X87.078 Y98.354 E0.06950
G1 X84.638 Y98.253 E0.07658
G1 X82.914 Y98.153 E0.05414
G1 X79.024 Y97.863 E0.12229
G1 X69.372 Y97.014 E0.30381
G1 X66.604 Y96.812 E0.08702
G1 X64.858 Y96.713 E0.05483
G1 X64.858 Y81.915 E0.46397
M204 S1250
G1 X65.221 Y82.024 F9000.000
G1 E-2.24000 F4200.00000
G1 F7200.000
G1 X66.243 Y81.755 E-0.77231
G1 X66.495 Y81.745 E-0.13969
G1 E-0.04800 F4200.00000
G1 Z0.400 F9000.000
G1 X113.864 Y84.637
G1 Z0.200
G1 E3.20000 F2400.00000
M204 S800
G1 F1200.000
G1 X112.997 Y83.770 E0.03878
G1 X112.061 Y83.372 E0.03215
G1 X113.626 Y84.937 E0.06997
G1 X113.535 Y85.384 E0.01444
G1 X111.125 Y82.975 E0.10777
G1 X111.054 Y82.944 E0.00246
G1 X110.590 Y82.977 E0.01470
G1 X113.455 Y85.842 E0.12812
G1 X113.384 Y86.308 E0.01492
G1 X110.088 Y83.013 E0.14738
G1 X109.586 Y83.049 E0.01592
G1 X113.319 Y86.782 E0.16695
G1 X113.269 Y87.269 E0.01550
G1 X109.084 Y83.085 E0.18716
G1 X108.582 Y83.120 E0.01592
G1 X113.224 Y87.763 E0.20762
G1 X113.195 Y88.271 E0.01609
G1 X108.080 Y83.156 E0.22874
G1 X107.578 Y83.192 E0.01592
G1 X113.176 Y88.790 E0.25034
G1 X113.165 Y89.317 E0.01668
G1 X107.076 Y83.228 E0.27233
G1 X106.574 Y83.264 E0.01592
G1 X113.170 Y89.860 E0.29500
G1 X113.175 Y90.403 E0.01717
G1 X106.072 Y83.299 E0.31768
G1 X105.570 Y83.335 E0.01592
G1 X113.180 Y90.946 E0.34035
G1 X113.191 Y91.494 E0.01735
G1 X105.068 Y83.371 E0.36328
G1 X104.566 Y83.407 E0.01592
G1 X113.224 Y92.065 E0.38723
G1 X113.286 Y92.665 E0.01907
G1 X104.064 Y83.443 E0.41245
G1 X103.561 Y83.478 E0.01592
G1 X113.363 Y93.280 E0.43834
G1 X113.475 Y93.930 E0.02087
G1 X103.059 Y83.514 E0.46582
G1 X102.557 Y83.550 E0.01592
G1 X113.615 Y94.608 E0.49452
G1 X113.800 Y95.331 E0.02361
G1 X102.055 Y83.586 E0.52527
G1 X101.500 Y83.568 E0.01757
G1 X113.483 Y95.551 E0.53590
G1 X113.089 Y95.695 E0.01326
G1 X100.935 Y83.541 E0.54356
G1 X100.370 Y83.513 E0.01789
G1 X112.695 Y95.839 E0.55122
G1 X112.301 Y95.983 E0.01326
G1 X99.804 Y83.486 E0.55888
G1 X99.239 Y83.459 E0.01789
G1 X111.907 Y96.127 E0.56654
G1 X111.513 Y96.271 E0.01326
G1 X98.674 Y83.431 E0.57420
G1 X98.109 Y83.404 E0.01789
G1 X111.119 Y96.415 E0.58187
G1 X111.011 Y96.454 E0.00365
G1 X110.638 Y96.472 E0.01179
G1 X97.544 Y83.377 E0.58563
G1 X96.978 Y83.349 E0.01789
G1 X110.124 Y96.495 E0.58792
G1 X109.610 Y96.519 E0.01627
G1 X96.413 Y83.322 E0.59020
G1 X95.848 Y83.295 E0.01789
G1 X109.096 Y96.543 E0.59249
G1 X108.582 Y96.567 E0.01627
G1 X95.283 Y83.267 E0.59478
G1 X94.718 Y83.241 E0.01788
G1 X108.068 Y96.591 E0.59704
G1 X107.554 Y96.614 E0.01627
G1 X94.158 Y83.218 E0.59911
G1 X93.597 Y83.195 E0.01774
G1 X107.045 Y96.643 E0.60139
G1 X106.535 Y96.671 E0.01613
G1 X93.037 Y83.173 E0.60367
G1 X92.476 Y83.150 E0.01774
G1 X106.026 Y96.700 E0.60596
M73 P5 R19
G1 X105.517 Y96.728 E0.01613
G1 X91.916 Y83.128 E0.60825
G1 X91.356 Y83.105 E0.01774
G1 X105.007 Y96.757 E0.61054
G1 X104.498 Y96.785 E0.01613
G1 X90.795 Y83.082 E0.61283
G1 X90.235 Y83.060 E0.01774
G1 X103.989 Y96.814 E0.61512
G1 X103.479 Y96.843 E0.01613
G1 X89.674 Y83.037 E0.61740
G1 X89.114 Y83.015 E0.01774
G1 X102.970 Y96.871 E0.61969
G1 X102.461 Y96.900 E0.01613
G1 X88.553 Y82.992 E0.62198
G1 X87.993 Y82.969 E0.01774
G1 X101.952 Y96.928 E0.62427
G1 X101.442 Y96.957 E0.01613
G1 X87.432 Y82.947 E0.62656
G1 X86.872 Y82.924 E0.01774
G1 X100.933 Y96.985 E0.62884
G1 X100.424 Y97.014 E0.01613
G1 X86.314 Y82.904 E0.63101
G1 X85.760 Y82.888 E0.01753
G1 X99.914 Y97.042 E0.63301
G1 X99.405 Y97.071 E0.01613
G1 X85.206 Y82.872 E0.63501
G1 X84.652 Y82.856 E0.01753
G1 X98.896 Y97.100 E0.63700
G1 X98.387 Y97.128 E0.01613
G1 X84.098 Y82.840 E0.63900
G1 X83.544 Y82.824 E0.01753
G1 X97.876 Y97.156 E0.64095
G1 X97.360 Y97.177 E0.01634
G1 X82.990 Y82.808 E0.64264
G1 X82.437 Y82.792 E0.01753
G1 X96.844 Y97.199 E0.64433
G1 X96.328 Y97.221 E0.01634
G1 X81.883 Y82.775 E0.64601
G1 X81.329 Y82.759 E0.01753
G1 X95.811 Y97.242 E0.64770
G1 X95.295 Y97.264 E0.01634
G1 X80.775 Y82.743 E0.64939
G1 X80.221 Y82.727 E0.01753
G1 X94.775 Y97.282 E0.65092
G1 X94.250 Y97.294 E0.01662
G1 X79.670 Y82.714 E0.65205
G1 X79.122 Y82.704 E0.01734
G1 X93.724 Y97.306 E0.65306
G1 X93.199 Y97.319 E0.01662
G1 X78.574 Y82.694 E0.65407
G1 X78.026 Y82.683 E0.01734
G1 X92.673 Y97.331 E0.65508
G1 X92.148 Y97.343 E0.01662
G1 X77.477 Y82.673 E0.65609
G1 X76.931 Y82.665 E0.01727
G1 X91.622 Y97.356 E0.65700
G1 X91.086 Y97.358 E0.01695
G1 X76.389 Y82.660 E0.65731
G1 X75.846 Y82.655 E0.01717
G1 X90.549 Y97.358 E0.65757
G1 X90.012 Y97.359 E0.01698
G1 X75.303 Y82.650 E0.65784
G1 X74.760 Y82.645 E0.01717
G1 X89.475 Y97.360 E0.65810
G1 X88.930 Y97.353 E0.01723
G1 X74.217 Y82.640 E0.65801
G1 X73.677 Y82.638 E0.01707
G1 X88.382 Y97.342 E0.65762
G1 X87.833 Y97.332 E0.01735
G1 X73.140 Y82.639 E0.65710
G1 X72.603 Y82.640 E0.01698
G1 X87.285 Y97.321 E0.65658
G1 X87.110 Y97.318 E0.00554
G1 X86.728 Y97.302 E0.01209
G1 X72.067 Y82.641 E0.65568
G1 X71.530 Y82.642 E0.01697
G1 X86.167 Y97.279 E0.65458
G1 X85.605 Y97.255 E0.01776
G1 X71.001 Y82.651 E0.65315
G1 X70.472 Y82.660 E0.01673
G1 X85.044 Y97.232 E0.65171
G1 X84.480 Y97.205 E0.01788
G1 X69.943 Y82.668 E0.65012
G1 X69.414 Y82.677 E0.01673
G1 X83.909 Y97.172 E0.64824
G1 X83.338 Y97.139 E0.01809
G1 X68.887 Y82.688 E0.64628
G1 X68.369 Y82.708 E0.01637
G1 X82.763 Y97.102 E0.64371
G1 X82.181 Y97.058 E0.01843
G1 X67.852 Y82.729 E0.64085
G1 X67.335 Y82.750 E0.01637
G1 X81.600 Y97.015 E0.63799
G1 X81.019 Y96.972 E0.01843
G1 X66.817 Y82.770 E0.63513
G1 X66.300 Y82.791 E0.01637
G1 X80.438 Y96.928 E0.63227
G1 X79.857 Y96.885 E0.01843
G1 X65.895 Y82.924 E0.62438
G1 X65.895 Y83.462 E0.01701
G1 X79.275 Y96.842 E0.59839
G1 X78.688 Y96.792 E0.01864
G1 X65.895 Y83.999 E0.57212
G1 X65.895 Y84.537 E0.01701
G1 X78.098 Y96.740 E0.54575
G1 X77.509 Y96.688 E0.01872
G1 X65.895 Y85.075 E0.51938
G1 X65.895 Y85.613 E0.01701
G1 X76.919 Y96.637 E0.49300
G1 X76.329 Y96.585 E0.01872
G1 X65.895 Y86.151 E0.46663
G1 X65.895 Y86.689 E0.01701
G1 X75.740 Y96.533 E0.44026
G1 X75.150 Y96.481 E0.01872
G1 X65.895 Y87.226 E0.41388
G1 X65.895 Y87.764 E0.01701
G1 X74.560 Y96.429 E0.38751
G1 X73.970 Y96.377 E0.01872
G1 X65.895 Y88.302 E0.36114
G1 X65.895 Y88.840 E0.01701
G1 X73.381 Y96.325 E0.33476
M73 P10 R18
G1 X72.791 Y96.274 E0.01872
G1 X65.895 Y89.378 E0.30839
G1 X65.895 Y89.916 E0.01701
G1 X72.201 Y96.222 E0.28202
G1 X71.612 Y96.170 E0.01872
G1 X65.895 Y90.454 E0.25564
G1 X65.895 Y90.991 E0.01701
G1 X71.022 Y96.118 E0.22927
G1 X70.432 Y96.066 E0.01872
G1 X65.895 Y91.529 E0.20290
G1 X65.895 Y92.067 E0.01701
G1 X69.842 Y96.014 E0.17652
G1 X69.257 Y95.967 E0.01858
G1 X65.895 Y92.605 E0.15034
G1 X65.895 Y93.143 E0.01701
G1 X68.680 Y95.927 E0.12452
G1 X68.102 Y95.887 E0.01830
G1 X65.895 Y93.681 E0.09869
G1 X65.895 Y94.218 E0.01701
G1 X67.525 Y95.848 E0.07287
G1 X66.947 Y95.808 E0.01830
G1 X65.895 Y94.756 E0.04705
G1 X65.895 Y95.294 E0.01701
G1 X66.553 Y95.951 E0.02939
M204 S1250
M106 S255
;BEFORE_LAYER_CHANGE
G92 E0.0
;0.3


G1 Z0.300 F9000.000
;AFTER_LAYER_CHANGE
;0.3
G1 E-3.20000 F4200.00000
G1 Z0.500 F9000.000
G1 X63.389 Y99.230
G1 Z0.300
G1 E3.20000 F2400.00000
G1 X62.870 Y98.879 E0.01038
G1 X62.463 Y98.408 E0.01032
G1 X62.191 Y97.847 E0.01032
G1 X62.075 Y97.235 E0.01032
G1 X62.072 Y81.442 E0.26169
G1 X62.138 Y80.918 E0.00875
G1 X62.320 Y80.418 E0.00882
G1 X62.636 Y79.938 E0.00951
G1 X63.057 Y79.549 E0.00951
G1 X63.559 Y79.272 E0.00951
G1 X64.113 Y79.123 E0.00951
G1 X68.096 Y78.884 E0.06612
G1 X73.543 Y78.812 E0.09026
G1 X111.329 Y79.099 E0.62610
G1 X112.215 Y79.282 E0.01499
G1 X116.757 Y81.235 E0.08192
G1 X117.417 Y81.810 E0.01450
G1 X117.823 Y82.584 E0.01450
G1 X117.929 Y83.267 E0.01145
G1 X117.929 Y96.346 E0.21672
G1 X117.745 Y97.252 E0.01530
G1 X117.286 Y97.961 E0.01400
G1 X116.604 Y98.466 E0.01406
G1 X111.699 Y100.233 E0.08639
G1 X95.185 Y101.096 E0.27400
G1 X89.267 Y101.184 E0.09807
G1 X83.589 Y100.987 E0.09414
G1 X64.242 Y99.470 E0.32154
G1 X63.447 Y99.246 E0.01369
G1 E-2.24000 F4200.00000
G1 F7200.000
G1 X62.870 Y98.879 E-0.37898
G1 X62.463 Y98.408 E-0.34518
G1 X62.315 Y98.103 E-0.18784
G1 E-0.04800 F4200.00000
G1 Z0.500 F9000.000
G1 X65.530 Y96.079
G1 Z0.300
G1 E3.20000 F2400.00000
M204 S800
G1 X65.530 Y82.481 E0.24225
G1 X66.283 Y82.426 E0.01344
G1 X68.210 Y82.342 E0.03437
G1 X70.620 Y82.287 E0.04294
G1 X73.584 Y82.271 E0.05280
G1 X77.115 Y82.302 E0.06292
G1 X79.838 Y82.352 E0.04853
G1 X86.482 Y82.544 E0.11841
G1 X94.741 Y82.876 E0.14727
G1 X101.974 Y83.226 E0.12901
G1 X111.116 Y82.574 E0.16330
G1 X114.246 Y83.905 E0.06059
G1 X114.090 Y84.513 E0.01118
G1 X113.920 Y85.302 E0.01439
G1 X113.781 Y86.098 E0.01439
G1 X113.672 Y86.898 E0.01439
G1 X113.593 Y87.702 E0.01439
G1 X113.546 Y88.508 E0.01439
G1 X113.530 Y89.311 E0.01430
G1 X113.549 Y91.364 E0.03658
G1 X113.587 Y92.025 E0.01180
G1 X113.683 Y92.955 E0.01665
G1 X113.780 Y93.594 E0.01152
G1 X113.952 Y94.455 E0.01564
G1 X114.260 Y95.655 E0.02208
G1 X111.083 Y96.817 E0.06028
G1 X107.540 Y96.980 E0.06319
G1 X97.968 Y97.517 E0.17080
G1 X94.986 Y97.642 E0.05317
G1 X92.391 Y97.710 E0.04625
G1 X90.042 Y97.729 E0.04186
G1 X87.849 Y97.703 E0.03907
G1 X85.544 Y97.624 E0.04109
G1 X83.749 Y97.531 E0.03203
G1 X81.256 Y97.364 E0.04451
G1 X79.081 Y97.193 E0.03888
G1 X69.409 Y96.342 E0.17298
G1 X66.647 Y96.141 E0.04933
G1 X65.590 Y96.082 E0.01886
M204 S1250
G1 X65.102 Y96.484 F9000.000
M204 S800
G1 F2400.000
G1 X65.102 Y82.083 E0.25657
G1 X66.258 Y81.998 E0.02065
G1 X68.196 Y81.914 E0.03457
G1 X70.614 Y81.859 E0.04309
G1 X73.584 Y81.842 E0.05292
G1 X77.121 Y81.873 E0.06301
G1 X79.849 Y81.924 E0.04861
G1 X86.497 Y82.115 E0.11850
G1 X94.760 Y82.448 E0.14735
G1 X101.969 Y82.796 E0.12858
G1 X111.188 Y82.139 E0.16468
G1 X114.759 Y83.657 E0.06913
G1 X114.507 Y84.611 E0.01757
G1 X114.341 Y85.384 E0.01410
G1 X114.204 Y86.164 E0.01410
G1 X114.097 Y86.948 E0.01410
G1 X114.021 Y87.735 E0.01410
G1 X113.974 Y88.525 E0.01410
G1 X113.959 Y89.313 E0.01404
G1 X113.977 Y91.350 E0.03629
G1 X114.014 Y91.991 E0.01144
G1 X114.108 Y92.900 E0.01629
G1 X114.202 Y93.520 E0.01116
G1 X114.370 Y94.359 E0.01526
G1 X114.772 Y95.924 E0.02879
G1 X111.168 Y97.242 E0.06836
G1 X107.561 Y97.408 E0.06433
G1 X97.989 Y97.945 E0.17082
G1 X95.001 Y98.070 E0.05329
G1 X92.398 Y98.139 E0.04638
G1 X90.041 Y98.158 E0.04200
G1 X87.839 Y98.131 E0.03923
G1 X85.526 Y98.052 E0.04124
G1 X83.723 Y97.959 E0.03216
G1 X81.225 Y97.792 E0.04461
G1 X79.045 Y97.620 E0.03896
